/* XPM */
static char *comp_delay_mono[] = {
/* columns rows colors chars-per-pixel */
"256 256 69 1 ",
"  c #050506",
". c #060708",
"X c #080709",
"o c #06090B",
"O c #0A0A0C",
"+ c #0D0E11",
"@ c #0F1013",
"# c #111215",
"$ c #15161A",
"% c #17181D",
"& c #18191F",
"* c #1B1C22",
"= c #1F2027",
"- c #1F2128",
"; c #18282F",
": c #172D34",
"> c #182B32",
", c #1C343D",
"< c #202127",
"1 c #22242B",
"2 c #26282F",
"3 c #262730",
"4 c #272831",
"5 c #292B34",
"6 c #2D2F3A",
"7 c #2E303B",
"8 c #31323D",
"9 c #1C3A44",
"0 c #343642",
"q c #363845",
"w c #383A46",
"e c #373A48",
"r c #3C3E4B",
"t c #1C4651",
"y c #1D4854",
"u c #1D515E",
"i c #3E404F",
"p c #3E4151",
"a c #1D5D6C",
"s c #1D606E",
"d c #1E6372",
"f c #1E6E7F",
"g c #40424F",
"h c #424454",
"j c #464857",
"k c #444758",
"l c #46495B",
"z c #4A4C5D",
"x c #4D505F",
"c c #4A4E61",
"v c #4E5163",
"b c #4F5368",
"n c #515465",
"m c #535569",
"M c #56596B",
"N c #595C6E",
"B c #555970",
"V c #5B5E72",
"C c #5E6174",
"Z c #606377",
"A c #626579",
"S c #65697E",
"D c #686A7F",
"F c #676B80",
"G c #696C82",
"H c #6F7389",
"J c #71758B",
"K c #767A92",
"L c #7D819B",
/* pixels */
"****************************************************************************************************************************************************************************************************************************************************************",
"****************************************************************************************************************************************************************************************************************************************************************",
"****************************************************************************************************************************************************************************************************************************************************************",
"****************************************************************************************************************************************************************************************************************************************************************",
"****************************************************************************************************************************************************************************************************************************************************************",
"****************************************************************************************************************************************************************************************************************************************************************",
"****************************************************************************************************************************************************************************************************************************************************************",
"****************************************************************************************************************************************************************************************************************************************************************",
"****************************************************************************************************************************************************************************************************************************************************************",
"****************************************************************************************************************************************************************************************************************************************************************",
"****************************************************************************************************************************************************************************************************************************************************************",
"****************************************************************************************************************************************************************************************************************************************************************",
"****************************************************************************************************************************************************************************************************************************************************************",
"****************************************************************************************************************************************************************************************************************************************************************",
"****************************************************************************************************************************************************************************************************************************************************************",
"****************************************************************************************************************************************************************************************************************************************************************",
"****************************************************************************************************************************************************************************************************************************************************************",
"****************************************************************************************************************************************************************************************************************************************************************",
"****************************************************************************************************************************************************************************************************************************************************************",
"****************************************************************************************************************************************************************************************************************************************************************",
"****************************************************************************************************************************************************************************************************************************************************************",
"****************************************************************************************************************************************************************************************************************************************************************",
"****************************************************************************************************************************************************************************************************************************************************************",
"****************************************************************************************************************************************************************************************************************************************************************",
"****************************************************************************************************************************************************************************************************************************************************************",
"****************************************************************************************************************************************************************************************************************************************************************",
"****************************************************************************************************************************************************************************************************************************************************************",
"****************************************************************************************************************************************************************************************************************************************************************",
"****************************************************************************************************************************************************************************************************************************************************************",
"****************************************************************************************************************************************************************************************************************************************************************",
"*******************************************************************************************************************************************************************************************************************************&********************************",
"******************************************************************************************************************************************************************************************************************&&&&*********j8*******************************",
"*********************************************************************************************************************************&*******************************************************************************4jnvh3********Ch-*************501**************",
"********************************************************************************************************************************9u;*****************************************************************************1nmjjz5***&&***Ci-**&&*****&&&%rj2&*******&&****",
"*******************************************************************************************************************************9dy-*****************************************************************************6G8*=5=**wcz0**Ci-*0zvw=**8zvhrVSNh1***qqqzz8**8",
"******************************************************************************************************************************9dy-******************************************************************************5Gq*****rMlzV8*Ci=qmzzNq*0MvjhqNCzq1**&zZzjnM0%h",
"*****************************************************************************************************************************9dy-*******************************************************************************<vCh6**<Cr*=nz1Ci1Nh<*zv4Mv4*1*zv4****&lAw*5Mx*i",
"****************************************************************************************************************************=uf;*********************************************************************************4hmNh<5GnzzCC2Ci5SMzzVZ0Zw***&zv4****&zm5**lM2i",
"*****************************************************************************************************************************,au-**********************************************************************************7jAw0Gzlllp<Ci8Snlllh8A0***&zv4****&zn4*&jM3g",
"******************************************************************************************************************************,su-***********************************************************************************Nz7G7*****Ci5Sq****2Aw***&zv4****&zM5**zm1h",
"*******************************************************************************************************************************,su;*****************************************************************************15<*5Ch1Cz3*12*Ci1Mn5*13=Mn5*2*jM6****&lSi*6Nz*h",
"********************************************************************************************************************************,t;*****************************************************************************7vvvnn5*qNnvvq=Ch=8Mmvve-8mmvz48NMi1**&lZnzMm7%h",
"*********************************************************************************************************************************&******************************************************************************2rjji5***8hjh5*r6**7hjh6**8hjr1*0jw1**&znrjh7**7",
"*****************************************************************************************************************************************************************************************************************&&&&*****&&&**&****&&&****&&&***&****&zn2%&****",
"******************************************************************************************************************************************************************************************************************************************************&zn3******",
"******************************************************************************************************************************************************************************************************************************************************&zn4******",
"*******************************************************************************************************************************************************************************************************************************************************0w1******",
"****************************************************************************************************************************************************************************************************************************************************************",
"****************************************************************************************************************************************************************************************************************************************************************",
"****************************************************************************************************************************************************************************************************************************************************************",
"****************************************************************************************************************************************************************************************************************************************************************",
"****************************************************************************************************************************************************************************************************************************************************************",
"4444444444444444444444444444444444444444444444444444444444444444444444444444444444444444444444444444444444444444444444444444444444444444444444444444444444444444444444444444444444444444444444444444444444444444444444444444444444444444444444444444444444444444",
"rrrrrrrrrrrrrrrrrrrrrrrrrrrrrrrrrrrrrrrrrrrrrrrrrrrrrrrrrrrrrrrrrrrrrrrrrrrrrrrrrrrrrrrrrrrrrrrrrrrrrrrrrrrrrrrrrrrrrrrrrrrrrrrrrrrrrrrrrrrrrrrrrrrrrrrrrrrrrrrrrrrrrrrrrrrrrrrrrrrrrrrrrrrrrrrrrrrrrrrrrrrrrrrrrrrrrrrrrrrrrrrrrrrrrrrrrrrrrrrrrrrrrrrrrrrrrrrr",
"8888888888888888888888888888888888888888888888888888888888888888888888888888888888888888888888888888888888888888888888888888888888888888888888888888888888888888888888888888888888888888888888888888888888888888888888888888888888888888888888888888888888888888",
"****************************************************************************************************************************************************************************************************************************************************************",
"****************************************************************************************************************************************************************************************************************************************************************",
"****************************************************************************************************************************************************************************************************************************************************************",
"<<<<<<<<<<<<<<<<<<<<<<<<<<<<<<<<<<<<<<<<<<<<<<<<<<<<<<<<<<<<<<<<<<<<<<<<<<<<<<<<<<<<<<<<<<<<<<<<<<<<<<<<<<<<<<<<<<<<<<<<<<<<<<<<<<<<<<<<<<<<<<<<<<<<<<<<<<<<<<<<<<<<<<<<<<<<<<<<<<<<<<<<<<<<<<<<<<<<<<<<<<<<<<<<<<<<<<<<<<<<<<-************122222222222222222222",
"777777777777777777777777777777777777777777777777777777777777777777777777777777777777777777777777777777777777777777777777777777777777777777777777777777777777777777777777777777777777777777777777777777777777777777777777777776543<*********8rrrrrrrrrrrrrrrrrrrr",
"66666666666666666666666666555555555555555555555555555555555555555555555555555555555555555555555555555555555555555555555555555555555555555555555555555555555555555555555555555555555555555555555555555555555555555555555555555555662********8rrrrrrrrrrrrrrrrrrrr",
"66666666666666666666666665*****************************************************************************************************************************************************************************************************14564*******8rrrrrrrrrrrrrrrrrrrr",
"66666666666666666666666665*******************************************************************************************************************************************************************************************************<564******8rrrrrrrrrrrrrrrrrrrr",
"66666666666666666666666665*********************************************************************************************************************************************************************************************************562*****8rrrrrrwwwwwrhhrrrrrr",
"66666666666666666666666665*********************************************************************************************************************************************************************************************************=55=****8rrrrrjzzzzzhMnwrrrrr",
"66666666666666666666666665**********************************************************************************************************************************************************************************************************361****8rrrrwNHKLKJMrwrrrrwr",
"07670ee060eq86666666666665**********************************************************************************************************************************************************************************************************<55****8rrrrrrwzDvwrjhrhjjzh",
"ve6qcMmp0zMmk8666666666665***********************************************************************************************************************************************************************************************************55****8rrrrrrwzFnwrGCwZHDKF",
"vl6zv878kv8evp666666666665***********************************************************************************************************************************************************************************************************57-***8rrrrrrwzFnwrGCwSJjlJ",
"cz0ch660cc0rcl666666666664***********************************************************************************************************************************************************************************************************57-***8rrrrrrwzFnwrGCwSAwhS",
"zzech660vVMMmh666666666662***********************************************************************************************************************************************************************************************************57-***8rrrrrrwzFnwrGCwSZwhA",
"zz0ck660zl6667666666666661***********************************************************************************************************************************************************************************************************57-***8rrrrrrwzFnwrGCwSZwhA",
"cz7kvre0hvrqq066666666665************************************************************************************************************************************************************************************************************57-***8rrrrrrwzFnwrGCwSZwhA",
"lk60lMMh7hMBcq66666666663************************************************************************************************************************************************************************************************************57-***8rrrrrrwzZzwrANwCVwhC",
"666666666666666666666665*************************************************************************************************************************************************************************************************************57-***8rrrrrrrrrrrrrrrrrrrr",
"66666666666666666666665<*************************************************************************************************************************************************************************************************************57-***8rrrrrrrrrrrrrrrrrrrr",
"6666666666666666666665<**************************************************************************************************************************************************************************************************************57-***8rrrrrrrrrrrrrrrrrrrr",
"666666666666666666664-***************************************************************************************************************************************************************************************************************57-***8rrrrrrrrrrrrrrrrrrrr",
"6666666666666665542<*****************************************************************************************************************************************************************************************************************57-***8rwwwwwwwwwwwwwwwwwww",
"*************************************************************************************************************************************************************************************************************************************57-***8r2******************",
"*************************************************************************************************************************************************************************************************************************************57-***8r2******************",
"*************************************************************************************************************************************************************************************************************************************57-***8r2******************",
"*************************************************************************************************************************************************************************************************************************************57-***8r2******************",
"*************************************************************************************************************************************************************************************************************************************57-***8r2******************",
"*************************************************************************************************************************************************************************************************************************************57-***8r2******************",
"*************************************************************************************************************************************************************************************************************************************57-***8r2******************",
"*************************************************************************************************************************************************************************************************************************************57-***8r2******************",
"*************************************************************************************************************************************************************************************************************************************57-***8r2******************",
"*************************************************************************************************************************************************************************************************************************************57-***8r2******************",
"*************************************************************************************************************************************************************************************************************************************57-***8r2******************",
"*************************************************************************************************************************************************************************************************************************************57-***8r2******************",
"*************************************************************************************************************************************************************************************************************************************57-***8r2******************",
"*************************************************************************************************************************************************************************************************************************************57-***8r2******************",
"*************************************************************************************************************************************************************************************************************************************57-***8r2******************",
"******************************************************************************************70*****************************************************************************************************************************************57-***8r2******************",
"0z7***4hr=******<4*************************************************5pzze1*************12***=*******************5*****************************rlzczz5*****************************************-4**************************************57-***8r2******************",
"ebq***8vr<******5r************************************************6h0245-*************00**********************2p=****************************<10h51******************************************4i**************************************57-***8r2******************",
"ele4*-0zr<=0lk62kbl0*7lk0*3p8h61rlk8******************************hq<****1elp4*qerze<5lvl70e&7prze6plq***7lk01pnle*5klq*1h7k7<rll0*************6p1**1rlp1*eehl80kk6**0rrlq<*-0lh6*6rqp41elk01hble5h**1k*1h7k6*5hle*******************57-***8r2******************",
"ere8&5qpr=7h57r50l2-5k66p65ve118p233*****************************1l5*****re4ee1ik55h0*rp1*er&0z66hh56p6*5k66p66c312k75p71vr2<6p334*************6p1**pq3rq1hh50lr3qr3*rk55p0*0p58r40c01*<537h46z316l**2c*2ve1=1k74p8******************57-***8r2******************",
"eqqe*0q0r2ee*1e06k**0p*<qe5c2**7l2*******************************4k4****1h6*5i5pe**re&er**er&qh*-ep*1e0*0p*-qe3z**7h**0r2v4**5l5***************6p1*2k5*5p4k0*1k8*5r5*ir**er2eq*1r00k1*****3r65l**6l**2c*2v3**6k**8p******************57-***8r2******************",
"eq6e5q88r4ivllcq6k*<ebllcr5z***<0kr1*****************************2l5****4lclzz6p0*&re*er**er&qp&=qr&1qq=ebllcr3z**qbllzh2c***=0hp1*************6p1*5zzlzz5k7*1h6&4r6*iq**0r6pvlzc00p***1rkzl65l**6l**3c*2c***0bllzk******************57-***8r2******************",
"eq1epq30r3er132=7k*-qp13215l****=4er******************************l8****3h0221*p0*&re*er**er&qp&=qr&1qq=qh232<4z**8k23211c*****2ep*************6p1*4k7221*k6*1h6&4r6*ie*&0r5rr132-0p&*<qp46p65l**6l**5c*2c***7k3321******************57-***8r2******************",
"ee*0vq*0r<0h<***6k1*6k1**<5l***1**8k******************************qk5****pq****p0*&re*qr-*er&qp&=qr&1qq*6k1***3l1*5l2**<1c***1=*6l*************6p1**k8**=*k6*1h6&4r6*ik2<pe*qp<***0p&*1re*6k65l1*5z1=rc*2c***2z4**<******************57-***8r2******************",
"ee*6k8&0p<1eklr31pl0<qklp55z***7klh6******************************-qkll0-5rllq1p0*&re*5hk6ei&qp&=qr&1qq*<qklp5<rle*0klh62v***5klk7*************6p1**5plk0<k7*1h6&4r6*rkplr3*2eklr20p&**7lkpr61rlq<rlhrl*2c****8hlh6******************57-***8r2******************",
"11**1-*<1**<342**141*-342=*2***<442********************************-2441**1441*1<**11**14<11*<1**11**11**-342=*141*=343-*3***=343**************=1****1441*1=**1=**1=*re141***1441*<1****341<=*141*<4311**3*****243<******************57-***8r2******************",
"*********************************************************************************************************************************************************************iq&*************************************************************57-***8r2******************",
"*********************************************************************************************************************************************************************pq**************************************************************57-***8r2******************",
"*********************************************************************************************************************************************************************11**************************************************************57-***8r2******************",
"*************************************************************************************************************************************************************************************************************************************57-***8r2******************",
"*************************************************************************************************************************************************************************************************************************************57-***8r2******************",
"*************************************************************************************************************************************************************************************************************************************57-***8r2******************",
"*************************************************************************************************************************************************************************************************************************************57-***8r2******************",
"*************************************************************************************************************************************************************************************************************************************57-***8r2******************",
"*************************************************************************************************************************************************************************************************************************************57-***8r2******************",
"**************1566358641*********************************************************************256635864<*********************************************************************256650re81***********************************************57-***8r2******************",
"**********<5546rrw68irq5561**************************************************************<5547rrq60ir05561**************************************************************15548rrq7hnnj88q2&*******************************************57-***8r2******************",
"*********5qrw55piw68iiw50rq7=***********************************************************6qrw56piw50iiq5qrq6=***********************************************************5qrq47piq7hmmj8jvjq<******************************************57-***8r2******************",
"*******445iirqqiiw68iir0riiq14=*******************************************************768hirqqiiw50iie0rii013********************************************************526iir0wiiq7hmmzhvmmh46<****************************************57-***8r2******************",
"*****<6e84qiiiiipe68hiiriir64w82****************************************************2qzi7riiiiihw60hiiriir55w82****************************************************16r85qiiiiihq7hmmnnmmz00zr5***************************************57-***8r2******************",
"****=7rir65rirw8641368qriiq2wiiq3**************************************************1rvmvq8hrrq8641468qrii02wiiq2**************************************************<8rir56rirq86427qrjvmmh6zmnj5**************************************57-***8r2******************",
"***<<6rii057841<*****<147066iiiw21************************************************11wnnmh80841<*****<147857iiiw21************************************************<<7rii058741<*****147ri0rmnnj63*************************************57-***8r2******************",
"**<7848iir6=<*%$@++++#$**<1qiir6601**********************************************1rr6hmmv0<<*%$@++++#$**<1wiir6601**********************************************18740iir5--*%$+++++#$*<15zmmzwep1************************************57-***8r2******************",
"**6ri0qiw81*%+OX. .  .XO#**5qir0ri0=*********************************************qvnhlnzr2*%+OX.    .XO#**5wir0rr0**********************************************6rr0wrw71*$+OX     .XO#*<0zmvkzh8************************************57-***8r2******************",
"*2wiiipe5*%#X .oO+++OOX .+$*20iiiir7********************************************6zmnmmz0=$#X  oO+++OOX .+$*20iiiir6********************************************4eiiipw5*%@X .OO+++OOX .+$*6hmzhir6***********************************57-***8r2******************",
"*16rpir6*%+  O##$%%%%$#+X o#*1qiir05=******************************************<5ecmmz0=$+   o@$%%%$$#+X O$*1wiir05*******************************************=17riie5*$O .O##$%%%$$#+X O$*5hhir85***********************************57-***8r2******************",
"58568w8*$O.X+#%**<11<**%#O .#*4eq5567******************************************0r00rze=$O.Xoo+$*<11<**%#O X$*4r05567******************************************67568e6*$O.X+$%**<11<**%#O .$*5r05566**********************************57-***8r2******************",
"0ie8541%O O#$*=11224421<*$+..$*5450rr1****************************************1hmzr871%O O###$%=224421<&$+ X%*5450rr1****************************************<0iw754<%O O#$*=11224421<&@. X%=546qie1*********************************57-***8r2******************",
"wiii01*# X@$*<12222444541*$+ O&*5riir8****************************************6zmmmh2*# X@$**$%*22444541*$O O&*5riir8****************************************4eiii8<*@ O#$*<1222244552*@o  O**5riir7*********************************57-***8r2******************",
"qriiq1$O +$*<1112224445541*#O #*5iiir0****************************************7lnmmh3$X +$*1=&%&<44445541*#O #*5iiir0****************************************5wrii01$X.+$*<1122224442<&#+o .#*5iiir0*********************************57-***8r2******************",
"50ir6*+ O#&=11112223444554<%@XX*-rir65=**************************************<78hnn0*+ O#&<11*$%*24444554<%@XO*<rir65***************************************=450ir5*+ O#&<1111222441**%%$$+.O*1rir55*********************************57-***8r2******************",
"80iw3%O +$*1111122224444552*$O $*8ir685**************************************6hrknl5%O +$*111-&%&<44444552*#O $=8ir684**************************************407qiq1%O +$*1111122231*%%%*<*#X.%<0ir684********************************57-***8r2******************",
"pii01$XX#%*1111112223444444<%+.#*5iiii8**************************************0vmmmh1#XX#%=1111*%%*23444444<$O.#*5iiir8**************************************6rpii8<#.X#&=111112221*%%&*24-$O.#*6iipr7********************************57-***8r2******************",
"iih8=# O#&=11111122223444441&+.O*3iiii0**************************************qnmmmr<# O#*-1111<**<223444441&+.+*4iiii0**************************************6riih7=+ O#*<11111122<&%*<2441%+.+*5iiir8********************************57-***8r2******************",
"qqq5*# O#*<11111112222334441*#XX*<qqqq8**************************************0jjjl0*+ O#*<11111112222334441*#.X*1qqqq8**************************************6qqqq5*+ O#*<111111122<*<34441&+.O*1qqqq8********************************57-***8r2******************",
"5561*+ O#*<<1111111222223331*#X *=55555**************************************500002*+ O$*<<1111111222223331*#..*-55555**************************************255561*O O$*<<1111111211223341*#.X*<65565********************************57-***8r2******************",
"0004*@ O#*=<<11=*11122222221&@.X*100007**************************************7hhhh6*+ O#*=<<111111122222221&@.X*100007**************************************580002*+ O$*-<1111111122222221&+.O*100006********************************57-***8r2******************",
"iih8*# O#&*<<<*&&*111222222<%+.X*2iiii0**************************************enmmme=@ O#&*<<11111111222222<%+.O*3iiii0**************************************8iiih6*+ O#*=<<11111111222222=%+.O*4piii0********************************57-***8r2******************",
"iii8<$XX#%*<<*&%%*111111221*$+.O*5iiii0**************************************0vmmmr1$XX#%*<<<1111111112221*$O.+*6iiir8**************************************6riii7=#XX#&*<<<1111111112221*$O.+*6iiir8********************************57-***8r2******************",
"0wi01&O +$*=*&%%*<111111111*#O #*8ir0q7**************************************5hhzmh2%O +$*<<<<111111111111*#X #=0ir0q6**************************************300wi01%O +$*<<<<11111111111<*#X.#<0ie0q6********************************57-***8r2******************",
"58rr5*@ O#%*&%%*=111111111*$+.X%<eiw451**************************************<58hnc7*+ O#%*<<<<1111111111*$+.X&1riw451***************************************250ir3*+ O#%*<<<<1111111111*$+ O&1riq451********************************57-***8r2******************",
"qrip8-$. O#$$%**<<1111111*&#O.+*5iiir7****************************************8jvmmr1#..+#&*<<<<<1111111*%#O.+*5iiir6****************************************5qrip7=#..+#**<<<<<1111111*%#O.#*5iiir6*********************************57-***8r2******************",
"riii01&+ .o+#&*<<<<11111*%#O.O%*5riir0****************************************0cmmmh2&+ X+$&*<<<<<11111*%#O.O&*6riir0****************************************6riii8<&+ O+$**<<<<<1111<*%#O.O&*6riir8*********************************57-***8r2******************",
"8ir052-%O  o@%**=<<<<<<*%#O  $*116eir4****************************************1hmch051%O O+$&**=<<<<<<*%#O  $*117eie4****************************************<0ir052=%O O+$&**=<<<<<=*%#O .$*127rie3*********************************57-***8r2******************",
"50656q6*$X  +#$%******%$#O..+*2w83608******************************************0hw8wlq*$X O+#$%******%$#O..+*2w73608******************************************60656q5*$X O+#$%******%$#O..@*4w73607**********************************57-***8r2******************",
"*16epie5*$O .O+##$$$$##OO.X#*10iir711******************************************<5qzmmz6*$X .O+##$$$$##Oo.X#*10iir711*******************************************16riiw3*$X .O+##$$$$##Oo X$*1qiir611**********************************57-***8r2******************",
"*4riiihr5=%+. .XO+++OOX .O$*18iiiir7********************************************8cmnmmj5*%+. .XO+++OOX .O$*10iiiir6********************************************5riiii02*%O. .XO+++OOX .O$*10iiiir6***********************************57-***8r2******************",
"**6rirhnz01*$O..  .  ..X#%*20irwriq<********************************************=rnnzcmz0<*$O.   .  ..X#&*20irwriq<*********************************************8rieriw5**$O.   .  ..X#&*3qirwri0=***********************************57-***8r2******************",
"**<8w8hmmv0***%@OOOOO#$&**<0iie57q5**********************************************2hlwhmmc8***$@OOOOO#$&**<qiie58q4**********************************************10q6qiir4***$+OOOOO#$&**1qiiw58q4************************************57-***8r2******************",
"***15wvmnj5****************8iir0<1************************************************56evmnj5***************=8iir0<1************************************************237rii01***************<8iir8<1*************************************57-***8r2******************",
"****4hnmvq*****************1riiq3**************************************************5hnmv0*****************1riiq2**************************************************20rir5*****************1rirq2**************************************57-***8r2******************",
"*****1rvh2******************6rq2****************************************************2rvh2******************6rq2****************************************************18r8<*****************=7rq1***************************************57-***8r2******************",
"*******08*******************=73******************************************************=07*******************<72*******************************************************63*******************<72****************************************57-***8r2******************",
"*************************************************************************************************************************************************************************************************************************************57-***8r2******************",
"*************************************************************************************************************************************************************************************************************************************57-***8r2******************",
"*************************************************************************************************************************************************************************************************************************************57-***8r2******************",
"*************************************************************************************************************************************************************************************************************************************57-***8r2******************",
"*************************************************************************************************************************************************************************************************************************************57-***8r2******************",
"*************************************************************************************************************************************************************************************************************************************57-***8r2******************",
"*************************************************************************************************************************************************************************************************************************************57-***8r2******************",
"*************************************************************************************************************************************************************************************************************************************57-***8r2******************",
"*************************************************************************************************************************************************************************************************************************************57-***8r2******************",
"*************************************************************************************************************************************************************************************************************************************57-***8r2******************",
"********-=****1<*****************************************************************<****<=*******1<***************************************************************<1<***=1<******=1<******<<*****<1<***********************************57-***8r2******************",
"*******4kr**1ezl8***************************************************************3kq**5ke*****1ecl8*************************************************************7kzh5*2rck6****1ecl7****4hk6**1elzk6**********************************57-***8r2******************",
"******5rzr**0h16p5****-*<=*=<=**************************************************qv0*5rce*****0h16p5*****<<**-*<=*=<=*******************************************75*qr1er<0r2***0p16p4**=705r*1rp1*11**********************************57-***8r2******************",
"******12qi*<ee*1eq***5lrch7pzp1************************************************70kq*21er****1eq*1e0***<0lze5lrch7pzh1*********************************************7r8r7&2r7**1eq&1e0**=705e*6l1**************************************57-***8r2******************",
"********0i*1e0*=0r***6c61pz41i0***********************************************1r6rq***er****2e8*=qr***6k3*-5v61rc41i0*********************************************qe7r6*<r0**2e8*=qe***2ph5*0k***************************************57-***8r2******************",
"********0i*2e8**0p***7l**0k*-0e***********************************************q0*rq**&er****3e7**qr**-qr***6z**8k*=0r********************************************3p65r5*=rq**3e7**qr*******=0p***************************************57-***8r2******************",
"********0i*1e0*=qr***6l**8h*=0r**********************************************5r6*re**&er****1e8*=qr**1qe***6l**7h**0r*******************************************1iq*3r6*<r0**1e8*=er********0k***************************************57-***8r2******************",
"********0i*=qe*1eq***6k**8h*=0r**********************************************0zczbbq=&er****<qq*1eq**<qr***6l**7h**0r*******************************************re1*1r8*3r7**<eq*1e0********6l1**************************************57-***8r2******************",
"********0i**7h26p5***6k**8h*=0r**********************************************=11<pr-*&er**8q*8p16p5***6l4-16l**7h**0r******************************************er3***er10r480*0p17p5********1pp1*<-**********************************57-***8r2******************",
"********0r**<qzl8****6k**7p*=0e**************************************************rq***ee**qr*<wzl8****<0zze5k**7h**0r*****************************************5lvccz61rck6*qr*1ezk7**********1rzch5**********************************57-***8r2******************",
"**************=********************************************************************************=*********=******************************************************===****=********=**************==************************************57-***8r2******************",
"*************************************************************************************************************************************************************************************************************************************57-***8r2******************",
"*************************************************************************************************************************************************************************************************************************************57-***8r2******************",
"*************************************************************************************************************************************************************************************************************************************57-***8r2******************",
"*************************************************************************************************************************************************************************************************************************************57-***8r2******************",
"*************************************************************************************************************************************************************************************************************************************57-***8r2******************",
"*************************************************************************************************************************************************************************************************************************************57-***8r2******************",
"*************************************************************************************************************************************************************************************************************************************57-***8r2******************",
"*************************************************************************************************************************************************************************************************************************************57-***8r2******************",
"*************************************************************************************************************************************************************************************************************************************57-***8r2******************",
"*************************************************************************************************************************************************************************************************************************************57-***8r2******************",
"*************************************************************************************************************************************************************************************************************************************57-***8r2******************",
"*************************************************************************************************************************************************************************************************************************************57-***8r2******************",
"*************************************************************************************************************************************************************************************************************************************57-***8r2*****************=",
"******************************************************************************--=****************************2e**********************************************************************************************************************57-***8r2*****************;",
"****************************************************************************-1111<*************7p1*******=3***1**********************************************************************************************************************57-***8r2****************-;",
"***************************************************************************=1111111***********1rz7*******3r**************************************************************************************************************************57-***8r2****************;>",
"***************************************************************************<1111111<**********5rrr***6hkrpbkq4p1r2**80*5hk0**********************************************************************************************************57-***8r2***************=;:",
"***************************************************************************111111111**********0r6r1*6h7548z515z1r0*1h61k86p6*********************************************************************************************************57-***8r2***************-;:",
"**************************************************************************=111111111*********1q8<q8*qp***5l**5z*8h*4l<6k**0r*********************************************************************************************************57-***8r2***************-;:",
"***************************************************************************11111111<*********6zzkcr<ee***5l**5z*4l20i*0vkkzk*********************************************************************************************************57-***8r2***************=;:",
"***************************************************************************<1111111-*********0h66ei5qe***5l**5z*1r0i6*8l5553*********************************************************************************************************57-***8r2***************=;>",
"****************************************************************************<11111<*********1e0**2e08k<**5l1*5z**7kl-*4l2&***********************************************************************************************************57-***8r2****************;>",
"*****************************************************************************-<<<=**********7p3***0p2rkh01pk05z**3cp***0hhp6*********************************************************************************************************57-***8r2****************=;",
"********************************************************************************************13****14*1562*153-5***51***-5651*********************************************************************************************************57-***8r2*****************-",
"*************************************************************************************************************************************************************************************************************************************57-***8r2******************",
"*************************************************************************************************************************************************************************************************************************************57-***8r2******************",
"*************************************************************************************************************************************************************************************************************************************57-***8r2******************",
"*************************************************************************************************************************************************************************************************************************************57-***8r2******************",
"*************************************************************************************************************************************************************************************************************************************57-***8r2******************",
"*************************************************************************************************************************************************************************************************************************************57-***8r2******************",
"*************************************************************************************************************************************************************************************************************************************57-***8r2******************",
"*************************************************************************************************************************************************************************************************************************************57-***8r2******************",
"*************************************************************************************************************************************************************************************************************************************57-***8r2******************",
"*************************************************************************************************************************************************************************************************************************************57-***8r2******************",
"*************************************************************************************************************************************************************************************************************************************57-***8r2******************",
"*************************************************************************************************************************************************************************************************************************************57-***8r2******************",
"*************************************************************************************************************************************************************************************************************************************57-***8r2******************",
"*************************************************************************************************************************************************************************************************************************************57-***8r2******************",
"*************************************************************************************************************************************************************************************************************************************56=***8r3******************",
"*************************************************************************************************************************************************************************************************************************************56=***6r5******************",
"************************************************************************************************************************************************************************************************************************************<55****5w6******************",
"************************************************************************************************************************************************************************************************************************************263****3q01*****************",
"************************************************************************************************************************************************************************************************************************************56<****=8r5*****************",
"***********************************************************************************************************************************************************************************************************************************364******3w01****************",
"**********************************************************************************************************************************************************************************************************************************365-*******6w02***************",
"********************************************************************************************************************************************************************************************************************************14651********=6wq51=************",
"111111111111111111111111111111111111111111111111111111111111111111111111111111111111111111111111111111111111111111111111111111111111111111111111111111111111111111111111111111111111111111111111111111111111111111111111111111356651**********=6wr08555555555555",
"7777777777777777777777777777777777777777777777777777777777777777777777777777777777777777777777777777777777777777777777777777777777777777777777777777777777777777777777777777777777777777777777777777777777777777777777777777766652<*************480wrrrrrrrrrrrr",
"33333333333333333333333333333333333333333333333333333333333333333333333333333333333333333333333333333333333333333333333333333333333333333333333333333333333333333333333333333333333333333333333333333333333333333333333333333211-*****************14677777777777",
"****************************************************************************************************************************************************************************************************************************************************************",
"****************************************************************************************************************************************************************************************************************************************************************",
"****************************************************************************************************************************************************************************************************************************************************************",
"3333333333333333333333333333333333333333333333333333333333333333333333333333333333333333333333333333333333333333333333333333333333333333333333333333333333333333333333333333333333333333333333333333333333333333333333333333333333333333333333333333333333333333",
"rrrrrrrrrrrrrrrrrrrrrrrrrrrrrrrrrrrrrrrrrrrrrrrrrrrrrrrrrrrrrrrrrrrrrrrrrrrrrrrrrrrrrrrrrrrrrrrrrrrrrrrrrrrrrrrrrrrrrrrrrrrrrrrrrrrrrrrrrrrrrrrrrrrrrrrrrrrrrrrrrrrrrrrrrrrrrrrrrrrrrrrrrrrrrrrrrrrrrrrrrrrrrrrrrrrrrrrrrrrrrrrrrrrrrrrrrrrrrrrrrrrrrrrrrrrrrrrr",
"8888888888888888888888888888888888888888888888888888888888888888888888888888888888888888888888888888888888888888888888888888888888888888888888888888888888888888888888888888888888888888888888888888888888888888888888888888888888888888888888888888888888888888",
"****************************************************************************************************************************************************************************************************************************************************************",
"****************************************************************************************************************************************************************************************************************************************************************",
"****************************************************************************************************************************************************************************************************************************************************************",
"****************************************************************************************************************************************************************************************************************************************************************",
"****************************************************************************************************************************************************************************************************************************************************************",
"****************************************************************************************************************************************************************************************************************************************************************",
"****************************************************************************************************************************************************************************************************************************************************************",
"****************************************************************************************************************************************************************************************************************************************************************",
"****************************************************************************************************************************************************************************************************************************************************************",
"****************************************************************************************************************************************************************************************************************************************************************",
"****************************************************************************************************************************************************************************************************************************************************************",
"****************************************************************************************************************************************************************************************************************************************************************",
"****************************************************************************************************************************************************************************************************************************************************************",
"****************************************************************************************************************************************************************************************************************************************************************",
"****************************************************************************************************************************************************************************************************************************************************************",
"****************************************************************************************************************************************************************************************************************************************************************",
"****************************************************************************************************************************************************************************************************************************************************************",
"****************************************************************************************************************************************************************************************************************************************************************",
"****************************************************************************************************************************************************************************************************************************************************************",
"****************************************************************************************************************************************************************************************************************************************************************",
"****************************************************************************************************************************************************************************************************************************************************************",
"****************************************************************************************************************************************************************************************************************************************************************",
"****************************************************************************************************************************************************************************************************************************************************************",
"****************************************************************************************************************************************************************************************************************************************************************",
"****************************************************************************************************************************************************************************************************************************************************************",
"****************************************************************************************************************************************************************************************************************************************************************",
"****************************************************************************************************************************************************************************************************************************************************************",
"****************************************************************************************************************************************************************************************************************************************************************"
};
