/* XPM */
static char *comp_delay_x2_stereo[] = {
/* columns rows colors chars-per-pixel */
"256 256 238 2 ",
"   c #06030A",
".  c #0D0E1B",
"X  c #040616",
"o  c #130E11",
"O  c #0F101C",
"+  c #151012",
"@  c #10111D",
"#  c #1C1619",
"$  c #1E191B",
"%  c #1A1417",
"&  c #241E1F",
"*  c #2A1E1A",
"=  c #281B17",
"-  c #27240F",
";  c #29240D",
":  c #2B2505",
">  c #262214",
",  c #282211",
"<  c #24211B",
"1  c #2E221E",
"2  c #2F2B1D",
"3  c #332D16",
"4  c #312C1A",
"5  c #30231F",
"6  c #3D361E",
"7  c #3D371B",
"8  c #3C3405",
"9  c #141624",
"0  c #1C1C26",
"q  c #1E1F2A",
"w  c #171926",
"e  c #1B1E32",
"r  c #241F21",
"t  c #241F29",
"y  c #1F2026",
"u  c #1F202B",
"i  c #1E2131",
"p  c #242123",
"a  c #2A2326",
"s  c #2C2923",
"d  c #23232D",
"f  c #2B2628",
"g  c #2E292B",
"h  c #27282D",
"j  c #322622",
"k  c #332B23",
"l  c #30272C",
"z  c #322A2E",
"x  c #3A2B29",
"c  c #353225",
"v  c #393522",
"b  c #3C3821",
"n  c #3C332E",
"m  c #232431",
"M  c #272833",
"N  c #292A34",
"B  c #2A2C3C",
"V  c #26283A",
"C  c #342D30",
"Z  c #2E303D",
"A  c #373032",
"S  c #3A3330",
"D  c #3C3B37",
"F  c #33333B",
"G  c #3E363A",
"H  c #3A3838",
"J  c #7D1A0C",
"K  c #7E1F11",
"L  c #423B0E",
"P  c #423C19",
"I  c #5B261F",
"U  c #68271E",
"Y  c #79261A",
"T  c #472928",
"R  c #443C2F",
"E  c #46322E",
"W  c #423D35",
"Q  c #4E3934",
"!  c #41393D",
"~  c #483733",
"^  c #543B36",
"/  c #572620",
"(  c #702A21",
")  c #4C4419",
"_  c #4B432F",
"`  c #4D452C",
"'  c #524A2F",
"]  c #524B24",
"[  c #5A522E",
"{  c #4D4933",
"}  c #484435",
"|  c #534A35",
" . c #5A5431",
".. c #615B3A",
"X. c #66603E",
"o. c #1E274F",
"O. c #323547",
"+. c #3B3B43",
"@. c #343749",
"#. c #35384A",
"$. c #3A3B4D",
"%. c #383740",
"&. c #3D3E51",
"*. c #202745",
"=. c #182B77",
"-. c #453F41",
";. c #3F4052",
":. c #444041",
">. c #44454D",
",. c #4A4546",
"<. c #564B46",
"1. c #474855",
"2. c #575659",
"3. c #565152",
"4. c #645B56",
"5. c #61504B",
"6. c #6B6648",
"7. c #69615D",
"8. c #7B765B",
"9. c #726D4E",
"0. c #5E5F66",
"q. c #5C5E6A",
"w. c #565763",
"e. c #64646A",
"r. c #6B6A6C",
"t. c #656465",
"y. c #726D6A",
"u. c #7A736A",
"i. c #6C6D73",
"p. c #7A7877",
"a. c #5F6068",
"s. c #811E0F",
"d. c #83291B",
"f. c #862516",
"g. c #8A3B35",
"h. c #B23927",
"j. c #E13D3F",
"k. c #DF3D3F",
"l. c #924538",
"z. c #D7442D",
"x. c #E53F40",
"c. c #974F43",
"v. c #A05F53",
"b. c #827D63",
"n. c #817B76",
"m. c #9E7363",
"M. c #FC5853",
"N. c #EB4746",
"B. c #88846A",
"V. c #8A8778",
"C. c #918D75",
"Z. c #96927B",
"A. c #B3847A",
"S. c #0428B7",
"D. c #0E31B9",
"F. c #1030AB",
"G. c #142C8F",
"H. c #3F59BF",
"J. c #797B88",
"K. c #455EBF",
"L. c #6276C6",
"P. c #0C31C0",
"I. c #7E84A5",
"U. c #63B4C2",
"Y. c #65A0C4",
"T. c #8D8988",
"R. c #878684",
"E. c #94918D",
"W. c #999686",
"Q. c #989592",
"!. c #9B9995",
"~. c #9D9B9A",
"^. c #959492",
"/. c #918F89",
"(. c #A19F9B",
"). c #A09F96",
"_. c #AE9888",
"`. c #A5A49E",
"'. c #ABA896",
"]. c #B1AF9D",
"[. c #A9A693",
"{. c #868BA9",
"}. c #8D91AC",
"|. c #9296AF",
" X c #979BB1",
".X c #9EA1B5",
"XX c #A7A6A0",
"oX c #A8A7A1",
"OX c #ABAAA4",
"+X c #ADADAB",
"@X c #B1AEAB",
"#X c #B0AFA7",
"$X c #B2B1AD",
"%X c #B9B7A7",
"&X c #A8ABB9",
"*X c #AFB0BC",
"=X c #B7B4B1",
"-X c #B7B7BC",
";X c #C7B9AE",
":X c #CEA59B",
">X c #C1C0BC",
",X c #C7C5B9",
"<X c #D3C5BE",
"1X c #BBBCC2",
"2X c #B1B8D4",
"3X c #8A98CD",
"4X c #B1CFD3",
"5X c #9AC8CE",
"6X c #C2C2C5",
"7X c #CCCBCA",
"8X c #CAC9C5",
"9X c #D0CFCA",
"0X c #D0CEC3",
"qX c #D4D3CF",
"wX c #D7D3CA",
"eX c #D9D7D0",
"rX c #DAD8D1",
"tX c #D7D7D2",
"yX c #C9D9D7",
"uX c #E0DED4",
"iX c #E0DFD9",
"pX c #E3E2DC",
"aX c #EBE6DE",
"sX c #E6E4D8",
"dX c #F0EADF",
"fX c #E7E6E0",
"gX c #E8E7E1",
"hX c #ECECE5",
"jX c #EEEEE8",
"kX c #E7E9E4",
"lX c #F0EFE8",
"zX c #F0EAE3",
"xX c #F4F3EC",
"cX c #F8F7EF",
"vX c #F8F7F0",
"bX c #F8F7F2",
"nX c #EDF3EE",
"mX c #DFE1DC",
/* pixels */
"rXrXrXrXrXrXrXrXrXrXrXrXrXrXrXrXrXrXrXrXrXrXrXrXrXrXrXrXrXrXrXrXrXrXrXrXrXrXrXrXrXrXrXrXrXrXrXrXrXrXrXrXrXrXrXrXrXrXrXrXrXrXrXrXrXrXrXrXrXrXrXrXrXrXrXrXrXrXrXrXrXrXrXrXrXrXrXrXrXrXrXrXrXrXrXrXrXrXrXrXrXrXrXrXrXrXrXrXrXrXrXrXrXrXrXrXrXrXrXrXrXrXrXrXrXrXrXrXrXrXrXrXrXrXrXrXrXrXrXrXrXrXrXrXrXrXrXrXrXrXrXrXrXrXrXrXrXrXrXrXrXrXrXrXrXrXrXrXrXrXrXrXrXrXrXrXrXrXrXrXrXrXrXrXrXrXrXrXrXrXrXrXrXrXrXrXrXrXrXrXrXrXrXrXrXrXrXrXrXrXrXrXrXrXrXrXrXrXrXrXrXrXrXrXrXrXrXrXrXrXrXrXrXrXrXrXrXrXrXrXrXrXrXrXrXrXrXrXrXrXrXrXrXrXrXrX",
"rXrXrXrXrXrXrXrXrXrXrXrXrXrXrXrXrXrXrXrXrXrXrXrXrXrXrXrXrXrXrXrXrXrXrXrXrXrXrXrXrXrXrXrXrXrXrXrXrXrXrXrXrXrXrXrXrXrXrXrXrXrXrXrXrXrXrXrXrXrXrXrXrXrXrXrXrXrXrXrXrXrXrXrXrXrXrXrXrXrXrXrXrXrXrXrXrXrXrXrXrXrXrXrXrXrXrXrXrXrXrXrXrXrXrXrXrXrXrXrXrXrXrXrXrXrXrXrXrXrXrXrXrXrXrXrXrXrXrXrXrXrXrXrXrXrXrXrXrXrXrXrXrXrXrXrXrXrXrXrXrXrXrXrXrXrXrXrXrXrXrXrXrXrXrXrXrXrXrXrXrXrXrXrXrXrXrXrXrXrXrXrXrXrXrXrXrXrXrXrXrXrXrXrXrXrXrXrXrXrXrXrXrXrXrXeXeXeXeXrXrXrXeXeXeXeXrXeXeXrXrXrXrXrXeXeXrXeXeXrXrXeXeXrXrXrXrXeXeXeXeXrXrXeXeXeX",
"rXrXrXrXrXrXrXrXrXrXrXrXrXrXrXrXrXrXrXrXrXrXrXrXrXrXrXrXrXrXrXrXrXrXrXrXrXrXrXrXrXrXrXrXrXrXrXrXrXrXrXrXrXrXrXrXrXrXrXrXrXrXrXrXrXrXrXrXrXrXrXrXrXrXrXrXrXrXrXrXrXrXrXrXrXrXrXrXrXrXrXrXrXrXrXrXrXrXrXrXrXrXrXrXrXrXrXrXrXrXrXrXrXrXrXrXrXrXrXrXrXrXrXrXrXrXrXrXrXrXrXrXrXrXrXrXrXrXrXrXrXrXrXrXrXrXrXrXrXrXrXrXrXrXrXrXrXrXrXrXrXrXrXrXrXrXrXrXrXrXrXrXrXrXrXrXrXrXrXrXrXrXrXrXrXrXrXrXrXrXrXrXrXrXrXrXrXrXrXrXrXrXrXrXrXrXrXrXrXrXrXrXrXrXrXrXuXuXrXrXeXrXrXuXuXrXrXrXrXeXrXrXrXrXrXrXeXrXrXeXeXrXrXeXrXrXeXrXrXuXrXrXeXrXuXuX",
"rXrXrXrXrXrXrXrXrXrXrXrXrXrXrXrXrXrXrXrXrXrXrXrXrXrXrXrXrXrXrXrXrXrXrXrXrXrXrXrXrXrXrXrXrXrXrXrXrXrXrXrXrXrXrXrXrXrXrXrXrXrXrXrXrXrXrXrXrXrXrXrXrXrXrXrXrXrXrXrXrXrXrXrXrXrXrXrXrXrXrXrXrXrXrXrXrXrXrXrXrXrXrXrXrXrXrXrXrXrXrXrXrXrXrXrXrXrXrXrXrXrXrXrXrXrXrXrXrXrXrXrXrXrXrXrXrXrXrXrXrXrXrXrXrXrXrXrXrXrXrXrXrXrXrXrXrXrXrXrXrXrXrXrXrXrXrXrXrXrXrXrXrXrXrXrXrXrXrXrXrXrXrXrXrXrXrXrXrXrXrXrXrXrXrXrXrXrXrXrXrXrXrXrXrXrXrXrXrXrXrXrXrXrXeX1X&X*X6XrXrXeX1X&X&X*XeX1X8XrXeXrXrXqX1XqXrX1X1XrXrX1X6XrXeXeXrXqX1X&X6XeXrX7X*X*X",
"rXrXrXrXrXrXrXrXrXrXrXrXrXrXrXrXrXrXrXrXrXrXrXrXrXrXrXrXrXrXrXrXrXrXrXrXrXrXrXrXrXrXrXrXrXrXrXrXrXrXrXrXrXrXrXrXrXrXrXrXrXrXrXrXrXrXrXrXrXrXrXrXrXrXrXrXrXrXrXrXrXrXrXrXrXrXrXrXrXrXrXrXrXrXrXrXrXrXrXrXrXrXrXrXrXrXrXrXrXrXrXrXrXrXrXrXrXrXrXrXrXrXrXrXrXrXrXrXrXrXrXrXrXrXrXrXrXrXrXrXrXrXrXrXrXrXrXrXrXrXrXrXrXrXrXrXrXrXrXrXrXrXrXrXrXrXrXrXrXrXrXrXrXrXrXrXrXrXrXrXrXrXrXrXrXrXrXrXrXrXrXrXrXrXrXrXrXrXrXrXrXrXrXrXrXrXrXrXrXrXrXrXrXrXeX}. X&X{.&XrXrX}. X&X&XrX|.*XuXeXeXuX1XJ.1XsX1X{.qXqX{.1XrXeXrXqX}.|.&X XqX6X{..X.X",
"rXrXrXrXrXrXrXrXrXrXrXrXrXrXrXrXrXrXrXrXrXrXrXrXrXrXrXrXrXrXrXrXrXrXrXrXrXrXrXrXrXrXrXrXrXrXrXrXrXrXrXrXrXrXrXrXrXrXrXrXrXrXrXrXrXrXrXrXrXrXrXrXrXrXrXrXrXrXrXrXrXrXrXrXrXrXrXrXrXrXrXrXrXrXrXrXrXrXrXrXrXrXrXrXrXrXrXrXrXrXrXrXrXrXrXrXrXrXrXrXrXrXrXrXrXrXrXrXrXrXrXrXrXrXrXrXrXrXrXrXrXrXrXrXrXrXrXrXrXrXrXrXrXrXrXrXrXrXrXrXrXrXrXrXrXrXrXrXrXrXrXrXrXrXrXrXrXrXrXrXrXrXrXrXrXrXrXrXrXrXrXrXrXrXrXrXrXrXrXrXrXrXrXrXrXrXrXrXrXrXrXrXrXrXrX}.6XsX7X{.6XrX}.1XsXrXuX X*XuXeXeXrX.X}. XrXrX|.*X*X XuXeXeXuX&X|.rXuXeXrX}.*XsXsX",
"rXrXrXrXrXrXrXrXrXrXrXrXrXrXrXrXrXrXrXrXrXrXrXrXrXrXrXrXrXrXrXrXrXrXrXrXrXrXrXrXrXrXrXrXrXrXrXrXrXrXrXrXrXrXrXrXrXrXrXrXrXrXrXrXrXrXrXrXrXrXrXrXrXrXrXrXrXrXrXrXrXrXrXrXrXrXrXrXrXrXrXrXrXrXrXrXrXrXrXrXrXrXrXrXrXrXrXrXrXrXrXrXrXrXrXrXrXrXrXrXrXrXrXrXrXrXrXrXrXrXrXrXrXrXrXrXrXrXrXrXrXrXrXrXrXrXrXrXrXrXrXrXrXrXrXrXrXrXrXrXrXrXrXrXrXrXrXrXrXrXrXrXrXrXrXrXrXrXrXrXrXrXrXrXrXrXrXrXrXrXrXrXrXrXrXrXrXrXrXrXrXrXrXrXrXrXrXrXrXrXrXrXrXrXrX}.1XrXrX X*XuX|.{.|..XuX X*XuXeXrX7X}.8X}.8XuX6X{.{.8XrXeXeXrX|.*XuXtXrXqX{.8XrXrX",
"rXrXrXrXrXrXrXrXrXrXrXrXrXrXrXrXrXrXrXrXrXrXrXrXrXrXrXrXrXrXrXrXrXrXrXrXrXrXrXrXrXrXrXrXrXrXrXrXrXrXrXrXrXrXrXrXrXrXrXrXrXrXrXrXrXrXrXrXrXrXrXrXrXrXrXrXrXrXrXrXrXrXrXrXrXrXrXrXrXrXrXrXrXrXrXrXrXrXrXrXrXrXrXrXrXrXrXrXrXrXrXrXrXrXrXrXrXrXrXrXrXrXrXrXrXrXrXrXrXrXrXrXrXrXrXrXrXrXrXrXrXrXrXrXrXrXrXrXrXrXrXrXrXrXrXrXrXrXrXrXrXrXrXrXrXrXrXrXrXrXrXrXrXrXrXrXrXrXrXrXrXrXrXrXrXrXrXrXrXrXrXrXrXrXrXrXrXrXrXrXrXrXrXrXrXrXrXrXrXrXrXrXrXrXrX}.1XuXrX|.*XuX}.*X7X7XuX X*XsXeXuX*XI..X{.&XrXrX|. XuXeXeXeXrX|.*XsXeXrXqX{.6XrXuX",
"rXrXrXrXrXrXrXrXrXrXrXrXrXrXrXrXrXrXrXrXrXrXrXrXrXrXrXrXrXrXrXrXrXrXrXrXrXrXrXrXrXrXrXrXrXrXrXrXrXrXrXrXrXrXrXrXrXrXrXrXrXrXrXrXrXrXrXrXrXrXrXrXrXrXrXrXrXrXrXrXrXrXrXrXrXrXrXrXrXrXrXrXrXrXrXrXrXrXrXrXrXrXrXrXrXrXrXrXrXrXrXrXrXrXrXrXrXrXrXrXrXrXrXrXrXrXrXrXrXrXrXrXrXrXrXrXrXrXrXrXrXrXrXrXrXrXrXrXrXrXrXrXrXrXrXrXrXrXrXrXrXrXrXrXrXrXrXrXrXrXrXrXrXrXrXrXrXrXrXrXrXrXrXrXrXrXrXrXrXrXrXrXrXrXrXrXrXrXrXrXrXrXrXrXrXrXrXrXrXrXrXrXrXrXrX}.1XsX1XI.7XrX}.1XsXrXrX X*XuXeXrX|. X-X.X}.eXuX.X&XsXeXrXeXuX&X}.qXrXqXrX|.&XrXrX",
"rXrXrXrXrXrXrXrXrXrXrXrXrXrXrXrXrXrXrXrXrXrXrXrXrXrXrXrXrXrXrXrXrXrXrXrXrXrXrXrXrXrXrXrXrXrXrXrXrXrXrXrXrXrXrXrXrXrXrXrXrXrXrXrXrXrXrXrXrXrXrXrXrXrXrXrXrXrXrXrXrXrXrXrXrXrXrXrXrXrXrXrXrXrXrXrXrXrXrXrXrXrXrXrXrXrXrXrXrXrXrXrXrXrXrXrXrXrXrXrXrXrXrXrXrXrXrXrXrXrXrXrXrXrXrXrXrXrXrXrXrXrXrXrXrXrXrXrXrXrXrXrXrXrXrXrXrXrXrXrXrXrXrXrXrXrXrXrXrXrXrXrXrXrXrXrXrXrXrXrXrXrXrXrXrXrXrXrXrXrXrXrXrXrXrXrXrXrXrXrXrXrXrXrXrXrXrXrXrXrXrXrXrXrXeX}.{.|.{.1XrXrX}.{. X XrX X{.}. X*X{.qXsXrX{.1XsX X.XsXeXrXeXrXqX X{.|. XeX7X}.}.}.",
"rXrXrXrXrXrXrXrXrXrXrXrXrXrXrXrXrXrXrXrXrXrXrXrXrXrXrXrXrXrXrXrXrXrXrXrXrXrXrXrXrXrXrXrXrXrXrXrXrXrXrXrXrXrXrXrXrXrXrXrXrXrXrXrXrXrXrXrXrXrXrXrXrXrXrXrXrXrXrXrXrXrXrXrXrXrXrXrXrXrXrXrXrXrXrXrXrXrXrXrXrXrXrXrXrXrXrXrXrXrXrXrXrXrXrXrXrXrXrXrXrXrXrXrXrXrXrXrXrXrXrXrXrXrXrXrXrXrXrXrXrXrXrXrXrXrXrXrXrXrXrXrXrXrXrXrXrXrXrXrXrXrXrXrXrXrXrXrXrXrXrXrXrXrXrXrXrXrXrXrXrXrXrXrXrXrXrXrXrXrXrXrXrXrXrXrXrXrXrXrXrXrXrXrXrXrXrXrXrXrXrXrXrXrXrX7X6X6XqXrXrXrX7X6X1X6XeX7X6X6X6X7X8XrXeXrX7X7XrX7X7XrXeXrXrXrXrXeX6X6X7XeXrXqX6X6X",
"rXrXrXrXrXrXrXrXrXrXrXrXrXrXrXrXrXrXrXrXrXrXrXrXrXrXrXrXrXrXrXrXrXrXrXrXrXrXrXrXrXrXrXrXrXrXrXrXrXrXrXrXrXrXrXrXrXrXrXrXrXrXrXrXrXrXrXrXrXrXrXrXrXrXrXrXrXrXrXrXrXrXrXrXrXrXrXrXrXrXrXrXrXrXrXrXrXrXrXrXeXeXeXeXeXeXeXeXeXeXeXeXeXeXeXeXeXeXeXeXeXeXeXeXeXeXeXeXeXeXeXeXeXeXeXeXeXeXeXeXeXeXeXeXeXeXeXeXeXeXeXeXeXeXeXeXeXeXeXeXeXeXeXeXeXeXeXeXeXeXeXeXeXeXeXeXeXeXeXeXeXeXeXeXeXeXeXeXeXeXeXeXeXeXeXeXeXeXeXeXeXeXeXeXeXeXeXeXeXeXeXeXeXeXeXrXuXrXrXeXeXeXrXuXuXrXeXrXrXuXrXrXrXeXeXeXrXrXeXrXrXeXeXeXeXeXeXeXrXuXrXeXeXrXrXrX",
"rXrXrXrXrXrXrXrXrXrXrXrXrXrXrXrXrXrXrXrXrXrXrXrXrXrXrXrXrXrXrXrXrXrXrXrXrXrXrXrXrXrXrXrXrXrXrXrXrXrXrXrXrXrXrXrXrXrXrXrXrXrXrXrXrXrXrXrXrXrXrXrXrXrXrXrXrXrXrXrXrXrXrXrXrXrXrXrXrXrXrXrXrXrXrXrXrXrXeXrXrXrXrXrXrXrXrXrXrXrXrXrXrXrXrXrXrXrXrXrXrXrXrXrXrXrXrXrXrXrXrXrXrXrXrXrXrXrXrXrXrXrXrXrXrXrXrXrXrXrXrXrXrXrXrXrXrXrXrXrXrXrXrXrXrXrXrXrXrXrXrXrXrXrXrXrXrXrXrXrXrXrXrXrXrXrXrXrXrXrXrXrXrXrXrXrXrXrXrXrXrXrXrXrXrXrXrXrXrXrXrXrXrXrXrXrXrXrXrXrXrXrXrXrXrXrXrXrXrXrXrXrXrXrXrXrXrXrXrXrXrXrXrXrXrXrXrXrXrXrXrXrXrXrXrXrX",
"rXrXrXrXrXrXrXrXrXrXrXrXrXrXrXrXrXrXrXrXrXrXrXrXrXrXrXrXrXrXrXrXrXrXrXrXrXrXrXrXrXrXrXrXrXrXrXrXrXrXrXrXrXrXrXrXrXrXrXrXrXrXrXrXrXrXrXrXrXrXrXrXrXrXrXrXrXrXrXrXrXrXrXrXrXrXrXrXrXrXrXrXrXrXrXrXrXeXrXpXpXpXpXpXpXpXpXpXpXpXpXpXpXpXpXpXpXpXpXpXpXpXpXpXpXpXpXpXpXpXpXpXpXpXpXpXpXpXpXpXpXpXpXpXpXpXpXpXpXpXpXpXpXpXpXpXpXpXpXpXpXpXpXpXpXpXpXpXpXpXpXpXpXpXpXpXpXpXpXpXpXpXpXpXpXpXpXpXpXpXpXpXpXpXpXpXpXpXpXpXpXpXpXpXpXpXpXpXpXpXpXpXpXpXpXpXpXpXpXpXpXpXpXpXpXpXpXpXpXpXpXpXpXpXpXpXpXpXpXpXpXpXpXpXpXpXpXpXpXpXpXpXpXpXpXpX",
"rXrXrXrXrXrXrXrXrXrXrXrXrXrXrXrXrXrXrXrXrXrXrXrXrXrXrXrXrXrXrXrXrXrXrXrXrXrXrXrXrXrXrXrXrXrXrXrXrXrXrXrXrXrXrXrXrXrXrXrXrXrXrXrXrXrXrXrXrXrXrXrXrXrXrXrXrXrXrXrXrXrXrXrXrXrXrXrXrXrXrXrXrXrXrXrXeXrXpXpXpXpXpXpXpXpXpXpXpXpXpXpXpXpXpXpXpXpXpXpXpXpXpXpXpXpXpXpXpXpXpXpXpXpXpXpXpXpXpXpXpXpXpXpXpXpXpXpXpXpXpXpXpXpXpXpXpXpXpXpXpXpXpXpXpXpXpXpXpXpXpXpXpXpXpXpXpXpXpXpXpXpXpXpXpXpXpXpXpXpXpXpXpXpXpXpXpXpXpXpXpXpXpXpXpXpXpXpXpXpXpXpXpXpXpXpXpXpXpXpXpXpXpXpXpXpXpXpXpXpXpXpXpXpXpXpXpXpXpXpXpXpXpXpXpXpXpXpXpXpXpXpXpXpXpXpX",
"rXrXrXrXrXrXrXrXrXrXrXrXrXrXrXrXrXrXrXrXrXrXrXrXrXrXrXrXrXrXrXrXrXrXrXrXrXrXrXrXrXrXrXrXrXrXrXrXrXrXrXrXrXrXrXrXrXrXrXrXrXrXrXrXrXrXrXrXrXrXrXrXrXrXrXrXrXrXrXrXrXrXrXrXrXrXrXrXrXrXrXrXrXrXrXeXrXpXpXpXpXpXpXpXpXpXpXpXpXpXpXpXpXpXpXpXpXpXpXpXpXpXpXpXpXpXpXpXpXpXpXpXpXpXpXpXpXpXpXpXpXpXpXpXpXpXpXpXpXpXpXpXpXpXpXpXpXpXpXpXpXpXpXpXpXpXpXpXpXpXpXpXpXpXpXpXpXpXpXpXpXpXpXpXpXpXpXpXpXpXpXpXpXpXpXpXpXpXpXpXpXpXpXpXpXpXpXpXpXpXpXpXpXpXpXpXpXpXpXpXpXpXpXpXpXpXpXpXpXpXpXpXpXpXpXpXpXpXpXpXpXpXpXpXpXpXpXpXpXpXpXpXpXpXpXpX",
"rXrXrXrXrXrXrXrXrXrXrXrXrXrXrXrXrXrXrXrXrXrXrXrXrXrXrXrXrXrXrXrXrXrXrXrXrXrXrXrXrXrXrXrXrXrXrXrXrXrXrXrXrXrXrXrXrXrXrXrXrXrXrXrXrXrXrXrXrXrXrXrXrXrXrXrXrXrXrXrXrXrXrXrXrXrXrXrXrXrXrXrXrXrXeXrXpXpXpXpXpXpXpXpXpXpXpXpXpXpXpXpXpXpXpXpXpXpXpXpXpXpXpXpXpXpXpXpXpXpXpXpXpXpXpXpXpXpXpXpXpXpXpXpXpXpXpXpXpXpXpXpXpXpXpXpXpXpXgXkXfXpXpXpXpXpXkXfXpXpXpXpXpXpXpXpXpXpXpXpXpXpXpXpXpXpXpXpXpXpXpXpXpXpXpXpXpXpXpXpXpXpXpXpXpXpXpXpXpXpXpXpXpXpXpXpXpXpXpXpXpXpXpXpXpXpXpXpXpXpXpXpXpXpXpXpXpXpXpXpXpXpXpXpXpXpXpXpXpXpXpXpXpXpXpXpX",
"rXrXrXrXrXrXrXrXrXrXrXrXrXrXrXrXrXrXrXrXrXrXrXrXrXrXrXrXrXrXrXrXrXrXrXrXrXrXrXrXrXrXrXrXrXrXrXrXrXrXrXrXrXrXrXrXrXrXrXrXrXrXrXrXrXrXrXrXrXrXrXrXrXrXrXrXrXrXrXrXrXrXrXrXrXrXrXrXrXrXrXrXrXeXrXpXpXpXpXpXpXpXpXpXpXpXaXaXpXpXpXpXpXpXpXpXpXpXpXpXpXpXpXpXpXpXpXpXpXpXpXpXpXpXpXpXpXpXpXpXpXpXpXpXpXpXpXpXpXpXpXpXpXpXpXpXpXgXwX<XrXpXpXpXpXhX[.,XkXpXpXpXpXpXpXpXpXrXpXpXpXpXpXpXpXpXpXpXpXpXpXpXpXpXpXpXpXpXpXpXpXpXpXrXpXpXpXpXpXpXpXpXpXpXpXpXpXpXpXpXpXpXpXpXpXpXpXpXpXpXpXpXpXpXpXpXpXpXpXpXpXpXpXpXpXpXpXpXpXpXpXpXpXdXaXpX",
"rXrXrXrXrXrXrXrXrXrXrXrXrXrXrXrXrXrXrXrXrXrXrXrXrXrXrXrXrXrXrXrXrXrXrXrXrXrXrXrXrXrXrXrXrXrXrXrXrXrXrXrXrXrXrXrXrXrXrXrXrXrXrXrXrXrXrXrXrXrXrXrXrXrXrXrXrXrXrXrXrXrXrXrXrXrXrXrXrXrXrXrXeXrXpXpXpXpXpXpXpXpXpXpXpXdX4X4XaXpXpXpXpXpXpXpXpXpXpXpXpXpXpXpXpXpXpXpXpXpXpXpXpXpXpXpXpXpXpXpXpXpXpXpXpXpXpXpXpXpXpXpXpXpXpXpXkX%Xb.B.).pXkXfXfXxXC.#XjXgXgXgXpXkXpXjX,X[.kXpXpXpXhXfXkXfXpXhXgXpXgXgXkXfXgXgXfXpXfXkXfXhXwXW.iXpXpXpXpXpXpXpXpXpXpXpXpXpXpXpXpXpXpXpXpXpXpXpXpXpXpXpXpXpXpXpXpXpXpXpXpXpXpXpXpXpXpXpXpXpXpXpXpX4XyXaX",
"rXrXrXrXrXrXrXrXrXrXrXrXrXrXrXrXrXrXrXrXrXrXrXrXrXrXrXrXrXrXrXrXrXrXrXrXrXrXrXrXrXrXrXrXrXrXrXrXrXrXrXrXrXrXrXrXrXrXrXrXrXrXrXrXrXrXrXrXrXrXrXrXrXrXrXrXrXrXrXrXrXrXrXrXrXrXrXrXrXrXrXeXrXpXpXpXpXpXpXpXpXpXpXpXzX4XU.4XaXpXpXpXpXpXpXpXpXpXpXpXpXpXpXpXpXpXpXpXpXpXpXpXpXpXpXpXpXpXpXpXpXpXpXpXpXpXpXpXpXpXpXpXpXpXpXpXhX8.,XbXrXgX%XB.Z.gXZ.%XrXC.B.,XhX'.b.).C.X.W.rXhX,XW.Z.B.eX0XW.Z.%X,XB.C.eX,XB.B.,XrXC.B.,X'...C.wXfXpXpXpXpXpXpXpXpXpXpXpXpXpXpXpXpXpXpXpXpXpXpXpXpXpXpXpXpXpXpXpXpXpXpXpXpXpXpXpXpXpXpXpXpXpXaX4XU.yX",
"rXrXrXrXrXrXrXrXrXrXrXrXrXrXrXrXrXrXrXrXrXrXrXrXrXrXrXrXrXrXrXrXrXrXrXrXrXrXrXrXrXrXrXrXrXrXrXrXrXrXrXrXrXrXrXrXrXrXrXrXrXrXrXrXrXrXrXrXrXrXrXrXrXrXrXrXrXrXrXrXrXrXrXrXrXrXrXrXrXrXeXrXpXpXpXpXpXpXpXpXpXpXpXaX4XU.yXaXpXpXpXpXpXpXpXpXpXpXpXpXpXpXpXpXpXpXpXpXpXpXpXpXpXpXpXpXpXpXpXpXpXpXpXpXpXpXpXpXpXpXpXpXpXpXpXpXhX'.8.%XjX0X8.eXZ.[.W.%XC.#X,XB.%Xb.wXrX].Z.pXpXjX%X6.rX[.C.wXX.,XrX8.0X[.Z.B.].rXpXC.'.,Xb.%XB.rXpXpXpXpXpXpXpXpXpXpXpXpXpXpXpXpXpXpXpXpXpXpXpXpXpXpXpXpXpXpXpXpXpXpXpXpXpXpXpXpXpXpXpXpXpXpXpXpXzXyXU.",
"rXrXrXrXrXrXrXrXrXrXrXrXrXrXrXrXrXrXrXrXrXrXrXrXrXrXrXrXrXrXrXrXrXrXrXrXrXrXrXrXrXrXrXrXrXrXrXrXrXrXrXrXrXrXrXrXrXrXrXrXrXrXrXrXrXrXrXrXrXrXrXrXrXrXrXrXrXrXrXrXrXrXrXrXrXrXrXrXrXeXrXpXpXpXpXpXpXpXpXpXpXpXpXaX5XU.aXaXpXpXpXpXpXpXpXpXpXpXpXpXpXpXpXpXpXpXpXpXpXpXpXpXpXpXpXpXpXpXpXpXpXpXpXpXpXpXpXpXpXpXpXpXpXpXpXpXpXfX;X8.W.%X6.C.8.[.W.].8.B.B.B.Z.[.lXjX%XZ.kXpXjX%XZ.xXwXB.,XB.jX,X6.C.b.Z.,Xb.[.pX8.B.B.B.%XC.iXpXpXpXpXpXpXpXpXpXpXpXpXpXpXpXpXpXpXpXpXpXpXpXpXpXpXpXpXpXpXpXpXpXpXpXpXpXpXpXpXpXpXpXpXpXpXpXpXaXmXU.",
"rXrXrXrXrXrXrXrXrXrXrXrXrXrXrXrXrXrXrXrXrXrXrXrXrXrXrXrXrXrXrXrXrXrXrXrXrXrXrXrXrXrXrXrXrXrXrXrXrXrXrXrXrXrXrXrXrXrXrXrXrXrXrXrXrXrXrXrXrXrXrXrXrXrXrXrXrXrXrXrXrXrXrXrXrXrXrXrXeXrXpXpXpXpXpXpXpXpXpXpXpXpXpXpXdX5XU.tXpXpXpXpXpXpXpXpXpXpXpXpXpXpXpXpXpXpXpXpXpXpXpXpXpXpXpXpXpXpXpXpXpXpXpXpXpXpXpXpXpXpXpXpXpXpXpXpXpXfXbXpXb.[.B.hXaXjXZ.%Xb.,XjXxX[.Z.bXxX].W.xXpXjX%Xb.bX,XB.,XB.kX<X8.pXhXpXhXhXC.[.B.,XjXhX,XB.hXfXpXpXpXpXpXpXpXpXpXpXpXpXpXpXpXpXpXpXpXpXpXpXpXpXpXpXpXpXpXpXpXpXpXpXpXpXpXpXpXpXpXpXpXpXpXpXpXyXU.4X",
"rXrXrXrXrXrXrXrXrXrXrXrXrXrXrXrXrXrXrXrXrXrXrXrXrXrXrXrXrXrXrXrXrXrXrXrXrXrXrXrXrXrXrXrXrXrXrXrXrXrXrXrXrXrXrXrXrXrXrXrXrXrXrXrXrXrXrXrXrXrXrXrXrXrXrXrXrXrXrXrXrXrXrXrXrXrXrXeXrXpXpXpXpXpXpXpXpXpXpXpXpXpXpXpXpXzX5X5XaXpXpXpXpXpXpXpXpXpXpXpXpXpXpXpXpXpXpXpXpXpXpXpXpXpXpXpXpXpXpXpXpXpXpXpXpXpXpXpXpXpXpXpXpXpXpXpXpX'.W.Z.Z.rXB.Z.W.0XC.%X].b.[.].9Xb.W.#X,X8.#XiXjX;X6.[.b.%X0Xb.pXfXC.C.[.%X].[.C.%X%Xb.[.'.wXb.W.rXpXpXpXpXpXpXpXpXpXpXpXpXpXpXpXpXpXpXpXpXpXpXpXpXpXpXpXpXpXpXpXpXpXpXpXpXpXpXpXpXpXpXpXpXpXpXaX5X4XzX",
"rXrXrXrXrXrXrXrXrXrXrXrXrXrXrXrXrXrXrXrXrXrXrXrXrXrXrXrXrXrXrXrXrXrXrXrXrXrXrXrXrXrXrXrXrXrXrXrXrXrXrXrXrXrXrXrXrXrXrXrXrXrXrXrXrXrXrXrXrXrXrXrXrXrXrXrXrXrXrXrXrXrXrXrXrXrXeXrXpXpXpXpXpXpXpXpXpXpXpXpXpXpXpXpXpXpXaXaXpXpXpXpXpXpXpXpXpXpXpXpXpXpXpXpXpXpXpXpXpXpXpXpXpXpXpXpXpXpXpXpXpXpXpXpXpXpXpXpXpXpXpXpXpXpXpXpXpX,X].%XrXkXrX].].rX<XwXkX;X'.,XkXwX'.;XfX>X%XpXjX%XC.%X%XgXrX,XpXpXpX%X].wX0X'.%XpXgX,X'.,XgX0X].rXpXpXpXpXpXpXpXpXpXpXpXpXpXpXpXpXpXpXpXpXpXpXpXpXpXpXpXpXpXpXpXpXpXpXpXpXpXpXpXpXpXpXpXpXpXpXpXaXaXpX",
"rXrXrXrXrXrXrXrXrXrXrXrXrXrXrXrXrXrXrXrXrXrXrXrXrXrXrXrXrXrXrXrXrXrXrXrXrXrXrXrXrXrXrXrXrXrXrXrXrXrXrXrXrXrXrXrXrXrXrXrXrXrXrXrXrXrXrXrXrXrXrXrXrXrXrXrXrXrXrXrXrXrXrXrXrXeXrXpXpXpXpXpXpXpXpXpXpXpXpXpXpXpXpXpXpXpXpXpXpXpXpXpXpXpXpXpXpXpXpXpXpXpXpXpXpXpXpXpXpXpXpXpXpXpXpXpXpXpXpXpXpXpXpXpXpXpXpXpXpXpXpXpXpXpXpXpXpXkXlXjXpXpXpXjXjXpXkXfXpXhXxXhXpXgXxXhXpXhXjXpXjX%XC.bXhXpXpXhXpXpXpXjXlXgXkXxXhXpXpXhXxXhXpXkXjXpXpXpXpXpXpXpXpXpXpXpXpXpXpXpXpXpXpXpXpXpXpXpXpXpXpXpXpXpXpXpXpXpXpXpXpXpXpXpXpXpXpXpXpXpXpXpXpXpXpXpX",
"rXrXrXrXrXrXrXrXrXrXrXrXrXrXrXrXrXrXrXrXrXrXrXrXrXrXrXrXrXrXrXrXrXrXrXrXrXrXrXrXrXrXrXrXrXrXrXrXrXrXrXrXrXrXrXrXrXrXrXrXrXrXrXrXrXrXrXrXrXrXrXrXrXrXrXrXrXrXrXrXrXrXrXrXeXrXpXpXpXpXpXpXpXpXpXpXpXpXpXpXpXpXpXpXpXpXpXpXpXpXpXpXpXpXpXpXpXpXpXpXpXpXpXpXpXpXpXpXpXpXpXpXpXpXpXpXpXpXpXpXpXpXpXpXpXpXpXpXpXpXpXpXpXpXpXpXpXpXpXpXpXpXpXpXpXpXpXpXpXpXpXpXpXpXpXpXpXpXpXpXhX;XW.gXpXpXpXpXpXpXpXpXpXpXpXpXpXpXpXpXpXpXpXpXpXpXpXpXpXpXpXpXpXpXpXpXpXpXpXpXpXpXpXpXpXpXpXpXpXpXpXpXpXpXpXpXpXpXpXpXpXpXpXpXpXpXpXpXpXpXpXpXpXpXpXpX",
"eXeXeXeXeXeXeXeXeXeXeXeXeXeXeXeXeXeXeXeXeXeXeXeXeXeXeXeXeXeXeXeXeXeXeXeXeXeXeXeXeXeXeXeXeXeXeXeXeXeXeXeXeXeXeXeXeXeXeXeXeXeXeXeXeXeXeXeXeXeXeXeXeXeXeXeXeXeXeXeXeXeXeXeXrXpXpXpXpXpXpXpXpXpXpXpXpXpXpXpXpXpXpXpXpXpXpXpXpXpXpXpXpXpXpXpXpXpXpXpXpXpXpXpXpXpXpXpXpXpXpXpXpXpXpXpXpXpXpXpXpXpXpXpXpXpXpXpXpXpXpXpXpXpXpXpXpXpXpXpXpXpXpXpXpXpXpXpXpXpXpXpXpXpXpXpXpXpXpXpXpXpXpXpXpXpXpXpXpXpXpXpXpXpXpXpXpXpXpXpXpXpXpXpXpXpXpXpXpXpXpXpXpXpXpXpXpXpXpXpXpXpXpXpXpXpXpXpXpXpXpXpXpXpXpXpXpXpXpXpXpXpXpXpXpXpXpXpXpXpXpXpXpXpXpXpX",
"iXiXiXiXiXiXiXiXiXiXiXiXiXiXiXiXiXiXiXiXiXiXiXiXiXiXiXiXiXiXiXiXiXiXiXiXiXiXiXiXiXiXiXiXiXiXiXiXiXiXiXiXiXiXiXiXiXiXiXiXiXiXiXiXiXiXiXiXiXiXiXiXiXiXiXiXiXiXiXiXiXiXiXiXiXpXpXpXpXpXpXpXpXpXpXpXpXpXpXpXpXpXpXpXpXpXpXpXpXpXpXpXpXpXpXpXpXpXpXpXpXpXpXpXpXpXpXpXpXpXpXpXpXpXpXpXpXpXpXpXpXpXpXpXpXpXpXpXpXpXpXpXpXpXpXpXpXpXpXpXpXpXpXpXpXpXpXpXpXpXpXpXpXpXpXpXpXpXpXpXpXpXpXpXpXpXpXpXpXpXpXpXpXpXpXpXpXpXpXpXpXpXpXpXpXpXpXpXpXpXpXpXpXpXpXpXpXpXpXpXpXpXpXpXpXpXpXpXpXpXpXpXpXpXpXpXpXpXpXpXpXpXpXpXpXpXpXpXpXpXpXpXpXpXpXpX",
"jXjXjXjXjXjXjXjXjXjXjXjXjXjXjXjXjXjXjXjXjXjXjXjXjXjXjXjXjXjXjXjXjXjXjXjXjXjXjXjXjXjXjXjXjXjXjXjXjXjXjXjXjXjXjXjXjXjXjXjXjXjXjXjXjXjXjXjXjXjXjXjXjXjXjXjXjXjXjXjXjXjXjXjXjXjXjXjXjXjXjXjXjXjXjXjXjXjXjXjXjXjXjXjXjXjXjXjXjXjXjXjXjXjXjXjXjXjXjXjXjXjXjXjXjXjXjXjXjXjXjXjXjXjXjXjXjXjXjXjXjXjXjXjXjXjXjXjXjXjXjXjXjXjXjXjXjXjXjXjXjXjXjXjXjXjXjXjXjXjXjXjXjXjXjXjXjXjXjXjXjXjXjXjXjXjXjXjXjXjXjXjXjXjXjXjXjXjXjXjXjXjXjXjXjXjXjXjXjXjXjXjXjXjXjXjXjXjXjXjXjXjXjXjXjXjXjXjXjXjXjXjXjXjXjXjXjXjXjXjXjXjXjXjXjXjXjXjXjXjXjXjXjXjXjXjX",
"=X=X=X=X=X=X=X=X=X=X=X=X=X=X=X=X=X=X=X=X=X=X=X=X=X=X=X=X=X=X=X=X=X=X=X=X=X=X=X=X=X=X=X=X=X=X=X=X=X=X=X=X=X=X=X=X=X=X=X=X=X=X=X=X=X=X=X=X=X=X=X=X=X=X=X=X=X=X=X=X=X=X=X=X=X=X=X=X=X=X=X=X=X=X=X=X=X=X=X=X=X=X=X=X=X=X=X=X=X=X=X=X=X=X=X=X=X=X=X=X=X=X=X=X=X=X=X=X=X=X=X=X=X=X=X=X=X=X=X=X=X=X=X=X=X=X=X=X=X=X=X=X=X=X=X=X=X=X=X=X=X=X=X=X=X=X=X=X=X=X=X=X=X=X=X=X=X=X=X=X=X=X=X=X=X=X=X=X=X=X=X=X=X=X=X=X=X=X=X=X=X=X=X=X=X=X=X=X=X=X=X=X=X=X=X=X=X=X=X=X=X=X=X=X=X=X=X=X=X=X=X=X=X=X=X=X=X=X=X=X=X=X=X=X=X=X=X=X=X=X=X=X=X=X=X=X",
"z z z z z z z z z z z z z z z z z z z z z z z z z z z z z z z z z z z z z z z z z z z z z z z z z z z z z z z z z z z z z z z z z z z z z z z z z z z z z z z z z z z z z z z z z z z z z z z z z z z z z z z z z z z z z z z z z z z z z z z z z z z z z z z z z z z z z z z z z z z z z z z z z z z z z z z z z z z z z z z z z z z z z z z z z z z z z z z z z z z z z z z z z z z z z z z z z z z z z z z z z z z z z z z z z z z z z z z z z z z z z z z z z z z z z z z z z z z z z z z z z z z z z z z z z z z z z z z z ",
"! ! ! ! ! ! ! ! ! ! ! ! ! ! ! ! ! ! ! ! ! ! ! ! ! ! ! ! ! ! ! ! ! ! ! ! ! ! ! ! ! ! ! ! ! ! ! ! ! ! ! ! ! ! ! ! ! ! ! ! ! ! ! ! ! ! ! ! ! ! ! ! ! ! ! ! ! ! ! ! ! ! ! ! ! ! ! ! ! ! ! ! ! ! ! ! ! ! ! ! ! ! ! ! ! ! ! ! ! ! ! ! ! ! ! ! ! ! ! ! ! ! ! ! ! ! ! ! ! ! ! ! ! ! ! ! ! ! ! ! ! ! ! ! ! ! ! ! ! ! ! ! ! ! ! ! ! ! ! ! ! ! ! ! ! ! ! ! ! ! ! ! ! ! ! ! ! ! ! ! ! ! ! ! ! ! ! ! ! ! ! ! ! ! ! ! ! ! ! ! ! ! ! ! ! ! ! ! ! ! ! ! ! ! ! ! ! ! ! ! ! ! ! ! ! ! ! ! ! ! ! ! ! ! ! ! ! ! ! ! ! ! ! ! ! ! ! ! ! ! ! ! ! ! ! ! ",
"G G G G G G G G G G G G G G G G G G G G G G G G G G G G G G G G G G G G G G G G G G G G G G G G G G G G G G G G G G G G G G G G G G G G G G G G G G G G G G G G G G G G G G G G G G G G G G G G G G G G G G G G G G G G G G G G G G G G G G G G G G G G G G G G G G G G G G G G G G G G G G G G G G G G G G G G G G G G G G G G G G G G G G G G G G G G G G G G G G G G G G G G G G G G G G G G G G G G G G G G G G G G G G G G G G G G G G G G G G G G G G G G G G G G G G G G G G G G G G G G G G G G G G G G G G G G G G G G ",
"G G G G G G G G G G G G G G G G G G G G G G G G G G G G G G G G G G G G G G G G G G G G G G G G G G G G G G G G G G G G G G G G G G G G G G G G G G G G G G G G G G G G G G G G G G G G G G G G G G G G G G G G G G G G G G G G G G G G G G G G G G G G G G G G G G G G G G G G G G G G G G G G G G G G G G G G G G G G G G G G G G G G G G G G G G G G G G G G G G G G G G G G G G G G G G G G G G G G G G G G G G G G G G G G G G G G G G G G G G G G G G G G G G G G G G G G G G G G G G G G G G G G G G G G G G G G G G G G ",
"G G G G G G G G G G G G G G G G G G G G G G G G G G G G G G G G G G G G G G G G G G G G G G G G G G G G G G G G G G G G G G G G G G G G G G G G G G G G G G G G G G G G G G G G G G G G G G G G G G G G G G G G G G G G G G G G G G G G G G G G G G G G G G G G G G G G G G G G G G G G G G G G G G G G G G G G G G G G G G G G G G G G G G G G G G G G G G G G G G G G G G G G G G G G G G G G G G G G G G G G G G G G G G G G G G G G G G G G G G G G G G G G G G G G G G G G G G G G G G G G G G G G G G G G G G G G G G G G ",
"G G G G G G G G G G G G G G G G G G G G G G G G G G G G G G G G G G G G G G G G G G G G G G G G G G G G G G G G G G G G G G G G G G G G G G G G G G G G G G G G G G G G G G G G G G G G G G G G G G G G G G G G G G G G G G G G G G G G G G G G G G G G G G G G G G G G G G G G G G G G G G G G G G G G G G G G G G G G G G G G G G G G G G G G G G G G G G G G G G G G G G G G G G G G G G G G G G G G G G G G G G G G G G G G G G G G G G G G G G G G G G G G G G G G G G G G G G G G G G G G G G G G G G G G G G G G G G G G ",
"G G G G G G G G G G G G G G G G G G G G G G G G G G G G G G G G G G G G G G G G G G G G G G G G G G G G G G G G G G G G G G G G G G G G G G G G G G G G G G G G G G G G G G G G G G G G G G G G G G G G G G G G G G G G G G G G G G G G G G G G G G G G G G G G G G G G G G G G G G G G G G G G G G G G G G G G G G G G G G G G G G G G G G G G G G G G G G G G G G G G G G G G G G G G G G G G G G G G G G G G G G G G G G G G G G G G G G G G G G G G G G G G G G G G G G G G G G G G G G G G G G G G G G G G G G G G G G G G ",
"G G G G G G G G G G G G G G G G G G G G G G G G G G G G G G G G G G G G G G G G G G G G G G G G G G G G G G G G G G G G G G G G G G G G G G G G G G G G G G G G G G G G G G G G G G G G G G G G G G G G G G G G G G G G G G G G G G G G G G G G G G G G G G G G G G G G G G G G G G G G G G G G G G G G G G G G G G G G G G G G G G G G G G G G G G G G G G G G G G G G G G G G G G G G G G G G G G G G G G G G G G G G G G G G G G G G G G G G G G G G G G G G G G G G G G G G G G G G G G G G G G G G G G G G G G G G G G G G ",
"G G G G G G G G G G G G G G G G G G G G G G G G G G G G G G G G G G G G G G G G G G G G G G G G G G G G G G G G G G G G G G G G G G G G G G G G G G G G G G G G G G G G G G G G G G G G G G G G G G G G G G G G G G G G G G G G G G G G G G G G G G G G G G G G G G G G G G G G G G G G G G G G G G G G G G G G G G G G G G G G G G G G G G G G G G G G G G G G G G G G G G G G G G G G G G G G G G G G G G G G G G G G G G G G G G G G G G G G G G G G G G G G G G G G G G G G G G G G G G G G G G G G G G G G G G G G G G G G ",
"G G G G G G G G G G G G G G G G G G G G G G G G G G G G G G G G G G G G G G G G G G G G G G G G G G G G G G G G G G G G G G G G G G G G G G G G G G G G G G G G G G G G G G G G G G G G G G G G G G G G G G G G G G G G G G G G G G G G G G G G G G G G G G G G G G G G G G G G G G G G G G G G G G G G G G G G G G G G G G G G G G G G G G G G G G G G G G G G G G G G G G G G G G G G G G G G G G G G G G G G G G G G G G G G G G G G G G G G G G G G G G G G G G G G G G G G G G G G G G G G G G G G G G G G G G G G G G G G ",
"! ! ! ! ! ! ! ! ! ! ! ! ! ! ! ! ! ! ! ! ! ! ! ! ! ! ! ! ! ! ! ! ! ! ! ! ! ! ! ! ! ! ! ! ! ! ! ! ! ! ! ! ! ! ! ! ! ! ! ! ! ! ! ! ! ! ! ! ! ! ! ! ! ! ! ! ! ! ! ! ! ! ! ! ! ! ! ! ! ! ! ! ! ! ! ! ! ! ! ! ! ! ! ! ! ! ! ! ! ! ! ! ! ! ! ! ! ! ! ! ! ! ! ! ! ! ! ! ! ! ! ! ! ! ! ! ! ! ! ! ! ! ! ! ! ! ! ! ! ! ! ! ! ! ! ! ! ! ! ! ! ! ! ! ! ! ! ! ! ! ! ! ! ! ! ! ! ! ! ! ! ! ! ! ! ! ! ! ! ! ! ! ! ! ! ! ! ! ! ! ! ! ! ! ! ! ! ! ! ! ! ! ! ! ! ! ! ! ! ! ! ! ! ! ! ! ! ! ! ! ! ! ! ! ! ! ! ! ! ! ! ! ! ! ! ! ! ! ! ! ! ! ! ! ! ! ",
"l l l l l l l l l l l l l l l l l l l l l l l l l l l l l l l l l l l l l l l l l l l l l l l l l l l l l l l l l l l l l l l l l l l l l l l l l l l l l l l l l l l l l l l l l l l l l l l l l l l l l l l l l l l l l l l l l l l l l l l l l l l l l l l l l l l l l l l l l l l l l l l l l l l l l l l l l l l l l l l l l l l l l l l l l l l l l l l l l l l l l l l l l l l l l l l l l l l l l l l l l l l l l l l l l l l l l l l l l l l l l l l l l l l l l l l l l l l l l l l l l l l l l l l l l l l l l l l l ",
"T.T.T.T.T.T.T.T.T.T.T.T.T.T.T.T.T.T.T.T.T.T.T.T.T.T.T.T.T.T.T.T.T.T.T.T.T.T.T.T.T.T.T.T.T.T.T.T.T.T.T.T.T.T.T.T.T.T.T.T.T.T.T.T.T.T.T.T.T.T.T.T.T.T.T.T.T.T.T.T.T.T.T.T.T.T.T.T.T.T.T.T.T.T.T.T.T.T.T.T.T.T.T.T.T.T.T.T.T.T.T.T.T.T.T.T.T.T.T.T.T.T.T.T.T.T.T.T.T.T.T.T.T.T.T.T.T.T.T.T.T.T.T.T.T.T.T.T.T.T.T.T.T.T.T.T.T.T.T.T.T.T.T.T.T.T.T.T.T.T.T.T.T.T.T.T.T.T.T.T.T.T.T.T.T.T.T.T.T.T.T.T.T.T.T.T.T.T.T.T.T.T.T.T.T.T.T.T.T.T.T.T.T.T.T.T.T.T.T.T.T.T.T.T.T.T.T.T.T.T.T.T.T.T.T.T.T.T.T.T.T.T.T.T.T.T.T.T.T.T.T.T.T.T.T.T.",
"xXxXxXxXxXxXxXxXxXxXxXxXxXxXxXxXxXxXxXxXxXxXxXxXxXxXxXxXxXxXxXxXxXxXxXxXxXxXxXxXxXxXxXxXxXxXxXxXxXxXxXxXxXxXxXxXxXxXxXxXxXxXxXxXxXxXxXxXxXxXxXxXxXxXxXxXxXxXxXxXxXxXxXxXxXxXxXxXxXxXxXxXxXxXxXxXxXxXxXxXxXxXxXxXxXxXxXxXxXxXxXxXxXxXxXxXxXxXxXxXxXxXxXxXxXxXxXxXxXxXxXxXxXxXxXxXxXxXxXxXxXxXxXxXxXxXxXxXxXxXxXxXxXxXxXxXxXxXxXxXxXxXxXxXxXxXxXxXxXxXxXxXxXxXxXxXxXxXxXxXxXxXxXxXxXxXxXxXxXxXxXxXxXxXxXxXxXxXxXxXxXxXxXxXxXxXxXxXxXxXxXxXxXxXxXxXxXxXxXxXxXxXxXxXxXxXxXxXxXxXxXxXxXxXxXxXxXxXxXxXxXxXxXxXxXxXxXxXxXxXxXxXxXxXxXxX",
"pXpXpXpXpXpXpXpXpXpXpXpXpXpXpXpXpXpXpXpXpXpXiXiXpXpXpXpXpXpXpXpXpXpXpXpXpXpXpXpXpXpXpXpXpXpXpXpXpXpXpXpXpXpXpXpXpXpXpXpXpXpXpXpXpXpXpXpXpXpXpXpXpXpXpXpXpXpXpXpXpXpXpXpXpXpXpXpXpXpXpXpXpXpXpXpXpXpXpXpXpXpXpXpXpXpXpXpXpXpXpXpXpXpXpXpXpXpXpXpXpXpXpXpXpXpXpXpXpXpXpXpXpXpXpXpXpXpXpXpXpXpXpXpXpXpXpXpXpXpXpXpXpXpXpXpXpXpXpXpXpXpXpXpXpXpXpXpXpXpXpXpXpXpXpXpXpXpXpXpXiXpXpXpXpXpXpXpXpXpXpXpXpXpXpXpXpXpXpXpXpXpXpXpXpXpXpXpXpXpXpXpXpXpXpXpXpXpXpXpXpXpXiXpXpXpXpXpXpXpXpXpXpXpXpXpXpXpXpXpXpXpXpXpXpXpXpXpXpXpXpXpXpXpXpXpX",
"G G G G G G G G G G G G G G G G G G G G C 3.gXxXp.g G G G G G G G G G G G G G G G G G G G G G G G G G G G G G G G G G G G G G G G G G G G G G G G G G G G G G G G G G G G G G G G G G G G G G G G G G G G G G G G G G G G G G G G G G G G G G G G G G G G G G G G G G G G G G G G G G G G G G G G G G G G G G G G G G G G G G G G G G G G G G G G G G G G G G G G G C ,XxX=XH :.-.-.-.-.-.-.-.-.-.-.-.-.-.-.-.-.-.-.-.-.-.-.-.-.-.-.-.-.-.-.-.-.-.-.-.,.A oXxXqX:.-.-.-.-.-.-.-.-.-.-.-.-.-.-.-.-.-.-.-.-.-.-.-.-.-.-.-.-.-.-.-.",
"r r r r r r r r r r r r r r r r r r r p # -.gXxXr.o a r r r r r r r r r r r r r r r r r r r r r r r r r r r r r r r r r r r r r r r r r r r r r r r r r r r r r r r r r r r r r r r r r r r r r r r r r r r r r r r r r r r r r r r r r r r r r r r r r r r r r r r r r r r r r r r r r r r r r r r r r r r r r r r r r r r r r r r r r r r r r r r r r r r r r r p # >XvX@X& z g g l l l l l g g g g g g g g g g g g g g g g g g g g g g g g g g g g z & (.cX9Xl g l g l g g g l g g g g g g g g g g l g g g g g g g g g g g l ",
"a a a a a a a a a a a a a a a a a a a f & ,.gXxXy.# g a a a a a a a a a a a a a a a a a a a a a a a a a a a a a a a a a a a a a a a a a a a a a a a a a a a a a a a a a a a a a a a a a a a a a a a a a a a a a a a a a a a a a a a a a a a a a a a a a a a a a a a a a a a a a a a a a a a a a a a a a a a a a a a a a a a a a a a a a a a a a a a a a a a a a a f r >XcX$Xa A C C C C C C C C C C C C C C C C C C C C C C C C C C C C C C C C C C C A r (.cXqXC C C C C C C C C C C C C C C C C C C C C C C C C C C C C C C C ",
"a a a a a a a a a a a a a a a a a a a f & ,.gXxXy.% f a a j s a a k a a a a a a a a a a a a a a a a a a a a a a a a a a a a a a a a a a a a a a a a a a a a a a a a a a a a a a a a a a a a a a a a a a a a a a a a a a a a a a a a a a a a a a a a a a a a a a a a a a a a a a a a a a a a a a a a a a a a a a a a a a a a a a a a a a a a a a a a a a a a a a a f & >XcX$Xp A C A S S S S R C C C C C C C C C C C C C C C C C C C C C C C C C C C C A r (.cXqXC z C C A C C C A C C C C C C C C C C R C C C C C C C C C C C R ",
"a a a a a a a a a a a a a a a a a a a f & ,.gXxXy.% f a 7 6 6 v a a a a a a k s a a a a a a a a a a a a a a a a a a a a a a a a a a a a a a a a a a a a a a a a a a a a a a a a a a a a a a a a a a a a a a a a a a a a a a a a a a a a a a a a a a a a a a a a a a a a a a a a a a a a a a a a a a a a a a a a a a a a a a a a a a a a a a a a a a a a a a a a a f & >XcX$Xp A C S ` ' ' n C C C C C C C C C C C C C C C C C C C C C C C C C C C C C A r (.cXqXC z C S  .A C R [ A C C C C C C C C C C C R C C C C C C C C C C ",
"a a a a a a a a a a a a a a a a a a a f & ,.gXxXy.% f a 6 a a 7 k v s c 6 k P P s k 7 k s 6 6 v a k 6 v s 6 6 a a a a a a a a a a a a a a a a a a a a a a a a a a a a a a a a a a a a a a a a a a a a a a a a a a a a a a a a a a a a a a a a a a a a a a a a a a a a a a a a a a a a a a a a a a a a a a a a a a a a a a a a a a a a a a a a a a a a a a a a a a f & >XcX$Xp A C C C _ C C _ C ` ` _ _ ' S C R ' R C C C C C C C C C C C C C C C C C A r (.cXqXC z C S [ R C R [ A W ' _ C R ` ' W C _ S [ _ A _ ' S C _ _ S _ ",
"a a a a a a a a a a a a a a a a a a a f & ,.gXxXy.% f a 6 s a k c 6 k 7 s a 6 k a a s 6 k P a 6 s 6 k a 6 k k 6 a a a a a a a a a a a a a a a a a a a a a a a a a a a a a a a a a a a a a a a a a a a a a a a a a a a a a a a a a a a a a a a a a a a a a a a a a a a a a a a a a a a a a a a a a a a a a a a a a a a a a a a a a a a a a a a a a a a a a a a a a f & >XcX$Xp A C C C ` S S ' S ' C ' n R _ S ' A ' S C C C C C C C C C C C C C C C C A r (.cXqXC z C n ` _ A _ ` S ' C _ R R ` C ' S ' C ' C _ R A ' A [ S C ' ",
"a a a a a a a a a a a a a a a a a a a f & ,.gXxXy.% f a 6 s t v k 6 a k 6 k v k a v 6 6 k 6 t 6 k 6 a a 6 6 6 v a a a a a a a a a a a a a a a a a a a a a a a a a a a a a a a a a a a a a a a a a a a a a a a a a a a a a a a a a a a a a a a a a a a a a a a a a a a a a a a a a a a a a a a a a a a a a a a a a a a a a a a a a a a a a a a a a a a a a a a a a f & >XcX$Xp A C C C ` A S ` S ` l ` S S _ R ' _ ' S C C C C C C C C C C C C C C C C A r (.cXqXC z C R _ R _ R _ R _ l R _ R R N ' S ` C ' C ` S N ' n ` C C ' ",
"a a a a a a a a a a a a a a a a a a a f & ,.gXxXy.% f a 7 j k P a 6 s a k 6 6 k k 6 s 6 k 6 t 6 k 6 k a v k a a a a a a a a a a a a a a a a a a a a a a a a a a a a a a a a a a a a a a a a a a a a a a a a a a a a a a a a a a a a a a a a a a a a a a a a a a a a a a a a a a a a a a a a a a a a a a a a a a a a a a a a a a a a a a a a a a a a a a a a a a a f & >XcX$Xp A C C C ' A S ' S ' N ' S S _ S ' C A C C C C C C C C C C C C C C C C C A r (.cXqXC z C R _ S  .C ' S ' S _ R R R C ' S ' C ' C _ R S ' A ' C C ' ",
"a a a a a a a a a a a a a a a a a a a f & ,.gXxXy.% f a v 6 6 k a v s v 6 k s 6 k v 6 k k k t c s s 6 v a 6 6 k a a a a a a a a a a a a a a a a a a a a a a a a a a a a a a a a a a a a a a a a a a a a a a a a a a a a a a a a a a a a a a a a a a a a a a a a a a a a a a a a a a a a a a a a a a a a a a a a a a a a a a a a a a a a a a a a a a a a a a a a a f & >XcX$Xp A C C C R A A R A R C R S S W C R ' _ C C C C C C C C C C C C C C C C C A r (.cXqXC z C S R A _ C R A S ' _ C R n C _ A _ C R _ C _ ` S C _ C C _ ",
"a a a a a a a a a a a a a a a a a a a f & ,.gXxXy.% f a a a a a a a a a a a a a a a a a a a a a a a a a a a a a a a a a a a a a a a a a a a a a a a a a a a a a a a a a a a a a a a a a a a a a a a a a a a a a a a a a a a a a a a a a a a a a a a a a a a a a a a a a a a a a a a a a a a a a a a a a a a a a a a a a a a a a a a a a a a a a a a a a a a a a a f & >XcX$Xp A C C C C C C C C C C C C C C C C C C C C C C C C C C C C C C C C C C C A r (.cXqXC z C C C C C C C C C C C C C C C C C C C C C C C C C C C C C C ",
"a a a a a a a a a a a a a a a a a a a f & ,.gXxXy.% f a a a a a a a a a a a a a a a a a a a a a a a a a a a a a a a a a a a a a a a a a a a a a a a a a a a a a a a a a a a a a a a a a a a a a a a a a a a a a a a a a a a a a a a a a a a a a a a a a a a a a a a a a a a a a a a a a a a a a a a a a a a a a a a a a a a a a a a a a a a a a a a a a a a a a a f & >XcX$Xa A C C C C C C C C C C C C C C C C C C C C C C C C C C C C C C C C C C C A r (.cXqXC C C C C C C C C C C C C C C C C C C C C C C C C C C C C C C C ",
"a a a a a a a a a a a a a a a a a a a a & ,.gXxXy.% f a a a a a a a a a a a a a a a a a a a a a a a a a a a a a a a a a a a a a a a a a a a a a a a a a a a a a a a a a a a a a a a a a a a a a a a a a a a a a a a a a a a a a a a a a a a a a a a a a a a a a a a a a a a a a a a a a a a a a a a a a a a a a a a a a a a a a a a a a a a a a a a a a a a a a a a & >XcX$Xr C z z z z z z z z z z z z z z z z z z z z z z z z z z z z z z z z z z z A r (.cXqXC z z z z z z z z z z z z z z z z z z z z z z z z z z z z z z z ",
"r r r r r r r r r r r r r r r r r r r p # :.gXxXr.+ a r r r r r r r r r r r r r r r r r r r r r r r r r r r r r r r r r r r r r r r r r r r r r r r r r r r r r r r r r r r r r r r r r r r r r r r r r r r r r r r r r r r r r r r r r r r r r r r r r r r r r r r r r r r r r r r r r r r r r r r r r r r r r r r r r r r r r r r r r r r r r r r r r r r r r r p # >XvX@X$ g f f f f f f f f f f f f f f f f f f f f f f f f f f f f f f f f f f f g # ~.cX9Xf f f f f f f f f f f f f f f f f f f f f f f f f f f f f f f f ",
"r r r r r r r r r r r r r r r r r r r p # :.gXxXr.+ a r r r r r r r r r r r r r r r r r r r r r r r r r r r r r r r r r r r r r r r r r r r r r r r r r r r r r r r r r r r r r r r r r r r r r r r r r r r r r r r r r r r r r r r r r r r r r r r r r r r r r r r r r r r r r r r r r r r r r r r r r r r r r r r r r r r r r r r r r r r r r r r r r r r r r r p # >XvX@X$ g f f f f f f f f f f f f f f f f f f f f f f f f f f f f f f f f f f f g # ~.cX9Xf f f f f f f f f f f f f f f f f f f f f f f f f f f f f f f f ",
"r r r r r r r r r r r r r r r r r r r p # :.gXxXr.+ a r r r r r r r r r r r r r r r r r r r r r r r r r r r r r r r r r r r r r r r r r r r r r r r r r r r r r r r r r r r r r r r r r r r r r r r r r r r r r r r r r r r r r r r r r r r r r r r r r r r r r r r r r r r r r r r r r r r r r r r r r r r r r r r r r r r r r r r r r r r r r r r r r r r r r r p # >XvX@X$ g f f f f f f f f f f f f f f f f f f f f f f f f f f f f f f f f f f f g # ~.cX9Xf f f f f f f f f f f f f f f f f f f f f f f f f f f f f f f f ",
"r r r r r r r r r r r r r r r r r r r p # :.gXxXr.+ a r r r r r r r r r r r r r r r r r r r r r r r r r r r r r r r r r r r r r r r r r r r r r r r r r r r r r r r r r r r r r r r r r r r r r r r r r r r r r r r r r r r r r r r r r r r r r r r r r r r r r r r r r r r r r r r r r r r r r r r r r r r r r r r r r r r r r r r r r r r r r r r r r r r r r r p # >XvX@X$ g f f f f f f f f f f f f f f f f f f f f f f f f f f f f f f f f f f f g # ~.cX9Xf f f f f f f f f f f f f f f f f f f f f f f f f f f f f f f f ",
"r r r r r r r r r r r r r r r r r r r p # :.gXxXr.+ a r r r r r r r r r r r r r r r r r r r r r r r r r r r r r r r r r r r r r r r r r r r r r r r r r r r r r r r r r r r r r r r r r r r r r r & r r r r r r r r r r r r r r r r r r r r r r r r r r r r r r r r r r r r r r r r r r r r r r r r r r r r r r r r r r r r r r r r r r r r r r r r r r r r r r r p # >XvX@X$ g f f f f f f f f f f f f f f f f f f f f f f f f f f f f f f f f f f f g # ~.cX9Xf f f f f f f f f f f f f f f f f f f f f f f f f f f f f f f f ",
"; r r r r r r r r r r r r r r r r r r p # :.gXxXr.+ a r r r r r r r r r r r r r < < r r < < r r r r r r r r r r r r r r r r r r r r r r r r r r r r r r r r r r r r r > > < r r r r r r r r r r r > p r r r r r r r r r r r p r r r r r r r r r r r r r r r r r r < > > > < r r r r r r r r r r r r r r r r r r r r r r r r r r p r r r r r r r r r r r r r r r r p # >XvX@X$ g f f f f f f f f s 4 4 s f f f f f 4 s f f f f f f f f f f f f f f f f g # ~.cX9Xf f f f f f f f f f f f f f f f f f f f f f f f f f f f f f f f ",
"; r r < r r < < r r r r r r r r r r r p # :.gXxXr.+ a r r r r r r r r r r r r r ; : r r : ; r < < r > > r r < r r r < r & < < r r r r r r r r r r r r r r r r r r r - , > < r < < r r < < r > , < r r r < < r < r r r < & & - < r < < r r & < r < < r r r r r r r < , : > & & < r r < < r < < r r & < r r r < r r r < r & < r < - < & r r & r r < & r < & r r r r p # >XvX@X$ g f f f f f f f f 4 3 s 3 s f f s f 4 s f s f f f f f f f f f f f f f f g # ~.cX9Xf f f f f f f f f f f f f f f f f f f f f f f f f f f f f f f f ",
"; r , - > < ; , < r r r r r r r r r r p # :.gXxXr.+ a r r r r r r r r r r r r r , ; < & ; , < - ; > ; : < > - , < : , < - , > r r r r r r r r r r r r r r r r r r < ; r r r > - - < ; - ; < , : < ; < ; - ; , ; , r > - , > : , < - ; < , ; > > ; , < r r r r r r r < , t < - ; < > ; ; ; - ; r > ; - , r , - , < : , < > - , > : > - < r ; < : , < > - , & r r r p # >XvX@X$ g f f f f f f f f 4 2 h s 3 s 4 3 s 4 s s 4 4 4 4 f 4 s f f f f f f f f g # ~.cX9Xf f f f f f f f s f f f f f f f f f f f f f f f f f f f f f f f ",
"; < ; < ; , - & r r r r r r r r r r r p # :.gXxXr.+ a r r r r r r r r r r r r r , , > > , , > - < ; , > r : < ; , ; r & ; < r r r r r r r r r r r r r r r r r r r > , r r r ; > , , ; & < , < , t ; < ; r , , r ; < ; < ; > - r , , > ; - > t , , r r r r r r r r r < ; r , - < ; , > r ; r , < > > r ; < ; < ; > ; r r < < ; < - t - < r ; < : r < ; < ; > r r r p # >XvX@X$ g f f f f f f f f 4 4 f s 4 4 4 s 3 4 s f s 4 2 4 s 3 f f f f f f f f f g # ~.cX9Xf f f s 3 3 3 4 f f f f f f f f f f f f f f f 4 s f f f f f f f ",
"- < : > > r < ; < r r r r r r r r r r p # :.gXxXr.+ a r r r r r r r r r r r r r , < , , > , > ; > < , > < : > > < - r r & - > r r r r r r r r r r r r r r r r r r < ; r r r ; , > < ; r < , < , t ; < ; r > > r - < ; , > < ; r - ; > < - < r r > ; < r r r r r r r < - r , ; > < , < & - r , < > > t ; > ; > > > - r < ; , ; < ; t ; < r ; < ; r < : , > < r r r p # >XvX@X$ g f f f f f f f f 4 2 h s 3 4 3 4 s 4 s 4 4 3 2 2 3 4 f f f f f f f f f g # ~.cX9Xf f f f f 4 s f 2 f 2 4 4 s 4 s f s 4 s f f s 4 f 2 4 s 2 4 f f ",
"; r ; < < < < - > r r r r r r r r r r p # :.gXxXr.+ a r r r r r r r r r r r r r ; < ; - < ; < - < & > ; < - > < < ; r < < > - r r r r r r r r r r r r r r r r r r r ; , > < , > < < ; r < , < ; < ; < ; r > > r ; r , > < & ; < > , < & - < r < < ; < r r r r r r r < ; r < - < & , > & ; r - < > ; > ; r ; < < < ; t < ; < ; < ; < > , > ; < ; r r - > < & r r r p # >XvX@X$ g f f f f f f f f 4 3 s 3 s s 4 s f 4 2 4 2 4 2 f 3 s f f f f f f f f f g # ~.cX9Xf f f f f 4 s f 3 f 3 s 3 4 2 4 f 3 s 4 s f 2 2 s 3 s 3 2 4 2 s ",
"< r < , > < , > r r r r r r r r r r r p # :.gXxXr.+ a r r r r r r r r r r r r r < & < < & < r < , < r > < & , > < < r r > > & r r r r r r r r r r r r r r r r r r r r > , < r > , < < r < < r > < < r < r < < r < r & , > & < > r > , < < < r < , < r r r r r r r r < < r r < , < < < r < r < r > , > < r < , > < < r r > > < r < > r > > < < < r r & , > & r r r p # >XvX@X$ g f f f f f f f f s 4 4 s f f s 4 s s f s 4 s f f 3 f f f f f f f f f f g # ~.cX9Xf f f f f 4 s f 3 f 3 f 4 2 f 4 s 3 4 3 2 f 4 s s 4 h 3 f s 4 f ",
"r r r r r r r r r r r r r r r r r r r p # :.gXxXr.+ a r r r r r r r r r r r r r r r r r r r r r r r r r r r r r r r r r r r r r r r r r r r r r r r r r r r r r r r r r r r r r r r r r r r r r r r r r r r r r r r r r r r r r r r r r r r r r r r r r r r r r r r r r r r r r r r r r r r r r , > t r r r r r r r r r r r r r r r r r r r r r r r r r r r r r r p # >XvX@X$ g f f f f f f f f f f f f f f f f f f f f f f f 4 4 f f f f f f f f f f g # ~.cX9Xf f f f f 4 s f 3 f 3 f 4 2 f 4 s 3 s f f f 4 2 s 4 f 3 f s 4 f ",
"r r r r r r r r r r r r r r r r r r r p # :.gXxXr.+ a r r r r r r r r r r r r r r r r r r r r r r r r r r r r r r r r r r r r r r r r r r r r r r r r r r r r r r r r r r r r r r r r r r r r r r r r r r r r r r r r r r r r r r r r r r r r r r r r r r r r r r r r r r r r r r r r r r r r r < < r r r r r r r r r r r r r r r r r r r r r r r r r r r r r r r p # >XvX@X$ g f f f f f f f f f f f f f f f f f f f f f f s 2 f f f f f f f f f f f g # ~.cX9Xf f f f f 4 s f 3 f 3 f 4 s f 4 f 2 3 4 s f s 4 s 4 f 4 f s 4 s ",
"r r r r r r r r r r r r r r r r r r r p # :.gXxXr.+ a r r r r r r r r r r r r r r r r r r r r r r r r r r r r r r r r r r r r r r r r r r r r r r r r r r r r r r r r r r r r r r r r r r r r r r r r r r r r r r r r r r r r r r r r r r r r r r r r r r r r r r r r r r r r r r r r r r r r r r r r r r r r r r r r r r r r r r r r r r r r r r r r r r r r r r p # >XvX@X$ g f f f f f f f f f f f f f f f f f f f f f f f f f f f f f f f f f f f g # ~.cX9Xf f f f f f f f f f f f f f f f f f f f f f f 4 s f f f f f f f ",
"r r r r r r r r r r r r r r r r r r r p # :.gXxXr.+ a r r r r r r r r r r r r r r r r r r r r r r r r r r r r r r r r r r r r r r r r r r r r r r r r r r r r r r r r r r r r r r r r r r r r r r r r r r r r r r r r r r r r r r r r r r r r r r r r r r r r r r r r r r r r r r r r r r r r r r r r r r r r r r r r r r r r r r r r r r r r r r r r r r r r r r p # >XvX@X$ g f f f f f f f f f f f f f f f f f f f f f f f f f f f f f f f f f f f g # ~.cX9Xf f f f f f f f f f f f f f f f f f f f f f f s f f f f f f f f ",
"r r r r r r r r r r r r r r r r r r r p # :.gXxXr.+ a r r r r r r r r r r r r r r r r r r r r r r r r r r r r r r r r r r r r r r r r r r r r r r r r r r r r r r r r r r r r r r r r r r r r r r r r r r r r r r r r r r r r r r r r r r r r r r r r r r r r r r r r r r r r r r r r r r r r r r r r r r r r r r r r r r r r r r r r r r r r r r r r r r r r r r p # >XvX@X$ g f f f f f f f f f f f f f f f f f f f f f f f f f f f f f f f f f f f g # ~.cX9Xf f f f f f f f f f f f f f f f f f f f f f f f f f f f f f f f ",
"r r r r r r r r r r r r r r r r r r r p # :.gXxXr.+ a r r r r r r r r r r r r r r r r r r r r r r p p p p r r r r r r r r r r r r r r r r r r r r r r r r r r r r r r r r r r r r r r r r r r r r r p a a a a r r r r r r r r r r r r r r r r r r r r r r r r r r r r r r r r r r r r r r r r r r r r r r r a a a p r r r r r r r r r r r r r r r r r r r r r r r p # >XvX@X$ g f f f f f f f f f f f f f f j j x x x f d f f f f f f f f f f f f f f g # ~.cX9Xf f f f f f f f f f f f f f f f f f f f f f f f f f f f f f f f ",
"r r r r r r r r r r r r r r r r r r r p # :.gXxXr.+ a r r r r r r r r r r r r r r r r r r r p a s j j j j j a p r r r r r r r r r r r r r r r r r r r r r r r r r r r r r r r r r r r r r r r r a n ~ Q ^ ^ n s a p r r r r r r r r r r r r r r r r r r r r r r r r r r r r r r r r r r r r r r r r p a j j E ^ Q ~ n a r r r r r r r r r r r r r r r r r r r r r p # >XvX@X$ g f f f f f f f f f f f f T U Y d.d.d.d.U / j f f f f f f f f f f f f f g # ~.cX9Xf f f f f f f f f f f f f f f f f f f f f f f f f f f f f f f f ",
"p r r r r r r r r r r r r r r r r r r p # :.gXxXr.+ a r r r r r r r r r r r r r r r r r r a j j 1 * = = = * j j s p r r r r r r r r r r r r r r r r r r r r r r r r r r r r r r r r r r r r p x Q ^ Q ~ E E 5 * j j s r r r r r r r r r r r r r r r r r r r r r r r r r r r r r r r r r r r r r p a j j 1 = j E E Q ^ ^ E a r r r r r r r r r r r r r r r r r r r p # >XvX@X$ g f f f f f f f f f h x U d.f.s.J J J J f.f.d.U f f f f f f f f f f f f g # ~.cX9Xf f f f f f f f f f f f f f f f f f f f f f f f f f f f f f f f ",
"j a r r r r r r r r r r r r r r r r r p # :.gXxXr.+ a r r r r r r r r r r r r r r r r p s j 1 1 W 2.y.y.y.<.k * j j p r r r r r r r r r r r r r r r r r r r r r r r r r r r r r r r r r r a ~ ^ Q Q <.y.n.n.y.<.j * j j p r r r r r r r r r r r r r r r r r r r r r r r r r r r r r r r r r r p j j * j W 4.u.n.u.4.Q ~ ^ ~ f r r r r r r r r r r r r r r r r r r p # >XvX@X$ g f f f f f f f f f T Y f.J d.c.A._._.A.c.f.s.f.Y j f f f f f f f f f f g # ~.cX9Xf f f f f f f f f f f f f f f f f f f f f f f f f f f f f f f f ",
"1 j a r r r r r r r r r r r r r r r r p # :.gXxXr.+ a r r r r r r r r r r r r r r r r s j 1 W p.`.oXOXOXOXoXQ.2.1 1 j p r r r r r r r r r r r r r r r r r r r r r r r r r r r r r r r r a ~ ^ Q 5.V.`.oXOX$X$XoXE.<.1 j j p r r r r r r r r r r r r r r r r r r r r r r r r r r r r r r r r p j j j ,.V.`.OXOXOXOXXXE.4.~ ^ Q a r r r r r r r r r r r r r r r r r p # >XvX@X$ g f f f f f f f f T d.f.d.v.;XpXkXjXjXkXpX;Xc.J f.Y j f f f f f f f f f g # ~.cX9Xf f f f f f f f f f f f f f f f f f f f f f f f f f f f f f f f ",
"x 1 j p r r r r r r r r r r r r r r r p # :.gXxXr.+ a r r r r r r r r r r r r r r r a j j <.!.+X`.`.`.`.`.`.oXOXp.j 1 j p r r r r r r r r r r r r r r r r r r r r r r r r r r r r r r r ~ ^ Q 4.`.OX`.oXQ.6.8.`.OXOXy.1 j j r r r r r r r r r r r r r r r r r r r r r r r r r r r r r r r r j j j 4.XXOX`.`.`.`.`.`.OXoXu.~ E j r r r r r r r r r r r r r r r r r p # >XvX@X$ g f f f f f f f j Y f.d.A.kXkXpXpXpXpXpXpXhXpXm.J f.U f f f f f f f f f g # ~.cX9Xf f f f f f f f f f f f f f f f f f f f f f f f f f f f f f f f ",
"V.j j j r r r r r r r r r r r r r r r p # :.gXxXr.+ a r r r r r r r r r r r r r r p j * <.`.oX`.`.`.`.`.`.`.`.`.+Xp.1 j s r r r r r r r r r r r r r r r r r r r r r r r r r r r r r r l ^ ~ 7.oXXX`.`.OX/.L ..`.`.`.+Xy.1 j a r r r r r r r r r r r r r r r r r r r r r r r r r r r r r r a j * 7.OX`.`.`.`.`.`.`.XX`.`.$X7.* j a r r r r r r r r r r r r r r r r p # >XvX@X$ g f f f f f f h I f.Y _.hXpXpXpXpXpXpXpXpXpXpXkXm.J f./ h f f f f f f f g # ~.cX9Xf f f f f f f f f f f f f f f f f f f f f f f f f f f f f f f f ",
"+X7.* j p r r r r r r r r r r r r r r p # :.gXxXr.+ a r r r r r r r r r r r r r r s j k /.OX`.`.`.`.`.`.`.`.`.`.`.OX4.* j p r r r r r r r r r r r r r r r r r r r r r r r r r r r r p ~ Q | !.oX`.`.`.OXV.L 9.oX`.`.`.oX<.* j p r r r r r r r r r r r r r r r r r r r r r r r r r r r r p j 1 W (.oX`.`.`.`.`.`.XXoX8.[ Q.XX} 1 j p r r r r r r r r r r r r r r r p # >XvX@X$ g f f f f f f x d.s.c.pXpXpXpXpXpXpXpXpXpXpXpXfXrXg.f.Y j f f f f f f f g # ~.cX9Xf f f f f f f f f f f f f f f f f f f f f f f f f f f f f f f f ",
"oXQ.x 5 s r r r r r r r r r r r r r r p # :.gXxXr.+ a r r r r r r r r r r r r r p j * 4.+X`.`.`.`.`.`.`.`.`.`.`.`.OX/.j j a r r r r r r r r r r r r r r r r r r r r r r r r r r r r f ^ E u.OX`.`.`.`.+Xu.8 8.OX`.`.`.OXV.1 j a r r r r r r r r r r r r r r r r r r r r r r r r r r r r p j * u.+X`.`.`.`.`.`.oX`.9.) ) C.@Xu.* j a r r r r r r r r r r r r r r r p # >XvX@X$ g f f f f f h / f.K ;XhXpXpXpXpXpXpXpXpXpXpXpXpXjX_.J d.T f f f f f f f g # ~.cX9Xf f f f f f f f f f f f f f f f f f f f f f f s s f f f f f f f ",
"`.oX<.1 j p r r r r r r r r r r r r r p # :.gXxXr.+ a r r r r r r r r r r r r r p j j n.OX`.`.`.`.`.`.`.`.`.`.`.`.`.`.} 1 s r r r r r r r r r r r r r r r r r r r r r r r r r r r r x ^ ^ /.OX`.`.`.`.OX8.L B.+X`.`.`.oX~.W 1 s r r r r r r r r r r r r r r r r r r r r r r r r r r r r a 5 x E.OX`.`.`.`.`.XX).6.L ] /.OXoXE.n 1 a r r r r r r r r r r r r r r r p # >XvX@X$ g f f f f f f U f.l.eXfXpXpXpXpXpXpXpXpXpXpXpXpXkX;Xd.f.I f f f f f f f g # ~.cX9Xf f f f s 3 3 s f f f f f f f f f f f f f f f 4 2 f f f f f f f ",
"`.OX7.* j p r r r r r r r r r r r r r p # :.gXxXr.+ a r r r r r r r r r r r r r a 5 x E.oX`.`.`.`.`.`.`.`.`.`.`.`.`.OX4.* j r r r r r r r r r r r r r r r r r r r r r r r r r r r r E Q <.).XX`.`.`.`.XX)./.!.oX`.`.`.`.XX<.* j r r r r r r r r r r r r r r r r r r r r r r r r r r r r s * W `.`.`.`.`.`.`.oX!.] ..Q.OX`.`.`.} * s r r r r r r r r r r r r r r r p # >XvX@X$ g f f f f f f Y s.v.fXpXpXpXpXpXpXpXpXpXpXpXpXpXpXeXl.f.U h f f f f f f g # ~.cX9Xf f f f 3 s f f s 3 2 f 4 4 4 2 3 s f 4 4 4 f 4 s f 4 4 f s 3 2 ",
"`.+Xu.= j p r r r r r r r r r r r r r p # :.gXxXr.+ a r r r r r r r r r r r r r a 5 x (.XX`.`.`.XXoXoX`.`.`.`.`.`.`.+Xy.= j p r r r r r r r r r r r r r r r r r r r r r r r r r r r E Q <.XX`.`.`.`.`.`.XXOXoX`.`.`.`.`.+X4.= j r r r r r r r r r r r r r r r r r r r r r r r r r r r r j * ,.OX`.`.`.`.`.`.`.OXW.~.OX`.`.`.OX<.* j r r r r r r r r r r r r r r r p # >XvX@X$ g f f f f f f Y J m.jXpXpXpXpXfXhXpXpXpXpXpXpXpXpXkXc.s.U h f f f f f f g # ~.cX9Xf f f f 4 3 s f s s 3 s 3 s 3 4 2 4 f 3 s 4 s 4 s 4 2 2 4 3 s s ",
"`.OXy.= j p r r r r r r r r r r r r r p # :.gXxXr.+ a r r r r r r r r r r r r r a 5 x !.oX`.`.OX/.9.~.XX`.`.`.`.`.`.OXt.= j p r r r r r r r r r r r r r r r r r r r r r r r r r r r E Q <.`.`.`.`.`.`.`.`.`.`.`.`.`.`.`.OX3.= j r r r r r r r r r r r r r r r r r r r r r r r r r r r r s * } oX`.`.`.`.`.`.`.`.oXXX`.`.`.`.OX<.* j r r r r r r r r r r r r r r r p # >XvX@X$ g f f f f f f Y J v.kXpXpXpXkXwX'.fXpXpXpXpXpXpXpXpXl.s.U h f f f f f f g # ~.cX9Xf f f f f s 3 s s 4 3 s 3 f 4 s f 4 f 3 h s 4 4 2 4 3 3 4 s 3 s ",
"`.OX7.* j p r r r r r r r r r r r r r p # :.gXxXr.+ a r r r r r r r r r r r r r a j j V.OX`.OX/.] 8 u.+X`.`.`.`.`.`.oX2.* j r r r r r r r r r r r r r r r r r r r r r r r r r r r r n Q | E.oX`.`.`.`.`.`.`.`.`.`.`.`.`.`.<.* s r r r r r r r r r r r r r r r r r r r r r r r r r r r r s 1 S Q.oX`.`.`.`.`.`.`.`.`.`.`.`.XX`.W 1 s r r r r r r r r r r r r r r r p # >XvX@X$ g f f f f f f Y s.c.rXfXpXfXrX8.] %XkXpXpXpXpXpXfXwXg.f.I h f f f f f f g # ~.cX9Xf f f f f f 2 4 3 s 3 s 3 f 4 s s 4 f 3 f 4 2 4 s 4 2 f f f s 3 ",
"XX).W 1 s r r r r r r r r r r r r r r p # :.gXxXr.+ a r r r r r r r r r r r r r p j = 7.+X`.V.] L 6.`.XX`.`.`.`.`.oX!.W 1 a r r r r r r r r r r r r r r r r r r r r r r r r r r r r l ^ E n.+X`.`.`.`.`.`.`.`.`.`.`.`.OXE.x 5 a r r r r r r r r r r r r r r r r r r r r r r r r r r r r a j * n.+X`.`.`.`.`.`.`.`.`.`.`.`.OXR.k j a r r r r r r r r r r r r r r r p # >XvX@X$ g f f f f f f I f.Y ;XkXpXpXB.) b.rXpXpXpXpXpXpXhX:Xf.f.T f f f f f f f g # ~.cX9Xf f f f 4 3 4 f 4 4 4 s 4 f 4 s f 4 f 3 4 3 f 4 s s 3 3 s 4 3 2 ",
"OXp.1 j a r r r r r r r r r r r r r r p # :.gXxXr.+ a r r r r r r r r r r r r r r j 1 W `.oX .L 9.`.oX`.`.`.`.`.`.OXu.1 j a r r r r r r r r r r r r r r r r r r r r r r r r r r r r p Q ~ 4.XX`.`.`.`.`.`.`.`.`.`.`.`.oX7.* j p r r r r r r r r r r r r r r r r r r r r r r r r r r r r p j * 3.OX`.`.`.`.`.`.`.`.`.`.`.`.XX2.* j p r r r r r r r r r r r r r r r p # >XvX@X$ g f f f f f h T d.J m.jXpXZ.] 9.0XkXpXpXpXpXpXpXpXv.J d.j f f f f f f f g # ~.cX9Xf f f f f f f f f f f f f f f f f f f 3 f f f f f f f f f f f f ",
"~.S 1 j p r r r r r r r r r r r r r r p # :.gXxXr.+ a r r r r r r r r r r r r r r a j * 4.+X/.8.`.oX`.`.`.`.`.`.OXQ.x 5 j r r r r r r r r r r r r r r r r r r r r r r r r r r r r r r n ^ ~ n.OX`.`.`.`.`.`.`.`.`.`.+XT.k j s r r r r r r r r r r r r r r r r r r r r r r r r r r r r r r a j 1 p.+X`.`.`.`.`.`.`.`.`.`.$Xn.1 j s r r r r r r r r r r r r r r r r p # >XvX@X$ g f f f f f f f Y f.d.;XnX'.6.,XhXpXpXpXpXpXiXnX_.K f.U f f f f f f f f g # ~.cX9Xf f f f f f f f f f f f f f f f f f f 4 f f f f f f f f f f f f ",
"<.* j a r r r r r r r r r r r r r r r p # :.gXxXr.+ a r r r r r r r r r r r r r r r s j j n.+X+X`.`.`.`.`.`.`.OXQ.} * j a r r r r r r r r r r r r r r r r r r r r r r r r r r r r r r a Q ^ Q V.OXoX`.`.`.`.`.`.`.OXE.W 1 j p r r r r r r r r r r r r r r r r r r r r r r r r r r r r r r p j 1 k R.+XXX`.`.`.`.`.`.`.OXR.n 1 j p r r r r r r r r r r r r r r r r p # >XvX@X$ g f f f f f f f T f.f.g.<XnXrXpXpXpXpXpXpXpXhX:Xd.f.Y j f f f f f f f f g # ~.cX9Xf f f f f f f f f f f f f f f f f f f f f f f f f f f f f f f f ",
"* j a r r r r r r r r r r r r r r r r p # :.gXxXr.+ a r r r r r r r r r r r r r r r p k ~ Q y.!.+XOXoXoXoX+XoXn.R * j a r r r r r r r r r r r r r r r r r r r r r r r r r r r r r r r r j ^ Q Q u.~.+XOXoXoXOX+X`.p.x * j a r r r r r r r r r r r r r r r r r r r r r r r r r r r r r r r r p j 1 k y.`.+XoXoXoXOX+X`.y.k 1 j a r r r r r r r r r r r r r r r r r p # >XvX@X$ g f f f f f f f h / f.s.z.:XpXlXgXgXgXhXxXrXA.f.f.d.T f f f f f f f f f g # ~.cX9Xf f f f f f f f f f f f f f f f f f f f f f f f f f f f f f f f ",
"j a p r r r r r r r r r r r r r r r r p # :.gXxXr.+ a r r r r r r r r r r r r r r r r j Q ^ E z 4.R.^.Q.T.y.<.p 1 j a r r r r r r r r r r r r r r r r r r r r r r r r r r r r r r r r r r l Q ^ x A t.T.Q.Q.T.y.,.& 5 j a r r r r r r r r r r r r r r r r r r r r r r r r r r r r r r r r r r a j j = H r.T.Q.Q.R.r.! & j j a r r r r r r r r r r r r r r r r r r p # >XvX@X$ g f f f f f f f f f / h.z.Y 1.!.6X7X9X$XT.,.I f.d./ f f f f f f f f f f g # ~.cX9Xf f f f f f f f f f f f f f f f f f f f f f f f f f f f f f f f ",
"a r r r r r r r r r r r r r r r r r r p # :.gXxXr.+ a r r r r r r r r r r r r r r r r r a ~ f $ $ p a a p & $ r a a r r r r r r r r r r r r r r r r r r r r r r r r r r r r r r r r r r r r j ~ a $ $ p a a p $ $ r a a r r r r r r r r r r r r r r r r r r r r r r r r r r r r r r r r r r r r p s p $ $ p a a p $ $ p s a r r r r r r r r r r r r r r r r r r r p # >XvX@X$ g f f f f f f f f f d ( h.g r p g z z f r r x U T f f f f f f f f f f f g # ~.cX9Xf f f f f f f f f f f f f f f f f f f f f f f f f f f f f f f f ",
"r r r r r r r r r r r r r r r r r r r p # :.gXxXr.+ a r r r r r r r r r r r r r r r r r r r r p p r r r r p p r r r r r r r r r r r r r r r r r r r r r r r r r r r r r r r r r r r r r r r r r r p p r r r r p p r r r r r r r r r r r r r r r r r r r r r r r r r r r r r r r r r r r r r r r r r r p p r r r r p p r r r r r r r r r r r r r r r r r r r r r r p # >XvX@X$ g f f f f f f f f f f d f f g f a a a f g g f f f f f f f f f f f f f f g # ~.cX9Xf f f f f f f f f f f f f f f f f f f f f f f f f f f f f f f f ",
"r r r r r r r r r r r r r r r r r r r p # :.gXxXr.+ a r r r r r r r r r r r r r r r r r r r r r r r r r r r r r r r r r r r r r r r r r r r r r r r r r r r r r r r r r r r r r r r r r r r r r r r r r r r r r r r r r r r r r r r r r r r r r r r r r r r r r r r r r r r r r r r r r r r r r r r r r r r r r r r r r r r r r r r r r r r r r r r r r r r r r r p # >XvX@X$ g f f f f f f f f f f f f f f f f f f f f f f f f f f f f f f f f f f f g # ~.cX9Xf f f f f f f f f f f f f f f f f f f f f f f f f f f f f f f f ",
"r r r r r r r r r r r r r r r r r r r p # :.gXxXr.+ a r r r r r r r r r r r r r r r r r r r r r r r r r r r r r r r r r r r r r r r r r r r r r r r r r r r r r r r r r r r r r r r r r r r r r r r r r r r r r r r r r r r r r r r r r r r r r r r r r r r r r r r r r r r r r r r r r r r r r r r r r r r r r r r r r r r r r r r r r r r r r r r r r r r r r r p # >XvX@X$ g f f f f f f f f f f f f f f f f f f f f f f f f f f f f f f f f f f f g # ~.cX9Xf f f f f f f f f f f f f f f f f f f f f f f f f f f f f f f f ",
"r r r r r r r r r r r r r r r r r r r p # :.gXxXr.+ a r r r r r r r r r r r r r r r r r r r r r r r r r r r r r r r r r r r r r r r r r r r r r r r r r r r r r r r r r r r r r r r r r r r r r r r r r r r r r r r r r r r r r r r r r r r r r r r r r r r r r r r r r r r r r r r r r r r r r r r r r r r r r r r r r r r r r r r r r r r r r r r r r r r r r r p # >XvX@X$ g f f f f f f f f f f f f f f f f f f f f f f f f f f f f f f f f f f f g # ~.cX9Xf f f f f f f f f f f f f f f f f f f f f f f f f f f f f f f f ",
"r r r r r r r r r r r r r r r r r r r p # :.gXxXr.+ a r r r r r r r r r r r r r r r r r r r r r r r r r r r r r r r r r r r r r r r r r r r r r r r r r r r r r r r r r r r r r r r r r r r r r r r r r r r r r r r r r r r r r r r r r r r r r r r r r r r r r r r r r r r r r r r r r r r r r r r r r r r r r r r r r r r r r r r r r r r r r r r r r r r r r r p # >XvX@X$ g f f f f f f f f f f f f f f f f f f f f f f f f f f f f f f f f f f f g # ~.cX9Xf f f f f f f f f f f f f f f f f f f f f f f f f f f f f f f f ",
"r r r r r r r r r r r r r r r r r r r p # :.gXxXr.+ a r r r r r r r r r r r r r r r r r r r r r r r r r r r r r r r r r r r r r r r r r r r r r r r r r r r r r r r r r r r r r r r r r r r r r r r r r r r r r r r r r r r r r r r r r r r r r r r r r r r r r r r r r r r r r r r r r r r r r r r r r r r r r r r r r r r r r r r r r r r r r r r r r r r r r r p # >XvX@X$ g f f f f f f f f f f f f f f f f f f f f f f f f f f f f f f f f f f f g # ~.cX9Xf f f f f f f f s s f f f f f f f f f f f f f f f f f f f f f f ",
"r r r r r r r r r r r r r r r r r r r p # :.gXxXr.+ a r r r r r r r r r r r r r r r r r r r r r r r r r r r r r r r r r r r r r r r r r r r r r r r r r r r r r r r r r r r r r r r r r r r r r r r r r r r r r r r r r r r r r r r r r r r r r r r r r r r r r r r r r r r r r r r r r r r r r r r r r r r r r r r r r r r r r r r r r r r r r r r r r r r r r r p # >XvX@X$ g f f f f f f f f f f f f f f f f f f f f f f f f f f f f f f f f f f f g # ~.cX9Xf f f s 3 4 3 s f f f f f f s f f f f f f f f f f f f f f f f f ",
"r r r r r r r r r r r r r r r r r r r p # :.gXxXr.+ a r r r r r r r r r r r r r r r r r & - < r < - < r r r r r r r r r r r r r r r r r r r r r r r r r r r r r r r r r r r r r r < ; ; < < ; , r r r r < , r r r r r r r r r r r r r r r r r r r r r r r r r r r r r r r r r r r r r r < , ; < r , - & r r < ; , r r r > , r r > ; , r r r r r r r r r r r r r r p # >XvX@X$ g f f f f f 2 3 4 f 2 3 4 f f f s 3 4 f f f f f f f f f f f f f f f f f g # ~.cX9Xf f f s 4 h s 3 s 2 f 4 4 4 3 4 s 4 4 f 2 4 3 s f 4 3 s s 3 2 f ",
"r < > > < , < r < > > r r r r r r r r p # :.gXxXr.+ a r r r r r r r r r r r r r r r r r > : < r > : < r r < < > < > > r r r r r r r r r r r r r r r r r r r r r r r r r r r r r r , > r r < < , > r r r , : r r r < , < < > > < , < r r r r r r r r r r r r r r r r r r r r r r r r r r < < > , , > > , r r ; < , > r < > , & , , & < r r r r r r r r r r r r r r p # >XvX@X$ g f f f f f s f 4 4 s f 3 s f f 3 s f f f s s 4 s 2 2 f f 2 4 f f f f f g # ~.cX9Xf f f s 4 f f 4 4 4 2 4 f s 3 f f f 4 2 3 2 s 4 s 3 f s 3 s 3 s ",
"< ; , - ; > ; r ; , , , r r r r r r r p # :.gXxXr.+ a r r r r r r r r r r r r r r r r r r , < r r - < r r > : > : > ; > r r r r r r r r r r r r r r r r r r r r r r r r r r r r r > ; - < r r , > r r > , - r r < ; > < : > ; - , , r r r r r r r r r r r r r r r r r r r r r r r r r r r r < , , < r ; r & - r < , r r , , r ; < r r r r r r r r r r r r r r r r p # >XvX@X$ g f f f f f f s 3 s f s 3 f f s 3 4 4 f f 2 3 2 3 2 3 s 2 4 s f f f f f g # ~.cX9Xf f f s 4 f f 3 4 4 f 4 4 s 3 f s 4 3 2 4 f f 4 2 2 h s 3 4 3 s ",
"> ; < < , t ; < ; < r ; r r r r r r r p # :.gXxXr.+ a r r r r r r r r r r r r r r r r r r , < r r ; < r r > , t ; r > > r r r r r r r r r r r r r r r r r r r r r r r r r r r r r r r > - r < ; r r < - < ; r r > , t r ; r > > r ; r r r r r r r r r r r r r r r r r r r r r r r r r r r r ; < , < & ; r < - r < , r r r r r ; r r r r r r r r r r r r r r r r r p # >XvX@X$ g f f f f f s 4 3 s s 3 4 f f 2 3 f 3 s f 4 4 f 3 f 2 2 s 3 s f f f f f g # ~.cX9Xf f f s 4 f 4 4 s 3 f f 4 4 3 f 3 s 4 4 3 s s 3 s 3 f s 3 f f f ",
"> ; < < , r ; p ; < < ; r r r r r r r p # :.gXxXr.+ a r r r r r r r r r r r r r r r r r r , < r r ; < r r > , r ; r > > r r r r r r r r r r r r r r r r r r r r r r r r r r r r r r t < - < - r r & < ; ; : > r > - t p ; r > > < ; r r r r r r r r r r r r r r r r r r r r r r r r r r r , < t , < < ; & & ; r > , r r r r r ; < t r r r r r r r r r r r r r r r p # >XvX@X$ g f f f f f f h 2 4 f h 4 4 f s 4 h 4 s f 4 4 f 3 f 2 2 f f 3 s f f f f g # ~.cX9Xf f f s 3 3 4 f s 4 s 3 4 f 4 4 s 3 4 s 4 f f 4 f 4 3 s s 3 4 f ",
"> ; < < , r ; < ; ; ; > r r r r r r r p # :.gXxXr.+ a r r r r r r r r r r r r r r r r r r , < r r ; < r r > , r ; r > > r r r r r r r r r r r r r r r r r r r r r r r r r r r r r > - ; < ; ; , > ; < r < ; r r r ; ; > ; r , > r ; r r r r r r r r r r r r r r r r r r r r r r r r r r > : , > < ; ; < , < > ; ; < r r r r r < ; - > r r r r r r r r r r r r r r p # >XvX@X$ g f f f f f 4 4 3 s 4 3 4 s 3 f 4 3 4 f f 4 4 f 3 f 2 2 s 4 4 s f f f f g # ~.cX9Xf f f f f f f f f f f f f f f f f f f f f f f f f f f f f f f f ",
"r & r r & r & r ; < < r r r r r r r r p # :.gXxXr.+ a r r r r r r r r r r r r r r r r r r & r r r & r r r r & r & r r r r r r r r r r r r r r r r r r r r r r r r r r r r r r r r & < < r < < < < & r r r & r r r r < < & r r r r & r r r r r r r r r r r r r r r r r r r r r r r r r r & < < < r < < r & r r < < r r r r r r r & < < r r r r r r r r r r r r r r p # >XvX@X$ g f f f f f s s f f s s f f f f f s f f f f f f f f f f f s f f f f f f g # ~.cX9Xf f f f f f f f f f f f f f f f f f f f f f f f f f f f f f f f ",
"r r r r r r r r ; < r r r r r r r r r p # :.gXxXr.+ a r r r r r r r r r r r r r r r r r r r r r r r r r r r r r r r r r r r r r r r r r r r r r r r r r r r r r r r r r r r r r r r r r r r r r r r r r r r r r r r r r r r r r r r r r r r r r r r r r r r r r r r r r r r r r r r r r r r r r r r r r r r r r r r r r r r r r r r r r r r r r r r r r r r r r r p # >XvX@X$ g f f f f f f f f f f f f f f f f f f f f f f f f f f f f f f f f f f f g # ~.cX9Xf f f f f f f f f f f f f f f f f f f f f f f f f f f f f f f f ",
"r r r r r r r r r r r r r r r r r r r p # :.gXxXr.+ a r r r r r r r r r r r r r r r r r r r r r r r r r r r r r r r r r r r r r r r r r r r r r r r r r r r r r r r r r r r r r r r r r r r r r r r r r r r r r r r r r r r r r r r r r r r r r r r r r r r r r r r r r r r r r r r r r r r r r r r r r r r r r r r r r r r r r r r r r r r r r r r r r r r r r r p # >XvX@X$ g f f f f f f f f f f f f f f f f f f f f f f f f f f f f f f f f f f f g # ~.cX9Xf f f f f f f f f f f f f f f f f f f f f f f f f f f f f f f f ",
"r r r r r r r r r r r r r r r r r r r p # :.gXxXr.+ a r r r r r r r r r r r r r r r r r r r r r r r r r r r r r r r r r r r r r r r r r r r r r r r r r r r r r r r r r r r r r r r r r r r r r r r r r r r r r r r r r r r r r r r r r r r r r r r r r r r r r r r r r r r r r r r r r r r r r r r r r r r r r r r r r r r r r r r r r r r r r r r r r r r r r r p # >XvX@X$ g f f f f f f f f f f f f f f f f f f f f f f f f f f f f f f f f f f f g # ~.cX9Xf f f f f f f f f f f f f f f f f f f f f f f f f f f f f f f f ",
"r r r r r r r r r r r r r r r r r r r p # :.gXxXr.+ a r r r r r r r r r r r r r r r r r r r r r r r r r r r r r r r r r r r r r r r r r r r r r r r r r r r r r r r r r r r r r r r r r r r r r r r r r r r r r r r r r r r r r r r r r r r r r r r r r r r r r r r r r r r r r r r r r r r r r r r r r r r r r r r r r r r r r r r r r r r r r r r r r r r r r r p # >XvX@X$ g f f f f f f f f f f f f f f f f f f f f f f f f f f f f f f f f f f f g # ~.cX9Xf f f f f f f f f f f f f f f f f f f f f f f f f f f f f f f f ",
"r r r r r r r r r r r r r r r r r r r p # :.gXxXr.+ a r r r r r r r r r r r r r r r r r r r r r r r r r r r r r r r r r r r r r r r r r r r r r r r r r r r r r r r r r r r r r r r r r r r r r r r r r r r r r r r r r r r r r r r r r r r r r r r r r r r r r r r r r r r r r r r r r r r r r r r r r r r r r r r r r r r r r r r r r r r r r r r r r r r r r r p # >XvX@X$ g f f f f f f f f f f f f f f f f f f f f f f f f f f f f f f f f f f f g # ~.cX9Xf f f f f f f f f f f f f f f f f f f f f f f f f f f f f f f f ",
"r r r r r r r r r r r r r r r r r r r p # :.gXxXr.+ a r r r r r r r r r r r r r r r r r r r r r r r r r r r r r r r r r r r r r r r r r r r r r r r r r r r r r r r r r r r r r r r r r r r r r r r r r r r r r r r r r r r r r r r r r r r r r r r r r r r r r r r r r r r r r r r r r r r r r r r r r r r r r r r r r r r r r r r r r r r r r r r r r r r r r r p # >XvX@X$ g f f f f f f f f f f f f f f f f f f f f f f f f f f f f f f f f f f f g # ~.cX9Xf f f f f f f f f f f f f f f f f f f f f f f f f f f f f f f f ",
"r r r r r r r r r r r r r r r r r r r p # :.gXxXr.+ a r r r r r r r r r r r r r r r r r r r r r r r r r r r r r r r r r r r r r r r r r r r r r r r r r r r r r r r r r r r r r r r r r r r r r r r r r r r r r r r r r r r r r r r r r r r r r r r r r r r r r r r r r r r r r r r r r r r r r r r r r r r r r r r r r r r r r r r r r r r r r r r r r r r r r r p # >XvX@X$ g f f f f f f f f f f f f f f f f f f f f f f f f f f f f f f f f f f f g # ~.cX9Xf f f f f f f f f f f f f f f f f f f f f f f f f f f f f f f f ",
"& r r r r r r r r r r r r r r r r r r p # :.gXxXr.+ a r r r r r r r r r r r r r r r r r r r r r r r r r r r r r r r r r r r r r r r r r r r r r r r r r r r r r r r r r r r r r r r r r r r r r r r r r r r r r r r r r r r r r r r r r r r r r r r r r r r r r r r r r r r r r r r r r r r r r r r r r r r r r r r r r r r r r r r r r r r r r r r r r r r r r r p # >XvX@X$ g f f f g f f f f g f f f f f f f f f f f f f f f f f f f f f f f f f f g # ~.cX9Xf f f f f f f f f f f f f f f f f f f f f f f f f f f f f f f f ",
"> r r r r r r r r r r r r r r r r r r p # :.gXxXr.+ a r r r r r r r r r r r r r r r r r r r r r r r r r r r r r r r r r r r r r r r r r r r r r r r r r r r r r r r r r r r r N N N N N N h & r r r < r r r r r r r < < r r r r r r r r r r r r r r r r r r r r r r r r r r r r r r r r r r r r r r r r r r r r r r r r r r r r r r r r r r r r r r r r r r r r r p # >XvX@X$ g f p E M.M.M.M.M.M.^ p f f s s f f f f f f f s s f f f f f f f f f f f g # ~.cX9Xf f f f f f f f f f f f f f f f f f f f f f f f f f f f f f f f ",
"r & r r r r r < r r r r r r r r r r r p # :.gXxXr.+ a r r r r r r r r r r r r r r r r r r r r r r r r r r r r r r r r r r r r r r r r r r r r r r r r r r r r r r r r r r r r N M d d d N h & r r > : < r r < & , < r r & r r & r < < r r r r r r r r r r r r r r r r r r r r r r r r r r r r r r r r r r r r r r r r r r r r r r r r r r r r r r r r r r r r r r p # >XvX@X$ g f p E M.N.N.N.N.M.^ y f f 4 3 f f f s s 4 s f f f f f f f s f f f f f g # ~.cX9Xf f f f f f f f f f f f f f f f f f f f f f f f f f f f f f f f ",
"- , > r - < , ; > r r r r r r r r r r p # :.gXxXr.+ a r r r r r r r r r r r r r r r r r r r r r r r r r r r r r r r r r r r r r r r r r r r r r r r r r r r r r r r r r r r r N d d d d N h & r r , , > r , ; > : ; > , , < < , < - ; < r r r r r r r r r r r r r r r r r r r r r r r r r r r r r r r r r r r r r r r r r r r r r r r r r r r r r r r r r r r r r p # >XvX@X$ g f p E M.N.j.j.j.M.^ p f f 4 4 s f 4 3 4 3 4 4 4 4 f 2 4 s 3 4 s f f f g # ~.cX9Xf f f f f f f f f f f f f f f f f f f f f f f f f f f f f f f f ",
"; < , < , > ; < : & r r r r r r r r r p # :.gXxXr.+ a r r r r r r r r r r r r r r r r r r r r r r r r r r r r r r r r r r r r r r r r r r r r r r r r r r r r r r r r r r r r N d d d d N h & r < ; > - < ; r r ; p < , > > > > , , > ; r r r r r r r r r r r r r r r r r r r r r r r r r r r r r r r r r r r r r r r r r r r r r r r r r r r r r r r r r r r r r p # >XvX@X$ g f p E M.N.x.x.N.M.^ p f s 4 4 4 s 4 f f 3 f 4 2 4 s 4 s 3 s 4 4 f f f g # ~.cX9Xf f f f f f f f f f f f f f f f f f f f f f f f f f f f f f f f ",
"; r , , < > ; > > r r r r r r r r r r p # :.gXxXr.+ a r r r r r r r r r r r r r r r r r r r r r r r r r r r r r r r r r r r r r r r r r r r r r r r r r r r r r r r r r r r r N d d d d N h & r > ; , ; > - r r ; < < , < - , < , ; > > r r r r r r r r r r r r r r r r r r r r r r r r r r r r r r r r r r r r r r r r r r r r r r r r r r r r r r r r r r r r r p # >XvX@X$ g f p E M.N.k.k.k.M.^ p f 4 3 3 4 2 4 h f 3 f 4 2 s 4 4 f 3 4 4 s f f f g # ~.cX9Xf f f f f f f f f f f f f f f f f f f f f f f f f f f f f f f f ",
"; r , : r < - < < r r r r r r r r r r p # :.gXxXr.+ a r r r r r r r r r r r r r r r r r r r r r r r r r r r r r r r r r r r r r r r r r r r r r r r r r r r r r r r r r r r r N N N N N B h & r ; < t > , ; > < - > < - t ; : r > , < < r r r r r r r r r r r r r r r r r r r r r r r r r r r r r r r r r r r r r r r r r r r r r r r r r r r r r r r r r r r r r p # >XvX@X$ g f p E M.M.M.M.M.M.^ y s 3 f f 4 4 3 2 s 3 s 4 4 f 3 4 f 4 4 s f f f f g # ~.cX9Xf f f f f f f f f f f f f f f f f f f f f f f f f f f f f f f f ",
"< r < > r r < , < r r r r r r r r r r p # :.gXxXr.+ a r r r r r r r r r r r r r r r r r r r r r r r r r r r r r r r r r r r r r r r r r r r r r r r r r r r r r r r r r r r r h h h h h h p r r < r r < < & , < < , < < r < < r r > , < r r r r r r r r r r r r r r r r r r r r r r r r r r r r r r r r r r r r r r r r r r r r r r r r r r r r r r r r r r r r r p # >XvX@X$ g f a x g.g.g.g.g.g.T a s s f f s s s 4 s s 4 s s f 2 s f f 4 4 s f f f g # ~.cX9Xf f f f f f f f f f f f f f f f f f f f f f f f f f f f f f f f ",
"r r r r r r r r r r r r r r r r r r r p # :.gXxXr.+ a r r r r r r r r r r r r r r r r r r r r r r r r r r r r r r r r r r r r r r r r r r r r r r r r r r r r r r r r r r r r & & & & & & r r r r r r r r r r r r r r r r r r r r r r r r r r r r r r r r r r r r r r r r r r r r r r r r r r r r r r r r r r r r r r r r r r r r r r r r r r r r r r r r r r r r p # >XvX@X$ g f f f y y y y y y a f f f f f f f f f f f f f f f f f f f f f f f f f g # ~.cX9Xf f f f f f f f f f f f f f f f f f f f f f f f f f f f f f f f ",
"r r r r r r r r r r r r r r r r r r r p # :.gXxXr.+ a r r r r r r r r r r r r r r r r r r r r r r r r r r r r r r r r r r r r r r r r r r r r r r r r r r r r r r r r r r r r r r r r r r r r r r r r r r r r r r r r r r r r r r r r r r r r r r r r r r r r r r r r r r r r r r r r r r r r r r r r r r r r r r r r r r r r r r r r r r r r r r r r r r r r r r p # >XvX@X$ g f f f g g g g g g f f f f f f f f f f f f f f f f f f f f f f f f f f g # ~.cX9Xf f f f f f f f f f f f f f f f f f f f f f f f f f f f f f f f ",
"r r r r r r r r r r r r r r r r r r r p # :.gXxXr.+ a r r r r r r r r r r r r r r r r r r r r r r r r r r r r r r r r r r r r r r r r r r r r r r r r r r r r r r r r r r r r r r r r r r r r r r r r r r r r r r r r r r r r r r r r r r r r r r r r r r r r r r r r r r r r r r r r r r r r r r r r r r r r r r r r r r r r r r r r r r r r r r r r r r r r r r p # >XvX@X$ g f f f f f f f f f f f f f f f f f f f f f f f f f f f f f f f f f f f g # ~.cX9Xf f f f f f f f f f f f f f f f f f f f f f f f f f f f f f f f ",
"r r r r r r r r r r r r r r r r r r r p # :.gXxXr.+ a r r r r r r r r r r r r r r r r r r r r r r r r r r r r r r r r r r r r r r r r r r r r r r r r r r r r r r r r r r r r r r r r r r r r r r r r r r r r r r r r r r r r r r r r r r r r r r r r r r r r r r r r r r r r r r r r r r r r r r r r r r r r r r r r r r r r r r r r r r r r r r r r r r r r r r p # >XvX@X$ g f f f f f f f f f f f f f f f f f f f f f f f f f f f f f f f f f f f g # ~.cX9Xf f f f f f f f f f f f f f f f f f f f f f f f f f f f f f f f ",
"r r r r r r r r r r r r r r r r r r r p # :.gXxXr.+ a r r r r r r r r r r r r r r r r r r r r r r r r r r r r r r r r r r r r r r r r r r r r r r r r r r r r r r r r r r r r r r r r r r r r r r r r r r r r r r r r r r r r r r r r r r r r r r r r r r r r r r r r r r r r r r r r r r r r r r r r r r r r r r r r r r r r r r r r r r r r r r r r r r r r r r p # >XvX@X$ g f f f f f f f f f f f f f f f f f f f f f f f f f f f f f f f f f f f g # ~.cX9Xf f f f f f f f f f f f f f f f f f f f f f f f f f f f f f f f ",
"r r r r r r r r r r r r r r r r r r r p # :.gXxXr.+ a r r r r r r r r r r r r r r r r r r r r r r r r r r r r r r r r r r r r r r r r r r r r r r r r r r r r r r r r r r r r r r r r r r r r r r r r r r r r r r r r r r r r r r r r r r r r r r r r r r r r r r r r r r r r r r r r r r r r r r r r r r r r r r r r r r r r r r r r r r r r r r r r r r r r r r p # >XvX@X$ g f f f f f f f f f f f f f f f f f f f f f f f f f f f f f f f f f f f g # ~.cX9Xf f f f f f f f f f f f f f f f f f f f f f f f f f f f f f f f ",
"a a a a a a a a a a a a a a a a a a a a & ,.gXxXy.% f a a a a a a a a a a a a a a a a a a a a a a a a a a a a a a a a a a a a a a a a a a a a a a a a a a a a a a a a a a a a a a a a a a a a a a a a a a a a a a a a a a a a a a a a a a a a a a a a a a a a a a a a a a a a a a a a a a a a a a a a a a a a a a a a a a a a a a a a a a a a a a a a a a a a a a a & >XvX$X& z g g g g g g g g g g g g g g g g g g g g g g g g g g g g g g g g g g g z $ (.cX9Xz g g g g g g g g g g g g g g g g g g g g g g g g g g g g g g g ",
"o o o o o o o o o o o o o o o o o o o +   A gXxX7.  + o o o o o o o o o o o o o o o o o o o o o o o o o o o o o o o o o o o o o o o o o o o o o o o o o o o o o o o o o o o o o o o o o o o o o o o o o o o o o o o o o o o o o o o o o o o o o o o o o o o o o o o o o o o o o o o o o o o o o o o o o o o o o o o o o o o o o o o o o o o o o o o o o o o o o o +   -XbXOX  $ # # # # # # # # # # # # # # # # # # # # # # # # # # # # # # # # # # # $   Q.vX7X# % # # # # # # # # # # # # # # # # # # # # # # # # # # # # # # ",
"Q.Q.Q.Q.Q.Q.Q.Q.Q.Q.Q.Q.Q.Q.Q.Q.Q.Q.Q.Q.E.`.pXkX$XE.Q.Q.Q.Q.Q.Q.Q.Q.Q.Q.Q.Q.Q.Q.Q.Q.Q.Q.Q.Q.Q.Q.Q.Q.Q.Q.Q.Q.Q.Q.Q.Q.Q.Q.Q.Q.Q.Q.Q.Q.Q.Q.Q.Q.Q.Q.Q.Q.Q.Q.Q.Q.Q.Q.Q.Q.Q.Q.Q.Q.Q.Q.Q.Q.Q.Q.Q.Q.Q.Q.Q.Q.Q.Q.Q.Q.Q.Q.Q.Q.Q.Q.Q.Q.Q.Q.Q.Q.Q.Q.Q.Q.Q.Q.Q.Q.Q.Q.Q.Q.Q.Q.Q.Q.Q.Q.Q.Q.Q.Q.Q.Q.Q.Q.Q.Q.Q.Q.Q.Q.Q.Q.Q.Q.Q.Q.Q.Q.Q.Q.Q.Q.Q.Q.Q.Q.Q.Q.Q.Q.Q.Q.Q.Q.Q.Q.Q.Q.Q.Q.Q.Q.E.qXhX7X^.!.!.!.!.!.!.!.!.!.!.!.!.!.!.!.!.!.!.!.!.!.!.!.!.!.!.!.!.!.!.!.!.!.!.!.!.!.E.8XhXrX!.!.!.!.!.!.!.!.!.!.!.!.!.!.!.!.!.!.!.!.!.!.!.!.!.!.!.!.!.!.!.!.",
"cXcXcXcXcXcXcXcXcXcXcXcXcXcXcXcXcXcXcXcXcXxXfXpXxXvXcXcXcXcXcXcXcXcXcXcXcXcXcXcXcXcXcXcXcXcXcXcXcXcXcXcXcXcXcXcXcXcXcXcXcXcXcXcXcXcXcXcXcXcXcXcXcXcXcXcXcXcXcXcXcXcXcXcXcXcXcXcXcXcXcXcXcXcXcXcXcXcXcXcXcXcXcXcXcXcXcXcXcXcXcXcXcXcXcXcXcXcXcXcXcXcXcXcXcXcXcXcXcXcXcXcXcXcXcXcXcXcXcXcXcXcXcXcXcXcXcXcXcXcXcXcXcXcXcXcXcXcXcXcXcXcXcXcXcXcXcXcXcXcXcXcXcXcXcXcXcXcXcXkXpXhXcXcXcXcXcXcXcXcXcXcXcXcXcXcXcXcXcXcXcXcXcXcXcXcXcXcXcXcXcXcXcXcXcXcXcXcXcXcXcXhXpXgXcXcXcXcXcXcXcXcXcXcXcXcXcXcXcXcXcXcXcXcXcXcXcXcXcXcXcXcXcXcXcXcX",
"qXqXqXqXqXqXqXqXqXqXqXqXqXqXqXqXqXqXqXqXqXqXtXtXqXqXqXqXqXqXqXqXqXqXqXqXqXqXqXqXqXqXqXqXqXqXqXqXqXqXqXqXqXqXqXqXqXqXqXqXqXqXqXqXqXqXqXqXqXqXqXqXqXqXqXqXqXqXqXqXqXqXqXqXqXqXqXqXqXqXqXqXqXqXqXqXqXqXqXqXqXqXqXqXqXqXqXqXqXqXqXqXqXqXqXqXqXqXqXqXqXqXqXqXqXqXqXqXqXqXqXqXqXqXqXqXqXqXqXqXqXqXqXqXqXqXqXqXqXqXqXqXqXqXqXqXqXqXqXqXqXqXqXqXqXqXqXqXqXqXqXqXqXqXqXqXqXqXqXtXtXtXqXqXqXqXqXqXqXqXqXqXqXqXqXqXqXqXqXqXqXqXqXqXqXqXqXqXqXqXqXqXqXqXqXqXqXqXqXqXqXtXtXtXqXqXqXqXqXqXqXqXqXqXqXqXqXqXqXqXqXqXqXqXqXqXqXqXqXqXqXqXqXqXqXqX",
"#.#.#.#.#.#.#.#.#.#.#.#.#.#.#.#.#.#.#.#.#.#.#.#.#.#.#.#.#.#.#.#.#.#.#.#.#.#.#.#.#.#.#.#.#.#.#.#.#.#.#.#.#.#.#.#.#.#.#.#.#.#.#.#.#.#.#.#.#.#.#.#.#.#.#.#.#.#.#.#.#.#.#.#.#.#.#.#.#.#.#.#.#.#.#.#.#.#.#.#.#.#.#.#.#.#.#.#.#.#.#.#.#.#.#.#.#.#.#.#.#.#.#.#.#.#.#.#.#.#.#.#.#.#.#.#.#.#.#.#.#.#.#.#.#.#.#.#.#.#.#.#.#.#.#.#.#.#.#.#.#.#.#.#.#.#.#.#.#.#.#.#.#.#.#.#.#.#.#.#.#.#.#.#.#.#.#.#.#.#.#.#.#.#.#.#.#.#.#.#.#.#.#.#.#.#.#.#.#.#.#.#.#.#.#.#.#.#.#.#.#.#.#.#.#.#.#.#.#.#.#.#.#.#.#.#.#.#.#.#.#.#.#.#.#.#.#.#.#.#.#.#.#.#.#.#.",
"O.O.O.O.O.O.O.O.O.O.O.O.O.O.O.O.O.O.O.O.O.O.O.O.O.O.O.O.O.O.O.O.O.O.O.O.O.O.O.O.O.O.O.O.O.O.O.O.O.O.O.O.O.O.O.O.O.O.O.O.O.O.O.O.O.O.O.O.O.O.O.O.O.O.O.O.O.O.O.O.O.O.O.O.O.O.O.O.O.O.O.O.O.O.O.O.O.O.O.O.O.O.O.O.O.O.O.O.O.O.O.O.O.O.O.O.O.O.O.O.O.O.O.O.O.O.O.O.O.O.O.O.O.O.O.O.O.O.O.O.O.O.O.O.O.O.O.O.O.O.O.O.O.O.O.O.O.O.O.O.O.O.O.O.O.O.O.O.O.O.O.O.O.O.O.O.O.O.O.O.O.O.O.O.O.O.O.O.O.O.O.O.O.O.O.O.O.O.O.O.O.O.O.O.O.O.O.O.O.O.O.O.O.O.O.O.O.O.O.O.O.O.O.O.O.O.O.O.O.O.O.O.O.O.O.O.O.O.O.O.O.O.O.O.O.O.O.O.O.O.O.O.O.O.O.O.",
"O.O.O.O.O.O.O.O.O.O.O.O.O.O.O.O.O.O.O.O.O.O.O.O.O.O.O.O.O.O.O.O.O.O.O.O.O.O.O.O.O.O.O.O.O.O.O.O.O.O.O.O.O.O.O.O.O.O.O.O.O.O.O.O.O.O.O.O.O.O.O.O.O.O.O.O.O.O.O.O.O.O.O.O.O.O.O.O.O.O.O.O.O.O.O.O.O.O.O.O.O.O.O.O.O.O.O.O.O.O.O.O.O.O.O.O.O.O.O.O.O.O.O.O.O.O.O.O.O.O.O.O.O.O.O.O.O.O.O.O.O.O.O.O.O.O.O.O.O.O.O.O.O.O.O.O.O.O.O.O.O.O.O.O.O.O.O.O.O.O.O.O.O.O.O.O.O.O.O.O.O.O.O.O.O.O.O.O.O.O.O.O.O.O.O.O.O.O.O.O.O.O.O.O.O.O.O.O.O.O.O.O.O.O.O.O.O.O.O.O.O.O.O.O.O.O.O.O.O.O.O.O.O.O.O.O.O.O.O.O.O.O.O.O.O.O.O.O.O.O.O.O.O.O.O.O.",
"O.O.O.O.O.O.O.O.O.O.O.O.O.O.O.O.O.O.O.O.O.O.O.O.O.O.O.O.O.O.O.O.O.O.O.O.O.O.O.O.O.O.O.O.O.O.O.O.O.O.O.O.O.O.O.O.O.O.O.O.O.O.O.O.O.O.O.O.O.O.O.O.O.O.O.O.O.O.O.O.O.O.O.O.O.O.O.O.O.O.O.O.O.O.O.O.O.O.O.O.O.O.O.O.O.O.O.O.O.O.O.O.O.O.O.O.O.O.O.O.O.O.O.O.O.O.O.O.O.O.O.O.O.O.O.O.O.O.O.O.O.O.O.O.O.O.O.O.O.O.O.O.O.O.O.O.O.O.O.O.O.O.O.O.O.O.O.O.O.O.O.O.O.O.O.O.O.O.O.O.O.O.O.O.O.O.O.O.O.O.O.O.O.O.O.O.O.O.O.O.O.O.O.O.O.O.O.O.O.O.O.O.O.O.O.O.O.O.O.O.O.O.O.O.O.O.O.O.O.O.O.O.O.O.O.O.O.O.O.O.O.O.O.O.O.O.O.O.O.O.O.O.O.O.O.O.",
"O.O.O.O.O.O.O.O.O.O.O.O.O.O.O.O.O.O.O.O.O.O.O.O.O.O.O.O.O.O.O.O.O.O.O.O.O.O.O.O.O.O.O.O.O.O.O.O.O.O.O.O.O.O.O.O.O.O.O.O.O.O.O.O.O.O.O.O.O.O.O.O.O.O.O.O.O.O.O.O.O.O.O.O.O.O.O.O.O.O.O.O.O.O.O.O.O.O.O.O.O.O.O.O.O.O.O.O.O.O.O.O.O.O.O.O.O.O.O.O.O.O.O.O.O.O.O.O.O.O.O.O.O.O.O.O.O.O.O.O.O.O.O.O.O.O.O.O.O.O.O.O.O.O.O.O.O.O.O.O.O.O.O.O.O.O.O.O.O.O.O.O.O.O.O.O.O.O.O.O.O.O.O.O.O.O.O.O.O.O.O.O.O.O.O.O.O.O.O.O.O.O.O.O.O.O.O.O.O.O.O.O.O.O.O.O.O.O.O.O.O.O.O.O.O.O.O.O.O.O.O.O.O.O.O.O.O.O.O.O.O.O.O.O.O.O.O.O.O.O.O.O.O.O.O.O.",
"O.O.O.O.O.O.O.O.O.O.O.O.O.O.O.O.O.O.O.O.O.O.O.O.O.O.O.O.O.O.O.O.O.O.O.O.O.O.O.O.O.O.O.O.O.O.O.O.O.O.O.O.O.O.O.O.O.O.O.O.O.O.O.O.O.O.O.O.O.O.O.O.O.O.O.O.O.O.O.O.O.O.O.O.O.O.O.O.O.O.O.O.O.O.O.O.O.O.O.O.O.O.O.O.O.O.O.O.O.O.O.O.O.O.O.O.O.O.O.O.O.O.O.O.O.O.O.O.O.O.O.O.O.O.O.O.O.O.O.O.O.O.O.O.O.O.O.O.O.O.O.O.O.O.O.O.O.O.O.O.O.O.O.O.O.O.O.O.O.O.O.O.O.O.O.O.O.O.O.O.O.O.O.O.O.O.O.O.O.O.O.O.O.O.O.O.O.O.O.O.O.O.O.O.O.O.O.O.O.O.O.O.O.O.O.O.O.O.O.O.O.O.O.O.O.O.O.O.O.O.O.O.O.O.O.O.O.O.O.O.O.O.O.O.O.O.O.O.O.O.O.O.O.O.O.O.",
"O.O.O.O.O.O.O.O.O.O.O.O.O.O.O.O.O.O.O.O.O.O.O.O.O.O.O.O.O.O.O.O.O.O.O.O.O.O.O.O.O.O.O.O.O.O.O.O.O.O.O.O.O.O.O.O.O.O.O.O.O.O.O.O.O.O.O.O.O.O.O.O.O.O.O.O.O.O.O.O.O.O.O.O.O.O.O.O.O.O.O.O.O.O.O.O.O.O.O.O.O.O.O.O.O.O.O.O.O.O.O.O.O.O.O.O.O.O.O.O.O.O.O.O.O.O.O.O.O.O.O.O.O.O.O.O.O.O.O.O.O.O.O.O.O.O.O.O.O.O.O.O.O.O.O.O.O.O.O.O.O.O.O.O.O.O.O.O.O.O.O.O.O.O.O.O.O.O.O.O.O.O.O.O.O.O.O.O.O.O.O.O.O.O.O.O.O.O.O.O.O.O.O.O.O.O.O.O.O.O.O.O.O.O.O.O.O.O.O.O.O.O.O.O.O.O.O.O.O.O.O.O.O.O.O.O.O.O.O.O.O.O.O.O.O.O.O.O.O.O.O.O.O.O.O.O.",
"O.O.O.O.O.O.O.O.O.O.O.O.O.O.O.O.O.O.O.O.O.O.O.O.O.O.O.O.O.O.O.O.O.O.O.O.O.O.O.O.O.O.O.O.O.O.O.O.O.O.O.O.O.O.O.O.O.O.O.O.O.O.O.O.O.O.O.O.O.O.O.O.O.O.O.O.O.O.O.O.O.O.O.O.O.O.O.O.O.O.O.O.O.O.O.O.O.O.O.O.O.O.O.O.O.O.O.O.O.O.O.O.O.O.O.O.O.O.O.O.O.O.O.O.O.O.O.O.O.O.O.O.O.O.O.O.O.O.O.O.O.O.O.O.O.O.O.O.O.O.O.O.O.O.O.O.O.O.O.O.O.O.O.O.O.O.O.O.O.O.O.O.O.O.O.O.O.O.O.O.O.O.O.O.O.O.O.O.O.O.O.O.O.O.O.O.O.O.O.O.O.O.O.O.O.O.O.O.O.O.O.O.O.O.O.O.O.O.O.O.O.O.O.O.O.O.O.O.O.O.O.O.O.O.O.O.O.O.O.O.O.O.O.O.O.O.O.O.O.O.O.O.O.O.O.O.",
"O.O.O.O.O.O.O.O.O.O.O.O.O.O.O.O.O.O.O.O.O.O.O.O.O.O.O.O.O.O.O.O.O.O.O.O.O.O.O.O.O.O.O.O.O.O.O.O.O.O.O.O.O.O.O.O.O.O.O.O.O.O.O.O.O.O.O.O.O.O.O.O.O.O.O.O.O.O.O.O.O.O.O.O.O.O.O.O.O.O.O.O.O.O.O.O.O.O.O.O.O.O.O.O.O.O.O.O.O.O.O.O.O.O.O.O.O.O.O.O.O.O.O.O.O.O.O.O.O.O.O.O.O.O.O.O.O.O.O.O.O.O.O.O.O.O.O.O.O.O.O.O.O.O.O.O.O.O.O.O.O.O.O.O.O.O.O.O.O.O.O.O.O.O.O.O.O.O.O.O.O.O.O.O.O.O.O.O.O.O.O.O.O.O.O.O.O.O.O.O.O.O.O.O.O.O.O.O.O.O.O.O.O.O.O.O.O.O.O.O.O.O.O.O.O.O.O.O.O.O.O.O.O.O.O.O.O.O.O.O.O.O.O.O.O.O.O.O.O.O.O.O.O.O.O.O.",
"O.O.O.O.O.O.O.O.O.O.O.O.O.O.O.O.O.O.O.O.O.O.O.O.O.O.O.O.O.O.O.O.O.O.O.O.O.O.O.O.O.O.O.O.O.O.O.O.O.O.O.O.O.O.O.O.O.O.O.O.O.O.O.O.O.O.O.O.O.O.O.O.O.O.O.O.O.O.O.O.O.O.O.O.O.O.O.O.O.O.O.O.O.O.O.O.O.O.O.O.O.O.O.O.O.O.O.O.O.O.O.O.O.O.O.O.O.O.O.O.O.O.O.O.O.O.O.O.O.O.O.O.O.O.O.O.O.O.O.O.O.O.O.O.O.O.O.O.O.O.O.O.O.O.O.O.O.O.O.O.O.O.O.O.O.O.O.O.O.O.O.O.O.O.O.O.O.O.O.O.O.O.O.O.O.O.O.O.O.O.O.O.O.O.O.O.O.O.O.O.O.O.O.O.O.O.O.O.O.O.O.O.O.O.O.O.O.O.O.O.O.O.O.O.O.O.O.O.O.O.O.O.O.O.O.O.O.O.O.O.O.O.O.O.O.O.O.O.O.O.O.O.O.O.O.O.",
"@.@.@.@.@.@.@.@.@.@.@.@.@.@.@.@.@.@.@.@.@.@.@.@.@.@.@.@.@.@.@.@.@.@.@.@.@.@.@.@.@.@.@.@.@.@.@.@.@.@.@.@.@.@.@.@.@.@.@.@.@.@.@.@.@.@.@.@.@.@.@.@.@.@.@.@.@.@.@.@.@.@.@.@.@.@.@.@.@.@.@.@.@.@.@.@.@.@.@.@.@.@.@.@.@.@.@.@.@.@.@.@.@.@.@.@.@.@.@.@.@.@.@.@.@.@.@.@.@.@.@.@.@.@.@.@.@.@.@.@.@.@.@.@.@.@.@.@.@.@.@.@.@.@.@.@.@.@.@.@.@.@.@.@.@.@.@.@.@.@.@.@.@.@.@.@.@.@.@.@.@.@.@.@.@.@.@.@.@.@.@.@.@.@.@.@.@.@.@.@.@.@.@.@.@.@.@.@.@.@.@.@.@.@.@.@.@.@.@.@.@.@.@.@.@.@.@.@.@.@.@.@.@.@.@.@.@.@.@.@.@.@.@.@.@.@.@.@.@.@.@.@.@.@.@.@.",
"B B B B B B B B B B B B B B B B B B B B B B B B B B B B B B B B B B B B B B B B B B B B B B B B B B B B B B B B B B B B B B B B B B B B B B B B B B B B B B B B B B B B B B B B B B B B B B B B B B B B B B B B B B B B B B B B B B B B B B B B B B B B B B B B B B B B B B B B B B B B B B B B B B B B B B B B B B B B B B B B B B B B B B B B B B B B B B B B B B B B B B B B B B B B B B B B B B B B B B B B B B B B B B B B B B B B B B B B B B B B B B B B B B B B B B B B B B B B B B B B B B B B B B B B B B B B B B B B ",
"q.q.q.q.q.q.q.q.q.q.q.q.q.q.q.q.q.q.q.q.q.q.q.q.q.q.q.q.q.q.q.q.q.q.q.q.q.q.q.q.q.q.q.q.q.q.q.q.q.q.q.q.q.q.q.q.q.q.q.q.q.q.q.q.q.q.q.q.q.q.q.q.q.q.q.q.q.q.q.q.q.q.q.q.q.q.q.q.q.q.q.q.q.q.q.q.q.q.q.q.q.q.q.q.q.q.q.q.q.q.q.q.q.q.q.q.q.q.q.q.q.q.q.q.q.q.q.q.q.q.q.q.q.q.q.q.q.q.q.q.q.q.q.q.q.q.q.q.q.q.q.q.q.q.q.q.q.q.q.q.q.q.q.q.q.q.q.q.q.q.q.q.q.q.q.q.q.q.q.q.q.q.q.q.q.q.q.q.q.q.q.q.q.q.q.q.q.q.q.q.q.q.q.q.q.q.q.q.q.q.q.q.q.q.q.q.q.q.q.q.q.q.q.q.q.q.q.q.q.q.q.q.q.q.q.q.q.q.q.q.q.q.q.q.q.q.q.q.q.q.q.q.q.q.q.q.",
"hXhXhXhXhXhXhXhXhXhXhXhXhXhXhXhXhXhXhXhXhXhXjXjXhXhXhXhXhXhXhXhXhXhXhXhXhXhXhXhXhXhXhXhXhXhXhXhXhXhXhXhXhXhXhXhXhXhXhXhXhXhXhXhXhXhXhXhXhXhXhXhXhXhXhXhXhXhXhXhXhXhXhXhXhXhXhXhXhXhXhXhXhXhXhXhXhXhXhXhXhXhXhXhXhXhXhXhXhXhXhXhXhXhXhXhXhXhXhXhXhXhXhXhXhXhXhXhXhXhXhXhXhXhXhXhXhXhXhXhXhXhXhXhXhXhXhXhXhXhXhXhXhXhXhXhXhXhXhXhXhXhXhXhXhXhXhXhXhXhXhXhXhXhXhXhXhXhXhXjXlXhXhXhXhXhXhXhXhXhXhXhXhXhXhXhXhXhXhXhXhXhXhXhXhXhXhXhXhXhXhXhXhXhXhXhXhXhXhXhXhXhXlXjXhXhXhXhXhXhXhXhXhXhXhXhXhXhXhXhXhXhXhXhXhXhXhXhXhXhXhXhXhXhXhXhX",
"lXlXlXlXlXlXlXlXlXlXlXlXlXlXlXlXlXlXlXlXlXhXpXiXhXxXlXxXxXxXxXxXxXxXxXxXxXxXxXxXxXxXxXxXxXxXxXxXxXxXxXxXxXxXxXxXxXxXxXxXxXxXxXxXxXxXxXxXxXxXxXxXxXxXxXxXxXxXxXxXxXxXxXxXxXxXxXxXxXxXxXxXxXxXxXxXxXxXxXxXxXxXxXxXxXxXxXxXxXxXxXxXxXxXxXxXxXxXxXxXxXxXxXxXxXxXxXxXxXxXxXxXxXxXxXxXxXxXxXxXxXxXxXxXxXxXxXxXxXxXxXxXxXxXxXxXxXxXxXxXxXxXxXxXxXxXxXxXxXxXxXxXxXxXxXxXxXxXxXpXiXpXxXlXxXxXxXxXxXxXxXxXxXxXxXxXxXxXxXxXxXxXxXxXxXxXxXxXxXxXxXxXxXxXxXxXxXxXxXlXxXfXiXpXlXlXlXlXlXlXlXlXlXlXlXlXlXlXlXlXlXlXlXlXlXlXlXlXlXlXlXlXlXlXlXlX",
"e.e.e.e.e.e.e.e.e.e.e.e.e.e.e.e.e.e.e.e.a.J.aXjX^.2.e.0.0.0.0.0.0.0.0.0.0.0.0.0.0.0.0.0.0.0.0.0.0.0.0.0.0.0.0.0.0.0.0.0.0.0.0.0.0.0.0.0.0.0.0.0.0.0.0.0.0.0.0.0.0.0.0.0.0.0.0.0.0.0.0.0.0.0.0.0.0.0.0.0.0.0.0.0.0.0.0.0.0.0.0.0.0.0.0.0.0.0.0.0.0.0.0.0.0.0.0.0.0.0.0.0.0.0.0.0.0.0.0.0.0.0.0.0.0.0.0.0.0.0.0.0.0.0.0.0.0.0.0.0.0.0.0.0.0.0.0.0.0.0.0.0.0.0.0.0.0.a.w.7XxX-X2.e.0.0.0.0.0.0.0.0.0.0.0.0.0.0.0.0.0.0.0.0.0.0.0.0.0.0.0.0.0.0.0.0.0.0.0.e.2.=XxXtXe.e.e.e.e.e.e.e.e.e.e.e.e.e.e.e.e.e.e.e.e.e.e.e.e.e.e.e.e.e.e.e.",
"i i i i i i i i i i i i i i i i i i i m w >.gXxXe.X w 9 9 9 9 9 9 9 9 9 9 9 9 9 9 9 9 9 9 9 9 9 9 9 9 9 9 9 9 9 9 9 9 9 9 9 9 9 9 9 9 9 9 9 9 9 9 9 9 9 9 9 9 9 9 9 9 9 9 9 9 9 9 9 9 9 9 9 9 9 9 9 9 9 9 9 9 9 9 9 9 9 9 9 9 9 9 9 9 9 9 9 9 9 9 9 9 9 9 9 9 9 9 9 9 9 9 9 9 9 9 9 9 9 9 9 9 9 9 9 9 9 9 9 9 9 9 9 9 9 9 9 9 9 9 9 9 9 9 9 9 9 9 9 9 9 9 9 9 9 9 w . -XvX+XX w 9 9 9 9 9 9 9 9 9 9 9 9 9 9 9 9 9 9 9 9 9 9 9 9 9 9 9 9 9 9 9 9 9 9 9 w X !.cX7Xi u i i i i i i i i i i i i i i i i i i i i i i i i i i i i i i ",
"Z Z Z Z Z Z Z Z Z Z Z Z Z Z Z Z Z Z Z Z V 1.gXxXi.w N m m m m m m m m m m m m m m m m m m m m m m m m m m m m m m m m m m m m m m m m m m m m m m m m m m m m m m m m m m m m m m m m m m m m m m m m m m m m m m m m m m m m m m m m m m m m m m m m m m m m m m m m m m m m m m m m m m m m m m m m m m m m m m m m m m m m m m m m m m m m m m m m m m m m m m M q >XcX+Xw N m m m m m m m m m m m m m m m m m m m m m m m m m m m m m m m m m m m N 9 ~.cXqXZ B Z Z Z Z Z Z Z Z Z Z Z Z Z Z Z Z Z B Z Z Z Z Z Z Z Z Z Z Z B ",
"B B B B B B B B B B B B B B B B B B B B m 1.gXxXi.9 M m m m m m m g m m m m m m m m m m m m m m m m m m m m m m m m m m m m m m m m m m m m m m m m m m m m m m m m m m m m m m m m m m m m m m m m m m m m m m m m m m m m m m m m m m m m m m m m m m m m m m m m m m m m m m m m m m m m m m m m m m m m m m m m m m m m m m m m m m m m m m m m m m m m m m m m 0 >XcX+X9 m m m m m m m g m m m m m m m m m m m m m m m m m m m m m m m m m m m m M 9 ~.cXqXB B B B B B B B B B B B B B B B B B B H B B B B B B B B B B B H ",
"B B B B B B B B B B B B B B B B B B B B m 1.gXxXi.9 M i v b v g m d m i i i h m i i i m m i i i m m i i m i i m m m m m m m m m m m m m m m m m m m m m m m m m m m m m m m m m m m m m m m m m m m m m m m m m m m m m m m m m m m m m m m m m m m m m m m m m m m m m m m m m m m m m m m m m m m m m m m m m m m m m m m m m m m m m m m m m m m m m m m m m m m 0 >XcX+X9 M i h b b b g m m i i i i i m m i i m m m m m m m m m m m m m m m m m m M 9 ~.cXqXB B B F | B B F ' Z B V B B B V V B B Z B F V B V V B B B V B Z ",
"B B B B B B B B B B B B B B B B B B B B m 1.gXxXi.9 M m b h m b h g m g v g b b h g v h d c c g m h c c m c c m m m m m m m m m m m m m m m m m m m m m m m m m m m m m m m m m m m m m m m m m m m m m m m m m m m m m m m m m m m m m m m m m m m m m m m m m m m m m m m m m m m m m m m m m m m m m m m m m m m m m m m m m m m m m m m m m m m m m m m m m m m 0 >XcX+X9 m m m m v h m g m k c g g c d i g v h i m m m m m m m m m m m m m m m m M 9 ~.cXqXB B B H  .H V W  .Z F } D B F W } H B D H [ W B W } F B D W F D ",
"B B B B B B B B B B B B B B B B B B B B m 1.gXxXi.9 M m v h i c k v h b h d v k m h h v g P h b h v k d c g k c i m m m m m m m m m m m m m m m m m m m m m m m m m m m m m m m m m m m m m m m m m m m m m m m m m m m m m m m m m m m m m m m m m m m m m m m m m m m m m m m m m m m m m m m m m m m m m m m m m m m m m m m m m m m m m m m m m m m m m m m m m 0 >XcX+X9 m m m m v d h b d P h P g c c d v h v d m m m m m m m m m m m m m m m m M 9 ~.cXqXB B B H { } B } { F { H } H W { F { Z { F | Z W } H { B [ H B ' ",
"B B B B B B B B B B B B B B B B B B B B m 1.gXxXi.9 M m v h i c k v h k v m c h i k v v g c e v g v m i b v v v i m m m m m m m m m m m m m m m m m m m m m m m m m m m m m m m m m m m m m m m m m m m m m m m m m m m m m m m m m m m m m m m m m m m m m m m m m m m m m m m m m m m m m m m m m m m m m m m m m m m m m m m m m m m m m m m m m m m m m m m m m 0 >XcX+X9 m m m m v d d v h v e v h h c g P c 6 h i m m m m m m m m m m m m m m m M 9 ~.cXqXB B B H } } D W } D } V H } D D V { F { B { V } F V { F { V B { ",
"V B B B B B B B B B B B B B B B B B B B m 1.gXxXi.9 M m b d m b h v h i g v c g g v h b g c e v g v h i v g m m m m m m m m m m m m m m m m m m m m m m m m m m m m m m m m m m m m m m m m m m m m m m m m m m m m m m m m m m m m m m m m m m m m m m m m m m m m m m m m m m m m m m m m m m m m m m m m m m m m m m m m m m m m m m m m m m m m m m m m m m m m 0 >XcX+X9 m m m m v d d v h v i v h h c h b m d m m m m m m m m m m m m m m m m m M 9 ~.cXqXB B B D } H [ F } H { B } D W W V { F { B { V } D B { F { B B { ",
"B B B B B B B B B B B B B B B B B B B B m 1.gXxXi.9 M i v b v k i v h c v g g b g v c c g c e c h g b c h v v g m m m m m m m m m m m m m m m m m m m m m m m m m m m m m m m m m m m m m m m m m m m m m m m m m m m m m m m m m m m m m m m m m m m m m m m m m m m m m m m m m m m m m m m m m m m m m m m m m m m m m m m m m m m m m m m m m m m m m m m m m m 0 >XcX+X9 m m m m c d d c h c i c h h c i c v c m m m m m m m m m m m m m m m m m M 9 ~.cXqXB B B H W F { B } F D { } B W D V } F } B } } F { { H B { B B { ",
"B B B B B B B B B B B B B B B B B B B B m 1.gXxXi.9 M m m m m i m m m m m m m m m m m m m m m m m m m m m m m m m m m m m m m m m m m m m m m m m m m m m m m m m m m m m m m m m m m m m m m m m m m m m m m m m m m m m m m m m m m m m m m m m m m m m m m m m m m m m m m m m m m m m m m m m m m m m m m m m m m m m m m m m m m m m m m m m m m m m m m m m m 0 >XcX+X9 m m m m m m m m m m m m m m m m m m m m m m m m m m m m m m m m m m m m M 9 ~.cXqXB B B B B B B B B B B B B B B B B B B B B B B B B B B B B B B B ",
"B B B B B B B B B B B B B B B B B B B B m 1.gXxXi.9 M m m m m m m m m m m m m m m m m m m m m m m m m m m m m m m m m m m m m m m m m m m m m m m m m m m m m m m m m m m m m m m m m m m m m m m m m m m m m m m m m m m m m m m m m m m m m m m m m m m m m m m m m m m m m m m m m m m m m m m m m m m m m m m m m m m m m m m m m m m m m m m m m m m m m m m m 0 >XcX+X9 m m m m m m m m m m m m m m m m m m m m m m m m m m m m m m m m m m m m M 9 ~.cXqXB B B B B B B B B B B B B B B B B B B B B B B B B B B B B B B B ",
"B B B B B B B B B B B B B B B B B B B B m 1.gXxXi.9 M m m m m m m m m m m m m m m m m m m m m m m m m m m m m m m m m m m m m m m m m m m m m m m m m m m m m m m m m m m m m m m m m m m m m m m m m m m m m m m m m m m m m m m m m m m m m m m m m m m m m m m m m m m m m m m m m m m m m m m m m m m m m m m m m m m m m m m m m m m m m m m m m m m m m m m m 0 >XcX+X9 m m m m m m m m m m m m m m m m m m m m m m m m m m m m m m m m m m m m M 9 ~.cXqXB B B B B B B B B B B B B B B B B B B B B B B B B B B B B B B B ",
"m m m m m m m m m m m m m m m m m m m M q >.gXxXr.O d u u u u u u u u u u u u u u u u u u u u u u u u u u u u u u u u u u u u u u u u u u u u u u u u u u u u u u u u u u u u u u u u u u u u u u u u u u u u u u u u u u u u u u u u u u u u u u u u u u u u u u u u u u u u u u u u u u u u u u u u u u u u u u u u u u u u u u u u u u u u u u u u u u u u u u d w >XcX+X@ d u u u u u u u u u u u u u u u u u u u u u u u u u u u u u u u u u u u d . ~.cX9XM m m m m m m m m m m m m m m m m m m m m m m m m m m m m m m m ",
"m m m m m m m m m m m m m m m m m m m m 0 >.gXxXr.. d q q q q q q q q q q q q q q q q q q q q q q q q q q q q q q q q q q q q q q q q q q q q q q q q q q q q q q q q q q q q q q q q q q q q q q q q q q q q q q q q q q q q q q q q q q q q q q q q q q q q q q q q q q q q q q q q q q q q q q q q q q q q q q q q q q q q q q q q q q q q q q q q q q q q q q u 9 >XvX+X@ d q q q q q q q q q q q q q q q q q q q q q q q q q q q q q q q q q q q d . ~.cX9Xm d m m m m m m m m m m m m m m m m m m m m m m m m m m m m m m ",
"m m m m m m m m m m m m m m m m m m m M 0 >.gXxXr.O d q q q q q q q q q q q q q q q q q q q q q q q q q q q q q q q q q q q q q q q q q q q q q q q q q q q q q q q q q q q q q q q q q q q q q q q q q q q q q q q q q q q q q q q q q q q q q q q q q q q q q q q q q q q q q q q q q q q q q q q q q q q q q q q q q q q q q q q q q q q q q q q q q q q q q q d 9 >XvX+X@ d q q q q q q q q q q q q q q q q q q q q q q q q q q q q q q q q q q q d . ~.cX9Xm m m m m m m m m m m m m m m m m m m m m m m m m m m m m m m m ",
"m m m m m m m m m m m m m m m m m m m M 0 >.gXxXr.O d q q q q q q q q q q q q q q q q q q q q q q q q q q q q q q q q q q q q q q q q q q q q q q q q q q q q q q q q q q q q q q q q q q q q q q q q q q q q q q q q q q q q q q q q q q q q q q q q q q q q q q q q q q q q q q q q q q q q q q q q q q q q q q q q q q q q q q q q q q q q q q q q q q q q q q d 9 >XvX+X@ d q q q q q q q q q q q q q q q q q q q q q q q q q q q q q q q q q q q d . ~.cX9Xm d m m m m m m m m m m m m m m m m m m m m m m m m m m m m m m ",
"m m m m m m m m m m m m m m m m m m m M 0 >.gXxXr.O d q q q q q q q q q q q q q q q q q q q q q q q q q q q q q q q q q q q q q q q q q q q q q q q q q q q q q q q q q q q q q q q q q q q q q q q q q q q q q q q q q q q q q q q q q q q q q q q q q q q q q q q q q q q q q q q q q q q q q q q q q q q q q q q q q q q q q q q q q q q q q q q q q q q q q q d 9 >XvX+X@ d q q q q q q q q q q q q q q q q q q q q q q q q q q q q q q q q q q q d . ~.cX9Xm d m m m m m m m m m m m m m m m m m m m m m m m m m m m m m m ",
"2 m m m m m m m m m m m m m m m m m m M 0 >.gXxXr.O d q q q q q q q q q q q q q y y q q q y q q q q q q q q q q q q q q q q q q q q q q q q q q q q q q q q q q q q q p p q q q q q q q q q q q q < y q q q q q q q q q q q q q q q q q q q q q q q q q q q q q q p p p p q q q q q q q q q q q q q q q q q q q q q q q q q q q q q q q q q q q q q q q q q q q q d 9 >XvX+X@ d q q q q q q q q q p p q q q q q q < p q q q q q q q q q q q q q q q q d . ~.cX9Xm d m m m m m m m m m m m m m m m m m m m m m m m m m m m m m m ",
"4 m m m m m m m m m m m m m m m m m m M 0 >.gXxXr.O d q q q q q q q q q q q q q - - q q - - q q q q < p q q q q q q q q q q q q q q q q q q q q q q q q q q q q q q < , > < q q q q q q q q p < q q q q q q q q q q q q q q < q q q q q q q q q q q q q q q q q q < , ; > y q q q q q q q q q q q q q q q q q q q q q q q q q q < q q q q q q q q q q q q q q q q d 9 >XvX+X@ d q q q q q q q q < ; > , p q q q q > < q q q q q q q q q q q q q q q q d . ~.cX9Xm d m m d d d m m m m m m m m m m m m m m m m m m m m m m m m m ",
"4 m s 4 s h 2 2 h m m m m m m m m m m M 0 >.gXxXr.O d q q q q q q q q q q q q q > - p q ; > q > - p , : p < - < y , > p < , < q q q q q q q q q q q q q q q q q q p ; q q q p , > q > > - p > : < > y > > , < - < q < - < p : > p > - y < , < p , > y q q q q q q q y > q q > - p < , , < , > q < , , < q < - < y , > p < - < < : < > p q > y , > p < - > q q q q d 9 >XvX+X@ d q q q q q q q q < < e < > q > - y > p p , > < < q < < q q q q q q q q d . ~.cX9Xm d m m m m m m h m m m m m m m m m m m m m m m m d m m m m m m ",
"2 h 4 h 4 2 2 m d m m m m m m m m m m M 0 >.gXxXr.O d q q q q q q q q q q q q q > > < p > > < > p > < < q ; y > < ; q t ; p q q q q q q q q q q q q q q q q q q q < > q q q , p < > - p < > p > q - y ; y > > q , q - p > < > q > < < > > > q > > q q q q q q q q q p > q < > p > > < p ; q > p < > q - p - y , < ; q q y y , p , q , p q - p : q q ; p , < q q q d 9 >XvX+X@ d q q q q q q q q < < q p > > < p > > < q q > < , y , p q q q q q q q q d . ~.cX9Xm d m h 2 2 2 s f d m m m m m m m m m m m m m f h m m m m m m m ",
"2 f 3 2 2 h s 2 h m m m m m m m m m m M 0 >.gXxXr.O d q q q q q q q q q q q q q > < > < < > < ; > > > < y ; > > < > q q p , < q q q q q q q q q q q q q q q q q q < , q q q ; , , < , q p > < > q - y , q < < q > p ; > , < , q > - > < > p q q > > q q q q q q q q p > q > ; > < > < q > q > p < < e > < ; > > < > q q > , - < , q > p q , p , q p ; > , p q q q d 9 >XvX+X@ d q q q q q q q q < < e p , > ; > < > p < , ; < < > > q q q q q q q q q d . ~.cX9Xm d m d h 4 s h h m h f f h s d m d s h m m h 2 h h s h f f m m ",
"4 h 4 h h h d 2 s m d m m m m m m m m M 0 >.gXxXr.O d q q q q q q q q q q q q q , y - > p > < > q q < > q , p q p , q y y < - q q q q q q q q q q q q q q q q q q q ; < p q > < q q - q < > p , q - y - q < < q , q , p q q - y < > q q > p q p q - p q q q q q q q p , q < > q q > < q - q > p < , p - p , p q p , q p - y - p - q > < < ; p , q q , p q q q q q d 9 >XvX+X@ d q q q q q q q q < > q , < < > q q > < , p > < p : < q q q q q q q q q d . ~.cX9Xm d m m m 2 f m 3 d 3 s 3 2 2 2 m 2 s 2 h m s s h 3 s 3 s 4 f f ",
"s m f 2 s f 2 s d m m m m m m m m m m M 0 >.gXxXr.O d q q q q q q q q q q q q q < y < < y < q < , < q > p p , > p < q y > > p q q q q q q q q q q q q q q q q q q q p > , p q > > p < q p < q > < < y < q < p q < q p , > q < > q > , p < p q < , < q q q q q q q q p < q q < , < < p q < q < p < , > p q p , < p < q q > > < q < > q > > < y < q q p , > q q q q d 9 >XvX+X@ d q q q q q q q q p , > < q q < , p < p p , < p q ; y q q q q q q q q q d . ~.cX9Xm d m m m 2 f m 4 h 4 m s s m 2 h 3 s 3 s m s s h 2 m 4 h f s h ",
"m m m m m m m m m m m m m m m m m m m M 0 >.gXxXr.O d q q q q q q q q q q q q q q q q q q q q q q q q q q q q q q q q q q q q q q q q q q q q q q q q q q q q q q q q q q q q q q q q q q q q q q q q q q q q q q q q q q q q q q q q q q q q q q q q q q q q q q q q q q q q q q q q q q q q q > < e q q q q q q q q q q q q q q q q q q q q q q q q q q q q q q d 9 >XvX+X@ d q q q q q q q q q q q q q q q q q q q q q q q < > q q q q q q q q q q d . ~.cX9Xm d m m m 2 f m 4 h 4 m s s h 2 h 3 f f h m s s h 2 m 2 h f s m ",
"m m m d m m d m m m m m m m m m m m m M 0 >.gXxXr.O d q q q q q q q q q q q q q q q q q q q q q q q q q q q q q q q q q q q q q q q q q q q q q q q q q q q q q q q q q q q q q q q q q q q q q q q q q q q q q q q q q q q q q q q q q q q q q q q q q q q q q q q q q q q q q q q q q q q q q < p q q q q q q q q q q q q q q q q q q q q q q q q q q q q q q q d 9 >XvX+X@ d q q q q q q q q q q q q q q q q q q q q q q p > y q q q q q q q q q q d . ~.cX9Xm d m m m 2 f m 3 h 4 m 2 s h 4 m 2 2 s h m s s h 2 m 4 h f s h ",
"m m m m m m m m m m m m m m m m m m m M 0 >.gXxXr.O d q q q q q q q q q q q q q q q q q q q q q q q q q q q q q q q q q q q q q q q q q q q q q q q q q q q q q q q q q q q q q q q q q q q q q q q q q q q q q q q q q q q q q q q q q q q q q q q q q q q q q q q q q q q q q q q q q q q q q q q q q q q q q q q q q q q q q q q q q q q q q q q q q q q q q q d 9 >XvX+X@ d q q q q q q q q q q q q q q q q q q q q q q q q q q q q q q q q q q q d . ~.cX9Xm d m m m h d m h m h m h h m h m m f f d m h 2 h h m h d h h d ",
"m m m m m m m m m m m m m m m m m m m M 0 >.gXxXr.O d q q q q q q q q q q q q q q q q q q q q q q q q q q q q q q q q q q q q q q q q q q q q q q q q q q q q q q q q q q q q q q q q q q q q q q q q q q q q q q q q q q q q q q q q q q q q q q q q q q q q q q q q q q q q q q q q q q q q q q q q q q q q q q q q q q q q q q q q q q q q q q q q q q q q q q d 9 >XvX+X@ d q q q q q q q q q q q q q q q q q q q q q q q q q q q q q q q q q q q d . ~.cX9Xm d m m m m m m m m m m m m m m m m m m m m m f h m m m m m m m ",
"m m m m m m m m m m m m m m m m m m m M 0 >.gXxXr.O d q q q q q q q q q q q q q q q q q q q q q q q q q q q q q q q q q q q q q q q q q q q q q q q q q q q q q q q q q q q q q q q q q q q q q q q q q q q q q q q q q q q q q q q q q q q q q q q q q q q q q q q q q q q q q q q q q q q q q q q q q q q q q q q q q q q q q q q q q q q q q q q q q q q q q q d 9 >XvX+X@ d q q q q q q q q q q q q q q q q q q q q q q q q q q q q q q q q q q q d . ~.cX9Xm d m m m m m m m m m m m m m m m m m m m m m m m m m m m m m m ",
"m m m m m m m m m m m m m m m m m m m M 0 >.gXxXr.O d q q q q q q q q q q q q q q q q q q q q q q q q q q q q q q q q q q q q q q q q q q q q q q q q q q q q q q q q q q q q q q q q q q q q q q q q q q q q q q q q q q q q q q q q q q q q q q q q q q q q q q q q q q q q q q q q q q q q q q q q q q q q u q q 0 q q q q q q q q q q q q q q q q q q q q q q d 9 >XvX+X@ d q q q q q q q q q q q q q 0 q q u q q q 0 q q q q q q q q q q q q q q d . ~.cX9Xm d m m m m m m m m m m m m m m m m m m m m m m m m m m m m m m ",
"d m m m m m m m m m m m m m m m m m m M 0 >.gXxXr.O d q q q q q q q q q q q q q q q q q q q q d d M M M M m d u q q q q q q q q q q q q q q q q q q q q q q q q q q q q q q q q q q q q q q q q q d d M M M M m d q q q q q q q q q q q q q q q q q q q q q q q q q q q q q q q q q q q q q q q q q q d m m O.;.$.O.N d 0 q q q q q q q q q q q q q q q q q q q q d 9 >XvX+X@ d q q q q q q q q q q q 0 d B O.$.$.$.$.O.M q 0 q q q q q q q q q q q q d . ~.cX9Xm d m m m m m m m m m m m m m m m m m m m m m m m m m m m m m m ",
"V d m m m m m m m m m m m m m m m m m M 0 >.gXxXr.O d q q q q q q q q q q q q q q q q q q d m N M d q q q d N M d q q q q q q q q q q q q q q q q q q q q q q q q q q q q q q q q q q q q q q d m N M d q q q m N M d q q q q q q q q q q q q q q q q q q q q q q q q q q q q q q q q q q q q q q d M N M t V $.$.;.1.$.B q q q q q q q q q q q q q q q q q q q q d 9 >XvX+X@ d q q q q q q q q q q u B $.1.;.$.$.$.$.>.1.$.B 0 q q q q q q q q q q q d . ~.cX9Xm d m m m m m m m m m m m m m m m m m m m m m m m m m m m m m m ",
"F.o.d m m m m m m m m m m m m m m m m M 0 >.gXxXr.O d q q q q q q q q q q q q q q q q q d M M d N >.3.3.3.+.d d N m u q q q q q q q q q q q q q q q q q q q q q q q q q q q q q q q q q q q d M m d N >.2.3.3.F d d N m u q q q q q q q q q q q q q q q q q q q q q q q q q q q q q q q q q q u m M m d B >.w.e.q.1.$.&.1.@.d q q q q q q q q q q q q q q q q q q d 9 >XvX+X@ d q q q q q q q q q d #.1.&.$.1.q.e.e.q.1.$.;.1.O.u q q q q q q q q q q d . ~.cX9Xm d m m m m m m m m m m m m m m m m m m m m m m m m m m m m m m ",
"D.D.o.d m m m m m m m m m m m m m m m M 0 >.gXxXr.O d q q q q q q q q q q q q q q q q d M m N 2./.(.OXOXOX~.n.+.d M M u q q q q q q q q q q q q q q q q q q q q q q q q q q q q q q q q q m M m B t.E.`.OXOXoX!.p.%.d M m u q q q q q q q q q q q q q q q q q q q q q q q q q q q q q q q q u m M m F r.^.`.OXOXXX!.J.1.$.1.$.d q q q q q q q q q q q q q q q q q d 9 >XvX+X@ d q q q q q q q q m $.1.&.1.p.!.`.OXOX`.!.p.1.&.#.m q q q q q q q q q q d . ~.cX9Xm d m m m m m m m m m m m m m m m m m m m m m m m m m m m m m m ",
"S.D.F.V d m m m m m m m m m m m m m m M 0 >.gXxXr.O d q q q q q q q q q q q q q q q d M m %.R.OXOXXX`.`.`.oXOX`.t.d M M q q q q q q q q q q q q q q q q q q q q q q q q q q q q q q q q d M d +.E.OXOXXX`.`.`.oXOX`.2.d N m q q q q q q q q q q q q q q q q q q q q q q q q q q q q q q q q m M d >.Q.OXOX`.`.`.`.oXOX~.0.$.$.m q q q q q q q q q q q q q q q q q d 9 >XvX+X@ d q q q q q q q u $.1.&.e.(.OXoX`.`.`.`.oX#X!.2.d N d q q q q q q q q q d . ~.cX9Xm d m m m m m m m m m m m m m m m m m m m m m m m m m m m m m m ",
"3XS.P.G.d m m m m m m m m m m m m m m M 0 >.gXxXr.O d q q q q q q q q q q q q q q u M d +.E.OX`.`.`.`.`.`.`.`.`.+Xt.d N d q q q q q q q q q q q q q q q q q q q q q q q q q q q q q q d M d >.!.OX`.`.`.`.`.`.`.`.XXOX2.d N d q q q q q q q q q q q q q q q q q q q q q q q q q q q q q q d N d 3.(.oX`.`.`.`.`.`.`.XXOXOX2.d M d q q q q q q q q q q q q q q q q d 9 >XvX+X@ d q q q q q u 0 B 1.$.i.`.oX`.`.`.`.`.`.`.V.OX`.:.d N d q q q q q q q q d . ~.cX9Xm d m m m m m m m m m m m m m m m m m m m m m m m m m m m m m m ",
"aXL.S.D.o.d m m m m m m m m m m m m m M 0 >.gXxXr.O d q q q q q q q q q q q q q q d M d p.+X`.`.`.`.`.`.`.`.`.`.`.oX1.d M d q q q q q q q q q q q q q q q q q q q q q q q q q q q q q m M M T.OX`.`.`.`.`.`.`.`.`.`.XX`.-.d M u q q q q q q q q q q q q q q q q q q q q q q q q q q q q q m m B ^.OX`.`.`.`.`.`.`.OXV.6.`.!.F m M u q q q q q q q q q q q q q q q d 9 >XvX+X@ d q q q q q q d $.&.1.(.oX`.`.`.`.`.`.+Xb.L 9.+XE.B M m q q q q q q q q d . ~.cX9Xm d m m m d d m m m m m m m m m m m m m m m m m m m m m m m m m ",
"dX4XD.D.G.d m m m m m m m m m m m m m M 0 >.gXxXr.O d q q q q q q q q q q q q q u N d 3.OX`.`.`.`.`.`.`.`.`.`.`.`.OXR.m M d q q q q q q q q q q q q q q q q q q q q q q q q q q q q d N q 0.OX`.`.`.`.`.`.`.`.`.`.`.`.OXp.d N d q q q q q q q q q q q q q q q q q q q q q q q q q q q q d N q r.+X`.`.`.`.`.`.XXoXb.] L V.$Xr.d N d q q q q q q q q q q q q q q q d 9 >XvX+X@ d q q q q q 0 B 1.$.R.OX`.`.`.`.`.`.OXV.) ) B.XXOX0.q N d q q q q q q q d . ~.cX9Xm d m m m m m m m d m m m d m m d m m m m d m h h m d m m m d m ",
"pXpXH.S.F.V d m m m m m m m m m m m m M 0 >.gXxXr.O d q q q q q q q q q q q q q d M d p.OX`.`.`.`.`.`.`.`.`.`.`.`.XX`.+.d m q q q q q q q q q q q q q q q q q q q q q q q q q q q q d M M R.OX`.`.`.`.`.`.`.`.`.`.`.`.oX!.F m m q q q q q q q q q q q q q q q q q q q q q q q q q q q q d M N T.OX`.`.`.`.`.`.`.8.L ) b.XXOXE.N M d q q q q q q q q q q q q q q q d 9 >XvX+X@ d q q q q q q O.;.1.!.oX`.`.`.`.`.oXV.) ) B.+X`.OXR.M M d q q q q q q q d . ~.cX9Xm d m m h 2 2 h m m m m m m m m m m m m m m m 2 s m m m m m m m ",
"pXaXL.S.F.*.d m m m m m m m m m m m m M 0 >.gXxXr.O d q q q q q q q q q q q q q d m N E.oX`.`.`.`.`.`.`.`.`.`.`.`.`.oX2.d M u q q q q q q q q q q q q q q q q q q q q q q q q q q q m d F !.oX`.`.`.`.`.`.`.`.`.`.`.`.`.`.1.d M q q q q q q q q q q q q q q q q q q q q q q q q q q q q m d +.`.XX`.`.`.`.`.oXQ.) ] V.OX`.XX~.+.d m q q q q q q q q q q q q q q q d 9 >XvX+X@ d q q q q q q $.$.q.`.`.`.`.`.`.`.OXB.) 8.OX`.`.oXQ.F d m q q q q q q q d . ~.cX9Xm d m m 4 f h h h s f m f s f h s d m f s s m s s m s s m h s f ",
"pXdX3XS.D.*.d m m m m m m m m m m m m M 0 >.gXxXr.O d q q q q q q q q q q q q q d m F ~.XX`.`.`.`.XX`.`.`.`.`.`.`.`.+Xr.q N u q q q q q q q q q q q q q q q q q q q q q q q q q q q m d +.`.`.`.`.`.`.XX`.`.`.`.`.`.`.`.+X2.q M q q q q q q q q q q q q q q q q q q q q q q q q q q q q M d >.OX`.`.`.`.`.`.`.OXV./.+X`.`.`.OX1.q M q q q q q q q q q q q q q q q d 9 >XvX+X@ d q q q q q u &.$.e.OX`.`.`.`.`.`.`.OXQ.`.XX`.`.`.oX:.d M q q q q q q q d . ~.cX9Xm d m m 2 2 m m f f 2 h 3 s 3 2 2 s m 3 s 4 f s f s s 2 s 2 s f ",
"pXdX3XS.D.*.d m m m m m m m m m m m m M 0 >.gXxXr.O d q q q q q q q q q q q q q d m F ~.XX`.`.`.XX).OXoX`.`.`.`.`.`.OXr.q N u q q q q q q q q q q q q q q q q q q q q q q q q q q q m d +.`.`.`.`.`.XX).OXXX`.`.`.`.`.`.OX2.q N q q q q q q q q q q q q q q q q q q q q q q q q q q q q M d >.OX`.`.`.`.`.`.`.`.OXoX`.`.`.`.OX1.q M q q q q q q q q q q q q q q q d 9 >XvX+X@ d q q q q q q $.$.e.OX`.`.`.`.`.`.`.`.oXXX`.`.`.`.XX+.d M q q q q q q q d . ~.cX9Xm d m m d 2 4 h h s 4 f 4 m 2 f d 2 d 4 m s s s s 2 2 2 2 s 2 d ",
"pXdXY.S.F.*.d m m m m m m m m m m m m M 0 >.gXxXr.O d q q q q q q q q q q q q q d M N T.OX`.`.`.oX6.X.!.oX`.`.`.`.`.OX0.q M u q q q q q q q q q q q q q q q q q q q q q q q q q q q m m F ^.oX`.`.XX`...6.`.XX`.`.`.`.`.oX3.d M q q q q q q q q q q q q q q q q q q q q q q q q q q q q M d +.~.XX`.`.`.`.`.`.`.`.`.`.`.`.`.`.>.d M q q q q q q q q q q q q q q q d 9 >XvX+X@ d q q q q q q $.$.w.`.`.`.`.`.`.`.`.`.`.`.`.`.`.XX~.%.d m q q q q q q q d . ~.cX9Xm d m m m m s 2 2 f 4 f 2 m 2 f h 2 d 3 m s s s s 2 s h h m f 4 ",
"pXrXK.S.G.m d m m m m m m m m m m m m M 0 >.gXxXr.O d q q q q q q q q q q q q q d N d r.#X`.`.OXB.L [ !.oX`.`.`.`.XX~.>.d m q q q q q q q q q q q q q q q q q q q q q q q q q q q q d N d p.+X`.`.OXu.L ..`.XX`.`.`.`.oXQ.%.m d q q q q q q q q q q q q q q q q q q q q q q q q q q q q d M d R.OX`.`.`.`.`.`.`.`.`.`.`.`.OXT.F m d q q q q q q q q q q q q q q q d 9 >XvX+X@ d q q q q q q O.>.>.^.oX`.`.`.`.`.`.`.`.`.`.`.`.OXR.N M d q q q q q q q d . ~.cX9Xm d m d s 2 2 f 4 s 4 f 2 m 2 f h 2 m 3 2 4 h s f h 2 s f s 2 2 ",
"aX2XD.D.=.a m m m m m m m m m m m m m M 0 >.gXxXr.O d q q q q q q q q q q q q q q M d >.oX`.XX`.[ P V.OX`.`.`.`.`.OXn.m M d q q q q q q q q q q q q q q q q q q q q q q q q q q q q u N q 2.OX`.oXQ.] ) /.OX`.`.`.`.`.OXp.d M d q q q q q q q q q q q q q q q q q q q q q q q q q q q q d N q t.+X`.`.`.`.`.`.`.`.`.`.`.`.OXe.d N d q q q q q q q q q q q q q q q d 9 >XvX+X@ d q q q q q 0 N 1.#.p.OX`.`.`.`.`.`.`.`.`.`.`.`.oX2.d M u q q q q q q q d . ~.cX9Xm d m m h f h m h f h d h m h d d h d 4 h h m h d m h f h h f d ",
"pXH.S.D.o.d m m m m m m m m m m m m m M 0 >.gXxXr.O d q q q q q q q q q q q q q q d M d p.OXoX8.8 6.OX`.`.`.`.`.oX(.+.d M d q q q q q q q q q q q q q q q q q q q q q q q q q q q q q m M M V.OXoX9.8 9.+X`.`.`.`.`.OXQ.F m M u q q q q q q q q q q q q q q q q q q q q q q q q q q q q q m M N T.OX`.`.`.`.`.`.`.`.`.`.OXT.B m M q q q q q q q q q q q q q q q q d 9 >XvX+X@ d q q q q q q d $.;.1.!.oX`.`.`.`.`.`.`.`.`.`.+XR.N M m q q q q q q q q d . ~.cX9Xm d m m m m m m m m m m m m m m m m d 2 m m m m m m m m m m m m ",
"Y.S.D.G.d m m m m m m m m m m m m m m M 0 >.gXxXr.O d q q q q q q q q q q q q q q u M m N R.$XV.../.OX`.`.`.`.oXXX2.u N d q q q q q q q q q q q q q q q q q q q q q q q q q q q q q q d M d F E.#XV...Q.oX`.`.`.`.OX`.3.d N d q q q q q q q q q q q q q q q q q q q q q q q q q q q q q q d N d +.!.OX`.`.`.`.`.`.`.`.OX~.>.d N d q q q q q q q q q q q q q q q q d 9 >XvX+X@ d q q q q q q 0 B 1.$.w.`.OX`.`.`.`.`.`.`.`.OXQ.+.d M d q q q q q q q q d . ~.cX9Xm d m m m m m m m m m m m m m m m m m d m m m m m m m m m m m m ",
"S.D.F.V d m m m m m m m m m m m m m m M 0 >.gXxXr.O d q q q q q q q q q q q q q q q d N d B R.+X$XoX`.`.XXOXOX^.1.q N m q q q q q q q q q q q q q q q q q q q q q q q q q q q q q q q q d N d F T.+X$XXX`.`.XXOXOX/.>.q N d q q q q q q q q q q q q q q q q q q q q q q q q q q q q q q q q d N d +.T.OXOXXX`.`.oXOXOXT.+.d N d q q q q q q q q q q q q q q q q q d 9 >XvX+X@ d q q q q q q q 0 O.1.$.w.^.OXOX`.`.`.oXOXoXR.F d N d q q q q q q q q q d . ~.cX9Xm d m m m m m m m m m m m m m m m m m m m m m m m m m m m m m m ",
"D.F.o.d m m m m m m m m m m m m m m m M 0 >.gXxXr.O d q q q q q q q q q q q q q q q q d M O.#.>.p.!.XXXX(.T.e.Z d N m u q q q q q q q q q q q q q q q q q q q q q q q q q q q q q q q q q d N @.@.>.V.~.XXoX~.R.t.N d N m u q q q q q q q q q q q q q q q q q q q q q q q q q q q q q q q q q d N d m 3.R.(.XXoX!.R.2.M d N m q q q q q q q q q q q q q q q q q q d 9 >XvX+X@ d q q q q q q q q u @.1.&.O.2.T.`.XXoXQ.R.3.M m N d q q q q q q q q q q d . ~.cX9Xm d m m m m m m m m m m m m m m m m m m m m m m m m m m m m m m ",
"F.*.d m m m m m m m m m m m m m m m m M 0 >.gXxXr.O d q q q q q q q q q q q q q q q q q m ;.B 9 0 F %.%.F d w 0 M m u q q q q q q q q q q q q q q q q q q q q q q q q q q q q q q q q q q q N ;.M 9 q F %.%.F d w 0 M m u q q q q q q q q q q q q q q q q q q q q q q q q q q q q q q q q q q q d M u 9 d F %.+.F d w q M d q q q q q q q q q q q q q q q q q q q d 9 >XvX+X@ d q q q q q q q q q q O.$.d 9 d F %.%.B u w u M d q q q q q q q q q q q d . ~.cX9Xm d m m m m m m m m m m m m m m m m m m m m m m m m m m m m m m ",
"V d m m m m m m m m m m m m m m m m m M 0 >.gXxXr.O d q q q q q q q q q q q q q q q q q q d q u u 0 w w w q u u u q q q q q q q q q q q q q q q q q q q q q q q q q q q q q q q q q q q q q q d q d q w w w w q u q u q q q q q q q q q q q q q q q q q q q q q q q q q q q q q q q q q q q q q q u q d q w w w 0 q u q u q q q q q q q q q q q q q q q q q q q q d 9 >XvX+X@ d q q q q q q q q q q q d q d q w w w 0 q u q u q q q q q q q q q q q q d . ~.cX9Xm d m m m m m m m m m m m m m m m m m m m m m m m m m m m m m m ",
"d m m m m m m m m m m m m m m m m m m M 0 >.gXxXr.O d q q q q q q q q q q q q q q q q q q q q q q u u u u u q q q q q q q q q q q q q q q q q q q q q q q q q q q q q q q q q q q q q q q q q q q q q u u u u u q q q q q q q q q q q q q q q q q q q q q q q q q q q q q q q q q q q q q q q q q q q q u u u u u u q q q q q q q q q q q q q q q q q q q q q q q d 9 >XvX+X@ d q q q q q q q q q q q q q q u u u u u q q q q q q q q q q q q q q q q d . ~.cX9Xm d m m m m m m m m m m m m m m m m m m m m m m m m m m m m m m ",
"m m m m m m m m m m m m m m m m m m m M 0 >.gXxXr.O d q q q q q q q q q q q q q q q q q q q q q q q q q q q q q q q q q q q q q q q q q q q q q q q q q q q q q q q q q q q q q q q q q q q q q q q q q q q q q q q q q q q q q q q q q q q q q q q q q q q q q q q q q q q q q q q q q q q q q q q q q q q q q q q q q q q q q q q q q q q q q q q q q q q q q q d 9 >XvX+X@ d q q q q q q q q q q q q q q q q q q q q q q q q q q q q q q q q q q q d . ~.cX9Xm d m m m m m m m m m m m m m m m m m m m m m m m m m m m m m m ",
"m m m m m m m m m m m m m m m m m m m M 0 >.gXxXr.O d q q q q q q q q q q q q q q q q q q q q q q q q q q q q q q q q q q q q q q q q q q q q q q q q q q q q q q q q q q q q q q q q q q q q q q q q q q q q q q q q q q q q q q q q q q q q q q q q q q q q q q q q q q q q q q q q q q q q q q q q q q q q q q q q q q q q q q q q q q q q q q q q q q q q q q d 9 >XvX+X@ d q q q q q q q q q q q q q q q q q q q q q q q q q q q q q q q q q q q d . ~.cX9Xm d m m m m m m m m m m m m m m m m m m m m m m m m m m m m m m ",
"m m m m m m m m m m m m m m m m m m m M 0 >.gXxXr.O d q q q q q q q q q q q q q q q q q q q q q q q q q q q q q q q q q q q q q q q q q q q q q q q q q q q q q q q q q q q q q q q q q q q q q q q q q q q q q q q q q q q q q q q q q q q q q q q q q q q q q q q q q q q q q q q q q q q q q q q q q q q q q q q q q q q q q q q q q q q q q q q q q q q q q q d 9 >XvX+X@ d q q q q q q q q q q q q q q q q q q q q q q q q q q q q q q q q q q q d . ~.cX9Xm d m m m m m m m m m m m m m m m m m m m m m m m m m m m m m m ",
"m m m m m m m m m m m m m m m m m m m M 0 >.gXxXr.O d q q q q q q q q q q q q q q q q q q q q q q q q q q q q q q q q q q q q q q q q q q q q q q q q q q q q q q q q q q q q q q q q q q q q q q q q q q q q q q q q q q q q q q q q q q q q q q q q q q q q q q q q q q q q q q q q q q q q q q q q q q q q q q q q q q q q q q q q q q q q q q q q q q q q q q d 9 >XvX+X@ d q q q q q q q q q q q q q q q q q q q q q q q q q q q q q q q q q q q d . ~.cX9Xm d m m m m m m h f m d d m m d m d d m m m d m m m d m m d m m ",
"m m m m m m m m m m m m m m m m m m m M 0 >.gXxXr.O d q q q q q q q q q q q q q q q q q q q q q q q q q q q q q q q q q q q q q q q q q q q q q q q q q q q q q q q q q q q q q q q q q q q q q q q q q q q q q q q q q q q q q q q q q q q q q q q q q q q q q q q q q q q q q q q q q q q q q q q q q q q q q q q q q q q q q q q q q q q q q q q q q q q q q q d 9 >XvX+X@ d q q q q q q q q q q q q q q q q q q q q q q q q q q q q q q q q q q q d . ~.cX9Xm d m h 4 2 2 d d h m m m m h m m m m m m m m m m m m m m m m m ",
"m m m m m m m m m m m m m m m m m m m M 0 >.gXxXr.O d q q q q q q q q q q q q q q q q q q q p > p q q q q q q q q q q q q q q q q q q q q q q q q q q q q q q q q q q q q q q q q q q q < < q q q y > < q q q q q q q q q q q q q q q q q q q q q q q q q q q q q q q q q q q q q q q q q < < q q < < q q q q < < q q q < < q q p > < q q q q q q q q q q q q q q d 9 >XvX+X@ d q q q q q q q > < q q p p q < < q q q q q q q q q q q q q q q q q q q d . ~.cX9Xm d m f 2 m s 2 d f m s s s 3 s h s s m f s s h m f 2 h h 2 h m ",
"h h d f h m h h f m m m m m m m m m m M 0 >.gXxXr.O d q q q q q q q q q q q q q q q q q q q , < , y q q y p q p p q q q q q q q q q q q q q q q q q q q q q q q q q q q q q q q q q q < > > < q q , < , p q q q p p q p p q p q q q q q q q q q q q q q q q q q q q q q q q q q q q q q p < > < < > > < q q > < > p q p > > q < , < < q q q q q q q q q q q q q q d 9 >XvX+X@ d q q q q q q > < p q q ; > p > > < q q y p p q p y q q p p q q q q q q d . ~.cX9Xm d m f 2 m d 2 s 2 s 2 h f 3 h h h 2 f 4 2 s 2 h 4 f h 2 f 2 h ",
"2 4 4 2 2 m 2 4 2 s m m m m m m m m m M 0 >.gXxXr.O d q q q q q q q q q q q q q q q q q q p > e > < q p ; > ; > - < q q q q q q q q q q q q q q q q q q q q q q q q q q q q q q q q q , y p > q t , q < < q q > > p - > - > , > q q q q q q q q q q q q q q q q q q q q q q q q q q q q q q p > > p q , q q , q < > q y > > q - p q q q q q q q q q q q q q q q q d 9 >XvX+X@ d q q q q q p - < p q < , < < p q , q q > , , , > , q > > < q q q q q q d . ~.cX9Xm d m f 2 m d 2 s 2 h 4 f h 4 m h s 4 s 2 h d 2 s s m f 3 s 3 f ",
"h h 4 m 2 h 2 f m 4 d m m m m m m m m M 0 >.gXxXr.O d q q q q q q q q q q q q q q q q q q p > q < < q p , e - y p > q q q q q q q q q q q q q q q q q q q q q q q q q q q q q q q q q > y p , q p > q < > q p , q q ; q < > q , q q q q q q q q q q q q q q q q q q q q q q q q q q q q q q > < > p q , q y > q p > q q p y q - q q q q q q q q q q q q q q q q q d 9 >XvX+X@ d q q q q q < - p , < < p > < p q , q q , p p - q > p > > q q q q q q q d . ~.cX9Xm d m f 2 m f 2 f 2 m m 2 s 2 m 4 s 2 s 2 h h 2 s 2 m f 3 h h d ",
"h h 2 m 2 h 2 f m 4 d m m m m m m m m M 0 >.gXxXr.O d q q q q q q q q q q q q q q q q q q p > e > < q p > q , y < > q q q q q q q q q q q q q q q q q q q q q q q q q q q q q q q q q > y p , q q , q < < q < > q q - q < < q > q q q q q q q q q q q q q q q q q q q q q q q q q q q q q < < e > p q , q q , q < > q q q q q - p q q q q q q q q q q q q q q q q d 9 >XvX+X@ d q q q q q < > e > : , - ; > p q , q q > p p > q > p q < , q q q q q q d . ~.cX9Xm d m f 3 2 4 h f 2 h 2 2 h 2 2 s 2 2 s 2 h h 4 d 4 4 f s 2 s d ",
"h f 2 m 4 h 2 4 2 2 m m m m m m m m m M 0 >.gXxXr.O d q q q q q q q q q q q q q q q q q q q > > , y q p > q - y < > q q q q q q q q q q q q q q q q q q q q q q q q q q q q q q q q q < > , < > p > > , p q q - > p , q < < q , q q q q q q q q q q q q q q q q q q q q q q q q q q q q < : < < < > > < > p < > , p q q q q q < - < < q q q q q q q q q q q q q q d 9 >XvX+X@ d q q q q q q , > > p y > , p , > < q q , p p , q , p p < , y q q q q q d . ~.cX9Xm d m m h h d m d d d h h m d h m h h m d m m d m d h d m h h m ",
"d h h m h m 2 s s d m m m m m m m m m M 0 >.gXxXr.O d q q q q q q q q q q q q q q q q q q q y < p q q y p q p q y p q q q q q q q q q q q q q q q q q q q q q q q q q q q q q q q q q q < < q p y q < p q q q y < p p q p p q p q q q q q q q q q q q q q q q q q q q q q q q q q q q q p < < < q < < q p y q < p q q q q q q q p < p q q q q q q q q q q q q q q d 9 >XvX+X@ d q q q q q q y < p q q q p q p < q q q p q q p q p q p < p q q q q q q d . ~.cX9Xm d m m m m m m m m m m m m m m m m m m m m m m m m m m m m m m ",
"m m m m m m 2 h m m m m m m m m m m m M 0 >.gXxXr.O d q q q q q q q q q q q q q q q q q q q q q q q q q q q q q q q q q q q q q q q q q q q q q q q q q q q q q q q q q q q q q q q q q q q q q q q q q q q q q q q q q q q q q q q q q q q q q q q q q q q q q q q q q q q q q q q q q q q q q q q q q q q q q q q q q q q q q q q q q q q q q q q q q q q q q q d 9 >XvX+X@ d q q q q q q q q q q q q q q q q q q q q q q q q q q q q q q q q q q q d . ~.cX9Xm d m m m m m m m m m m m m m m m m m m m m m m m m m m m m m m ",
"m m m m m m h h m m m m m m m m m m m M 0 >.gXxXr.O d q q q q q q q q q q q q q q q q q q q q q q q q q q q q q q q q q q q q q q q q q q q q q q q q q q q q q q q q q q q q q q q q q q q q q q q q q q q q q q q q q q q q q q q q q q q q q q q q q q q q q q q q q q q q q q q q q q q q q q q q q q q q q q q q q q q q q q q q q q q q q q q q q q q q q q d 9 >XvX+X@ d q q q q q q q q q q q q q q q q q q q q q q q q q q q q q q q q q q q d . ~.cX9Xm d m m m m m m m m m m m m m m m m m m m m m m m m m m m m m m ",
"m m m m m m m m m m m m m m m m m m m M 0 >.gXxXr.O d q q q q q q q q q q q q q q q q q q q q q q q q q q q q q q q q q q q q q q q q q q q q q q q q q q q q q q q q q q q q q q q q q q q q q q q q q q q q q q q q q q q q q q q q q q q q q q q q q q q q q q q q q q q q q q q q q q q q q q q q q q q q q q q q q q q q q q q q q q q q q q q q q q q q q q d 9 >XvX+X@ d q q q q q q q q q q q q q q q q q q q q q q q q q q q q q q q q q q q d . ~.cX9Xm d m m m m m m m m m m m m m m m m m m m m m m m m m m m m m m ",
"m m m m m m m m m m m m m m m m m m m M 0 >.gXxXr.O d q q q q q q q q q q q q q q q q q q q q q q q q q q q q q q q q q q q q q q q q q q q q q q q q q q q q q q q q q q q q q q q q q q q q q q q q q q q q q q q q q q q q q q q q q q q q q q q q q q q q q q q q q q q q q q q q q q q q q q q q q q q q q q q q q q q q q q q q q q q q q q q q q q q q q q d 9 >XvX+X@ d q q q q q q q q q q q q q q q q q q q q q q q q q q q q q q q q q q q d . ~.cX9Xm d m m m m m m m m m m m m m m m m m m m m m m m m m m m m m m ",
"m m m m m m m m m m m m m m m m m m m M 0 >.gXxXr.O d q q q q q q q q q q q q q q q q q q q q q q q q q q q q q q q q q q q q q q q q q q q q q q q q q q q q q q q q q q q q q q q q q q q q q q q q q q q q q q q q q q q q q q q q q q q q q q q q q q q q q q q q q q q q q q q q q q q q q q q q q q q q q q q q q q q q q q q q q q q q q q q q q q q q q q d 9 >XvX+X@ d q q q q q q q q q q q q q q q q q q q q q q q q q q q q q q q q q q q d . ~.cX9Xm d m m m m m m m m m m m m m m m m m m m m m m m m m m m m m m ",
"m m m m m m m m m m m m m m m m m m m M 0 >.gXxXr.O d q q q q q q q q q q q q q q q q q q q q q q q q q q q q q q q q q q q q q q q q q q q q q q q q q q q q q q q q q q q q q q q q q q q q q q q q q q q q q q q q q q q q q q q q q q q q q q q q q q q q q q q q q q q q q q q q q q q q q q q q q q q q q q q q q q q q q q q q q q q q q q q q q q q q q q d 9 >XvX+X@ d q q q q q q q q q q q q q q q q q q q q q q q q q q q q q q q q q q q d . ~.cX9Xm d m m m m m m m m m m m m m m m m m m m m m m m m m m m m m m ",
"m m m m m m m m m m m m m m m m m m m M 0 >.gXxXr.O d q q q q q q q q q q q q q q q q q q q q q q q q q q q q q q q q q q q q q q q q q q q q q q q q q q q q q q q q q q q q q q q q q q q q q q q q q q q q q q q q q q q q q q q q q q q q q q q q q q q q q q q q q q q q q q q q q q q q q q q q q q q q q q q q q q q q q q q q q q q q q q q q q q q q q q d 9 >XvX+X@ d q q q q q q q q q q q q q q q q q q q q q q q q q q q q q q q q q q q d . ~.cX9Xm d m m m m m m m m m m m m m m m m m m m m m m m m m m m m m m ",
"m m m m m m m m m m m m m m m m m m m M 0 >.gXxXr.O d q q q q q q q q q q q q q q q q q q q q q q q q q q q q q q q q q q q q q q q q q q q q q q q q q q q q q q q q q q q q q q q q q q q q q q q q q q q q q q q q q q q q q q q q q q q q q q q q q q q q q q q q q q q q q q q q q q q q q q q q q q q q q q q q q q q q q q q q q q q q q q q q q q q q q q d 9 >XvX+X@ d q q q q q q q q q q q q q q q q q q q q q q q q q q q q q q q q q q q d . ~.cX9Xm d m m m m m m m m m m m m m m m m m m m m m m m m m m m m m m ",
"s m m m m m m m m m m m m m m m m m m M 0 >.gXxXr.O d q q q q q q q q q q q q q q q q q q q q q q q q q q q q q q q q q q q q q q q q q q q q q q q q q q q q q q q q q q q q M M M M M M d q q q q q q q q q q q q y < q q q q q q q q q q q q q q q q q q q q q q q q q q q q q q q q q q q q q q q q q q q q q q q q q q q q q q q q q q q q q q q q q q q q q d 9 >XvX+X@ d q q u M M M M M M d q q q q q q q q q q q q p p q q q q q q q q q q q d . ~.cX9Xm d m m m m m m m m m m m m m m m m m m m m m m m m m m m m m m ",
"m m m m m m m m m m m m m m m m m m m M 0 >.gXxXr.O d q q q q q q q q q q q q q q q q q q q q q q q q q q q q q q q q q q q q q q q q q q q q q q q q q q q q q q q q q q q q N N M M M N m q q q p ; q q q q q < y q q q q q q q q q q q q q q q q q q q q q q q q q q q q q q q q q q q q q q q q q q q q q q q q q q q q q q q q q q q q q q q q q q q q q q q d 9 >XvX+X@ d q q d N M M M M B d q q q < - q q q q q < q q q q q q q q q q q q q q d . ~.cX9Xm d m m m m m m m m m m m m m m m m m m m m m m m m m m m m m m ",
"s s f m 2 h s 4 f m m m m m m m m m m M 0 >.gXxXr.O d q q q q q q q q q q q q q q q q q q q q q q q q q q q q q q q q q q q q q q q q q q q q q q q q q q q q q q q q q q q q N d u d u N m q q q < - < q < - > ; - < < < p y > y > , p q q q q q q q q q q q q q q q q q q q q q q q q q q q q q q q q q q q q q q q q q q q q q q q q q q q q q q q q q q q q q d 9 >XvX+X@ d q q d N d d d d N d q q q > - p q > , > : > < < < q p < p , > q q q q d . ~.cX9Xm d m m m m m m m m m m m m m m m m m m m m m m m m m m m m m m ",
"4 f 2 h 2 s 2 h 4 d m m m m m m m m m M 0 >.gXxXr.O d q q q q q q q q q q q q q q q q q q q q q q q q q q q q q q q q q q q q q q q q q q q q q q q q q q q q q q q q q q q q N h d d d N m q q y > < > y - y q , y p > < < < > < < p , q q q q q q q q q q q q q q q q q q q q q q q q q q q q q q q q q q q q q q q q q q q q q q q q q q q q q q q q q q q q q d 9 >XvX+X@ d q q d N d d d d N d q q p > < < p , q y - q < < > p > < > p < > q q q d . ~.cX9Xm d m m m m m m m m m m m m m m m m m m m m m m m m m m m m m m ",
"4 d 2 s s s 3 2 2 d m m m m m m m m m M 0 >.gXxXr.O d q q q q q q q q q q q q q q q q q q q q q q q q q q q q q q q q q q q q q q q q q q q q q q q q q q q q q q q q q q q q N d u d u N m q q < ; , ; p > q q , y p > p > > p > ; > > q q q q q q q q q q q q q q q q q q q q q q q q q q q q q q q q q q q q q q q q q q q q q q q q q q q q q q q q q q q q q d 9 >XvX+X@ d q q d N d d d d N d q q > ; ; > < < q q - q < < < > > p - , , < q q q d . ~.cX9Xm d m m m m m m m m m m m m m m m m m m m m m m m m m m m m m m ",
"3 m 2 3 m f 2 d h m m m m m m m m m m M 0 >.gXxXr.O d q q q q q q q q q q q q q q q q q q q q q q q q q q q q q q q q q q q q q q q q q q q q q q q q q q q q q q q q q q q q N N M M M N m q q > < q > > , p q , p p > q , ; q < > q q q q q q q q q q q q q q q q q q q q q q q q q q q q q q q q q q q q q q q q q q q q q q q q q q q q q q q q q q q q q q q d 9 >XvX+X@ d q q d B M M M M B d q y , y q > > , q y - y < < q : > q , < q q q q q d . ~.cX9Xm d m m m m m m m m m m m m m m m m m m m m m m m m m m m m m m ",
"s m f 2 m m s 4 s m m m m m m m m m m M 0 >.gXxXr.O d q q q q q q q q q q q q q q q q q q q q q q q q q q q q q q q q q q q q q q q q q q q q q q q q q q q q q q q q q q q q M M M M M M d q q < q q p < p - < p , < < q < < q q > , < q q q q q q q q q q q q q q q q q q q q q q q q q q q q q q q q q q q q q q q q q q q q q q q q q q q q q q q q q q q q q d 9 >XvX+X@ d q q u M M M M M M d q p < q q < p < - p < > < < q > < q p > > p q q q d . ~.cX9Xm d m m m m m m m m m m m m m m m m m m m m m m m m m m m m m m ",
"m m m m m m m m m m m m m m m m m m m M 0 >.gXxXr.O d q q q q q q q q q q q q q q q q q q q q q q q q q q q q q q q q q q q q q q q q q q q q q q q q q q q q q q q q q q q q q q q q q q q q q q q q q q q q q q q q q q q q q q q q q q q q q q q q q q q q q q q q q q q q q q q q q q q q q q q q q q q q q q q q q q q q q q q q q q q q q q q q q q q q q q d 9 >XvX+X@ d q q q q q q q q q q q q q q q q q q q q q q q q q q q q q q q q q q q d . ~.cX9Xm d m m m m m m m m m m m m m m m m m m m m m m m m m m m m m m ",
"m m m m m m m d m m m m m m m m m m m M 0 >.gXxXr.O d q q q q q q q q q q q q q q q q q q q q q q q q q q q q q q q q q q q q q q q q q q q q q q q q q q q q q q q q q q q q q q q q q q q q q q q q q q q q q q q q q q q q q q q q q q q q q q q q q q q q q q q q q q q q q q q q q q q q q q q q q q q q q q q q q q q q q q q q q q q q q q q q q q q q q q d 9 >XvX+X@ d q q q q q q q q q q q q q q q q q q q q q q q q q q q q q q q q q q q d . ~.cX9Xm d m m m m m m m m m m m m m m m m m m m m m m m m m m m m m m ",
"m m m m m m m m m m m m m m m m m m m M 0 >.gXxXr.O d q q q q q q q q q q q q q q q q q q q q q q q q q q q q q q q q q q q q q q q q q q q q q q q q q q q q q q q q q q q q q q q q q q q q q q q q q q q q q q q q q q q q q q q q q q q q q q q q q q q q q q q q q q q q q q q q q q q q q q q q q q q q q q q q q q q q q q q q q q q q q q q q q q q q q q d 9 >XvX+X@ d q q q q q q q q q q q q q q q q q q q q q q q q q q q q q q q q q q q d . ~.cX9Xm d m m m m m m m m m m m m m m m m m m m m m m m m m m m m m m ",
"m m m m m m m m m m m m m m m m m m m M 0 >.gXxXr.O d q q q q q q q q q q q q q q q q q q q q q q q q q q q q q q q q q q q q q q q q q q q q q q q q q q q q q q q q q q q q q q q q q q q q q q q q q q q q q q q q q q q q q q q q q q q q q q q q q q q q q q q q q q q q q q q q q q q q q q q q q q q q q q q q q q q q q q q q q q q q q q q q q q q q q q d 9 >XvX+X@ d q q q q q q q q q q q q q q q q q q q q q q q q q q q q q q q q q q q d . ~.cX9Xm d m m m m m m m m m m m m m m m m m m m m m m m m m m m m m m ",
"m m m m m m m m m m m m m m m m m m m M 0 >.gXxXr.O d q q q q q q q q q q q q q q q q q q q q q q q q q q q q q q q q q q q q q q q q q q q q q q q q q q q q q q q q q q q q q q q q q q q q q q q q q q q q q q q q q q q q q q q q q q q q q q q q q q q q q q q q q q q q q q q q q q q q q q q q q q q q q q q q q q q q q q q q q q q q q q q q q q q q q q d 9 >XvX+X@ d q q q q q q q q q q q q q q q q q q q q q q q q q q q q q q q q q q q d . ~.cX9Xm d m m m m m m m m m m m m m m m m m m m m m m m m m m m m m m ",
"m m m m m m m m m m m m m m m m m m m M 0 >.gXxXr.O d q q q q q q q q q q q q q q q q q q q q q q q q q q q q q q q q q q q q q q q q q q q q q q q q q q q q q q q q q q q q q q q q q q q q q q q q q q q q q q q q q q q q q q q q q q q q q q q q q q q q q q q q q q q q q q q q q q q q q q q q q q q q q q q q q q q q q q q q q q q q q q q q q q q q q q d 9 >XvX+X@ d q q q q q q q q q q q q q q q q q q q q q q q q q q q q q q q q q q q d . ~.cX9Xm d m m m m m m m m m m m m m m m m m m m m m m m m m m m m m m ",
"M M M M M M M M M M M M M M M M M M M N u >.gXxXi.@ m d d d d d d d d d d d d d d d d d d d d d d d d d d d d d d d d d d d d d d d d d d d d d d d d d d d d d d d d d d d d d d d d d d d d d d d d d d d d d d d d d d d d d d d d d d d d d d d d d d d d d d d d d d d d d d d d d d d d d d d d d d d d d d d d d d d d d d d d d d d d d d d d d d d d d d d 0 >XcX+X9 m d d d d d d d d d d d d d d d d d d d d d d d d d d d d d d d d d d d m @ ~.cX9XN M M M M M M M M M M M M M M M M M M M M M M M M M M M M M M M ",
"9 9 9 9 9 9 9 9 9 9 9 9 9 9 9 9 9 9 9 w . %.gXxXt.  9 O O O O O O O O O O O O O O O O O O O O O O O O O O O O O O O O O O O O O O O O O O O O O O O O O O O O O O O O O O O O O O O O O O O O O O O O O O O O O O O O O O O O O O O O O O O O O O O O O O O O O O O O O O O O O O O O O O O O O O O O O O O O O O O O O O O O O O O O O O O O O O O O O O O O O O @ X -XvXOX  9 O O O O O O O O O O O O O O O O O O O O O O O O O O O O O O O O O O O 9   ^.vX7Xw 9 9 9 9 9 9 9 9 9 9 9 9 9 9 9 9 9 9 9 9 9 9 9 9 9 9 9 9 9 9 9 ",
"r.r.r.r.r.r.r.r.r.r.r.r.r.r.r.r.r.r.r.r.e.J.aXjX^.w.e.e.e.e.e.e.e.e.e.e.e.e.e.e.e.e.e.e.e.e.e.e.e.e.e.e.e.e.e.e.e.e.e.e.e.e.e.e.e.e.e.e.e.e.e.e.e.e.e.e.e.e.e.e.e.e.e.e.e.e.e.e.e.e.e.e.e.e.e.e.e.e.e.e.e.e.e.e.e.e.e.e.e.e.e.e.e.e.e.e.e.e.e.e.e.e.e.e.e.e.e.e.e.e.e.e.e.e.e.e.e.e.e.e.e.e.e.e.e.e.e.e.e.e.e.e.e.e.e.e.e.e.e.e.e.e.e.e.e.e.e.e.e.e.e.e.e.e.e.e.e.e.0.7XxX>Xw.e.e.e.e.e.e.e.e.e.e.e.e.e.e.e.e.e.e.e.e.e.e.e.e.e.e.e.e.e.e.e.e.e.e.e.e.e.2.=XxXtXr.r.r.r.r.r.r.r.r.r.r.r.r.r.r.r.r.r.r.r.r.r.r.r.r.r.r.r.r.r.r.r.",
"xXxXxXxXxXxXxXxXxXxXxXxXxXxXxXxXxXxXxXxXxXxXpXpXjXxXxXxXxXxXxXxXxXxXxXxXxXxXxXxXxXxXxXxXxXxXxXxXxXxXxXxXxXxXxXxXxXxXxXxXxXxXxXxXxXxXxXxXxXxXxXxXxXxXxXxXxXxXxXxXxXxXxXxXxXxXxXxXxXxXxXxXxXxXxXxXxXxXxXxXxXxXxXxXxXxXxXxXxXxXxXxXxXxXxXxXxXxXxXxXxXxXxXxXxXxXxXxXxXxXxXxXxXxXxXxXxXxXxXxXxXxXxXxXxXxXxXxXxXxXxXxXxXxXxXxXxXxXxXxXxXxXxXxXxXxXxXxXxXxXxXxXxXxXxXxXxXxXxXfXpXgXxXxXxXxXxXxXxXxXxXxXxXxXxXxXxXxXxXxXxXxXxXxXxXxXxXxXxXxXxXxXxXxXxXxXxXxXxXxXxXkXpXpXxXxXxXxXxXxXxXxXxXxXxXxXxXxXxXxXxXxXxXxXxXxXxXxXxXxXxXxXxXxXxXxX",
"pXpXpXpXpXpXpXpXpXpXpXpXpXpXpXpXpXpXpXpXpXpXpXpXpXpXpXpXpXpXpXpXpXpXpXpXpXpXpXpXpXpXpXpXpXpXpXpXpXpXpXpXpXpXpXpXpXpXpXpXpXpXpXpXpXpXpXpXpXpXpXpXpXpXpXpXpXpXpXpXpXpXpXpXpXpXpXpXpXpXpXpXpXpXpXpXpXpXpXpXpXpXpXpXpXpXpXpXpXpXpXpXpXpXpXpXpXpXpXpXpXpXpXpXpXpXpXpXpXpXpXpXpXpXpXpXpXpXpXpXpXpXpXpXpXpXpXpXpXpXpXpXpXpXpXpXpXpXpXpXpXpXpXpXpXpXpXpXpXpXpXpXpXpXpXpXpXpXpXpXpXpXpXpXpXpXpXpXpXpXpXpXpXpXpXpXpXpXpXpXpXpXpXpXpXpXpXpXpXpXpXpXpXpXpXpXpXpXpXpXiXpXpXpXpXpXpXpXpXpXpXpXpXpXpXpXpXpXpXpXpXpXpXpXpXpXpXpXpXpXpXpXpXpXpXpX",
"rXrXrXrXrXrXrXrXrXrXrXrXrXrXrXrXrXrXrXrXrXrXrXrXrXrXrXrXrXrXrXrXrXrXrXrXrXrXrXrXrXrXrXrXrXrXrXrXrXrXrXrXrXrXrXrXrXrXrXrXrXrXrXrXrXrXrXrXrXrXrXrXrXrXrXrXrXrXrXrXrXrXrXrXrXrXrXrXrXrXrXrXrXrXrXrXrXrXrXrXrXrXrXrXrXrXrXrXrXrXrXrXrXrXrXrXrXrXrXrXrXrXrXrXrXrXrXrXrXrXrXrXrXrXrXrXrXrXrXrXrXrXrXrXrXrXrXrXrXrXrXrXrXrXrXrXrXrXrXrXrXrXrXrXrXrXrXrXrXrXrXrXrXrXrXrXrXrXrXrXrXrXrXrXrXrXrXrXrXrXrXrXrXrXrXrXrXrXrXrXrXrXrXrXrXrXrXrXrXrXrXrXrXrXrXrXrXrXrXrXrXrXrXrXrXrXrXrXrXrXrXrXrXrXrXrXrXrXrXrXrXrXrXrXrXrXrXrXrXrXrXrXrXrXrXrX",
"eXeXeXeXeXeXeXeXeXeXeXeXeXeXeXeXeXeXeXeXeXeXeXeXeXeXeXeXeXeXeXeXeXeXeXeXeXeXeXeXeXeXeXeXeXeXeXeXeXeXeXeXeXeXeXeXeXeXeXeXeXeXeXeXeXeXeXeXeXeXeXeXeXeXeXeXeXeXeXeXeXeXeXeXeXeXeXeXeXeXeXeXeXeXeXeXeXeXeXeXeXeXeXeXeXeXeXeXeXeXeXeXeXeXeXeXeXeXeXeXeXeXeXeXeXeXeXeXeXeXeXeXeXeXeXeXeXeXeXeXeXeXeXeXeXeXeXeXeXeXeXeXeXeXeXeXeXeXeXeXeXeXeXeXeXeXeXeXeXeXeXeXeXeXeXeXeXeXeXeXeXeXeXeXeXeXeXeXeXeXeXeXeXeXeXeXeXeXeXeXeXeXeXeXeXeXeXeXeXeXeXeXeXeXeXeXeXeXeXeXeXeXeXeXeXeXeXeXeXeXeXeXeXeXeXeXeXeXeXeXeXeXeXeXeXeXeXeXeXeXeXeXeXeXeXeX",
"rXrXrXrXrXrXrXrXrXrXrXrXrXrXrXrXrXrXrXrXrXrXrXrXrXrXrXrXrXrXrXrXrXrXrXrXrXrXrXrXrXrXrXrXrXrXrXrXrXrXrXrXrXrXrXrXrXrXrXrXrXrXrXrXrXrXrXrXrXrXrXrXrXrXrXrXrXrXrXrXrXrXrXrXrXrXrXrXrXrXrXrXrXrXrXrXrXrXrXrXrXrXrXrXrXrXrXrXrXrXrXrXrXrXrXrXrXrXrXrXrXrXrXrXrXrXrXrXrXrXrXrXrXrXrXrXrXrXrXrXrXrXrXrXrXrXrXrXrXrXrXrXrXrXrXrXrXrXrXrXrXrXrXrXrXrXrXrXrXrXrXrXrXrXrXrXrXrXrXrXrXrXrXrXrXrXrXrXrXrXrXrXrXrXrXrXrXrXrXrXrXrXrXrXrXrXrXrXrXrXrXrXrXrXrXrXrXrXrXrXrXrXrXrXrXrXrXrXrXrXrXrXrXrXrXrXrXrXrXrXrXrXrXrXrXrXrXrXrXrXrXrXrXrXrXrX",
"rXrXrXrXrXrXrXrXrXrXrXrXrXrXrXrXrXrXrXrXrXrXrXrXrXrXrXrXrXrXrXrXrXrXrXrXrXrXrXrXrXrXrXrXrXrXrXrXrXrXrXrXrXrXrXrXrXrXrXrXrXrXrXrXrXrXrXrXrXrXrXrXrXrXrXrXrXrXrXrXrXrXrXrXrXrXrXrXrXrXrXrXrXrXrXrXrXrXrXrXrXrXrXrXrXrXrXrXrXrXrXrXrXrXrXrXrXrXrXrXrXrXrXrXrXrXrXrXrXrXrXrXrXrXrXrXrXrXrXrXrXrXrXrXrXrXrXrXrXrXrXrXrXrXrXrXrXrXrXrXrXrXrXrXrXrXrXrXrXrXrXrXrXrXrXrXrXrXrXrXrXrXrXrXrXrXrXrXrXrXrXrXrXrXrXrXrXrXrXrXrXrXrXrXrXrXrXrXrXrXrXrXrXrXrXrXrXrXrXrXrXrXrXrXrXrXrXrXrXrXrXrXrXrXrXrXrXrXrXrXrXrXrXrXrXrXrXrXrXrXrXrXrXrXrXrX",
"rXrXrXrXrXrXrXrXrXrXrXrXrXrXrXrXrXrXrXrXrXrXrXrXrXrXrXrXrXrXrXrXrXrXrXrXrXrXrXrXrXrXrXrXrXrXrXrXrXrXrXrXrXrXrXrXrXrXrXrXrXrXrXrXrXrXrXrXrXrXrXrXrXrXrXrXrXrXrXrXrXrXrXrXrXrXrXrXrXrXrXrXrXrXrXrXrXrXrXrXrXrXrXrXrXrXrXrXrXrXrXrXrXrXrXrXrXrXrXrXrXrXrXrXrXrXrXrXrXrXrXrXrXrXrXrXrXrXrXrXrXrXrXrXrXrXrXrXrXrXrXrXrXrXrXrXrXrXrXrXrXrXrXrXrXrXrXrXrXrXrXrXrXrXrXrXrXrXrXrXrXrXrXrXrXrXrXrXrXrXrXrXrXrXrXrXrXrXrXrXrXrXrXrXrXrXrXrXrXrXrXrXrXrXrXrXrXrXrXrXrXrXrXrXrXrXrXrXrXrXrXrXrXrXrXrXrXrXrXrXrXrXrXrXrXrXrXrXrXrXrXrXrXrXrXrX",
"rXrXrXrXrXrXrXrXrXrXrXrXrXrXrXrXrXrXrXrXrXrXrXrXrXrXrXrXrXrXrXrXrXrXrXrXrXrXrXrXrXrXrXrXrXrXrXrXrXrXrXrXrXrXrXrXrXrXrXrXrXrXrXrXrXrXrXrXrXrXrXrXrXrXrXrXrXrXrXrXrXrXrXrXrXrXrXrXrXrXrXrXrXrXrXrXrXrXrXrXrXrXrXrXrXrXrXrXrXrXrXrXrXrXrXrXrXrXrXrXrXrXrXrXrXrXrXrXrXrXrXrXrXrXrXrXrXrXrXrXrXrXrXrXrXrXrXrXrXrXrXrXrXrXrXrXrXrXrXrXrXrXrXrXrXrXrXrXrXrXrXrXrXrXrXrXrXrXrXrXrXrXrXrXrXrXrXrXrXrXrXrXrXrXrXrXrXrXrXrXrXrXrXrXrXrXrXrXrXrXrXrXrXrXrXrXrXrXrXrXrXrXrXrXrXrXrXrXrXrXrXrXrXrXrXrXrXrXrXrXrXrXrXrXrXrXrXrXrXrXrXrXrXrXrXrX",
"rXrXrXrXrXrXrXrXrXrXrXrXrXrXrXrXrXrXrXrXrXrXrXrXrXrXrXrXrXrXrXrXrXrXrXrXrXrXrXrXrXrXrXrXrXrXrXrXrXrXrXrXrXrXrXrXrXrXrXrXrXrXrXrXrXrXrXrXrXrXrXrXrXrXrXrXrXrXrXrXrXrXrXrXrXrXrXrXrXrXrXrXrXrXrXrXrXrXrXrXrXrXrXrXrXrXrXrXrXrXrXrXrXrXrXrXrXrXrXrXrXrXrXrXrXrXrXrXrXrXrXrXrXrXrXrXrXrXrXrXrXrXrXrXrXrXrXrXrXrXrXrXrXrXrXrXrXrXrXrXrXrXrXrXrXrXrXrXrXrXrXrXrXrXrXrXrXrXrXrXrXrXrXrXrXrXrXrXrXrXrXrXrXrXrXrXrXrXrXrXrXrXrXrXrXrXrXrXrXrXrXrXrXrXrXrXrXrXrXrXrXrXrXrXrXrXrXrXrXrXrXrXrXrXrXrXrXrXrXrXrXrXrXrXrXrXrXrXrXrXrXrXrXrXrXrX",
"rXrXrXrXrXrXrXrXrXrXrXrXrXrXrXrXrXrXrXrXrXrXrXrXrXrXrXrXrXrXrXrXrXrXrXrXrXrXrXrXrXrXrXrXrXrXrXrXrXrXrXrXrXrXrXrXrXrXrXrXrXrXrXrXrXrXrXrXrXrXrXrXrXrXrXrXrXrXrXrXrXrXrXrXrXrXrXrXrXrXrXrXrXrXrXrXrXrXrXrXrXrXrXrXrXrXrXrXrXrXrXrXrXrXrXrXrXrXrXrXrXrXrXrXrXrXrXrXrXrXrXrXrXrXrXrXrXrXrXrXrXrXrXrXrXrXrXrXrXrXrXrXrXrXrXrXrXrXrXrXrXrXrXrXrXrXrXrXrXrXrXrXrXrXrXrXrXrXrXrXrXrXrXrXrXrXrXrXrXrXrXrXrXrXrXrXrXrXrXrXrXrXrXrXrXrXrXrXrXrXrXrXrXrXrXrXrXrXrXrXrXrXrXrXrXrXrXrXrXrXrXrXrXrXrXrXrXrXrXrXrXrXrXrXrXrXrXrXrXrXrXrXrXrXrXrX",
"rXrXrXrXrXrXrXrXrXrXrXrXrXrXrXrXrXrXrXrXrXrXrXrXrXrXrXrXrXrXrXrXrXrXrXrXrXrXrXrXrXrXrXrXrXrXrXrXrXrXrXrXrXrXrXrXrXrXrXrXrXrXrXrXrXrXrXrXrXrXrXrXrXrXrXrXrXrXrXrXrXrXrXrXrXrXrXrXrXrXrXrXrXrXrXrXrXrXrXrXrXrXrXrXrXrXrXrXrXrXrXrXrXrXrXrXrXrXrXrXrXrXrXrXrXrXrXrXrXrXrXrXrXrXrXrXrXrXrXrXrXrXrXrXrXrXrXrXrXrXrXrXrXrXrXrXrXrXrXrXrXrXrXrXrXrXrXrXrXrXrXrXrXrXrXrXrXrXrXrXrXrXrXrXrXrXrXrXrXrXrXrXrXrXrXrXrXrXrXrXrXrXrXrXrXrXrXrXrXrXrXrXrXrXrXrXrXrXrXrXrXrXrXrXrXrXrXrXrXrXrXrXrXrXrXrXrXrXrXrXrXrXrXrXrXrXrXrXrXrXrXrXrXrXrXrX",
"rXrXrXrXrXrXrXrXrXrXrXrXrXrXrXrXrXrXrXrXrXrXrXrXrXrXrXrXrXrXrXrXrXrXrXrXrXrXrXrXrXrXrXrXrXrXrXrXrXrXrXrXrXrXrXrXrXrXrXrXrXrXrXrXrXrXrXrXrXrXrXrXrXrXrXrXrXrXrXrXrXrXrXrXrXrXrXrXrXrXrXrXrXrXrXrXrXrXrXrXrXrXrXrXrXrXrXrXrXrXrXrXrXrXrXrXrXrXrXrXrXrXrXrXrXrXrXrXrXrXrXrXrXrXrXrXrXrXrXrXrXrXrXrXrXrXrXrXrXrXrXrXrXrXrXrXrXrXrXrXrXrXrXrXrXrXrXrXrXrXrXrXrXrXrXrXrXrXrXrXrXrXrXrXrXrXrXrXrXrXrXrXrXrXrXrXrXrXrXrXrXrXrXrXrXrXrXrXrXrXrXrXrXrXrXrXrXrXrXrXrXrXrXrXrXrXrXrXrXrXrXrXrXrXrXrXrXrXrXrXrXrXrXrXrXrXrXrXrXrXrXrXrXrXrXrX",
"rXrXrXrXrXrXrXrXrXrXrXrXrXrXrXrXrXrXrXrXrXrXrXrXrXrXrXrXrXrXrXrXrXrXrXrXrXrXrXrXrXrXrXrXrXrXrXrXrXrXrXrXrXrXrXrXrXrXrXrXrXrXrXrXrXrXrXrXrXrXrXrXrXrXrXrXrXrXrXrXrXrXrXrXrXrXrXrXrXrXrXrXrXrXrXrXrXrXrXrXrXrXrXrXrXrXrXrXrXrXrXrXrXrXrXrXrXrXrXrXrXrXrXrXrXrXrXrXrXrXrXrXrXrXrXrXrXrXrXrXrXrXrXrXrXrXrXrXrXrXrXrXrXrXrXrXrXrXrXrXrXrXrXrXrXrXrXrXrXrXrXrXrXrXrXrXrXrXrXrXrXrXrXrXrXrXrXrXrXrXrXrXrXrXrXrXrXrXrXrXrXrXrXrXrXrXrXrXrXrXrXrXrXrXrXrXrXrXrXrXrXrXrXrXrXrXrXrXrXrXrXrXrXrXrXrXrXrXrXrXrXrXrXrXrXrXrXrXrXrXrXrXrXrXrXrX",
"rXrXrXrXrXrXrXrXrXrXrXrXrXrXrXrXrXrXrXrXrXrXrXrXrXrXrXrXrXrXrXrXrXrXrXrXrXrXrXrXrXrXrXrXrXrXrXrXrXrXrXrXrXrXrXrXrXrXrXrXrXrXrXrXrXrXrXrXrXrXrXrXrXrXrXrXrXrXrXrXrXrXrXrXrXrXrXrXrXrXrXrXrXrXrXrXrXrXrXrXrXrXrXrXrXrXrXrXrXrXrXrXrXrXrXrXrXrXrXrXrXrXrXrXrXrXrXrXrXrXrXrXrXrXrXrXrXrXrXrXrXrXrXrXrXrXrXrXrXrXrXrXrXrXrXrXrXrXrXrXrXrXrXrXrXrXrXrXrXrXrXrXrXrXrXrXrXrXrXrXrXrXrXrXrXrXrXrXrXrXrXrXrXrXrXrXrXrXrXrXrXrXrXrXrXrXrXrXrXrXrXrXrXrXrXrXrXrXrXrXrXrXrXrXrXrXrXrXrXrXrXrXrXrXrXrXrXrXrXrXrXrXrXrXrXrXrXrXrXrXrXrXrXrXrXrX",
"rXrXrXrXrXrXrXrXrXrXrXrXrXrXrXrXrXrXrXrXrXrXrXrXrXrXrXrXrXrXrXrXrXrXrXrXrXrXrXrXrXrXrXrXrXrXrXrXrXrXrXrXrXrXrXrXrXrXrXrXrXrXrXrXrXrXrXrXrXrXrXrXrXrXrXrXrXrXrXrXrXrXrXrXrXrXrXrXrXrXrXrXrXrXrXrXrXrXrXrXrXrXrXrXrXrXrXrXrXrXrXrXrXrXrXrXrXrXrXrXrXrXrXrXrXrXrXrXrXrXrXrXrXrXrXrXrXrXrXrXrXrXrXrXrXrXrXrXrXrXrXrXrXrXrXrXrXrXrXrXrXrXrXrXrXrXrXrXrXrXrXrXrXrXrXrXrXrXrXrXrXrXrXrXrXrXrXrXrXrXrXrXrXrXrXrXrXrXrXrXrXrXrXrXrXrXrXrXrXrXrXrXrXrXrXrXrXrXrXrXrXrXrXrXrXrXrXrXrXrXrXrXrXrXrXrXrXrXrXrXrXrXrXrXrXrXrXrXrXrXrXrXrXrXrXrX"
};
