/* XPM */
static char *comp_delay_x2_stereo[] = {
/* columns rows colors chars-per-pixel */
"256 256 206 2 ",
"   c #010103",
".  c #080807",
"X  c #05060C",
"o  c #07080E",
"O  c #090A0D",
"+  c #0A0607",
"@  c #11100F",
"#  c #0C0D13",
"$  c #050E11",
"%  c #0F1016",
"&  c #0A151A",
"*  c #121315",
"=  c #181917",
"-  c #14151B",
";  c #1C151B",
":  c #17181E",
">  c #191A1E",
",  c #191716",
"<  c #100E0E",
"1  c #2D191E",
"2  c #2A171C",
"3  c #32181E",
"4  c #38171C",
"5  c #1F201E",
"6  c #20211F",
"7  c #151D23",
"8  c #1B1C22",
"9  c #17182C",
"0  c #151A31",
"q  c #221D22",
"w  c #2C1B21",
"e  c #1F2026",
"r  c #1D2229",
"t  c #19292F",
"y  c #182F36",
"u  c #212225",
"i  c #2C2526",
"p  c #272825",
"a  c #292926",
"s  c #23242A",
"d  c #2C2628",
"f  c #27282E",
"g  c #2B2C2B",
"h  c #312726",
"j  c #342827",
"k  c #352A29",
"l  c #3B2C29",
"z  c #302728",
"x  c #2F302D",
"c  c #31322E",
"v  c #3E302F",
"b  c #262731",
"n  c #272832",
"m  c #2B2C33",
"M  c #2D2E3A",
"N  c #2F3035",
"B  c #2F303D",
"V  c #323236",
"C  c #393A36",
"Z  c #33343A",
"A  c #37383D",
"S  c #393A3D",
"D  c #3A3432",
"F  c #45151A",
"G  c #581418",
"H  c #57080A",
"J  c #7A0C0E",
"K  c #690E12",
"L  c #750E11",
"P  c #631215",
"I  c #791215",
"U  c #412F2A",
"Y  c #433431",
"T  c #4B3834",
"R  c #523C36",
"E  c #563E38",
"W  c #472F2B",
"Q  c #652225",
"!  c #3F403C",
"~  c #41423D",
"^  c #584039",
"/  c #141551",
"(  c #333442",
")  c #3C3D43",
"_  c #3A3B4B",
"`  c #373847",
"'  c #3E3F51",
"]  c #132460",
"[  c #134A53",
"{  c #115559",
"}  c #144348",
"|  c #3F4045",
" . c #3F4052",
".. c #0C7578",
"X. c #0E686B",
"o. c #0C5670",
"O. c #414246",
"+. c #44454A",
"@. c #47484D",
"#. c #494A4E",
"$. c #484946",
"%. c #414255",
"&. c #4C4D52",
"*. c #444558",
"=. c #4F5054",
"-. c #515256",
";. c #545559",
":. c #57585C",
">. c #595A5E",
",. c #595A56",
"<. c #5D5E62",
"1. c #5F6064",
"2. c #616266",
"3. c #646569",
"4. c #67686C",
"5. c #696A6E",
"6. c #6C6D71",
"7. c #6F7074",
"8. c #717276",
"9. c #757679",
"0. c #77787C",
"q. c #797A7E",
"w. c #60615F",
"e. c #86090B",
"r. c #970708",
"t. c #901415",
"y. c #A70405",
"u. c #BC0101",
"i. c #B50303",
"p. c #BB0E10",
"a. c #AC3435",
"s. c #903333",
"d. c #CC0000",
"f. c #C40101",
"g. c #D30000",
"h. c #D11213",
"j. c #F71616",
"k. c #B54A4A",
"l. c #F96A6A",
"z. c #DA5C5C",
"x. c #0D0D8F",
"c. c #24248B",
"v. c #1110B7",
"b. c #2F2FBA",
"n. c #7E7F82",
"m. c #2F2FC4",
"M. c #4B4BCB",
"N. c #6868D2",
"B. c #0B7E80",
"V. c #0A8688",
"C. c #079596",
"Z. c #04A9AA",
"A. c #01B9B9",
"S. c #7F8083",
"D. c #00C6C6",
"F. c #00D3D2",
"G. c #00D0CF",
"H. c #828387",
"J. c #838488",
"K. c #87888B",
"L. c #8A8B8D",
"P. c #8E8F92",
"I. c #8F9094",
"U. c #919296",
"Y. c #959698",
"T. c #97989A",
"R. c #9A9B9E",
"E. c #9E9FA1",
"W. c #9FA0A2",
"Q. c #A2A3A6",
"!. c #A5A6A9",
"~. c #A7A8AA",
"^. c #AAABAD",
"/. c #AEAFB2",
"(. c #AFB0B2",
"). c #B2B3B5",
"_. c #B6B7B9",
"`. c #B7B8BA",
"'. c #B9BABD",
"]. c #FF9797",
"[. c #FFA5A5",
"{. c #BDBEC1",
"}. c #BFC0C2",
"|. c #C2C3C6",
" X c #C5C6C9",
".X c #CBCCCE",
"XX c #C7C8CB",
"oX c #CCCDD0",
"OX c #D2D3D6",
"+X c #D5D6D9",
"@X c #DADBDD",
"#X c #D7D8DA",
"$X c #CFD0D3",
"%X c #FBD7D7",
"&X c #DEDFE1",
"*X c #DFE0E2",
"=X c #E1E2E4",
"-X c #E5E6E8",
";X c #E7E8EA",
":X c #EAEBED",
">X c #EEEFF1",
",X c #EFF0F2",
"<X c #F1F2F4",
"1X c #F6F7F9",
"2X c #FBFCFE",
"3X c #F7F8FA",
/* pixels */
"8 8 8 8 8 8 8 8 8 8 8 8 8 8 8 8 8 8 8 8 8 8 8 8 8 8 8 8 8 8 8 8 8 8 8 8 8 8 8 8 8 8 8 8 8 8 8 8 8 8 8 8 8 8 8 8 8 8 8 8 8 8 8 8 8 8 8 8 8 8 8 8 8 8 8 8 8 8 8 8 8 8 8 8 8 8 8 8 8 8 8 8 8 8 8 8 8 8 8 8 8 8 8 8 8 8 8 8 8 8 8 8 8 8 8 8 8 8 8 8 8 8 8 8 8 8 8 8 8 8 8 8 8 8 8 8 8 8 8 8 8 8 8 8 8 8 8 8 8 8 8 8 8 8 8 8 8 8 8 8 8 8 8 8 8 8 8 8 8 8 8 8 8 8 8 8 8 8 8 8 8 8 8 8 8 8 8 8 8 8 8 8 8 8 8 8 8 8 8 8 8 8 8 8 8 8 8 8 8 8 8 8 8 8 8 8 8 8 8 8 8 8 8 8 8 8 8 8 8 8 8 8 8 8 8 8 8 8 8 8 8 8 8 8 8 8 8 8 8 8 8 8 8 8 8 8 ",
"8 8 8 8 8 8 8 8 8 8 8 8 8 8 8 8 8 8 8 8 8 8 8 8 8 8 8 8 8 8 8 8 8 8 8 8 8 8 8 8 8 8 8 8 8 8 8 8 8 8 8 8 8 8 8 8 8 8 8 8 8 8 8 8 8 8 8 8 8 8 8 8 8 8 8 8 8 8 8 8 8 8 8 8 8 8 8 8 8 8 8 8 8 8 8 8 8 8 8 8 8 8 8 8 8 8 8 8 8 8 8 8 8 8 8 8 8 8 8 8 8 8 8 8 8 8 8 8 8 8 8 8 8 8 8 8 8 8 8 8 8 8 8 8 8 8 8 8 8 8 8 8 8 8 8 8 8 8 8 8 8 8 8 8 8 8 8 8 8 8 8 8 8 8 8 8 8 8 8 8 8 8 8 8 8 8 8 8 8 8 8 8 8 8 8 8 8 8 8 8 8 8 8 8 8 8 8 8 8 8 8 8 8 8 8 8 8 8 8 8 8 8 8 8 8 8 8 8 8 8 8 8 8 8 8 8 8 8 8 8 8 8 8 8 8 8 8 8 8 8 8 8 8 8 8 8 ",
"8 8 8 8 8 8 8 8 8 8 8 8 8 8 8 8 8 8 8 8 8 8 8 8 8 8 8 8 8 8 8 8 8 8 8 8 8 8 8 8 8 8 8 8 8 8 8 8 8 8 8 8 8 8 8 8 8 8 8 8 8 8 8 8 8 8 8 8 8 8 8 8 8 8 8 8 8 8 8 8 8 8 8 8 8 8 8 8 8 8 8 8 8 8 8 8 8 8 8 8 8 8 8 8 8 8 8 8 8 8 8 8 8 8 8 8 8 8 8 8 8 8 8 8 8 8 8 8 8 8 8 8 8 8 8 8 8 8 8 8 8 8 8 8 8 8 8 8 8 8 8 8 8 8 8 8 8 8 8 8 8 8 8 8 8 8 8 8 8 8 8 8 8 8 8 8 8 8 8 8 8 8 8 8 8 8 8 8 8 8 8 8 8 8 8 8 8 8 8 8 8 8 8 8 8 8 8 8 8 8 8 8 8 8 8 8 8 8 8 8 8 8 8 8 8 8 8 8 8 8 8 8 8 8 8 8 8 8 8 8 8 8 8 8 8 8 8 8 8 8 8 8 8 8 8 8 ",
"8 8 8 8 8 8 8 8 8 8 8 8 8 8 8 8 8 8 8 8 8 8 8 8 8 8 8 8 8 8 8 8 8 8 8 8 8 8 8 8 8 8 8 8 8 8 8 8 8 8 8 8 8 8 8 8 8 8 8 8 8 8 8 8 8 8 8 8 8 8 8 8 8 8 8 8 8 8 8 8 8 8 8 8 8 8 8 8 8 8 8 8 8 8 8 8 8 8 8 8 8 8 8 8 8 8 8 8 8 8 8 8 8 8 8 8 8 8 8 8 8 8 8 8 8 8 8 8 8 8 8 8 8 8 8 8 8 8 8 8 8 8 8 8 8 8 8 8 8 8 8 8 8 8 8 8 8 8 8 8 8 8 8 8 8 8 8 8 8 8 8 8 8 8 8 8 8 8 8 8 8 8 8 8 8 8 8 8 8 8 8 8 8 8 8 8 8 8 8 8 8 8 8 8 8 8 8 8 8 8 8 8 8 8 8 8 8 8 8 8 8 8 8 8 8 8 8 8 8 8 8 8 8 8 8 8 8 8 8 8 8 8 8 8 8 8 8 8 8 8 8 8 8 8 8 8 ",
"8 8 8 8 8 8 8 8 8 8 8 8 8 8 8 8 8 8 8 8 8 8 8 8 8 8 8 8 8 8 8 8 8 8 8 8 8 8 8 8 8 8 8 8 8 8 8 8 8 8 8 8 8 8 8 8 8 8 8 8 8 8 8 8 8 8 8 8 8 8 8 8 8 8 8 8 8 8 8 8 8 8 8 8 8 8 8 8 8 8 8 8 8 8 8 8 8 8 8 8 8 8 8 8 8 8 8 8 8 8 8 8 8 8 8 8 8 8 8 8 8 8 8 8 8 8 8 8 8 8 8 8 8 8 8 8 8 8 8 8 8 8 8 8 8 8 8 8 8 8 8 8 8 8 8 8 8 8 8 8 8 8 8 8 8 8 8 8 8 8 8 8 8 8 8 8 8 8 8 8 8 8 8 8 8 8 8 8 8 8 8 8 8 8 8 8 8 8 8 8 8 8 8 8 8 8 8 8 8 8 8 8 8 8 8 8 8 8 8 8 8 8 8 8 8 8 8 8 8 8 8 8 8 8 # : 8 8 8 8 8 8 8 8 8 8 8 8 : 8 8 8 8 8 : 8 ",
"8 8 8 8 8 8 8 8 8 8 8 8 8 8 8 8 8 8 8 8 8 8 8 8 8 8 8 8 8 8 8 8 8 8 8 8 8 8 8 8 8 8 8 8 8 8 8 8 8 8 8 8 8 8 8 8 8 8 8 8 8 8 8 8 8 8 8 8 8 8 8 8 8 8 8 8 8 8 8 8 8 8 8 8 8 8 8 8 8 8 8 8 8 8 8 8 8 8 8 8 8 8 8 8 8 8 8 8 8 8 8 8 8 8 8 8 8 8 8 8 8 8 8 8 8 8 8 8 8 8 8 8 8 8 8 8 8 8 8 8 8 8 8 8 8 8 8 8 8 8 8 8 8 8 8 8 8 8 8 8 8 8 8 8 8 8 8 8 8 8 8 8 8 8 8 8 8 8 8 8 8 8 8 8 8 8 8 8 8 8 8 8 8 8 8 8 8 8 8 8 8 8 8 8 8 8 8 8 8 8 8 8 8 8 8 8 8 8 8 8 8 8 8 8 8 8 8 8 8 8 - &.).^.Y.Z # @.).).E.f U.V : 8 - #.E.> A R.e 8 R.A ",
"8 8 8 8 8 8 8 8 8 8 8 8 8 8 8 8 8 8 8 8 8 8 8 8 8 8 8 8 8 8 8 8 8 8 8 8 8 8 8 8 8 8 8 8 8 8 8 8 8 8 8 8 8 8 8 8 8 8 8 8 8 8 8 8 8 8 8 8 8 8 8 8 8 8 8 8 8 8 8 8 8 8 8 8 8 8 8 8 8 8 8 8 8 8 8 8 8 8 8 8 8 8 8 8 8 8 8 8 8 8 8 8 8 8 8 8 8 8 8 8 8 8 8 8 8 8 8 8 8 8 8 8 8 8 8 8 8 8 8 8 8 8 8 8 8 8 8 8 8 8 8 8 8 8 8 8 8 8 8 8 8 8 8 8 8 8 8 8 8 8 8 8 8 8 8 8 8 8 8 8 8 8 8 8 8 8 8 8 8 8 8 8 8 8 8 8 8 8 8 8 8 8 8 8 8 8 8 8 8 8 8 8 8 8 8 8 8 8 8 8 8 8 8 8 8 8 8 8 8 8 # 7.'.m Y.{.# 4.'.s N s .X) - e % I.2X&.# '.2.2.`.- ",
"8 8 8 8 8 8 8 8 8 8 8 8 8 8 8 8 8 8 8 8 8 8 8 8 8 8 8 8 8 8 8 8 8 8 8 8 8 8 8 8 8 8 8 8 8 8 8 8 8 8 8 8 8 8 8 8 8 8 8 8 8 8 8 8 8 8 8 8 8 8 8 8 8 8 8 8 8 8 8 8 8 8 8 8 8 8 8 8 8 8 8 8 8 8 8 8 8 8 8 8 8 8 8 8 8 8 8 8 8 8 8 8 8 8 8 8 8 8 8 8 8 8 8 8 8 8 8 8 8 8 8 8 8 8 8 8 8 8 8 8 8 8 8 8 8 8 8 8 8 8 8 8 8 8 8 8 8 8 8 8 8 8 8 8 8 8 8 8 8 8 8 8 8 8 8 8 8 8 8 8 8 8 8 8 8 8 8 8 8 8 8 8 8 8 8 8 8 8 8 8 8 8 8 8 8 8 8 8 8 8 8 8 8 8 8 8 8 8 8 8 8 8 8 8 8 8 8 8 8 8 # 6.Q.  8 |.O.;.oXK.9.8 |.S : 8 m /.H.R.X &. X|.@.* ",
"8 8 8 8 8 8 8 8 8 8 8 8 8 8 8 8 8 8 8 8 8 8 8 8 8 8 8 8 8 8 8 8 8 8 8 8 8 8 8 8 8 8 8 8 8 8 8 8 8 8 8 8 8 8 8 8 8 8 8 8 8 8 8 8 8 8 8 8 8 8 8 8 8 8 8 8 8 8 8 8 8 8 8 8 8 8 8 8 8 8 8 8 8 8 8 8 8 8 8 8 8 8 8 8 8 8 8 8 8 8 8 8 8 8 8 8 8 8 8 8 8 8 8 8 8 8 8 8 8 8 8 8 8 8 8 8 8 8 8 8 8 8 8 8 8 8 8 8 8 8 8 8 8 8 8 8 8 8 8 8 8 8 8 8 8 8 8 8 8 8 8 8 8 8 8 8 8 8 8 8 8 8 8 8 8 8 8 8 8 8 8 8 8 8 8 8 8 8 8 8 8 8 8 8 8 8 8 8 8 8 8 8 8 8 8 8 8 8 8 8 8 8 8 8 8 8 8 8 8 8 # 6.!.o 8 {.@.;. X2.>.e |.A - # 3.@XE.OXm $ (./.# 8 ",
"8 8 8 8 8 8 8 8 8 8 8 8 8 8 8 8 8 8 8 8 8 8 8 8 8 8 8 8 8 8 8 8 8 8 8 8 8 8 8 8 8 8 8 8 8 8 8 8 8 8 8 8 8 8 8 8 8 8 8 8 8 8 8 8 8 8 8 8 8 8 8 8 8 8 8 8 8 8 8 8 8 8 8 8 8 8 8 8 8 8 8 8 8 8 8 8 8 8 8 8 8 8 8 8 8 8 8 8 8 8 8 8 8 8 8 8 8 8 8 8 8 8 8 8 8 8 8 8 8 8 8 8 8 8 8 8 8 8 8 8 8 8 8 8 8 8 8 8 8 8 8 8 8 8 8 8 8 8 8 8 8 8 8 8 8 8 8 8 8 8 8 8 8 8 8 8 8 8 8 8 8 8 8 8 8 8 8 8 8 8 8 8 8 8 8 8 8 8 8 8 8 8 8 8 8 8 8 8 8 8 8 8 8 8 8 8 8 8 8 8 8 8 8 8 8 8 8 8 8 8 # 6./.# 8.OX- 3./.o : s  X+.s 8 ^.!.6.XX7.  I.K.o e ",
"8 8 8 8 8 8 8 8 8 8 8 8 8 8 8 8 8 8 8 8 8 8 8 8 8 8 8 8 8 8 8 8 8 8 8 8 8 8 8 8 8 8 8 8 8 8 8 8 8 8 8 8 8 8 8 8 8 8 8 8 8 8 8 8 8 8 8 8 8 8 8 8 8 8 8 8 8 8 8 8 8 8 8 8 8 8 8 8 8 8 8 8 8 8 8 8 8 8 8 8 8 8 8 8 8 8 8 8 8 8 8 8 8 8 8 8 8 8 8 8 8 8 8 8 8 8 8 8 8 8 8 8 8 8 8 8 8 8 8 8 8 8 8 8 8 8 8 8 8 8 8 8 8 8 8 8 8 8 8 8 8 8 8 8 8 8 8 8 8 8 8 8 8 8 8 8 8 8 8 8 8 8 8 8 8 8 8 8 8 8 8 8 8 8 8 8 8 8 8 8 8 8 8 8 8 8 8 8 8 8 8 8 8 8 8 8 8 8 8 8 8 8 8 8 8 8 8 8 8 8 % <.OX).'.&.$ :.OX`.Q.f '.XX{.q._.s   2./.X L.J.# 8 ",
"8 8 8 8 8 8 8 8 8 8 8 8 8 8 8 8 8 8 8 8 8 8 8 8 8 8 8 8 8 8 8 8 8 8 8 8 8 8 8 8 8 8 8 8 8 8 8 8 8 8 8 8 8 8 8 8 8 8 8 8 8 8 8 8 8 8 8 8 8 8 8 8 8 8 8 8 8 8 8 8 8 8 8 8 8 8 8 8 8 8 8 8 8 8 8 8 8 8 8 8 8 8 8 8 8 8 8 8 8 8 8 8 8 8 8 8 8 8 8 8 8 8 8 8 8 8 8 8 8 8 8 8 8 8 8 8 8 8 8 8 8 8 8 8 8 8 8 8 8 8 8 8 8 8 8 8 8 8 8 8 8 8 8 8 8 8 8 8 8 8 8 8 8 8 8 8 8 8 8 8 8 8 8 8 8 8 8 8 8 8 8 8 8 8 8 8 8 8 8 8 8 8 8 8 8 8 8 8 8 8 8 8 8 8 8 8 8 8 8 8 8 8 8 8 8 8 8 8 8 8 8 8 f m 8 - 8 8 f m m 8 s m m s u 8 8 8 s 8 u u 8 8 ",
"8 8 8 8 8 8 8 8 8 8 8 8 8 8 8 8 8 8 8 8 8 8 8 8 8 8 8 8 8 8 8 8 8 8 8 8 8 8 8 8 8 8 8 8 8 8 8 8 8 8 8 8 8 8 8 8 8 8 8 8 8 8 8 8 8 8 8 8 8 8 8 8 8 8 8 8 8 8 8 8 8 8 8 8 8 8 8 8 8 8 8 8 8 8 8 8 8 8 8 8 8 8 8 8 8 8 8 8 8 8 8 8 8 8 8 8 8 8 8 8 8 8 8 8 8 8 8 8 8 8 8 8 8 8 8 8 8 8 8 8 8 8 8 8 8 8 8 8 8 8 8 8 8 8 8 8 8 8 8 8 8 8 8 8 8 8 8 8 8 8 8 8 8 8 8 8 8 8 8 8 8 8 8 8 8 8 8 8 8 8 8 8 8 8 8 8 8 8 8 8 8 8 8 8 8 8 8 8 8 8 8 8 8 8 8 8 8 8 8 8 8 8 8 8 8 8 8 8 8 8 8 8 : : 8 8 8 8 : : : 8 8 : : > 8 8 8 8 > 8 8 8 8 8 ",
"8 8 8 8 8 8 8 8 8 8 8 8 8 8 8 8 8 8 8 8 8 8 8 8 8 8 8 8 8 8 8 8 8 8 8 8 8 8 8 8 8 8 8 8 8 8 8 8 8 8 8 8 8 8 8 8 8 8 8 8 8 8 8 8 8 8 8 8 8 8 8 8 8 8 8 8 8 8 8 8 8 8 8 8 8 8 8 8 8 8 8 8 8 8 8 8 8 8 8 8 8 8 8 8 8 8 8 8 8 8 8 8 8 8 8 8 8 8 8 8 8 8 8 8 8 8 8 8 8 8 8 8 8 8 8 8 8 8 8 8 8 8 8 8 8 8 8 8 8 8 8 8 8 8 8 8 8 8 8 8 8 8 8 8 8 8 8 8 8 8 8 8 8 8 8 8 8 8 8 8 8 8 8 8 8 8 8 8 8 8 8 8 8 8 8 8 8 8 8 8 8 8 8 8 8 8 8 8 8 8 8 8 8 8 8 8 8 8 8 8 8 8 8 8 8 8 8 8 8 8 8 8 8 8 8 8 8 8 8 8 8 8 8 8 8 8 8 8 8 8 8 8 8 8 8 8 ",
"8 8 8 8 8 8 8 8 8 8 8 8 8 8 8 8 8 8 8 8 8 8 8 8 8 8 8 8 8 8 8 8 8 8 8 8 8 8 8 8 8 8 8 8 8 8 8 8 8 8 8 8 8 8 8 8 8 8 8 8 8 8 8 8 8 8 8 8 8 8 8 8 8 8 8 8 8 8 8 8 8 8 8 8 8 8 8 8 8 8 8 8 8 8 8 8 8 8 8 8 8 8 8 8 8 8 8 8 8 8 8 8 8 8 8 8 8 8 8 8 8 8 8 8 8 8 8 8 8 8 8 8 8 8 8 8 8 8 8 8 8 8 8 8 8 8 8 8 8 8 8 8 8 8 8 8 8 8 8 8 8 8 8 8 8 8 8 8 8 8 8 8 8 8 8 8 8 8 8 8 8 8 8 8 8 8 8 8 8 8 8 8 8 8 8 8 8 8 8 8 8 8 8 8 8 8 8 8 8 8 8 8 8 8 8 8 8 8 8 8 8 8 8 8 8 8 8 8 8 8 8 8 8 8 8 8 8 8 8 8 8 8 8 8 8 8 8 8 8 8 8 8 8 8 8 8 ",
"8 8 8 8 8 8 8 8 8 8 8 8 8 8 8 8 8 8 8 8 8 8 8 8 8 8 8 8 8 8 8 8 8 8 8 8 8 8 8 8 8 8 8 8 8 8 8 8 8 8 8 8 8 8 8 8 8 8 8 8 8 8 8 8 8 8 8 8 8 8 8 8 8 8 8 8 8 8 8 8 8 8 8 8 8 8 8 8 8 8 8 8 8 8 8 8 8 8 8 8 8 8 8 8 8 8 8 8 8 8 8 8 8 8 8 8 8 8 8 8 8 8 8 8 8 8 8 8 8 8 8 8 8 8 8 8 8 8 8 8 8 8 8 8 8 8 8 8 8 8 8 8 8 8 8 8 8 8 8 8 8 8 8 8 8 8 8 8 8 8 8 8 8 8 8 8 8 8 8 8 8 8 8 8 8 8 8 8 8 8 8 8 8 8 8 8 8 8 8 8 8 8 8 8 8 8 8 8 8 8 8 8 8 8 8 8 8 8 8 8 8 8 8 8 8 8 8 8 8 8 8 8 8 8 8 8 8 8 8 8 8 8 8 8 8 8 8 8 8 8 8 8 8 8 8 8 ",
"8 8 8 8 8 8 8 8 8 8 8 8 8 8 8 8 8 8 8 8 8 8 8 8 8 8 8 8 8 8 8 8 8 8 8 8 8 8 8 8 8 8 8 8 8 8 8 8 8 8 8 8 8 8 8 8 8 8 8 8 8 8 8 8 8 8 8 8 8 8 8 8 8 8 8 8 8 8 8 8 8 8 8 8 8 8 8 8 8 8 8 8 8 8 8 8 8 8 8 8 8 8 8 8 8 8 8 8 8 8 8 8 8 8 8 8 8 8 8 8 8 8 8 8 8 8 8 8 8 8 8 8 8 8 8 8 8 8 8 8 8 8 8 8 8 8 8 8 8 8 8 8 8 8 8 8 8 8 8 8 8 8 8 8 8 8 8 8 8 8 8 8 8 8 8 8 8 8 8 8 8 8 : % - 8 8 8 8 8 8 8 8 8 8 8 8 8 8 8 8 8 8 8 8 8 8 8 8 8 8 8 8 8 8 8 8 8 8 8 8 : 8 8 8 8 8 8 8 8 8 8 8 8 8 8 8 8 8 8 8 8 8 8 8 8 8 8 8 8 8 8 8 8 8 8 ",
"8 8 8 8 8 8 8 8 8 8 8 8 8 8 8 8 8 8 8 8 8 8 8 8 8 8 8 8 8 8 8 8 8 8 8 8 8 8 8 8 8 8 8 8 8 8 8 8 8 8 8 8 8 8 8 8 8 8 8 8 8 8 8 8 8 8 8 8 8 8 8 8 8 8 8 8 8 8 8 8 8 8 8 8 8 8 8 8 8 8 8 8 8 8 8 8 8 8 8 8 8 8 8 8 8 8 8 8 8 8 8 8 8 8 8 8 8 8 8 8 8 8 8 8 8 8 8 8 8 8 8 8 8 8 8 8 8 8 > 8 8 8 8 8 8 8 8 8 8 8 8 8 8 8 8 8 8 8 8 8 8 8 8 8 8 8 8 8 8 8 8 8 8 8 8 8 8 8 8 8 8 : Z <.#.8 : * * | <.- - - 8 8 - % s f - 8 8 : - - 8 : - - 8 * : 8 - * > 8 * - 8 m : > 8 8 8 8 8 8 8 8 8 8 8 8 8 8 8 8 8 8 8 8 8 8 8 8 8 8 8 8 8 8 8 8 ",
"8 8 8 8 8 8 8 8 8 8 8 8 8 8 8 8 8 8 8 8 8 8 8 8 8 8 8 8 8 8 8 8 8 8 8 8 8 8 8 8 8 8 8 8 8 8 8 8 8 8 8 8 8 8 8 8 8 8 8 8 8 8 8 8 8 8 8 8 8 8 8 8 8 8 8 8 8 8 8 8 8 8 8 8 8 8 8 8 8 8 8 8 8 8 8 8 8 8 8 8 8 8 8 8 8 8 8 8 8 8 8 8 8 8 8 8 8 8 8 8 8 8 8 8 8 8 8 8 8 8 8 8 8 8 8 8 > r o.y > 8 8 8 8 8 8 8 8 8 8 8 8 8 8 8 8 8 8 8 8 8 8 8 8 8 8 8 8 8 8 8 8 8 8 8 8 8 8 8 > f q.O.&.8 m ;.u ) 3.* @.+.: 8 #.) 2.q.N : u Z @.) : m ) ) u -.Z - ) -.f 8 &.A f J.;.8 8 8 8 8 8 8 8 8 8 8 8 8 8 8 8 8 8 8 8 8 8 8 8 8 8 8 8 8 8 8 8 8 ",
"8 8 8 8 8 8 8 8 8 8 8 8 8 8 8 8 8 8 8 8 8 8 8 8 8 8 8 8 8 8 8 8 8 8 8 8 8 8 8 8 8 8 8 8 8 8 8 8 8 8 8 8 8 8 8 8 8 8 8 8 8 8 8 8 8 8 8 8 8 8 8 8 8 8 8 8 8 8 8 8 8 8 8 8 8 8 8 8 8 8 8 8 8 8 8 8 8 8 8 8 8 8 8 8 8 8 8 8 8 8 8 8 8 8 8 8 8 8 8 8 8 8 8 8 8 8 8 8 8 8 8 8 8 8 8 8 r o.} ; 8 8 8 8 8 8 8 8 8 8 8 8 8 8 8 8 8 8 8 8 8 8 8 8 8 8 8 8 8 8 8 8 8 8 8 8 8 8 8 8 8 s n.Z # s 6.-.4.&.>.#.<.4.#.<.5.O.4.9.m : m P.&.n.Z 6.8.A 3.-.5.-.8.#.m <.:.5.=.S.&.8 8 8 8 8 8 8 8 8 8 8 8 8 8 8 8 8 8 8 8 8 8 8 8 8 8 8 8 8 8 8 8 8 ",
"8 8 8 8 8 8 8 8 8 8 8 8 8 8 8 8 8 8 8 8 8 8 8 8 8 8 8 8 8 8 8 8 8 8 8 8 8 8 8 8 8 8 8 8 8 8 8 8 8 8 8 8 8 8 8 8 8 8 8 8 8 8 8 8 8 8 8 8 8 8 8 8 8 8 8 8 8 8 8 8 8 8 8 8 8 8 8 8 8 8 8 8 8 8 8 8 8 8 8 8 8 8 8 8 8 8 8 8 8 8 8 8 8 8 8 8 8 8 8 8 8 8 8 8 8 8 8 8 8 8 8 8 8 8 8 ; } o., 8 8 8 8 8 8 8 8 8 8 8 8 8 8 8 8 8 8 8 8 8 8 8 8 8 8 8 8 8 8 8 8 8 8 8 8 8 8 8 8 8 8 : Z 0.1.O.K.<.q.:.>.9.5.8.7.7.8 # &.&.% 8 m 8.# #.>.3.S u L.>.S.;.5.#.u K.1.q.;.2.u : 8 8 8 8 8 8 8 8 8 8 8 8 8 8 8 8 8 8 8 8 8 8 8 8 8 8 8 8 8 8 8 8 ",
"8 8 8 8 8 8 8 8 8 8 8 8 8 8 8 8 8 8 8 8 8 8 8 8 8 8 8 8 8 8 8 8 8 8 8 8 8 8 8 8 8 8 8 8 8 8 8 8 8 8 8 8 8 8 8 8 8 8 8 8 8 8 8 8 8 8 8 8 8 8 8 8 8 8 8 8 8 8 8 8 8 8 8 8 8 8 8 8 8 8 8 8 8 8 8 8 8 8 8 8 8 8 8 8 8 8 8 8 8 8 8 8 8 8 8 8 8 8 8 8 8 8 8 8 8 8 8 8 8 8 8 8 8 8 8 8 ; [ o.8 8 8 8 8 8 8 8 8 8 8 8 8 8 8 8 8 8 8 8 8 8 8 8 8 8 8 8 8 8 8 8 8 8 8 8 8 8 8 8 8 8 8 - # 8.2.7.u 8 +.<.6.+.8 s q.s # :.;.% 8 m n.% ;.;.2.A f S.f s 8 : 3.2.9.Z 8 s 9.s : 8 8 8 8 8 8 8 8 8 8 8 8 8 8 8 8 8 8 8 8 8 8 8 8 8 8 8 8 8 8 8 8 ",
"8 8 8 8 8 8 8 8 8 8 8 8 8 8 8 8 8 8 8 8 8 8 8 8 8 8 8 8 8 8 8 8 8 8 8 8 8 8 8 8 8 8 8 8 8 8 8 8 8 8 8 8 8 8 8 8 8 8 8 8 8 8 8 8 8 8 8 8 8 8 8 8 8 8 8 8 8 8 8 8 8 8 8 8 8 8 8 8 8 8 8 8 8 8 8 8 8 8 8 8 8 8 8 8 8 8 8 8 8 8 8 8 8 8 8 8 8 8 8 8 8 8 8 8 8 8 8 8 8 8 8 8 8 8 8 8 8 ; [ y > 8 8 8 8 8 8 8 8 8 8 8 8 8 8 8 8 8 8 8 8 8 8 8 8 8 8 8 8 8 8 8 8 8 8 8 8 8 8 8 8 f 3.4.3.s 4.6.&.@.<.S 9.3.Z &.0.-.) n.) - m K.3.q.s 3.) * <.7.>.) 2.6.O.#.8.2.m 3.5.u 8 8 8 8 8 8 8 8 8 8 8 8 8 8 8 8 8 8 8 8 8 8 8 8 8 8 8 8 8 8 8 8 ",
"8 8 8 8 8 8 8 8 8 8 8 8 8 8 8 8 8 8 8 8 8 8 8 8 8 8 8 8 8 8 8 8 8 8 8 8 8 8 8 8 8 8 8 8 8 8 8 8 8 8 8 8 8 8 8 8 8 8 8 8 8 8 8 8 8 8 8 8 8 8 8 8 8 8 8 8 8 8 8 8 8 8 8 8 8 8 8 8 8 8 8 8 8 8 8 8 8 8 8 8 8 8 8 8 8 8 8 8 8 8 8 8 8 8 8 8 8 8 8 8 8 8 8 8 8 8 8 8 8 8 8 8 8 8 8 8 8 8 ; > 8 8 8 8 8 8 8 8 8 8 8 8 8 8 8 8 8 8 8 8 8 8 8 8 8 8 8 8 8 8 8 8 8 8 8 8 8 8 8 8 8 8 m Z 8 : 8 Z m 8 s : f Z u : N m > m f - m 6.m f : s 8 8 8 V m 8 V m : : m V 8 8 V 8 8 8 8 8 8 8 8 8 8 8 8 8 8 8 8 8 8 8 8 8 8 8 8 8 8 8 8 8 8 8 8 8 ",
"8 8 8 8 8 8 8 8 8 8 8 8 8 8 8 8 8 8 8 8 8 8 8 8 8 8 8 8 8 8 8 8 8 8 8 8 8 8 8 8 8 8 8 8 8 8 8 8 8 8 8 8 8 8 8 8 8 8 8 8 8 8 8 8 8 8 8 8 8 8 8 8 8 8 8 8 8 8 8 8 8 8 8 8 8 8 8 8 8 8 8 8 8 8 8 8 8 8 8 8 8 8 8 8 8 8 8 8 8 8 8 8 8 8 8 8 8 8 8 8 8 8 8 8 8 8 8 8 8 8 8 8 8 8 8 8 8 8 8 8 8 8 8 8 8 8 8 8 8 8 8 8 8 8 8 8 8 8 8 8 8 8 8 8 8 8 8 8 8 8 8 8 8 8 8 8 8 8 8 8 8 8 : - 8 8 8 - : 8 8 8 : - 8 8 : : 8 : 8 : m 9.- 8 8 8 8 8 8 : : 8 : : 8 8 : : 8 8 : 8 8 8 8 8 8 8 8 8 8 8 8 8 8 8 8 8 8 8 8 8 8 8 8 8 8 8 8 8 8 8 8 8 ",
"8 8 8 8 8 8 8 8 8 8 8 8 8 8 8 8 8 8 8 8 8 8 8 8 8 8 8 8 8 8 8 8 8 8 8 8 8 8 8 8 8 8 8 8 8 8 8 8 8 8 8 8 8 8 8 8 8 8 8 8 8 8 8 8 8 8 8 8 8 8 8 8 8 8 8 8 8 8 8 8 8 8 8 8 8 8 8 8 8 8 8 8 8 8 8 8 8 8 8 8 8 8 8 8 8 8 8 8 8 8 8 8 8 8 8 8 8 8 8 8 8 8 8 8 8 8 8 8 8 8 8 8 8 8 8 8 8 8 8 8 8 8 8 8 8 8 8 8 8 8 8 8 8 8 8 8 8 8 8 8 8 8 8 8 8 8 8 8 8 8 8 8 8 8 8 8 8 8 8 8 8 8 8 8 8 8 8 8 8 8 8 8 8 8 8 8 8 8 8 8 8 8 u V 8 8 8 8 8 8 8 8 8 8 8 8 8 8 8 8 8 8 8 8 8 8 8 8 8 8 8 8 8 8 8 8 8 8 8 8 8 8 8 8 8 8 8 8 8 8 8 8 8 8 8 8 ",
"e e e e e e e e e e e e e e e e e e e e e e e e e e e e e e e e e e e e e e e e e e e e e e e e e e e e e e e e e e e e e e e e e e e e e e e e e e e e e e e e e e e e e e e e e e e e e e e e e e e e e e e e e e e e e e e e e e e e e e e e e e e e e e e e e e e e e e e e e e e e e e e e e e e e e e e e e e e e e e e e e e e e e e e e e e e e e e e e e e e e e e e e e e e e e e e e e e e e e e e e e e 8 8 e e e e e e e e e e e e e e e e e e e e e e e e e e e e e e e e e e e e e e e e e e e e e e e e e e e e ",
"o o o o o o o o o o o o o o o o o o o o o o o o o o o o o o o o o o o o o o o o o o o o o o o o o o o o o o o o o o o o o o o o o o o o o o o o o o o o o o o o o o o o o o o o o o o o o o o o o o o o o o o o o o o o o o o o o o o o o o o o o o o o o o o o o o o o o o o o o o o o o o o o o o o o o o o o o o o o o o o o o o o o o o o o o o o o o o o o o o o o o o o o o o o o o o o o o o o o o o o o o o o $ o o o o o o o o o o o o o o o o o o o o o o o o o o o o o o o o o o o o o o o o o o o o o o o o o o o o ",
"J.J.J.J.J.J.J.J.J.J.J.J.J.J.J.J.J.J.J.J.J.J.J.J.J.J.J.J.J.J.J.J.J.J.J.J.J.J.J.J.J.J.J.J.J.J.J.J.J.J.J.J.J.J.J.J.J.J.J.J.J.J.J.J.J.J.J.J.J.J.J.J.J.J.J.J.J.J.J.J.J.J.J.J.J.J.J.J.J.J.J.J.J.J.J.J.J.J.J.J.J.J.J.J.J.J.J.J.J.J.J.J.J.J.J.J.J.J.J.J.J.J.J.J.J.J.J.J.J.J.J.J.J.J.J.J.J.J.J.J.J.J.J.J.J.J.J.J.J.J.J.J.J.J.J.J.J.J.J.J.J.J.J.J.J.J.J.J.J.J.J.J.J.J.J.J.J.J.J.J.J.J.J.J.J.J.J.J.J.J.J.J.J.J.J.J.J.J.J.J.J.J.J.J.J.J.J.J.J.J.J.J.J.J.J.J.J.J.J.J.J.J.J.J.J.J.J.J.J.J.J.J.J.J.J.J.J.J.J.J.J.J.J.J.J.J.J.J.J.J.J.J.J.J.J.J.",
"'.'.'.'.'.'.'.'.'.'.'.'.'.'.'.'.'.'.'.'.'.'.'.'.'.'.'.'.'.'.'.'.'.'.'.'.'.'.'.'.'.'.'.'.'.'.'.'.'.'.'.'.'.'.'.'.'.'.'.'.'.'.'.'.'.'.'.'.'.'.'.'.'.'.'.'.'.'.'.'.'.'.'.'.'.'.'.'.'.'.'.'.'.'.'.'.'.'.'.'.'.'.'.'.'.'.'.'.'.'.'.'.'.'.'.'.'.'.'.'.'.'.'.'.'.'.'.'.'.'.'.'.'.'.'.'.'.'.'.'.'.'.'.'.'.'.'.'.'.'.'.'.'.'.'.'.'.'.'.'.'.'.'.'.'.'.'.'.'.'.'.'.'.'.'.'.'.'.'.'.'.'.'.'.'.'.'.'.'.'.'.'.'.'.'.'.'.'.'.'.'.'.'.'.'.'.'.'.'.'.'.'.'.'.'.'.'.'.'.'.'.'.'.'.'.'.'.'.'.'.'.'.'.'.'.'.'.'.'.'.'.'.'.'.'.'.'.'.'.'.'.'.'.'.'.'.",
"o o o o o o o o o o o o o o o o o o o o o o o o o o o o o o o o o o o o o o o o o o o o o o o o o o o o o o o o o o o o o o o o o o o o o o o o o o o o o o o o o o o o o o o o o o o o o o o o o o o o o o o o o o o o o o o o o o o o o o o o o o o o o o o o o o o o o o o o o o o o o o o o o o o o o o o o o o o o o o o o o o o o o o o o o o o o o o o o o o o o o o o o o o o o o o o o o o o o o o o o o o o o o o o o o o o o o o o o o o o o o o o o o o o o o o o o o o o o o o o o o o o o o o o o o o o o o o o o ",
"e e e e e e e e e e e e e e e e e e e e e e e e e e e e e e e e e e e e e e e e e e e e e e e e e e e e e e e e e e e e e e e e e e e e e e e e e e e e e e e e e e e e e e e e e e e e e e e e e e e e e e e e e e e e e e e e e e e e e e e e e e e e e e e e e e e e e e e e e e e e e e e e e e e e e e e e e e e e e e e e e e e e e e e e e e e e e e e e e e e e e e e e e e e e e e e e e e e e e e e e e e e e e e e e e e e e e e e e e e e e e e e e e e e e e e e e e e e e e e e e e e e e e e e e e e e e e e e e ",
"8 8 8 8 8 8 8 8 8 8 8 8 8 8 8 8 8 8 8 8 8 8 8 8 8 8 8 8 8 8 8 8 8 8 8 8 8 8 8 8 8 8 8 8 8 8 8 8 8 8 8 8 8 8 8 8 8 8 8 8 8 8 8 8 8 8 8 8 8 8 8 8 8 8 8 8 8 8 8 8 8 8 8 8 8 8 8 8 8 8 8 8 8 8 8 8 8 8 8 8 8 8 8 8 8 8 8 8 8 8 8 8 8 8 8 8 8 8 8 8 8 8 8 8 8 8 8 8 8 8 8 8 8 8 8 8 8 8 8 8 8 8 8 8 8 8 8 8 8 8 8 8 8 8 8 8 8 8 8 8 8 8 8 8 8 8 8 8 8 8 8 8 8 8 8 8 8 8 8 8 8 8 8 8 8 8 8 8 8 8 8 8 8 8 8 8 8 8 8 8 8 8 8 8 8 8 8 8 8 8 8 8 8 8 8 8 8 8 8 8 8 8 8 8 8 8 8 8 8 8 8 8 8 8 8 8 8 8 8 8 8 8 8 8 8 8 8 8 8 8 8 8 8 8 8 8 ",
"8 8 8 8 8 8 8 8 8 8 8 8 8 8 8 8 8 8 8 8 8 8 8 8 8 8 8 8 8 8 8 8 8 8 8 8 8 8 8 8 8 8 8 8 8 8 8 8 8 8 8 8 8 8 8 8 8 8 8 8 8 8 8 8 8 8 8 8 8 8 8 8 8 8 8 8 8 8 8 8 8 8 8 8 8 8 8 8 8 8 8 8 8 8 8 8 8 8 8 8 8 8 8 8 8 8 8 8 8 8 8 8 8 8 8 8 8 8 8 8 8 8 8 8 8 8 8 8 8 8 8 8 8 8 8 8 8 8 8 8 8 8 8 8 8 8 8 8 8 8 8 8 8 8 8 8 8 8 8 8 8 8 8 8 8 8 8 8 8 8 8 8 8 8 8 8 8 8 8 8 8 8 8 8 8 8 8 8 8 8 8 8 8 8 8 8 8 8 8 8 8 8 8 8 8 8 8 8 8 8 8 8 8 8 8 8 8 8 8 8 8 8 8 8 8 8 8 8 8 8 8 8 8 8 8 8 8 8 8 8 8 8 8 8 8 8 8 8 8 8 8 8 8 8 8 8 ",
"8 8 8 8 8 8 8 8 8 8 8 8 8 8 8 8 8 8 8 8 8 8 8 8 8 8 8 8 8 8 8 8 8 8 8 8 8 8 8 8 8 8 8 8 8 8 8 8 8 8 8 8 8 8 8 8 8 8 8 8 8 8 8 8 8 8 8 8 8 8 8 8 8 8 8 8 8 8 8 8 8 8 8 8 8 8 8 8 8 8 8 8 8 8 8 8 8 8 8 8 8 8 8 8 8 8 8 8 8 8 8 8 8 8 8 8 8 8 8 8 8 8 8 8 8 8 8 8 8 8 8 8 8 8 8 8 8 8 8 8 8 8 8 8 8 8 8 8 8 8 8 8 8 8 8 8 8 8 8 8 8 8 8 8 8 8 8 8 8 8 8 8 8 8 8 8 8 8 8 8 8 8 8 8 8 8 8 8 8 8 8 8 8 8 8 8 8 8 8 8 8 8 8 8 8 8 8 8 8 8 8 8 8 8 8 8 8 8 8 8 8 8 8 8 8 8 8 8 8 8 8 8 8 8 8 8 8 8 8 8 8 8 8 8 8 8 8 8 8 8 8 8 8 8 8 8 ",
"8 8 8 8 8 8 8 8 8 8 8 8 8 8 8 8 8 8 8 8 8 8 8 8 8 8 8 8 8 8 8 8 8 8 8 8 8 8 8 8 8 8 8 8 8 8 8 8 8 8 8 8 8 8 8 8 8 8 8 8 8 8 8 8 8 8 8 8 8 8 8 8 8 8 8 8 8 8 8 8 8 8 8 8 8 8 8 8 8 8 8 8 8 8 8 8 8 8 8 8 8 8 8 8 8 8 8 8 8 8 8 8 8 8 8 8 8 8 8 8 8 8 8 8 8 8 8 8 8 8 8 8 8 8 8 8 8 8 8 8 8 8 8 8 8 8 8 8 8 8 8 8 8 8 8 8 8 8 8 8 8 8 8 8 8 8 8 8 8 8 8 8 8 8 8 8 8 8 8 8 8 8 8 8 8 8 8 8 8 8 8 8 8 8 8 8 8 8 8 8 8 8 8 8 8 8 8 8 8 8 8 8 8 8 8 8 8 8 8 8 8 8 8 8 8 8 8 8 8 8 8 8 8 8 8 8 8 8 8 8 8 8 8 8 8 8 8 8 8 8 8 8 8 8 8 8 ",
"8 8 8 8 8 8 8 8 8 8 8 8 8 8 8 8 8 8 8 8 8 8 8 8 8 8 8 8 8 8 8 8 8 8 8 8 8 8 8 8 8 8 8 8 8 8 8 8 8 8 8 8 8 8 8 8 8 8 8 8 8 8 8 8 8 8 8 8 8 8 8 8 8 8 8 8 8 8 8 8 8 8 8 8 8 8 8 8 8 8 8 8 8 8 8 8 8 8 8 8 8 8 8 8 8 8 8 8 8 8 8 8 8 8 8 8 8 8 8 8 8 8 8 8 8 8 8 8 8 8 8 8 8 8 8 8 8 8 8 8 8 8 8 8 8 8 8 8 8 8 8 8 8 8 8 8 8 8 8 8 8 8 8 8 8 8 8 8 8 8 8 8 8 8 8 8 8 8 8 8 8 8 8 8 8 8 8 8 8 8 8 8 8 8 8 8 8 8 8 8 8 8 8 8 8 8 8 8 8 8 8 8 8 8 8 8 8 8 8 8 8 8 8 8 8 8 8 8 8 8 8 8 8 8 8 8 8 8 8 8 8 8 8 8 8 8 8 8 8 8 8 8 8 8 8 8 ",
"8 8 8 8 8 8 8 8 8 8 8 8 8 8 8 8 8 8 8 8 8 8 8 8 8 8 8 8 8 8 8 8 8 8 8 8 8 8 8 8 8 8 8 8 8 8 8 8 8 8 8 8 8 8 8 8 8 8 8 8 8 8 8 8 8 8 8 8 8 8 8 8 8 8 8 8 8 8 8 8 8 8 8 8 8 8 8 8 8 8 8 8 8 8 8 8 8 8 8 8 8 8 8 8 8 8 8 8 8 8 8 8 8 8 8 8 8 8 8 8 8 8 8 8 8 8 8 8 8 8 8 8 8 8 8 8 8 8 8 8 8 8 8 8 8 8 8 8 8 8 8 8 8 8 8 8 8 8 8 8 8 8 8 8 8 8 8 8 8 8 8 8 8 8 8 8 8 8 8 8 8 8 8 8 8 8 8 8 8 8 8 8 8 8 8 8 8 8 8 8 8 8 8 8 8 8 8 8 8 8 8 8 8 8 8 8 8 8 8 8 8 8 8 8 8 8 8 8 8 8 8 8 8 8 8 8 8 8 8 8 8 8 8 8 8 8 8 8 8 8 8 8 8 8 8 8 ",
"8 8 8 8 8 8 8 8 8 8 8 8 8 8 8 8 8 8 8 8 8 8 8 8 8 8 8 8 8 8 8 8 8 8 8 8 8 8 8 8 8 8 8 8 8 8 8 8 8 8 8 8 8 8 8 8 8 8 8 8 8 8 8 8 8 8 8 8 8 8 8 8 8 8 8 8 8 8 8 8 8 8 8 8 8 8 8 8 8 8 8 8 8 8 8 8 8 8 8 8 8 8 8 8 8 8 8 8 8 8 8 8 8 8 8 8 8 8 8 8 8 8 8 8 8 8 8 8 8 8 8 8 8 8 8 8 8 8 8 8 8 8 8 8 8 8 8 8 8 8 8 8 8 8 8 8 8 8 8 8 8 8 8 8 8 8 8 8 8 8 8 8 8 8 8 8 8 8 8 8 8 8 8 8 8 8 8 8 8 8 8 8 8 8 8 8 8 8 8 8 8 8 8 8 8 8 8 8 8 8 8 8 8 8 8 8 8 8 8 8 8 8 8 8 8 8 8 8 8 8 8 8 8 8 8 8 8 8 8 8 8 8 8 8 8 8 8 8 8 8 8 8 8 8 8 8 ",
"8 8 8 8 8 8 8 8 8 8 8 8 8 8 8 8 8 8 8 8 8 8 8 8 8 8 8 8 8 8 8 8 8 8 8 8 8 8 8 8 8 8 8 8 8 8 8 8 8 8 8 8 8 8 8 8 8 8 8 8 8 8 8 8 8 8 8 8 8 8 8 8 8 8 8 8 8 8 8 8 8 8 8 8 8 8 8 8 8 8 8 8 8 8 8 8 8 8 8 8 8 8 8 8 8 8 8 8 8 8 8 8 8 8 8 8 8 8 8 8 8 8 8 8 8 8 8 8 8 8 8 8 8 8 8 8 8 8 8 8 8 8 8 8 8 8 8 8 8 8 8 8 8 8 8 8 8 8 8 8 8 8 8 8 8 8 8 8 8 8 8 8 8 8 8 8 8 8 8 8 8 8 8 8 8 8 8 8 8 8 8 8 8 8 8 8 8 8 8 8 8 8 8 8 8 8 8 8 8 8 8 8 8 8 8 8 8 8 8 8 8 8 8 8 8 8 8 8 8 8 8 8 8 8 8 8 8 8 8 8 8 8 8 8 8 8 8 8 8 8 8 8 8 8 8 8 ",
"8 8 8 8 8 8 8 8 8 8 8 8 8 8 8 8 8 8 8 8 8 8 8 8 8 8 8 8 8 8 8 8 8 8 8 8 8 8 8 8 8 8 8 8 8 8 8 8 8 8 8 8 8 8 8 8 8 8 8 8 8 8 8 8 8 8 8 8 8 8 8 8 8 8 8 8 8 8 8 8 8 8 8 8 8 8 8 8 8 8 8 8 8 8 8 8 8 8 8 8 8 8 8 8 8 8 8 8 8 8 8 8 8 8 8 8 8 8 8 8 8 8 8 8 8 8 8 8 8 8 8 8 8 8 8 8 8 8 8 8 8 8 8 8 8 8 8 8 8 8 8 8 8 8 8 8 8 8 8 8 8 8 8 8 8 8 8 8 8 8 8 8 8 8 8 8 8 8 8 8 8 8 8 8 8 8 8 8 8 8 8 8 8 8 8 8 8 8 8 8 8 8 8 8 8 8 8 8 8 8 8 8 8 8 8 8 8 8 8 8 8 8 8 8 8 8 8 8 8 8 8 8 8 8 8 8 8 8 8 8 8 8 8 8 8 8 8 8 8 8 8 8 8 8 8 8 ",
"8 8 8 8 8 8 8 8 8 8 8 8 8 8 8 8 8 8 8 8 8 8 8 8 8 8 8 8 8 8 8 8 8 8 8 8 8 8 8 8 8 8 8 8 8 8 8 8 8 8 8 8 8 8 8 8 8 8 8 8 8 8 8 8 8 8 8 8 8 8 8 8 8 8 8 8 8 8 8 8 8 8 8 8 8 8 8 8 8 8 8 8 8 8 8 8 8 8 8 8 8 8 8 8 8 8 8 8 8 8 8 8 8 8 8 8 8 8 8 8 8 8 8 8 8 8 8 8 8 8 8 8 8 8 8 8 8 8 8 8 8 8 8 8 8 8 8 8 8 8 8 8 8 8 8 8 8 8 8 8 8 8 8 8 8 8 8 8 8 8 8 8 8 8 8 8 8 8 8 8 8 8 8 8 8 8 8 8 8 8 8 8 8 8 8 8 8 8 8 8 8 8 8 8 8 8 8 8 8 8 8 8 8 8 8 8 8 8 8 8 8 8 8 8 8 8 8 8 8 8 8 8 8 8 8 8 8 8 8 8 8 8 8 8 8 8 8 8 8 8 8 8 8 8 8 8 ",
"8 8 8 8 8 8 8 8 8 8 8 8 8 8 8 8 8 8 8 8 8 8 8 8 8 8 8 8 8 8 8 8 8 8 8 8 8 8 8 8 8 8 8 8 8 8 8 8 8 8 8 8 8 8 8 8 8 8 8 8 8 8 8 8 8 8 8 8 8 8 8 8 8 8 8 8 8 8 8 8 8 8 8 8 8 8 8 8 8 8 8 8 8 8 8 8 8 8 8 8 8 8 8 8 8 8 8 8 8 8 8 8 8 8 8 8 8 8 8 8 8 8 8 8 8 8 8 8 8 8 8 8 8 8 8 8 8 8 8 8 8 8 8 8 8 8 8 8 8 8 8 8 8 8 8 8 8 8 8 8 8 8 8 8 8 8 8 8 8 8 8 8 8 8 8 8 8 8 8 8 8 8 8 8 8 8 8 8 8 8 8 8 8 8 8 8 8 8 8 8 8 8 8 8 8 8 8 8 8 8 8 8 8 8 8 8 8 8 8 8 8 8 8 8 8 8 8 8 8 8 8 8 8 8 8 8 8 8 8 8 8 8 8 8 8 8 8 8 8 8 8 8 8 8 8 8 ",
"8 8 8 8 8 8 8 8 8 8 8 8 8 8 8 8 8 8 8 8 8 8 8 8 8 8 8 8 8 8 8 8 8 8 8 8 8 8 8 8 8 8 8 8 8 8 8 8 8 8 8 8 8 8 8 8 8 8 8 8 8 8 8 8 8 8 8 8 8 8 8 8 8 8 8 8 8 8 8 8 8 8 8 8 8 8 8 8 8 8 8 8 8 8 8 8 8 8 8 8 8 8 8 8 8 8 8 8 8 8 8 8 8 8 8 8 8 8 8 8 8 8 8 8 8 8 8 8 8 8 8 8 8 8 8 8 8 8 8 8 8 8 8 8 8 8 8 8 8 8 8 8 8 8 8 8 8 8 8 8 8 8 8 8 8 8 8 8 8 8 8 8 8 8 8 8 8 8 8 8 8 8 8 8 8 8 8 8 8 8 8 8 8 8 8 8 8 8 8 8 8 8 8 8 8 8 8 8 8 8 8 8 8 8 8 8 8 8 8 8 8 8 8 8 8 8 8 8 8 8 8 8 8 8 8 8 8 8 8 8 8 8 8 8 8 8 8 8 8 8 8 8 8 8 8 8 ",
"8 8 8 8 8 8 8 8 8 8 8 8 8 8 8 8 8 8 8 8 8 8 8 - : 8 8 8 8 8 8 8 8 8 8 8 8 8 8 8 8 8 8 8 8 8 8 8 8 8 8 8 8 8 8 8 8 8 8 8 8 8 8 8 8 8 8 8 8 8 8 8 8 8 8 8 8 8 8 8 8 8 8 8 8 8 8 8 8 8 8 8 8 8 8 8 8 8 8 8 8 8 8 8 8 8 8 8 8 8 8 8 8 8 8 8 8 8 8 8 8 8 8 8 8 8 8 8 8 8 8 8 8 8 8 8 8 8 8 8 8 8 8 8 8 8 8 8 8 8 8 8 8 8 8 8 8 8 8 8 8 8 8 8 8 8 8 8 8 8 - - 8 8 8 8 8 u u u u u u u u u u u u u u u u u u u u u u u u e e e e e e e e e e e e e e e e e e 8 * * 8 8 8 8 8 u u u u u u u u u u u u u u u u u u u u u u u u u u u u u ",
"E.E.E.E.E.E.E.E.Q.Q.Q.Q.Q.Q.Q.Q.Q.Q.Q.Q.Q.Q.P.0.V - 8 8 * 9.~.E.E.E.E.E.E.E.E.E.E.E.E.E.E.E.E.E.E.E.E.E.E.E.E.E.E.E.E.E.E.E.W.Q.Q.Q.Q.Q.Q.Q.Q.Q.Q.Q.Q.Q.Q.Q.Q.Q.Q.Q.Q.Q.Q.Q.Q.Q.Q.Q.Q.Q.Q.Q.Q.Q.Q.Q.Q.Q.Q.Q.Q.Q.Q.Q.Q.Q.Q.Q.Q.Q.Q.Q.Q.Q.Q.Q.Q.Q.Q.Q.Q.Q.Q.Q.Q.Q.Q.Q.Q.Q.Q.Q.Q.Q.Q.Q.Q.Q.Q.Q.Q.Q.Q.Q.Q.Q.Q.Q.Q.Q.Q.Q.Q.Q.Q.Q.Q.Q.Q.Q.Q.Q.Q.Q.Q.Q.Q.Y.S.+.- 8 e # 6.:X#X@X@X@X@X@X@X@X@X@X@X@X@X@X@X@X@X@X@X@X@X@X@X*X*X*X*X*X*X*X*X*X*X*X*X*X*X*X*X*X*X.X/.:.* 8 e # 6.:X#X@X@X@X@X@X@X@X@X@X@X@X@X@X@X@X@X@X@X@X@X@X@X@X@X@X@X@X",
"/./././././.^.`.5.m A Z Z Z Z Z Z Z Z Z Z A &.H.!.+.- e * S.`.^.^.^.^.^./.)./././.^././././././././././././././././././.^.).R.V Z Z Z Z Z Z Z Z Z Z Z Z Z Z Z Z Z Z Z Z Z Z Z Z Z Z Z Z Z Z Z Z Z Z Z Z Z Z Z Z Z Z Z Z Z Z Z Z Z Z Z Z Z Z Z Z Z Z Z Z Z Z Z Z Z Z Z Z Z Z Z Z Z Z Z Z Z Z Z Z Z Z Z Z Z Z Z Z Z Z Z Z Z Z Z Z Z Z Z Z Z Z Z Z A +.8.~.2.- u # 9.2X:X,X>X>X:X<X<X,X<X<X<X<X<X<X<X<X<X<X<X<X>X2X XA +.O.O.O.O.O.O.O.O.O.O.O.O.O.O.O.O.:.T.;XH.* u # 9.2X:X,X>X,X<X>X>X<X<X<X<X<X<X,X<X1X>X,X<X<X<X<X<X<X,X1X<X,X",
"~.~.^.^.^.^.~._.:.# : - - - - - - - - - - - - # &.Q.Z : - n.).~./.).).(.Q.T.^.~.~.^.^.~.~.~.^.~.~.~.^.~.~.^.~.~.^.^.^.^.~.(.U.* : - - - - - - - - - - - - - - - - - - - - - - - - - - - - - - - - - - - - - - - - - - - - - - - - - - - - - - - - - - - - - - - - - - - - - - - - - - - - - - - - - - - - - - - - - - - - - - - - - - - - - - - - - # V W.;.: # 8.2X-X:X<X1X3X@X@X:X;X;X;X;X:X:X;X;X:X:X:X:X;X1X_.X - - - - - - - - - - - - - - - - - * o ) @X7.- # 8.2X-X:X3X:X:X1X<X;X;X;X:X;X;X:X-XoX>X:X;X;X;X:X:X;X:XOX=X:X",
"_.).^.^.^.^.~._.<.* e 8 8 8 8 8 8 8 8 8 8 8 8 8 # 6.S.: - n.).(.K.;.1.P.^.T.(.)._.R.^./.).).^.)._./.^.).).^._.).^.^.^.^.^.).U.> 8 8 8 8 8 8 8 8 8 8 8 8 8 8 8 8 8 8 8 8 8 8 8 8 8 8 8 8 8 8 8 8 8 8 8 8 8 8 8 8 8 8 8 8 8 8 8 8 8 8 8 8 8 8 8 8 8 8 8 8 8 8 8 8 8 8 8 8 8 8 8 8 8 8 8 8 8 8 8 8 8 8 8 8 8 8 8 8 8 8 8 8 8 8 8 8 8 8 8 8 8 8 8 8 8 8 e # +.R.s # 8.2X:X=XK.8.H.|.*X1X3X1X1X3X:X,X2X<X:X:X:X:X;X1X'.* e 8 8 8 8 8 8 8 8 8 8 8 8 8 8 8 8 8 u $ >.OXf $ 8.2X:X#X0.;X1XU.).3X3X1X:X1X3X1X-X#X*X*X<X<X2X>X>X3X1X+X=X3X",
"3.S./.^.^.^.~._.<.% 8 8 8 8 8 8 8 8 8 8 8 8 8 8 : Z T.m # n.).).6.8.Q.-.U.L.R.3.n.@.2.R.4.q.Q.8.3.I./.6.7.E.3.H./.^.^.^.^.).U.: 8 8 8 8 8 8 8 8 8 8 8 8 8 8 8 8 8 8 8 8 8 8 8 8 8 8 8 8 8 8 8 8 8 8 8 8 8 8 8 8 8 8 8 8 8 8 8 8 8 8 8 8 8 8 8 8 8 8 8 8 8 8 8 8 8 8 8 8 8 8 8 8 8 8 8 8 8 8 8 8 8 8 8 8 8 8 8 8 8 8 8 8 8 8 8 8 8 8 8 8 8 8 8 8 8 8 8 8 8 U.&.X 9.2X;X:X&X8.OXXXoX'.P.Q.E.T.<X+XK.'.<X:X:X:X;X1X'.% 8 8 8 8 8 8 8 8 8 8 8 8 8 8 8 8 8 8 8 8 8 XX<.  9.2X,X.X) XX<X@.E.&XH./.<X~.P.^.=X}.U.<.@X/.J.&X+XY.'.'.#X~.",
"5.Q.^.^.^.^.~._.:.* 8 8 8 8 8 8 8 8 8 8 8 8 8 8 8 u Q.Z # n.).).9.q.{.8.3.4.6.2.^.:.K.~.P.<.9.-.P.<.n.3.!.<.9.;.U.).^.^.^.).P.: 8 8 8 8 8 8 8 8 8 8 8 8 8 8 8 8 8 8 8 8 8 8 8 8 8 8 8 8 8 8 8 8 8 8 8 8 8 8 8 8 8 8 8 8 8 8 8 8 8 8 8 8 8 8 8 8 8 8 8 8 8 8 8 8 8 8 8 8 8 8 8 8 8 8 8 8 8 8 8 8 8 8 8 8 8 8 8 8 8 8 8 8 8 8 8 8 8 8 8 8 8 8 8 8 8 8 8 8 * P.<.  9.2X;X:X>XH.:XE.^.0.).5./.K. XJ.Q.7.OX<X:X:X;X1X).% 8 8 8 8 8 8 8 8 8 8 8 8 8 8 8 8 8 8 8 8 # |.q.  9.2X<X.X6.~.XX6.~.K.{.S.|.2. Xq.'.K.^.U.|.J.'.L./.3.<Xn.{.2.",
"7.9./.^.^.^.^./.#.- 8 8 8 8 8 8 8 8 8 8 8 8 8 8 8 u Q.Z # n.).).8.H.|.2.8.5.^.5.n.2.Q.J.4.-.8.8.).1.5.P.|.&.3.4.T./.^.^.~.).n.: 8 8 8 8 8 8 8 8 8 8 8 8 8 8 8 8 8 8 8 8 8 8 8 8 8 8 8 8 8 8 8 8 8 8 8 8 8 8 8 8 8 8 8 8 8 8 8 8 8 8 8 8 8 8 8 8 8 8 8 8 8 8 8 8 8 8 8 8 8 8 8 8 8 8 8 8 8 8 8 8 8 8 8 8 8 8 8 8 8 8 8 8 8 8 8 8 8 8 8 8 8 8 8 8 8 8 8 8 % P.<.  9.2X;X:X:XH.-X!.(.P.:XI.#X~.).6.P.P.#X<X:X:X:X1XR.* 8 8 8 8 8 8 8 8 8 8 8 8 8 8 8 8 8 8 8 8 # |.q.  9.2X<X XP.T.P.R.Y.H.2XE.!.K.2XL.).T.(.`.`.!.2Xn.!.!.2XK.{.J.",
"9.:.^.^.^.^.^.Q.m > 8 8 8 8 8 8 8 8 8 8 8 8 8 8 8 u Q.Z # n.).).8.>.9.<.U.<.R.8.1.3.8.<.6.<.5.5.^.:.K.;.L.7.6.P.~.^.^.^.~._.>.- 8 8 8 8 8 8 8 8 8 8 8 8 8 8 8 8 8 8 8 8 8 8 8 8 8 8 8 8 8 8 8 8 8 8 8 8 8 8 8 8 8 8 8 8 8 8 8 8 8 8 8 8 8 8 8 8 8 8 8 8 8 8 8 8 8 8 8 8 8 8 8 8 8 8 8 8 8 8 8 8 8 8 8 8 8 8 8 8 8 8 8 8 8 8 8 8 8 8 8 8 8 8 8 8 8 8 8 8 % P.<.  9.2X;X:X:X0.-XE.^.H.=XJ.$XT.{.E.T. X;X:X:X:X;X3X3.* 8 8 8 8 8 8 8 8 8 8 8 8 8 8 8 8 8 8 8 8 # |.q.  9.2X<X{.R.T.9.`.R.T.Y.n.$X8.3XS.(.K.|.9.|.n.U.Q.^.T.2Xn.'.0.",
"0.E.^.^.~.~._.3.- 8 8 8 8 8 8 8 8 8 8 8 8 8 8 8 8 u Q.Z # n.).^.R.q.n.~.!.T.T.9.W.Q.H.R.n.U.R.T.^.U./.K.H.^.n.S.~.^.^.~.).Y.s 8 8 8 8 8 8 8 8 8 8 8 8 8 8 8 8 8 8 8 8 8 8 8 8 8 8 8 8 8 8 8 8 8 8 8 8 8 8 8 8 8 8 8 8 8 8 8 8 8 8 8 8 8 8 8 8 8 8 8 8 8 8 8 8 8 8 8 8 8 8 8 8 8 8 8 8 8 8 8 8 8 8 8 8 8 8 8 8 8 8 8 8 8 8 8 8 8 8 8 8 8 8 8 8 8 8 8 8 8 % P.<.  9.2X;X:X:X.X:X+X@XoX;X$X-X+X&X:X^._.:X:X:X-X3X|.8 8 8 8 8 8 8 8 8 8 8 8 8 8 8 8 8 8 8 8 8 8 # |.q.  9.2X:X&XOX&X+X&X+X;X~.oX,XXX,XoX@XoX:X).@XoX^.:X#X+X<XoX&XoX",
"`./.^./.)._.9.8 8 8 8 8 8 8 8 8 8 8 8 8 8 8 8 8 8 u Q.Z # n._.^./._._.^.^.).).`././._.(._.).(.(.^.).^.)._.^._._.^.^./._.R.Z : 8 8 8 8 8 8 8 8 8 8 8 8 8 8 8 8 8 8 8 8 8 8 8 8 8 8 8 8 8 8 8 8 8 8 8 8 8 8 8 8 8 8 8 8 8 8 8 8 8 8 8 8 8 8 8 8 8 8 8 8 8 8 8 8 8 8 8 8 8 8 8 8 8 8 8 8 8 8 8 8 8 8 8 8 8 8 8 8 8 8 8 8 8 8 8 8 8 8 8 8 8 8 8 8 8 8 8 8 8 % P.<.  9.2X:X>X>X1X>X<X<X<X>X<X,X<X<X>X2X3X>X>X<X2XoXA - 8 8 8 8 8 8 8 8 8 8 8 8 8 8 8 8 8 8 8 8 8 # |.q.  9.2X:X<X<X<X<X<X<X>X2X<X:X1X:X<X<X<X>X2X<X1X2X>X<X<X:X<X<X1X",
"Q.!.!.R.K.;.8 8 8 8 8 8 8 8 8 8 8 8 8 8 8 8 8 8 8 u Q.Z # n.).Q.!.Q.!.!.!.!.!.Q.!.!.!.!.Q.!.!.!.!.!.!.!.!.!.!.Q.~.W.U.6.m - 8 8 8 8 8 8 8 8 8 8 8 8 8 8 8 8 8 8 8 8 8 8 8 8 8 8 8 8 8 8 8 8 8 8 8 8 8 8 8 8 8 8 8 8 8 8 8 8 8 8 8 8 8 8 8 8 8 8 8 8 8 8 8 8 8 8 8 8 8 8 8 8 8 8 8 8 8 8 8 8 8 8 8 8 8 8 8 8 8 8 8 8 8 8 8 8 8 8 8 8 8 8 8 8 8 8 8 8 8 8 % P.<.  9.2X=X-X-X=X-X-X-X-X-X-X-X-X-X-X=X=X-X@X|.P.m - 8 8 8 8 8 8 8 8 8 8 8 8 8 8 8 8 8 8 8 8 8 8 # |.q.  0.2X=X-X-X-X-X-X-X-X=X-X-X=X-X-X-X-X-X=X-X-X=X-X-X-X-X-X-X=X",
"f f f s 8 - 8 8 8 8 8 8 8 8 8 8 8 8 8 8 8 8 8 8 8 u Q.Z $ L.4.8 f f f f f f f f f f f f f f f f f f f f f f f f f s 8 - : 8 8 8 8 8 8 8 8 8 8 8 8 8 8 8 8 8 8 8 8 8 8 8 8 8 8 8 8 8 8 8 8 8 8 8 8 8 8 8 8 8 8 8 8 8 8 8 8 8 8 8 8 8 8 8 8 8 8 8 8 8 8 8 8 8 8 8 8 8 8 8 8 8 8 8 8 8 8 8 8 8 8 8 8 8 8 8 8 8 8 8 8 8 8 8 8 8 8 8 8 8 8 8 8 8 8 8 8 8 8 8 % P.<.  H.}.: m m m m m m m m m m m m m m m m f e * : 8 8 8 8 8 8 8 8 8 8 8 8 8 8 8 8 8 8 8 8 8 8 8 # |.q.  H.}.: m m m m m m m m m m m m m m m m m m m m m m m m m m m ",
"> > > 8 8 8 8 8 8 8 8 8 8 8 8 8 8 8 8 8 8 8 8 8 8 u Q.Z $ L.1.# 8 > > > > > > > > > > > > > > > > > > > > > > > > 8 8 8 8 8 8 8 8 8 8 8 8 8 8 8 8 8 8 8 8 8 8 8 8 8 8 8 8 8 8 8 8 8 8 8 8 8 8 8 8 8 8 8 8 8 8 8 8 8 8 8 8 8 8 8 8 8 8 8 8 8 8 8 8 8 8 8 8 8 8 8 8 8 8 8 8 8 8 8 8 8 8 8 8 8 8 8 8 8 8 8 8 8 8 8 8 8 8 8 8 8 8 8 8 8 8 8 8 8 8 8 8 8 8 8 % P.<.  J.'.X 8 : : : : : : : : : : : : : : : : 8 8 8 8 8 8 8 8 8 8 8 8 8 8 8 8 8 8 8 8 8 8 8 8 8 8 # |.q.  J.'.X 8 : : : : : : : : : : : : : : : : : : : : : : : : : : ",
"8 8 8 8 8 8 8 8 8 8 8 8 8 8 8 8 8 8 8 8 8 8 8 8 8 u Q.Z $ L.2.# 8 8 8 8 8 8 8 8 8 8 8 8 8 8 8 8 8 8 8 8 8 8 8 8 8 8 8 8 8 8 8 8 8 8 8 8 8 8 8 8 8 8 8 8 8 8 8 8 8 8 8 8 8 8 8 8 8 8 8 8 8 8 8 8 8 8 8 8 8 8 8 8 8 8 8 8 8 8 8 8 8 8 8 8 8 8 8 8 8 8 8 8 8 8 8 8 8 8 8 8 8 8 8 8 8 8 8 8 8 8 8 8 8 8 8 8 8 8 8 8 8 8 8 8 8 8 8 8 8 8 8 8 8 8 8 8 8 8 8 8 % P.<.  H.'.$ e 8 8 8 8 8 8 8 8 8 8 8 8 8 8 8 8 8 8 8 8 8 8 8 8 8 8 8 8 8 8 8 8 8 8 8 8 8 8 8 8 8 8 # |.q.  J.'.$ e 8 8 8 8 8 8 8 8 8 8 8 8 8 8 8 8 8 8 8 8 8 8 8 8 8 8 ",
"8 8 8 8 8 8 8 8 8 8 8 8 8 8 8 8 8 8 8 8 8 8 8 8 8 u Q.Z $ L.2.# 8 8 8 8 8 8 8 8 8 8 8 8 8 8 8 8 8 8 8 8 8 8 8 8 8 8 8 8 8 8 8 8 8 8 8 8 8 8 8 8 8 8 8 8 8 8 8 8 8 8 8 8 8 8 8 8 8 8 8 8 8 8 8 8 8 8 8 8 8 8 8 8 8 8 8 8 8 8 8 8 8 8 8 8 8 8 8 8 8 8 8 8 8 8 8 8 8 8 8 8 8 8 8 8 8 8 8 8 8 8 8 8 8 8 8 8 8 8 8 8 8 8 8 8 8 8 8 8 8 8 8 8 8 8 8 8 8 8 8 8 % P.<.  H.'.o e 8 8 8 8 8 8 8 8 8 8 8 8 8 8 8 8 8 8 8 8 8 8 8 8 8 8 8 8 8 8 8 8 8 8 8 8 8 8 8 8 8 8 # |.q.  J.'.o e 8 8 8 8 8 8 8 8 8 8 8 8 8 8 8 8 8 8 8 8 8 8 8 8 8 8 ",
"8 8 8 8 8 8 8 8 8 8 8 8 8 8 8 8 8 8 8 8 8 8 8 8 8 u Q.Z $ L.2.# 8 8 8 8 8 8 8 8 8 8 8 8 8 8 8 8 8 8 8 8 8 8 8 8 8 8 8 8 8 8 8 8 8 8 8 8 8 8 8 8 8 8 8 8 8 8 8 8 8 8 8 8 8 8 8 8 8 8 8 8 8 8 8 8 8 8 8 8 8 8 8 8 8 8 8 8 8 8 8 8 8 8 8 8 8 8 8 8 8 8 8 8 8 8 8 8 8 8 8 8 8 8 8 8 8 8 8 8 8 8 8 8 8 8 8 8 8 8 8 8 8 8 8 8 8 8 8 8 8 8 8 8 8 8 8 8 8 8 8 8 % P.<.  H.'.o e 8 8 8 8 8 8 8 8 8 8 8 8 8 8 8 8 8 8 8 8 8 8 8 8 8 8 8 8 8 8 8 8 8 8 8 8 8 8 8 8 8 8 # |.q.  J.'.o e 8 8 8 8 8 8 8 8 8 8 8 8 8 8 8 8 8 8 8 8 8 8 8 8 8 8 ",
"8 8 8 8 8 8 8 8 8 8 8 8 8 8 8 8 8 8 8 8 8 8 8 8 8 u Q.Z $ L.2.# 8 8 8 8 8 8 8 8 8 8 8 8 8 8 8 8 8 8 8 8 8 8 8 8 8 8 8 8 8 8 8 8 8 8 8 8 8 8 8 8 8 8 8 8 8 8 8 8 8 8 8 8 8 8 8 8 8 8 8 8 8 8 8 8 8 8 8 8 8 8 8 8 8 8 8 8 8 8 8 8 8 8 8 8 8 8 8 8 8 8 8 8 8 8 8 8 8 8 8 8 8 8 8 8 8 8 8 8 8 8 8 8 8 8 8 8 8 8 8 8 8 8 8 8 8 8 8 8 8 8 8 8 8 8 8 8 8 8 8 8 % P.<.  H.'.o e 8 8 8 8 8 8 8 8 8 8 8 8 8 8 8 8 8 8 8 8 8 8 8 8 8 8 8 8 8 8 8 8 8 8 8 8 8 8 8 8 8 8 # |.q.  J.'.o e 8 8 8 8 8 8 8 8 8 8 8 8 8 8 8 8 8 8 8 8 8 8 8 8 8 8 ",
"8 8 8 8 8 > 8 8 8 8 8 8 8 8 8 8 8 8 8 8 8 8 8 8 8 u Q.Z $ L.2.# 8 8 8 8 8 8 8 8 8 8 8 8 8 8 8 8 8 8 8 8 8 8 8 8 8 8 8 8 8 8 8 8 8 8 8 8 8 8 8 8 8 8 8 8 8 8 8 8 8 8 8 8 8 8 8 8 8 8 8 8 8 8 8 8 8 8 8 8 8 8 8 8 8 8 8 8 8 8 8 8 8 8 8 8 8 8 8 8 8 8 8 8 8 8 8 8 8 8 8 8 8 8 8 8 8 8 8 8 8 8 8 8 8 8 8 8 8 8 8 8 8 8 8 8 8 8 8 8 8 8 8 8 8 8 8 8 8 8 8 8 % P.<.  H.'.o e 8 8 8 8 8 8 8 8 8 8 8 8 8 8 8 8 8 8 8 8 - 8 8 8 8 8 8 8 8 8 8 8 8 8 8 8 8 8 8 8 8 8 # |.q.  J.'.o e 8 8 8 8 8 8 8 8 8 8 8 8 8 8 8 8 8 8 8 8 8 8 8 8 8 8 ",
"8 8 8 8 8 f s 8 8 8 8 8 8 8 8 8 8 8 8 8 8 8 8 8 8 u Q.Z $ L.2.# 8 8 8 8 8 8 8 8 8 8 8 8 8 8 8 8 8 : 8 8 8 : 8 8 8 8 8 8 8 8 8 8 8 8 8 8 8 8 8 8 8 8 8 8 8 8 8 8 8 8 8 8 8 8 - : 8 8 8 8 8 8 8 8 8 8 8 8 8 8 8 8 8 8 8 8 8 8 8 8 8 8 8 8 8 8 8 8 8 8 8 8 8 : - - - 8 8 8 8 8 8 8 8 8 8 8 8 8 8 8 8 8 8 8 8 8 8 8 8 8 8 8 8 8 8 8 8 8 8 8 8 8 8 8 8 8 8 8 % P.<.  H.'.o e 8 8 8 8 8 8 8 8 8 8 8 8 : : - : 8 8 8 8 A 8 8 8 8 8 8 8 8 8 8 8 8 8 8 8 8 8 8 8 8 8 # |.q.  J.'.o e 8 8 8 8 8 8 8 8 8 8 8 8 8 8 8 8 8 8 8 8 8 8 8 8 8 8 ",
"8 8 - : # &.+.% : : > - : 8 8 8 8 8 8 8 8 8 8 8 8 u Q.Z $ L.2.# 8 8 8 8 8 8 8 8 8 8 8 8 8 8 8 8 8 m 8 8 s f 8 : 8 8 > 8 8 : 8 8 : 8 8 : 8 8 8 8 8 8 8 8 8 8 8 8 8 8 8 8 8 8 S V 8 : > 8 8 : 8 8 : u Z : 8 > 8 : 8 8 : > 8 8 > 8 : 8 8 > 8 8 : 8 8 8 8 8 8 f A A Z 8 : 8 8 : > 8 : 8 8 > : 8 8 : 8 8 8 > 8 : 8 8 > > 8 8 8 8 8 : 8 : > 8 8 8 8 8 8 8 8 8 % P.<.  H.'.o e 8 8 8 8 8 8 8 8 8 8 8 * ;.J.9.) - - * 8 J.> - - - : 8 - 8 8 8 8 8 8 8 8 8 8 8 8 8 8 # |.q.  J.'.o e 8 8 8 8 8 8 8 8 8 8 8 8 8 8 8 8 8 8 8 8 8 8 8 8 8 8 ",
"m f -.:.f +.) f >.Z m :.| 8 8 8 8 8 8 8 8 8 8 8 8 u Q.Z $ L.2.# 8 8 8 8 8 8 8 8 8 8 8 8 8 8 8 8 8 H.) # <.4.* m u m -.e e V 8 8 f u s V 8 8 8 8 8 8 8 8 8 8 8 8 8 8 8 8 e <.-.@.8 m f 8 s m > A &.u u 8 f f u m 8 > m s f ;.s 8 V 8 8 f s u V e 8 8 8 8 > m <.6.) 8 V 8 8 f f s m 8 8 f m 8 8 m s 8 s f 8 V e V =.u u 8 s 8 s m 8 m f : 8 8 8 8 8 8 8 8 % P.<.  H.'.o e 8 8 8 8 8 8 8 8 8 8 8 # 6.#.m L.s :.6.m 0.e 2.3.&.) u :.8 8 8 8 8 8 8 8 8 8 8 8 8 8 # |.q.  J.'.o e 8 8 8 8 8 8 * # # u f 8 8 8 8 8 8 8 8 8 8 8 : - 8 8 ",
"=.A 2.V :.+.O.>.+.2.1.&.e 8 8 8 8 8 8 8 8 8 8 8 8 u Q.Z $ L.2.# 8 8 8 8 8 8 8 8 8 8 8 8 8 8 8 8 8 5.&.8 2.;.Z :.&.&.9.V =.:.) >.>.Z <.#.f 8 8 8 8 8 8 8 8 8 8 8 8 8 8 - O.-.# - Z :.-.S 4.:.&.@.8.) &.O.3.1.>.2.Z m :.=.@.0.Z &.:.| -.2.Z <.&.m > 8 8 8 8 - m &.# #.:.+.#.2.2.:.2.N O.3.<.A A :.&.) 6.A f &.;.&.8.) ;.- <.Z 7.S A ;.;.f 8 8 8 8 8 8 8 8 % P.<.  H.'.o e 8 8 8 8 8 8 8 8 8 8 8 # 4.#.$ 4.7.8.3.9.8.8 Z 8.8.3.+.7.* 8 8 8 8 8 8 8 8 8 8 8 8 8 # |.q.  J.'.o e 8 8 8 8 8 u 4.8.6.+.m - * - - * 8 8 # - 8 : V O.# * ",
"&.A #.* >.#.+.3.&.&.s #.&.> 8 8 8 8 8 8 8 8 8 8 8 u Q.Z $ L.2.# 8 8 8 8 8 8 8 8 8 8 8 8 8 8 8 8 u :.&.) ;.&.<.;.<.;.O.f 6.&.1.<.f 8 >.) 8 8 8 8 8 8 8 8 8 8 8 8 8 8 8 - &.O.- : >.:.<.>.-.- >.A O.s -.@.S ) +.m #.=.>.<.;.@.u 7.&.2.<.V - :.O.8 8 8 8 8 8 : A -.8 6.&.2.<.V ) O.N +.@.) s :.1.-.2.>.&.# f +.2.+.O.u >.* >.S >.o <.;.2.O.- 8 8 8 8 8 8 8 % P.<.  H.'.o e 8 8 8 8 8 8 8 8 8 8 8 # 5.) $ 0.8.K.<.;.8.| 6.J.;.2.n.) - 8 8 8 8 8 8 8 8 8 8 8 8 8 # |.q.  J.'.o e 8 8 8 8 8 8 V K.+.Z M S <.&.&.:.: s 3.) : - 6.+.+.1.",
"-.Z 6.-.@.+.| @.&.Z Z #.<.8 8 8 8 8 8 8 8 8 8 8 8 u Q.Z $ L.2.# 8 8 8 8 8 8 8 8 8 8 8 8 8 8 8 8 s :.) 8.A ;.-.-.f ) :.f 5.A f <.f 8 e 1.) - 8 8 8 8 8 8 8 8 8 8 8 8 8 - A 2.8 : -.;.f ) ;.: <.) -.f ;.@.S ) +.Z #.@.>.m Z <.s 5.) s >.m 8 8 >.@.- 8 8 8 8 : A ;.: 4.O.s ;.Z | O.A +.+.#.Z ;.:.&.f +.#.* 1.#.1.#.-.s 1.u 4.S -.# ;.;.m s 8 8 8 8 8 8 8 8 % P.<.  H.'.o e 8 8 8 8 8 8 8 8 8 8 8 # 6.0.6.5.m 0.&.A 0.:.9.8.-.+.R.- 8 8 8 8 8 8 8 8 8 8 8 8 8 8 # |.q.  J.'.o e 8 8 8 8 8 8 - 8.8 :.:.0.<.L.<.9.S 4.<.n.m 8 8.V U.-.",
"u S >.V 8 s s 8 ) Z m ) s 8 8 8 8 8 8 8 8 8 8 8 8 u Q.Z $ L.2.# 8 8 8 8 8 8 8 8 8 8 8 8 8 8 8 8 u @.n ;.f @.f :.&.f >.S ) >.Z &.s s ;.;.f > 8 8 8 8 8 8 8 8 8 8 8 8 8 8 8 @.2.@.f ;.&.A +.: &.s >.+.| ) V Z S m O.e ;.-.f ;.) S <.A @.f 8 -.:.m : 8 8 8 8 : m @.- A >.) +.m A A m S O.4.>.f m >.+.) | * +.:.&.m >.A &.>.-.V +.* f ;.-.s 8 8 8 8 8 8 8 8 % P.<.  H.'.o e 8 8 8 8 8 8 8 8 8 8 8 > m &.O.8 - Z -.m m 8 @.) : &.4.* 8 8 8 8 8 8 8 8 8 8 8 8 8 8 # |.q.  J.'.o e 8 8 8 8 8 8 8 9.f -.-.5.e 3.N &.&.H.6.q.N f 6.Z 7.- ",
"- A +.# 8 8 8 8 - : : - 8 8 8 8 8 8 8 8 8 8 8 8 8 u Q.Z $ L.2.# 8 8 8 8 8 8 8 8 8 8 8 8 8 8 8 8 8 > 8 : 8 > 8 8 8 8 : 8 : 8 8 : 8 8 8 8 8 8 8 8 8 8 8 8 8 8 8 8 8 8 8 8 8 : 8 8 8 8 8 8 > 8 : 8 : 8 > 8 8 8 8 8 8 8 > 8 8 : 8 : 8 8 : 8 8 8 8 > 8 8 8 8 8 8 8 > 8 : 8 8 > 8 8 8 8 % =.) % 8 8 8 8 8 8 8 : 8 : 8 : 8 : 8 : 8 > 8 8 8 8 8 8 8 8 8 8 8 8 8 % P.<.  H.'.o e 8 8 8 8 8 8 8 8 8 8 8 8 : % - 8 8 : % : : 8 - # A n.n : 8 8 8 8 8 8 8 8 8 8 8 8 8 8 # |.q.  J.'.o e 8 8 8 8 8 8 8 n.f :.:.8.n 7.S <.#.2.<.A 8 s 8.A q.8 ",
"8 8 8 8 8 8 8 8 8 8 8 8 8 8 8 8 8 8 8 8 8 8 8 8 8 u Q.Z $ L.2.# 8 8 8 8 8 8 8 8 8 8 8 8 8 8 8 8 8 8 8 8 8 8 8 8 8 8 8 8 8 8 8 8 8 8 8 8 8 8 8 8 8 8 8 8 8 8 8 8 8 8 8 8 8 8 8 8 8 8 8 8 8 8 8 8 8 8 8 8 8 8 8 8 8 8 8 8 8 8 8 8 8 8 8 8 8 8 8 8 8 8 8 8 8 8 8 8 8 8 8 8 8 8 8 8 8 > N m > 8 8 8 8 8 8 8 8 8 8 8 8 8 8 8 8 8 8 8 8 8 8 8 8 8 8 8 8 8 8 8 % P.<.  H.'.o e 8 8 8 8 8 8 8 8 8 8 8 8 8 8 8 8 8 8 8 8 8 8 8 8 e 8 > 8 8 8 8 8 8 8 8 8 8 8 8 8 8 8 # |.q.  J.'.o e 8 8 8 8 8 8 8 O.e V Z ) u ) f Z m e 1.:.u * 6.#.S 8 ",
"8 8 8 8 8 8 8 8 8 8 8 8 8 8 8 8 8 8 8 8 8 8 8 8 8 u Q.Z $ L.2.# 8 8 8 8 8 8 8 8 8 8 8 8 8 8 8 8 8 8 8 8 8 8 8 8 8 8 8 8 8 8 8 8 8 8 8 8 8 8 8 8 8 8 8 8 8 8 8 8 8 8 8 8 8 8 8 8 8 8 8 8 8 8 8 8 8 8 8 8 8 8 8 8 8 8 8 8 8 8 8 8 8 8 8 8 8 8 8 8 8 8 8 8 8 8 8 8 8 8 8 8 8 8 8 8 8 8 : > 8 8 8 8 8 8 8 8 8 8 8 8 8 8 8 8 8 8 8 8 8 8 8 8 8 8 8 8 8 8 8 8 % P.<.  H.'.o e 8 8 8 8 8 8 8 8 8 8 8 8 8 8 8 8 8 8 8 8 8 8 8 8 8 8 8 8 8 8 8 8 8 8 8 8 8 8 8 8 8 8 # |.q.  J.'.o e 8 8 8 8 8 8 8 - 8 : : - 8 - 8 : : 8 # * 8 : V ) # 8 ",
"8 8 8 8 8 8 8 8 8 8 8 8 8 8 8 8 8 8 8 8 8 8 8 8 8 u Q.Z $ L.2.# 8 8 8 8 8 8 8 8 8 8 8 8 8 8 8 8 8 8 8 8 8 8 8 8 8 8 8 8 8 8 8 8 8 8 8 8 8 8 8 8 8 8 8 8 8 8 8 8 8 8 8 8 8 8 8 8 8 8 8 8 8 8 8 8 8 8 8 8 8 8 8 8 8 8 8 8 8 8 8 8 8 8 8 8 8 8 8 8 8 8 8 8 8 8 8 8 8 8 8 8 8 8 8 8 8 8 8 8 8 8 8 8 8 8 8 8 8 8 8 8 8 8 8 8 8 8 8 8 8 8 8 8 8 8 8 8 8 8 8 8 % P.<.  H.'.o e 8 8 8 8 8 8 8 8 8 8 8 8 8 8 8 8 8 8 7 7 7 7 7 8 8 8 8 8 8 8 8 8 8 8 8 8 8 8 8 8 8 8 # |.q.  J.'.o e 8 8 8 8 8 8 8 8 8 8 8 8 8 8 8 8 8 8 8 8 8 8 : : 8 8 ",
"q u u 8 8 8 8 8 8 8 8 8 8 8 8 8 8 8 8 8 8 8 8 8 8 u Q.Z $ L.2.# 8 8 8 8 8 8 8 8 8 8 8 8 8 8 8 8 8 8 8 8 8 8 8 8 8 8 8 8 8 8 8 8 8 8 8 8 8 8 8 8 8 8 8 8 8 8 8 8 8 8 8 8 8 8 8 8 8 8 8 8 8 8 8 8 8 8 8 8 8 8 8 8 8 8 8 8 8 8 8 8 8 8 8 8 8 8 8 8 8 8 8 8 8 8 8 8 8 8 8 8 8 8 8 8 8 8 8 8 8 8 8 8 8 8 8 8 8 8 8 8 8 8 8 8 8 8 8 8 8 8 8 8 8 8 8 8 8 8 8 8 % P.<.  H.'.o e 8 8 8 8 8 8 8 8 8 8 8 8 8 8 8 7 7 q 4 4 4 F 1 7 7 8 8 8 8 8 8 8 8 8 8 8 8 8 8 8 8 8 # |.q.  J.'.o e 8 8 8 8 8 8 8 8 8 8 8 8 8 8 8 8 8 8 8 8 8 8 8 8 8 8 ",
"i l l i i q 8 8 8 8 8 8 8 8 8 8 8 8 8 8 8 8 8 8 8 u Q.Z $ L.2.# 8 8 8 8 8 8 8 8 8 8 8 8 8 8 8 8 8 8 8 8 8 8 8 8 u h i i h u 8 8 8 8 8 8 8 8 8 8 8 8 8 8 8 8 8 8 8 8 8 8 8 8 8 8 8 8 8 8 8 8 8 8 8 8 q d v z k k q 8 8 8 8 8 8 8 8 8 8 8 8 8 8 8 8 8 8 8 8 8 8 8 8 8 8 8 8 8 8 8 8 8 8 8 8 8 u h i l l u 8 8 8 8 8 8 8 8 8 8 8 8 8 8 8 8 8 8 8 8 8 8 8 8 % P.<.  H.'.o e 8 8 8 8 8 8 8 8 8 8 8 8 8 7 7 F L G i.y.J d.J K P 8 7 8 8 8 8 8 8 8 8 8 8 8 8 8 8 8 # |.q.  J.'.o e 8 8 8 8 8 8 8 8 8 8 8 8 8 8 8 8 8 8 8 8 8 8 8 8 8 8 ",
"i l l k U j u 8 8 8 8 8 8 8 8 8 8 8 8 8 8 8 8 8 8 u Q.Z $ L.2.# 8 8 8 8 8 8 8 8 8 8 8 8 8 8 8 8 8 8 8 8 8 8 j k i U j j U i l j 8 8 8 8 8 8 8 8 8 8 8 8 8 8 8 8 8 8 8 8 8 8 8 8 8 8 8 8 8 8 8 8 u Y Y l ^ v Y U i l h 8 8 8 8 8 8 8 8 8 8 8 8 8 8 8 8 8 8 8 8 8 8 8 8 8 8 8 8 8 8 8 8 u l j h U h T R l T k 8 8 8 8 8 8 8 8 8 8 8 8 8 8 8 8 8 8 8 8 8 8 % P.<.  H.'.o e 8 8 8 8 8 8 8 8 8 8 8 8 8 3 G r.g.r.d.y.J g.y.u.f.G F 7 8 8 8 8 8 8 8 8 8 8 8 8 8 8 # |.q.  J.'.o e 8 8 8 8 8 8 8 8 8 8 8 8 8 8 8 8 8 8 8 8 8 8 8 8 8 8 ",
"p d j l l i l l 8 8 8 8 8 8 8 8 8 8 8 8 8 8 8 8 8 u Q.Z $ L.2.# 8 8 8 8 8 8 8 8 8 8 8 8 8 8 8 8 8 8 8 8 h h j U l l h h l l U j i h 8 8 8 8 8 8 8 8 8 8 8 8 8 8 8 8 8 8 8 8 8 8 8 8 8 8 8 8 q Y l Y E R R l Y l l U h h i 8 8 8 8 8 8 8 8 8 8 8 8 8 8 8 8 8 8 8 8 8 8 8 8 8 8 8 8 q j i l U l l d T R R E l v k 8 8 8 8 8 8 8 8 8 8 8 8 8 8 8 8 8 8 8 8 % P.<.  H.'.o e 8 8 8 8 8 8 8 8 8 8 8 7 q y.u.P i.i.e.G G J y.d.e.e.d.P 7 8 8 8 8 8 8 8 8 8 8 8 8 8 # |.q.  J.'.o e 8 8 8 8 8 8 8 8 8 8 8 8 8 8 8 8 8 8 8 8 8 8 8 8 8 8 ",
"% % - 8 u h U j i q 8 8 8 8 8 8 8 8 8 8 8 8 8 8 8 u Q.Z $ L.2.# 8 8 8 8 8 8 8 8 8 8 8 8 8 8 8 8 8 8 8 u l l i j d u 8 8 u d j i l l i 8 8 8 8 8 8 8 8 8 8 8 8 8 8 8 8 8 8 8 8 8 8 8 8 8 8 8 d R T k Y k u 8 8 u d j i l l u 8 8 8 8 8 8 8 8 8 8 8 8 8 8 8 8 8 8 8 8 8 8 8 8 8 8 8 i U k i j i q 8 u d v v l E T i 8 8 8 8 8 8 8 8 8 8 8 8 8 8 8 8 8 8 8 % P.<.  H.'.o e 8 8 8 8 8 8 8 8 8 8 7 4 K e.g.e.4 2 & & % & : 4 G f.i.J G 7 8 8 8 8 8 8 8 8 8 8 8 8 # |.q.  J.'.o e 8 8 8 8 8 8 8 8 8 8 8 8 8 8 8 8 8 8 8 8 8 8 8 8 8 8 ",
"O . . . * q j l U j 8 8 8 8 8 8 8 8 8 8 8 8 8 8 8 u Q.Z $ L.2.# 8 8 8 8 8 8 8 8 8 8 8 8 8 8 8 8 8 8 h j j l i 8 % O . . O # 8 i l k k h 8 8 8 8 8 8 8 8 8 8 8 8 8 8 8 8 8 8 8 8 8 8 8 8 8 Y v T T d : # X O % O % 8 i l k k i 8 8 8 8 8 8 8 8 8 8 8 8 8 8 8 8 8 8 8 8 8 8 8 8 8 k h l l u : # O . . O % 8 l R Y Y i 8 8 8 8 8 8 8 8 8 8 8 8 8 8 8 8 8 8 % P.<.  H.'.o e 8 8 8 8 8 8 8 8 8 8 7 r.g.i.r.3 & O O O < O . o 8 K i.u.d.F 7 8 8 8 8 8 8 8 8 8 8 8 # |.q.  J.'.o e 8 8 8 8 8 8 8 8 8 8 8 8 8 8 8 8 8 8 8 8 8 8 8 8 8 8 ",
"u u > * . O 8 l k i u 8 8 8 8 8 8 8 8 8 8 8 8 8 8 u Q.Z $ L.2.# 8 8 8 8 8 8 8 8 8 8 8 8 8 8 8 8 8 8 l U l u * . . @ , * * . . - u l U l q 8 8 8 8 8 8 8 8 8 8 8 8 8 8 8 8 8 8 8 8 8 8 8 p T E T u % . O O a >.a   . - u l U k 8 8 8 8 8 8 8 8 8 8 8 8 8 8 8 8 8 8 8 8 8 8 8 8 u l U k 8 # . O * , * @ . . - k T l j 8 8 8 8 8 8 8 8 8 8 8 8 8 8 8 8 8 8 % P.<.  H.'.o e 8 8 8 8 8 8 8 8 8 7 F L y.y.2 $ + = p g c g u @ . & K u.J P 8 8 8 8 8 8 8 8 8 8 8 8 # |.q.  J.'.o e 8 8 8 8 8 8 8 8 8 8 8 8 8 8 8 8 8 8 8 8 8 8 8 : 8 8 ",
"g c x a = . # u i l l 8 8 8 8 8 8 8 8 8 8 8 8 8 8 u Q.Z $ L.2.# 8 8 8 8 8 8 8 8 8 8 8 8 8 8 8 8 8 h i i i % . @ > p a g a u * . * i i i h 8 8 8 8 8 8 8 8 8 8 8 8 8 8 8 8 8 8 8 8 8 8 u Y k l d # . * 6 6 ,.~.#.= * . - i i i i 8 8 8 8 8 8 8 8 8 8 8 8 8 8 8 8 8 8 8 8 8 8 u j i h q O . * 6 p g g a = * # - d i i i 8 8 8 8 8 8 8 8 8 8 8 8 8 8 8 8 8 % P.<.  H.'.o e 8 8 8 8 8 8 8 8 8 q i.i.K w $ + 6 c C S ! ! S g , . > G e.d.G 7 8 8 8 8 8 8 8 8 8 8 # |.q.  J.'.o e 8 8 8 8 8 8 : * - 8 8 8 8 8 8 8 8 8 8 8 8 8 u f 8 8 ",
"g x c c g = . - j U k 8 8 8 8 8 8 8 8 8 8 8 8 8 8 u Q.Z $ L.2.# 8 8 8 8 8 8 8 8 8 8 8 8 8 8 8 8 u l l i : . * u a g g c c c p * . : i l U u 8 8 8 8 8 8 8 8 8 8 8 8 8 8 8 8 8 8 8 8 8 d E R d - . * u g p 5.(.$.g p * . 8 i l l q 8 8 8 8 8 8 8 8 8 8 8 8 8 8 8 8 8 8 8 8 8 i U l u * . , p g g g c g $.0.O.O 8 h U l 8 8 8 8 8 8 8 8 8 8 8 8 8 8 8 8 8 % P.<.  H.'.o e 8 8 8 8 8 8 8 8 7 1 r.d.r.& + > c C C S S ~ ~ ~ g @ $ 4 d.i.K 7 8 8 8 8 8 8 8 8 8 8 # |.q.  J.'.o e 8 8 8 8 8 : Z 9.<.8 * * 8 * % - % - 8 - * # ) 8.# - ",
"g g x c c p O # i l h u 8 8 8 8 8 8 8 8 8 8 8 8 8 u Q.Z $ L.2.# 8 8 8 8 8 8 8 8 8 8 8 8 8 8 8 8 u h l i O . > a g g g g x c c u O # p l j u 8 8 8 8 8 8 8 8 8 8 8 8 8 8 8 8 8 8 8 8 8 d Y R d O O 5 a g u H.^.C x c 6 . # d l h q 8 8 8 8 8 8 8 8 8 8 8 8 8 8 8 8 8 8 8 8 8 i k l 8 . @ u g g g g p ,.~.Q.C . * z l i q 8 8 8 8 8 8 8 8 8 8 8 8 8 8 8 8 % P.<.  H.'.o e 8 8 8 8 8 8 8 8 7 K e.u.G $ < a C C C C S S ~ ~ C 6 . > y.y.L 2 8 8 8 8 8 8 8 8 8 8 # |.q.  J.'.o e 8 8 8 8 8 : H.| f f 1.<.u ;.3.@.4.O.8 -.4.) A 6.- 4.",
"g g g x c a * O q l U h 8 8 8 8 8 8 8 8 8 8 8 8 8 u Q.Z $ L.2.# 8 8 8 8 8 8 8 8 8 8 8 8 8 8 8 8 k l l 8 . * u a a g g g x x c g , . 8 l l j 8 8 8 8 8 8 8 8 8 8 8 8 8 8 8 8 8 8 8 8 q T R Y : . * p a g p H.R.c g c a * O q l l h 8 8 8 8 8 8 8 8 8 8 8 8 8 8 8 8 8 8 8 8 u l l j - . = p a g g a 3._.W.$.6 O O u l l i 8 8 8 8 8 8 8 8 8 8 8 8 8 8 8 8 % P.<.  H.'.o e 8 8 8 8 8 8 8 8 7 r.g.u.3 X , x C C C S S S S ~ ! a O & e.g.f.3 7 8 8 8 8 8 8 8 8 8 # |.q.  J.'.o e 8 8 8 8 8 - <.H.m 8 ) 0.;.L.&.Y.@.0.m Y.O.n.#.3.>.4.",
"p g g g x g , . 8 i i i 8 8 8 8 8 8 8 8 8 8 8 8 8 u Q.Z $ L.2.# 8 8 8 8 8 8 8 8 8 8 8 8 8 8 8 8 j l j : . , p a a p g g g g x g > . : j l j 8 8 8 8 8 8 8 8 8 8 8 8 8 8 8 8 8 8 8 8 q Y T l - . = p a a g V S g g c g = . 8 j l h 8 8 8 8 8 8 8 8 8 8 8 8 8 8 8 8 8 8 8 8 q k l d % . > p a a g p w.L.C g g * . 8 k l i 8 8 8 8 8 8 8 8 8 8 8 8 8 8 8 8 % P.<.  H.'.o e 8 8 8 8 8 8 8 8 7 G J K 8 . = c D C c c C S S S S g O & G J L 1 7 8 8 8 8 8 8 8 8 8 # |.q.  J.'.o e 8 8 8 8 8 8 # S H.&.3.K.1.5.: 9.: 6.A 0.  6.<.2.8.q.",
"u g g g g a * . 8 k l i 8 8 8 8 8 8 8 8 8 8 8 8 8 u Q.Z $ L.2.# 8 8 8 8 8 8 8 8 8 8 8 8 8 8 8 8 i i i - . = p p a O.g g g g g g > . : i i i 8 8 8 8 8 8 8 8 8 8 8 8 8 8 8 8 8 8 8 8 8 k l d * . = p a a a a a g g g g = . 8 i i i 8 8 8 8 8 8 8 8 8 8 8 8 8 8 8 8 8 8 8 8 8 i i u # . > p a a g g a g a c g * . 8 i i i 8 8 8 8 8 8 8 8 8 8 8 8 8 8 8 8 % P.<.  H.'.o e 8 8 8 8 8 8 8 8 7 e.i.r.2 . = g D a L.q.D C C S C a . & L i.y.3 7 8 8 8 8 8 8 8 8 8 # |.q.  J.'.o e 8 8 8 8 8 8 +.#.6.q.5.8.4.9.e H.u 0.V U.:.q.@.6.&.6.",
"a g g g g u O O u l l i 8 8 8 8 8 8 8 8 8 8 8 8 8 u Q.Z $ L.2.# 8 8 8 8 8 8 8 8 8 8 8 8 8 8 8 8 l U k > . , u u 5.).,.u g g g a = . > l U l 8 8 8 8 8 8 8 8 8 8 8 8 8 8 8 8 8 8 8 8 u R E Y - . = p p a a g g g g g a * . 8 l U j 8 8 8 8 8 8 8 8 8 8 8 8 8 8 8 8 8 8 8 8 u U U z * . = p p a a g g g g g p * O u l U h 8 8 8 8 8 8 8 8 8 8 8 8 8 8 8 8 % P.<.  H.'.o e 8 8 8 8 8 8 8 8 7 J u.u.4 $ @ g g q.2X_.D C C C C 6 . - r.u.y.3 7 8 8 8 8 8 8 8 8 8 # |.q.  J.'.o e 8 8 8 8 8 8 +.2.V e >.+.m A 8 ) 8 A m H.-.V s A : -.",
"a a a g a = . * z l i q 8 8 8 8 8 8 8 8 8 8 8 8 8 u Q.Z $ L.2.# 8 8 8 8 8 8 8 8 8 8 8 8 8 8 8 8 i j l q O O > 8.`.L.D p g g g p @ . q l j i 8 8 8 8 8 8 8 8 8 8 8 8 8 8 8 8 8 8 8 8 8 k Y T 8 . @ u p p a a a a g g u O O u l h i 8 8 8 8 8 8 8 8 8 8 8 8 8 8 8 8 8 8 8 8 8 i k k > . * u p p a a a g g g 6 . # i l h i 8 8 8 8 8 8 8 8 8 8 8 8 8 8 8 8 % P.<.  H.'.o e 8 8 8 8 8 8 8 8 7 3 J f.L & + , 2.1XOXO.c C C C g * X 4 f.r.G 8 8 8 8 8 8 8 8 8 8 8 # |.q.  J.'.o e 8 8 8 8 8 8 - # : 8 # - : - 8 - 8 - f 9.o 8 8 - 8 * ",
"p a a p > O O 8 i U l 8 8 8 8 8 8 8 8 8 8 8 8 8 8 u Q.Z $ L.2.# 8 8 8 8 8 8 8 8 8 8 8 8 8 8 8 8 u l U d %   #.^.J.g u a a a p = . % d U l u 8 8 8 8 8 8 8 8 8 8 8 8 8 8 8 8 8 8 8 8 8 d T E d # . = u p p p a a a p , . - z U k q 8 8 8 8 8 8 8 8 8 8 8 8 8 8 8 8 8 8 8 8 8 i l l u O . = p p p a a a a u * . : k U j 8 8 8 8 8 8 8 8 8 8 8 8 8 8 8 8 8 % P.<.  H.'.o e 8 8 8 8 8 8 8 8 7 1 u.d.e.7 . > !.#X-.g C C C g = + & F i.g.K 7 8 8 8 8 8 8 8 8 8 8 # |.q.  J.'.o e 8 8 8 8 8 8 8 8 8 8 8 8 8 8 8 8 8 8 8 u 8 8 8 8 8 8 ",
"u u 6 = O . : d i i i 8 8 8 8 8 8 8 8 8 8 8 8 8 8 u Q.Z $ L.2.# 8 8 8 8 8 8 8 8 8 8 8 8 8 8 8 8 q l k i 8 O C -.a 6 a p p p = . O 8 u j l q 8 8 8 8 8 8 8 8 8 8 8 8 8 8 8 8 8 8 8 8 8 i R Y d 8 . . = u p p p p u = . # q i k l 8 8 8 8 8 8 8 8 8 8 8 8 8 8 8 8 8 8 8 8 8 8 i l h u > . O = u p p p p u , . % u i l k 8 8 8 8 8 8 8 8 8 8 8 8 8 8 8 8 8 % P.<.  H.'.o e 8 8 8 8 8 8 8 8 8 7 K J J L & , ,.O.> c x g p = + $ F e.K e.1 7 8 8 8 8 8 8 8 8 8 8 # |.q.  J.'.o e 8 8 8 8 8 8 8 8 8 8 8 8 8 8 8 8 8 8 8 8 8 8 8 8 8 8 ",
"@ @ O . O : i l U j 8 8 8 8 8 8 8 8 8 8 8 8 8 8 8 u Q.Z $ L.2.# 8 8 8 8 8 8 8 8 8 8 8 8 8 8 8 8 8 u h l j : O . O = > > = * . O 8 j l i u 8 8 8 8 8 8 8 8 8 8 8 8 8 8 8 8 8 8 8 8 8 8 8 z v R l - . . * = > > = @ . O 8 k l i u 8 8 8 8 8 8 8 8 8 8 8 8 8 8 8 8 8 8 8 8 8 8 8 i h l i - . . * = > > , O . # q l k i q 8 8 8 8 8 8 8 8 8 8 8 8 8 8 8 8 8 % P.<.  H.'.o e 8 8 8 8 8 8 8 8 8 8 q r.g.f.G & O . @ * , * O . & 3 y.g.u.F 7 8 8 8 8 8 8 8 8 8 8 8 # |.q.  J.'.o e 8 8 8 8 8 8 8 8 8 8 8 8 8 8 8 8 8 8 8 8 8 8 8 8 8 8 ",
". . O * 8 i U h k i 8 8 8 8 8 8 8 8 8 8 8 8 8 8 8 u Q.Z $ L.2.# 8 8 8 8 8 8 8 8 8 8 8 8 8 8 8 8 8 8 l l Y v 8 * . . . . . . % 8 j l l l 8 8 8 8 8 8 8 8 8 8 8 8 8 8 8 8 8 8 8 8 8 8 8 8 u R R T l 8 # . . . . . . * q k l U k 8 8 8 8 8 8 8 8 8 8 8 8 8 8 8 8 8 8 8 8 8 8 8 8 u U l l i > # . . . . . . - u k l U h 8 8 8 8 8 8 8 8 8 8 8 8 8 8 8 8 8 8 % P.<.  H.'.o e 8 8 8 8 8 8 8 8 8 8 7 P y.r.g.t.7 - O . . O % : 4 i.i.e.r.q 8 8 8 8 8 8 8 8 8 8 8 8 # |.q.  J.'.o e 8 8 8 8 8 8 8 8 8 8 8 8 8 8 8 8 8 8 8 8 8 8 8 8 8 8 ",
"8 8 8 8 8 i U k q 8 8 8 8 8 8 8 8 8 8 8 8 8 8 8 8 u Q.Z $ L.2.# 8 8 8 8 8 8 8 8 8 8 8 8 8 8 8 8 8 8 u j T E k 8 8 - * * - 8 8 i U k i u 8 8 8 8 8 8 8 8 8 8 8 8 8 8 8 8 8 8 8 8 8 8 8 8 8 d l T E d 8 8 * * * - 8 8 i U j i q 8 8 8 8 8 8 8 8 8 8 8 8 8 8 8 8 8 8 8 8 8 8 8 8 8 i h l l u 8 > * * * : 8 8 h U h i 8 8 8 8 8 8 8 8 8 8 8 8 8 8 8 8 8 8 8 % P.<.  H.'.o e 8 8 8 8 8 8 8 8 8 8 8 7 F f.j.I 7 8 8 8 8 8 8 8 1 i.d.P 8 8 8 8 8 8 8 8 8 8 8 8 8 8 # |.q.  J.'.o e 8 8 8 8 8 8 8 8 8 8 8 8 8 8 8 8 8 8 8 8 8 8 8 8 8 8 ",
"8 8 8 8 8 8 j i 8 8 8 8 8 8 8 8 8 8 8 8 8 8 8 8 8 u Q.Z $ L.2.# 8 8 8 8 8 8 8 8 8 8 8 8 8 8 8 8 8 8 8 i R T 8 8 8 8 8 8 8 8 8 8 l l q 8 8 8 8 8 8 8 8 8 8 8 8 8 8 8 8 8 8 8 8 8 8 8 8 8 8 8 d R Y 8 8 8 8 8 8 8 8 8 8 l l 8 8 8 8 8 8 8 8 8 8 8 8 8 8 8 8 8 8 8 8 8 8 8 8 8 8 8 8 i U h 8 8 8 8 8 8 8 8 8 u l j 8 8 8 8 8 8 8 8 8 8 8 8 8 8 8 8 8 8 8 8 % P.<.  H.'.o e 8 8 8 8 8 8 8 8 8 8 8 8 7 I p.8 8 8 8 8 8 8 8 8 7 G r.1 8 8 8 8 8 8 8 8 8 8 8 8 8 8 # |.q.  J.'.o e 8 8 8 8 8 8 8 8 8 8 8 8 8 8 8 8 8 8 8 8 8 8 8 8 8 8 ",
"8 8 8 8 8 8 8 8 8 8 8 8 8 8 8 8 8 8 8 8 8 8 8 8 8 u Q.Z $ L.2.# 8 8 8 8 8 8 8 8 8 8 8 8 8 8 8 8 8 8 8 8 u i 8 8 8 8 8 8 8 8 8 8 u u 8 8 8 8 8 8 8 8 8 8 8 8 8 8 8 8 8 8 8 8 8 8 8 8 8 8 8 8 8 i u 8 8 8 8 8 8 8 8 8 8 u q 8 8 8 8 8 8 8 8 8 8 8 8 8 8 8 8 8 8 8 8 8 8 8 8 8 8 8 8 8 u q 8 8 8 8 8 8 8 8 8 8 i 8 8 8 8 8 8 8 8 8 8 8 8 8 8 8 8 8 8 8 8 8 % P.<.  H.'.o e 8 8 8 8 8 8 8 8 8 8 8 8 8 7 8 8 8 8 8 8 8 8 8 8 8 8 8 7 8 8 8 8 8 8 8 8 8 8 8 8 8 8 # |.q.  J.'.o e 8 8 8 8 8 8 8 8 8 8 8 8 8 8 8 8 8 8 8 8 8 8 8 8 8 8 ",
"8 8 8 8 8 8 8 8 8 8 8 8 8 8 8 8 8 8 8 8 8 8 8 8 8 u Q.Z $ L.2.# 8 8 8 8 8 8 8 8 8 8 8 8 8 8 8 8 8 8 8 8 8 8 8 8 8 8 8 8 8 8 8 8 8 8 8 8 8 8 8 8 8 8 8 8 8 8 8 8 8 8 8 8 8 8 8 8 8 8 8 8 8 8 8 8 8 8 8 8 8 8 8 8 8 8 8 8 8 8 8 8 8 8 8 8 8 8 8 8 8 8 8 8 8 8 8 8 8 8 8 8 8 8 8 8 8 8 8 8 8 8 8 8 8 8 8 8 8 8 8 8 8 8 8 8 8 8 8 8 8 8 8 8 8 8 8 8 8 8 8 8 % P.<.  H.'.o e 8 8 8 8 8 8 8 8 8 8 8 8 8 8 8 8 8 8 8 8 8 8 8 8 8 8 8 8 8 8 8 8 8 8 8 8 8 8 8 8 8 8 # |.q.  J.'.o e 8 8 8 8 8 8 8 8 8 8 : 8 8 8 8 8 8 8 8 8 8 8 8 8 8 8 ",
"8 8 8 8 8 8 8 8 8 8 8 8 8 8 8 8 8 8 8 8 8 8 8 8 8 u Q.Z $ L.2.# 8 8 8 8 8 8 8 8 8 8 8 8 8 8 8 8 8 8 8 8 8 8 8 8 8 8 8 8 8 8 8 8 8 8 8 8 8 8 8 8 8 8 8 8 8 8 8 8 8 8 8 8 8 8 8 8 8 8 8 8 8 8 8 8 8 8 8 8 8 8 8 8 8 8 8 8 8 8 8 8 8 8 8 8 8 8 8 8 8 8 8 8 8 8 8 8 8 8 8 8 8 8 8 8 8 8 8 8 8 8 8 8 8 8 8 8 8 8 8 8 8 8 8 8 8 8 8 8 8 8 8 8 8 8 8 8 8 8 8 8 % P.<.  H.'.o e 8 8 8 8 8 8 8 8 8 8 8 8 8 8 8 8 8 8 8 8 8 8 8 8 8 8 8 8 8 8 8 8 8 8 8 8 8 8 8 8 8 8 # |.q.  J.'.o e 8 8 8 8 8 8 - - - 8 Z 8 8 8 8 8 8 8 8 8 8 8 8 8 8 8 ",
"8 8 8 8 8 8 8 8 8 8 8 8 8 8 8 8 8 8 8 8 8 8 8 8 8 u Q.Z $ L.2.# 8 8 8 8 8 8 8 8 8 8 8 8 8 8 8 8 8 8 8 8 8 8 8 8 8 8 8 8 8 8 8 8 8 8 8 8 8 8 8 8 8 8 8 8 8 8 8 8 8 8 8 8 8 8 8 8 8 8 8 8 8 8 8 8 8 8 8 8 8 8 8 8 8 8 8 8 8 8 8 8 8 8 8 8 8 8 8 8 8 8 8 8 8 8 8 8 8 8 8 8 8 8 8 8 8 8 8 8 8 8 8 8 8 8 8 8 8 8 8 8 8 8 8 8 8 8 8 8 8 8 8 8 8 8 8 8 8 8 8 8 % P.<.  H.'.o e 8 8 8 8 8 8 8 8 8 8 8 8 8 8 8 8 8 8 8 8 8 8 8 8 8 8 8 8 8 8 8 8 8 8 8 8 8 8 8 8 8 8 # |.q.  J.'.o e 8 8 8 8 : f n.0.:.: V 8 * # f f - - * 8 - * - 8 - % ",
"8 8 8 8 8 8 8 8 8 8 8 8 8 8 8 8 8 8 8 8 8 8 8 8 8 u Q.Z $ L.2.# 8 8 8 8 8 8 8 8 8 8 8 8 8 8 8 8 8 8 8 8 8 8 8 8 8 8 8 8 8 8 8 8 8 8 8 8 8 8 8 8 8 8 8 8 8 8 8 8 8 8 8 8 8 8 8 8 8 8 8 8 8 8 8 8 8 8 8 8 8 8 8 8 8 8 8 8 8 8 8 8 8 8 8 8 8 8 8 8 8 8 8 8 8 8 8 8 8 8 8 8 8 8 8 8 8 8 8 8 8 8 8 8 8 8 8 8 8 8 8 8 8 8 8 8 8 8 8 8 8 8 8 8 8 8 8 8 8 8 8 8 % P.<.  H.'.o e 8 8 8 8 8 8 8 8 8 8 8 8 8 8 8 8 8 8 8 8 8 8 8 8 8 8 8 8 8 8 8 8 8 8 8 8 8 8 8 8 8 8 # |.q.  J.'.o e 8 8 8 8 - S n.> q.=.O.f 2.>.9.U.V :.6.s ;.6.;.- &.9.",
"8 8 8 8 8 8 8 8 8 8 8 8 8 8 8 8 8 8 8 8 8 8 8 8 8 u Q.Z $ L.2.# 8 8 8 8 8 8 8 8 8 8 8 8 8 8 8 8 8 8 8 8 8 - 8 8 : : 8 8 8 8 8 8 8 8 8 8 8 8 8 8 8 8 8 8 8 8 8 8 8 8 8 8 8 8 8 8 8 8 8 : * - 8 - - 8 8 8 8 - 8 8 8 8 8 8 8 8 8 8 8 8 8 8 8 8 8 8 8 8 8 8 8 8 8 8 8 8 8 8 8 8 8 : - > 8 - - 8 8 8 - : 8 8 8 - 8 8 - - > 8 8 8 8 8 8 8 8 8 8 8 8 8 8 8 8 8 % P.<.  H.'.o e 8 8 8 8 8 8 8 8 8 > # * 8 * # 8 8 8 > # : 8 8 8 8 8 8 8 8 8 8 8 8 8 8 8 8 8 8 8 8 8 # |.q.  J.'.o e 8 8 8 8 - A 9.$ O.6.0.-.K.s <.5.: Z 8.>.P.) n.+.n.f ",
"8 - : 8 - : 8 - - : - 8 8 : - 8 8 8 8 8 8 8 8 8 8 u Q.Z $ L.2.# 8 8 8 8 8 8 8 8 8 8 8 8 8 8 8 8 8 8 8 8 8 ) s : Z m : 8 8 - - : - 8 8 8 8 8 8 8 8 8 8 8 8 8 8 8 8 8 8 8 8 8 8 8 8 8 : V &.) s @.S > 8 8 8 S 8 8 8 - - > - : - : 8 8 8 8 8 8 8 8 8 8 8 8 8 8 8 8 8 8 8 8 8 8 8 N &.m > +.S : 8 8 +.A : 8 f | 8 8 ) &.m 8 8 8 8 8 8 8 8 8 8 8 8 8 8 8 8 8 % P.<.  H.'.o e 8 8 8 8 8 8 8 8 8 f <.&.8 =.<.s 8 : m 2.Z : 8 - * : * > 8 - * 8 8 8 8 8 8 8 8 8 8 8 # |.q.  J.'.o e 8 8 8 8 - A 6.  ;.4.8.s &.2.1.#.f 6.H.2.8.# 5.2.2.  ",
"8 ) Z s +.m 8 A S m | 8 e Z ) e 8 8 8 8 8 8 8 8 8 u Q.Z $ L.2.# 8 8 8 8 8 8 8 8 8 8 8 8 8 8 8 8 8 8 8 : A q.m u 8.&.- 8 s A Z m ) 8 8 8 8 8 8 8 8 8 8 8 8 8 8 8 8 8 8 8 8 8 8 8 8 8 - <.+.s V O.>.Z : : ) n.8 8 8 ) A f ) m Z Z > 8 8 8 8 8 8 8 8 8 8 8 8 8 8 8 8 8 8 8 8 8 8 ) +.;.@.-.:.V * #.-.:.m - @.<.m @.;.) m > 8 8 8 8 8 8 8 8 8 8 8 8 8 8 8 8 % P.<.  H.'.o e 8 8 8 8 8 8 8 8 : A +.8.:.O.<.5.- u 8.&.s 8 u ) &.m &.f : O.&.8 8 8 8 8 8 8 8 8 8 8 # |.q.  J.'.o e 8 8 8 8 - A U.-.K.V n.A &.q.3.8.2.9.6.4.n.* 0.+.n.-.",
"&.<.N f O.:.+.3.;.2.;.+.Z 5.&.;.- 8 8 8 8 8 8 8 8 u Q.Z $ L.2.# 8 8 8 8 8 8 8 8 8 8 8 8 8 8 8 8 8 8 8 8 > -.V - ) #.- - &.<.<.>.:.O.- 8 8 8 8 8 8 8 8 8 8 8 8 8 8 8 8 8 8 8 8 8 8 8 - ;.<.) 8 # -.A - s &.:.u - +.<.V 3.-.5.&.<.m : 8 8 8 8 8 8 8 8 8 8 8 8 8 8 8 8 8 8 8 8 8 - 8 >.>.s S #.* >.u ) +.% ) ;.n 2.8 - 8 8 8 8 8 8 8 8 8 8 8 8 8 8 8 8 8 8 % P.<.  H.'.o e 8 8 8 8 8 8 8 8 8 8 V q.A 8 6.:.% ) L.5.) * S U.3.P.3.5.) K.+.s 8 8 8 8 8 8 8 8 8 8 # |.q.  J.'.o e 8 8 8 8 8 e &.;.m - A f ;.) 8 #.M @.+.f A : Z 8 V :.",
"m ;.V N &.2.&.) n &.e &.S #.# 2.8 8 8 8 8 8 8 8 8 u Q.Z $ L.2.# 8 8 8 8 8 8 8 8 8 8 8 8 8 8 8 8 8 8 8 8 * ;.Z # ) &.- - &.V S O.m &.- 8 8 8 8 8 8 8 8 8 8 8 8 8 8 8 8 8 8 8 8 8 8 8 8 8 8 1.s Z -.- - :.+.<.m - >.f # 1.8 ;.s +.A - 8 8 8 8 8 8 8 8 8 8 8 8 8 8 8 8 8 8 8 8 8 - -.A &.f S #.# :.u ) @.- 8 8 u 2.8 > 8 8 8 8 8 8 8 8 8 8 8 8 8 8 8 8 8 8 % P.<.  H.'.o e 8 8 8 8 8 8 8 8 8 > &.n.S V 0.<.X &.6.m n.% ) 5.8 9.: 8.f 5.-.8 8 8 8 8 8 8 8 8 8 8 # |.q.  J.'.o e 8 8 8 8 8 8 * # : 8 - > % - 8 * : * - > - 8 - 8 : # ",
"s Z 4.4.+.<.-.+.V -.f -.A 2.A <.: 8 8 8 8 8 8 8 8 u Q.Z $ L.2.# 8 8 8 8 8 8 8 8 8 8 8 8 8 8 8 8 8 8 8 8 - >.Z # | =.- - -.A | +.Z -.- 8 8 8 8 8 8 8 8 8 8 8 8 8 8 8 8 8 8 8 8 8 8 8 8 m m :.O.3.n f ) @.;.n.) * -.#.u 3.e >.m &.S - 8 8 8 8 8 8 8 8 8 8 8 8 8 8 8 8 8 8 8 8 : =.:.8 &.+.&.@.m &.O.;.Z : 8 8 : >.@.s s 8 8 8 8 8 8 8 8 8 8 8 8 8 8 8 8 8 % P.<.  H.'.o e 8 8 8 8 8 8 8 8 8 N 8 2.6.8 O.n.O.+.8.| 9.# O.8.f q.s q.f m K.) - 8 8 8 8 8 8 8 8 8 # |.q.  J.'.o e 8 8 8 8 8 8 8 8 8 8 8 8 8 8 8 8 8 8 8 8 8 8 8 8 8 8 ",
"Z >.A A ;.) A V f S s A Z 3.=.m : 8 8 8 8 8 8 8 8 u Q.Z $ L.2.# 8 8 8 8 8 8 8 8 8 8 8 8 8 8 8 8 8 8 8 8 : ) f - m A : : S m m V f A : 8 8 8 8 8 8 8 8 8 8 8 8 8 8 8 8 8 8 8 8 8 8 8 8 O.>.V ) <.-.| | - - ) 8 > s ;.+.| 8 ) s A m : 8 8 8 8 8 8 8 8 8 8 8 8 8 8 8 8 8 8 8 8 8 ;.;.-.f -.+.f O.8 ;.+.> 8 8 8 8 u -.:.m 8 8 8 8 8 8 8 8 8 8 8 8 8 8 8 8 8 % P.<.  H.'.o e 8 8 8 8 8 8 8 8 : | 0.<.N 6.8.m ;.s &.9.m - N #.u =.e &.N 7.>.8 8 8 8 8 8 8 8 8 8 8 # |.q.  J.'.o e 8 8 8 8 8 8 8 8 8 8 8 8 8 8 8 8 8 8 8 8 8 8 8 8 8 8 ",
": - : : - : : : 8 : 8 # ) &.$ 8 8 8 8 8 8 8 8 8 8 u Q.Z $ L.2.# 8 8 8 8 8 8 8 8 8 8 8 8 8 8 8 8 8 8 8 8 8 : 8 8 > : 8 8 : 8 > : 8 : 8 8 8 8 8 8 8 8 8 8 8 8 8 8 8 8 8 8 8 8 8 8 8 8 8 : - : : - - : : 8 8 : 8 8 8 - : : 8 : 8 : 8 8 8 8 8 8 8 8 8 8 8 8 8 8 8 8 8 8 8 8 8 8 8 - - - 8 - - 8 : 8 - - 8 8 8 8 8 8 - - 8 8 8 8 8 8 8 8 8 8 8 8 8 8 8 8 8 8 % P.<.  H.'.o e 8 8 8 8 8 8 8 8 8 : * - : * * : - 8 - % : 8 > - 8 - 8 - > * - 8 8 8 8 8 8 8 8 8 8 8 # |.q.  J.'.o e 8 8 8 8 8 8 8 8 8 8 8 8 8 8 8 8 8 8 8 8 8 8 8 8 8 8 ",
"8 8 8 8 8 8 8 8 8 8 8 8 s f 8 8 8 8 8 8 8 8 8 8 8 u Q.Z $ L.2.# 8 8 8 8 8 8 8 8 8 8 8 8 8 8 8 8 8 8 8 8 8 8 8 8 8 8 8 8 8 8 8 8 8 8 8 8 8 8 8 8 8 8 8 8 8 8 8 8 8 8 8 8 8 8 8 8 8 8 8 8 8 8 8 8 8 8 8 8 8 8 8 8 8 8 8 8 8 8 8 8 8 8 8 8 8 8 8 8 8 8 8 8 8 8 8 8 8 8 8 8 8 8 8 8 8 8 8 8 8 8 8 8 8 8 8 8 8 8 8 8 8 8 8 8 8 8 8 8 8 8 8 8 8 8 8 8 8 8 8 8 % P.<.  H.'.o e 8 8 8 8 8 8 8 8 8 8 8 8 8 8 8 8 8 8 8 8 8 8 8 8 8 8 8 8 8 8 8 8 8 8 8 8 8 8 8 8 8 8 # |.q.  J.'.o e 8 8 8 8 8 8 8 8 8 8 8 8 8 8 8 8 8 8 8 8 8 8 8 8 8 8 ",
"8 8 8 8 8 8 8 8 8 8 8 8 8 8 8 8 8 8 8 8 8 8 8 8 8 u Q.Z $ L.2.# 8 8 8 8 8 8 8 8 8 8 8 8 8 8 8 8 8 8 8 8 8 8 8 8 8 8 8 8 8 8 8 8 8 8 8 8 8 8 8 8 8 8 8 8 8 8 8 8 8 8 8 8 8 8 8 8 8 8 8 8 8 8 8 8 8 8 8 8 8 8 8 8 8 8 8 8 8 8 8 8 8 8 8 8 8 8 8 8 8 8 8 8 8 8 8 8 8 8 8 8 8 8 8 8 8 8 8 8 8 8 8 8 8 8 8 8 8 8 8 8 8 8 8 8 8 8 8 8 8 8 8 8 8 8 8 8 8 8 8 8 % P.<.  H.'.o e 8 8 8 8 8 8 8 8 8 8 8 8 8 8 8 8 8 8 8 8 8 8 8 8 8 8 8 8 8 8 8 8 8 8 8 8 8 8 8 8 8 8 # |.q.  J.'.o e 8 8 8 8 8 8 8 8 8 8 8 8 8 8 8 8 8 8 8 8 8 8 8 8 8 8 ",
"8 8 8 8 8 8 8 8 8 8 8 8 8 8 8 8 8 8 8 8 8 8 8 8 8 u Q.Z $ L.2.# 8 8 8 8 8 8 8 8 8 8 8 8 8 8 8 8 8 8 8 8 8 8 8 8 8 8 8 8 8 8 8 8 8 8 8 8 8 8 8 8 8 8 8 8 8 8 8 8 8 8 8 8 8 8 8 8 8 8 8 8 8 8 8 8 8 8 8 8 8 8 8 8 8 8 8 8 8 8 8 8 8 8 8 8 8 8 8 8 8 8 8 8 8 8 8 8 8 8 8 8 8 8 8 8 8 8 8 8 8 8 8 8 8 8 8 8 8 8 8 8 8 8 8 8 8 8 8 8 8 8 8 8 8 8 8 8 8 8 8 8 % P.<.  H.'.o e 8 8 8 8 8 8 8 8 8 8 8 8 8 8 8 8 8 8 8 8 8 8 8 8 8 8 8 8 8 8 8 8 8 8 8 8 8 8 8 8 8 8 # |.q.  J.'.o e 8 8 8 8 8 8 8 8 8 8 8 8 8 8 8 8 8 8 8 8 8 8 8 8 8 8 ",
"8 8 8 8 8 8 8 8 8 8 8 8 8 8 8 8 8 8 8 8 8 8 8 8 8 u Q.Z $ L.2.# 8 8 8 8 8 8 8 8 8 8 8 8 8 8 8 8 8 8 8 8 8 8 8 8 8 8 8 8 8 8 8 8 8 8 8 8 8 8 8 8 8 8 8 8 8 8 8 8 8 8 8 8 8 8 8 8 8 8 8 8 8 8 8 8 8 8 8 8 8 8 8 8 8 8 8 8 8 8 8 8 8 8 8 8 8 8 8 8 8 8 8 8 8 8 8 8 8 8 8 8 8 8 8 8 8 8 8 8 8 8 8 8 8 8 8 8 8 8 8 8 8 8 8 8 8 8 8 8 8 8 8 8 8 8 8 8 8 8 8 8 % P.<.  H.'.o e 8 8 8 8 8 8 8 8 8 8 8 8 8 8 8 8 8 8 8 8 8 8 8 8 8 8 8 8 8 8 8 8 8 8 8 8 8 8 8 8 8 8 # |.q.  J.'.o e 8 8 8 8 8 8 8 8 8 8 8 8 8 8 8 8 8 8 8 8 8 8 8 8 8 8 ",
"8 8 8 8 8 8 8 8 8 8 8 8 8 8 8 8 8 8 8 8 8 8 8 8 8 u Q.Z $ L.2.# 8 8 8 8 8 8 8 8 8 8 8 8 8 8 8 8 8 8 8 8 8 8 8 8 8 8 8 8 8 8 8 8 8 8 8 8 8 8 8 8 8 8 8 8 8 8 8 8 8 8 8 8 8 8 8 8 8 8 8 8 8 8 8 8 8 8 8 8 8 8 8 8 8 8 8 8 8 8 8 8 8 8 8 8 8 8 8 8 8 8 8 8 8 8 8 8 8 8 8 8 8 8 8 8 8 8 8 8 8 8 8 8 8 8 8 8 8 8 8 8 8 8 8 8 8 8 8 8 8 8 8 8 8 8 8 8 8 8 8 8 % P.<.  H.'.o e 8 8 8 8 8 8 8 8 8 q q q q 8 8 8 8 8 8 8 8 8 8 8 8 8 8 8 8 8 8 8 8 8 8 8 8 8 8 8 8 8 # |.q.  J.'.o e 8 8 8 8 8 8 8 8 8 8 8 8 8 8 8 8 8 8 8 8 8 8 8 8 8 8 ",
"8 8 8 8 8 8 8 8 8 8 8 8 8 8 8 8 8 8 8 8 8 8 8 8 8 u Q.Z $ L.2.# 8 8 8 8 8 8 8 8 8 8 8 8 8 8 8 8 8 8 8 8 8 8 8 8 8 8 8 8 8 8 8 8 8 8 8 8 8 8 8 8 8 8 8 8 8 8 8 8 8 8 8 8 8 8 8 8 8 8 7 7 7 8 8 8 8 8 8 8 8 8 8 8 8 8 8 8 8 8 8 8 8 8 8 8 8 8 8 8 8 8 8 8 8 8 8 8 8 8 8 8 8 8 8 8 8 8 8 8 8 8 8 8 8 8 8 8 8 8 8 8 8 8 8 8 8 8 8 8 8 8 8 8 8 8 8 8 8 8 8 8 % P.<.  H.'.o e 8 8 8 8 8 8 8 8 w 1 3 3 3 w 8 8 8 8 8 > > 8 8 8 8 8 8 8 8 8 8 8 8 8 8 8 8 8 8 8 8 8 # |.q.  J.'.o e 8 8 8 8 8 8 8 8 8 8 8 8 8 8 8 8 8 8 8 8 8 8 8 8 8 8 ",
"s 8 8 : : 8 : A 8 8 8 8 8 : 8 8 8 8 8 8 8 8 8 8 8 u Q.Z $ L.2.# 8 8 8 8 8 8 8 8 8 8 8 8 8 8 8 8 8 8 8 8 8 8 8 8 8 8 8 8 8 8 8 8 8 8 8 8 8 8 8 8 8 8 8 8 8 8 8 8 8 8 8 8 8 8 8 8 8 7 3 P Q w 7 8 8 8 8 8 u s 8 8 : : 8 - Z u 8 8 8 8 : 8 8 8 8 8 8 8 8 8 8 8 8 8 8 8 8 8 8 8 8 8 8 8 8 8 8 8 8 8 8 8 8 8 8 8 8 8 8 8 8 8 8 8 8 8 8 8 8 8 8 8 8 8 8 8 8 8 % P.<.  H.'.o e 8 8 8 8 8 8 8 w 4 I a.a.G 3 w 8 8 8 > f f 8 8 - - 8 - +.8 8 8 8 8 - 8 8 8 8 8 8 8 8 # |.q.  J.'.o e 8 8 8 8 8 8 8 8 8 8 8 8 8 8 8 8 8 8 8 8 8 8 8 8 8 8 ",
"<.- 8 m m ;.m u s 8 8 u 8 V 8 8 8 8 8 8 8 8 8 8 8 u Q.Z $ L.2.# 8 8 8 8 8 8 8 8 8 8 8 8 8 8 8 8 8 8 8 8 8 8 8 8 8 8 8 8 8 8 8 8 8 8 8 8 8 8 8 8 8 8 8 8 8 8 8 8 8 8 8 8 8 8 8 8 7 2 t.a.k.s.w 8 8 8 8 - -.4.- 8 m m -.N u s 8 8 s 8 V u 8 8 8 8 8 8 8 8 8 8 8 8 8 8 8 8 8 8 8 8 8 8 8 8 8 8 8 8 8 8 8 8 8 8 8 8 8 8 8 8 8 8 8 8 8 8 8 8 8 8 8 8 8 8 8 8 % P.<.  H.'.o e 8 8 8 8 8 8 q 3 e.z.].[.l.G 1 8 8 8 * 0.n.% 8 A A 6.Z s f 8 8 s 8 ) e 8 8 8 8 8 8 8 # |.q.  J.'.o e 8 8 8 8 8 8 8 8 8 8 8 8 8 8 8 8 8 8 8 8 8 8 8 8 8 8 ",
"=.8 @.>.@.0.) ;.;.A Z &.+.;.&.8 8 8 8 8 8 8 8 8 8 u Q.Z $ L.2.# 8 8 8 8 8 8 8 8 8 8 8 8 8 8 8 8 8 8 8 8 8 8 8 8 8 8 8 8 8 8 8 8 8 8 8 8 8 8 8 8 8 8 8 8 8 8 8 8 8 8 8 8 8 8 8 8 7 H t.z.z.k.Q 7 8 8 8 8 &.-.s ) <.+.9.O.-.;.) m =.O.;.=.8 8 8 8 8 8 8 8 8 8 8 8 8 8 8 8 8 8 8 8 8 8 8 8 8 8 8 8 8 8 8 8 8 8 8 8 8 8 8 8 8 8 8 8 8 8 8 8 8 8 8 8 8 8 8 8 % P.<.  H.'.o e 8 8 8 8 8 8 w 4 h.l.%X%X].a.2 q 8 8 f 5.4.e <.0.>.Q.&.6.6.+.O.2.:.8.3.8 8 8 8 8 8 8 # |.q.  J.'.o e 8 8 8 8 8 8 8 8 8 8 8 8 8 8 8 8 8 8 8 8 8 8 8 8 8 8 ",
"4.| :.8 : >.* >.A &.#.| 4.&.5.s 8 8 8 8 8 8 8 8 8 u Q.Z $ L.2.# 8 8 8 8 8 8 8 8 8 8 8 8 8 8 8 8 8 8 8 8 8 8 8 8 8 8 8 8 8 8 8 8 8 8 8 8 8 8 8 8 8 8 8 8 8 8 8 8 8 8 8 8 8 8 8 8 7 H t.k.z.a.G 7 8 8 : Z 5.3.+.;.s # >.- :.A -.+.O.2.&.5.m : 8 8 8 8 8 8 8 8 8 8 8 8 8 8 8 8 8 8 8 8 8 8 8 8 8 8 8 8 8 8 8 8 8 8 8 8 8 8 8 8 8 8 8 8 8 8 8 8 8 8 8 8 8 8 % P.<.  H.'.o e 8 8 8 8 8 8 w 4 h.l.%X%X].a.2 q 8 * &.P.L.-.8.8 - 0.# 0.+.3.<.=.L.2.I.f : 8 8 8 8 8 # |.q.  J.'.o e 8 8 8 8 8 8 8 8 8 8 8 8 8 8 8 8 8 8 8 8 8 8 8 8 8 8 ",
"+.:.<.m u 3.8 2.s <.3.e 4.) m 8 8 8 8 8 8 8 8 8 8 u Q.Z $ L.2.# 8 8 8 8 8 8 8 8 8 8 8 8 8 8 8 8 8 8 8 8 8 8 8 8 8 8 8 8 8 8 8 8 8 8 8 8 8 8 8 8 8 8 8 8 8 8 8 8 8 8 8 8 8 8 8 8 7 4 e.t.t.t.2 7 8 8 - -.@.) :.<.Z 8 3.e <.f -.6.8 2.O.m 8 8 8 8 8 8 8 8 8 8 8 8 8 8 8 8 8 8 8 8 8 8 8 8 8 8 8 8 8 8 8 8 8 8 8 8 8 8 8 8 8 8 8 8 8 8 8 8 8 8 8 8 8 8 8 8 % P.<.  H.'.o e 8 8 8 8 8 8 q 3 t.j.l.l.j.P 1 8 8 - 8.;.:.8.q.Z s J.8 H.f q.K.u L.&.Z 8 8 8 8 8 8 8 # |.q.  J.'.o e 8 8 8 8 8 8 8 8 8 8 8 8 8 8 8 8 8 8 8 8 8 8 8 8 8 8 ",
": #.) 2.) #.#.&.8 +.=.% S >.O.8 8 8 8 8 8 8 8 8 8 u Q.Z $ L.2.# 8 8 8 8 8 8 8 8 8 8 8 8 8 8 8 8 8 8 8 8 8 8 8 8 8 8 8 8 8 8 8 8 8 8 8 8 8 8 8 8 8 8 8 8 8 8 8 8 8 8 8 8 8 8 8 8 8 7 2 H H 2 8 8 8 8 8 &.8 - #.) 1.O.+.&.#.u ) :.* Z >.@.8 8 8 8 8 8 8 8 8 8 8 8 8 8 8 8 8 8 8 8 8 8 8 8 8 8 8 8 8 8 8 8 8 8 8 8 8 8 8 8 8 8 8 8 8 8 8 8 8 8 8 8 8 8 8 8 % P.<.  H.'.o e 8 8 8 8 8 8 8 1 4 I p.p.K 4 w 8 > s 2.- - 1.#.H.#.1.1.2.8 :.4.# @.9.;.8 8 8 8 8 8 8 # |.q.  J.'.o e 8 8 8 8 8 8 8 8 8 8 8 8 8 8 8 8 8 8 8 8 8 8 8 8 8 8 ",
"8 : : 8 8 : 8 : 8 : : 8 : 8 8 8 8 8 8 8 8 8 8 8 8 u Q.Z $ L.2.# 8 8 8 8 8 8 8 8 8 8 8 8 8 8 8 8 8 8 8 8 8 8 8 8 8 8 8 8 8 8 8 8 8 8 8 8 8 8 8 8 8 8 8 8 8 8 8 8 8 8 8 8 8 8 8 8 8 8 7 7 7 8 8 8 8 8 8 : 8 8 : : > 8 : 8 : 8 8 : 8 : 8 8 8 8 8 8 8 8 8 8 8 8 8 8 8 8 8 8 8 8 8 8 8 8 8 8 8 8 8 8 8 8 8 8 8 8 8 8 8 8 8 8 8 8 8 8 8 8 8 8 8 8 8 8 8 8 8 8 % P.<.  H.'.o e 8 8 8 8 8 8 8 8 1 3 3 3 w w 8 8 8 8 : 8 8 : : : 8 - 8 : 8 : - 8 : 8 8 8 8 8 8 8 8 8 # |.q.  J.'.o e 8 8 8 8 8 8 8 8 8 8 8 8 8 8 8 8 8 8 8 8 8 8 8 8 8 8 ",
"8 8 8 8 8 8 8 8 8 8 8 8 8 8 8 8 8 8 8 8 8 8 8 8 8 u Q.Z $ L.2.# 8 8 8 8 8 8 8 8 8 8 8 8 8 8 8 8 8 8 8 8 8 8 8 8 8 8 8 8 8 8 8 8 8 8 8 8 8 8 8 8 8 8 8 8 8 8 8 8 8 8 8 8 8 8 8 8 8 8 8 8 8 8 8 8 8 8 8 8 8 8 8 8 8 8 8 8 8 8 8 8 8 8 8 8 8 8 8 8 8 8 8 8 8 8 8 8 8 8 8 8 8 8 8 8 8 8 8 8 8 8 8 8 8 8 8 8 8 8 8 8 8 8 8 8 8 8 8 8 8 8 8 8 8 8 8 8 8 8 8 8 % P.<.  H.'.o e 8 8 8 8 8 8 8 8 8 q q q q 8 8 8 8 8 8 8 8 8 8 8 8 8 8 8 8 8 8 8 8 8 8 8 8 8 8 8 8 8 # |.q.  J.'.o e 8 8 8 8 8 8 8 8 8 8 8 8 8 8 8 8 8 8 8 8 8 8 8 8 8 8 ",
"8 8 8 8 8 8 8 8 8 8 8 8 8 8 8 8 8 8 8 8 8 8 8 8 8 u Q.Z $ L.2.# 8 8 8 8 8 8 8 8 8 8 8 8 8 8 8 8 8 8 8 8 8 8 8 8 8 8 8 8 8 8 8 8 8 8 8 8 8 8 8 8 8 8 8 8 8 8 8 8 8 8 8 8 8 8 8 8 8 8 8 8 8 8 8 8 8 8 8 8 8 8 8 8 8 8 8 8 8 8 8 8 8 8 8 8 8 8 8 8 8 8 8 8 8 8 8 8 8 8 8 8 8 8 8 8 8 8 8 8 8 8 8 8 8 8 8 8 8 8 8 8 8 8 8 8 8 8 8 8 8 8 8 8 8 8 8 8 8 8 8 8 % P.<.  H.'.o e 8 8 8 8 8 8 8 8 8 8 8 8 8 8 8 8 8 8 8 8 8 8 8 8 8 8 8 8 8 8 8 8 8 8 8 8 8 8 8 8 8 8 # |.q.  J.'.o e 8 8 8 8 8 8 8 8 8 8 8 8 8 8 8 8 8 8 8 8 8 8 8 8 8 8 ",
"8 8 8 8 8 8 8 8 8 8 8 8 8 8 8 8 8 8 8 8 8 8 8 8 8 u Q.Z $ L.2.# 8 8 8 8 8 8 8 8 8 8 8 8 8 8 8 8 8 8 8 8 8 8 8 8 8 8 8 8 8 8 8 8 8 8 8 8 8 8 8 8 8 8 8 8 8 8 8 8 8 8 8 8 8 8 8 8 8 8 8 8 8 8 8 8 8 8 8 8 8 8 8 8 8 8 8 8 8 8 8 8 8 8 8 8 8 8 8 8 8 8 8 8 8 8 8 8 8 8 8 8 8 8 8 8 8 8 8 8 8 8 8 8 8 8 8 8 8 8 8 8 8 8 8 8 8 8 8 8 8 8 8 8 8 8 8 8 8 8 8 8 % P.<.  H.'.o e 8 8 8 8 8 8 8 8 8 8 8 8 8 8 8 8 8 8 8 8 8 8 8 8 8 8 8 8 8 8 8 8 8 8 8 8 8 8 8 8 8 8 # |.q.  J.'.o e 8 8 8 8 8 8 8 8 8 8 8 8 8 8 8 8 8 8 8 8 8 8 8 8 8 8 ",
"8 8 8 8 8 8 8 8 8 8 8 8 8 8 8 8 8 8 8 8 8 8 8 8 8 u Q.Z $ L.2.# 8 8 8 8 8 8 8 8 8 8 8 8 8 8 8 8 8 8 8 8 8 8 8 8 8 8 8 8 8 8 8 8 8 8 8 8 8 8 8 8 8 8 8 8 8 8 8 8 8 8 8 8 8 8 8 8 8 8 8 8 8 8 8 8 8 8 8 8 8 8 8 8 8 8 8 8 8 8 8 8 8 8 8 8 8 8 8 8 8 8 8 8 8 8 8 8 8 8 8 8 8 8 8 8 8 8 8 8 8 8 8 8 8 8 8 8 8 8 8 8 8 8 8 8 8 8 8 8 8 8 8 8 8 8 8 8 8 8 8 8 % P.<.  H.'.o e 8 8 8 8 8 8 8 8 8 8 8 8 8 8 8 8 8 8 8 8 8 8 8 8 8 8 8 8 8 8 8 8 8 8 8 8 8 8 8 8 8 8 # |.q.  J.'.o e 8 8 8 8 8 8 8 8 8 8 8 8 8 8 8 8 8 8 8 8 8 8 8 8 8 8 ",
"8 8 8 8 8 8 8 8 8 8 8 8 8 8 8 8 8 8 8 8 8 8 8 8 8 u Q.Z $ L.2.# 8 8 8 8 8 8 8 8 8 8 8 8 8 8 8 8 8 8 8 8 8 8 8 8 8 8 8 8 8 8 8 8 8 8 8 8 8 8 8 8 8 8 8 8 8 8 8 8 8 8 8 8 8 8 8 8 8 8 8 8 8 8 8 8 8 8 8 8 8 8 8 8 8 8 8 8 8 8 8 8 8 8 8 8 8 8 8 8 8 8 8 8 8 8 8 8 8 8 8 8 8 8 8 8 8 8 8 8 8 8 8 8 8 8 8 8 8 8 8 8 8 8 8 8 8 8 8 8 8 8 8 8 8 8 8 8 8 8 8 8 % P.<.  H.'.o e 8 8 8 8 8 8 8 8 8 8 8 8 8 8 8 8 8 8 8 8 8 8 8 8 8 8 8 8 8 8 8 8 8 8 8 8 8 8 8 8 8 8 # |.q.  J.'.o e 8 8 8 8 8 8 8 8 8 8 8 8 8 8 8 8 8 8 8 8 8 8 8 8 8 8 ",
"8 8 8 8 8 8 8 8 8 8 8 8 8 8 8 8 8 8 8 8 8 8 8 8 8 u Q.Z $ L.2.# 8 8 8 8 8 8 8 8 8 8 8 8 8 8 8 8 8 8 8 8 8 8 8 8 8 8 8 8 8 8 8 8 8 8 8 8 8 8 8 8 8 8 8 8 8 8 8 8 8 8 8 8 8 8 8 8 8 8 8 8 8 8 8 8 8 8 8 8 8 8 8 8 8 8 8 8 8 8 8 8 8 8 8 8 8 8 8 8 8 8 8 8 8 8 8 8 8 8 8 8 8 8 8 8 8 8 8 8 8 8 8 8 8 8 8 8 8 8 8 8 8 8 8 8 8 8 8 8 8 8 8 8 8 8 8 8 8 8 8 8 % P.<.  H.'.o e 8 8 8 8 8 8 8 8 8 8 8 8 8 8 8 8 8 8 8 8 8 8 8 8 8 8 8 8 8 8 8 8 8 8 8 8 8 8 8 8 8 8 # |.q.  J.'.o e 8 8 8 8 8 8 8 8 8 8 8 8 8 8 8 8 8 8 8 8 8 8 8 8 8 8 ",
"8 8 8 8 8 8 8 8 8 8 8 8 8 8 8 8 8 8 8 8 8 8 8 8 8 u Q.Z $ L.2.# 8 8 8 8 8 8 8 8 8 8 8 8 8 8 8 8 8 8 8 8 8 8 8 8 8 8 8 8 8 8 8 8 8 8 8 8 8 8 8 8 8 8 8 8 8 8 8 8 8 8 8 8 8 8 8 8 8 8 8 8 8 8 8 8 8 8 8 8 8 8 8 8 8 8 8 8 8 8 8 8 8 8 8 8 8 8 8 8 8 8 8 8 8 8 8 8 8 8 8 8 8 8 8 8 8 8 8 8 8 8 8 8 8 8 8 8 8 8 8 8 8 8 8 8 8 8 8 8 8 8 8 8 8 8 8 8 8 8 8 8 % P.<.  H.'.o 8 8 8 8 8 8 8 8 8 8 8 8 8 8 8 8 8 8 8 8 8 8 8 8 8 8 8 8 8 8 8 8 8 8 8 8 8 8 8 8 8 8 8 # |.q.  J.'.o 8 8 8 8 8 8 8 8 8 8 8 8 8 8 8 8 8 8 8 8 8 8 8 8 8 8 8 ",
"8 8 8 8 8 8 8 8 8 8 8 8 8 8 8 8 8 8 8 8 8 8 8 8 : m R.m # n.5.* 8 8 8 8 8 8 8 8 8 8 8 8 8 8 8 8 8 8 8 8 8 8 8 8 8 8 8 8 8 8 8 8 8 8 8 8 8 8 8 8 8 8 8 8 8 8 8 8 8 8 8 8 8 8 8 8 8 8 8 8 8 8 8 8 8 8 8 8 8 8 8 8 8 8 8 8 8 8 8 8 8 8 8 8 8 8 8 8 8 8 8 8 8 8 8 8 8 8 8 8 8 8 8 8 8 8 8 8 8 8 8 8 8 8 8 8 8 8 8 8 8 8 8 8 8 8 8 8 8 8 8 8 8 8 8 8 8 8 8 8 : I.-.  8.{.- 8 8 8 8 8 8 8 8 8 8 8 8 8 8 8 8 8 8 8 8 8 8 8 8 8 8 8 8 8 8 8 8 8 8 8 8 8 8 8 8 8 8 8 :  X5.  8.{.- 8 8 8 8 8 8 8 8 8 8 8 8 8 8 8 8 8 8 8 8 8 8 8 8 8 8 8 ",
"8 8 8 8 8 8 8 8 8 8 8 8 8 8 8 8 8 8 8 8 8 8 8 8 * =.Y.u * 3.L.- 8 8 8 8 8 8 8 8 8 8 8 8 8 8 8 8 8 8 8 8 8 8 8 8 8 8 8 8 8 8 8 8 8 8 8 8 8 8 8 8 8 8 8 8 8 8 8 8 8 8 8 8 8 8 8 8 8 8 8 8 8 8 8 8 8 8 8 8 8 8 8 8 8 8 8 8 8 8 8 8 8 8 8 8 8 8 8 8 8 8 8 8 8 8 8 8 8 8 8 8 8 8 8 8 8 8 8 8 8 8 8 8 8 8 8 8 8 8 8 8 8 8 8 8 8 8 8 8 8 8 8 8 8 8 8 8 8 8 8 : m R.S # -.+Xm : 8 8 8 8 8 8 8 8 8 8 8 8 8 8 8 8 8 8 8 8 8 8 8 8 8 8 8 8 8 8 8 8 8 8 8 8 8 8 8 8 8 - A #X+.$ -.+Xm : 8 8 8 8 8 8 8 8 8 8 8 8 8 8 8 8 8 8 8 8 8 8 8 8 8 8 ",
"8 8 8 8 8 8 8 8 8 8 8 8 8 8 8 8 8 8 8 8 8 8 8 - 8 Y.3.* 8 f Q.+.# 8 8 8 8 8 8 8 8 8 8 8 8 8 8 8 8 8 8 8 8 8 8 8 8 8 8 8 8 8 8 8 8 8 8 8 8 8 8 8 8 8 8 8 8 8 8 8 8 8 8 8 8 8 8 8 8 8 8 8 8 8 8 8 8 8 8 8 8 8 8 8 8 8 8 8 8 8 8 8 8 8 8 8 8 8 8 8 8 8 8 8 8 8 8 8 8 8 8 8 8 8 8 8 8 8 8 8 8 8 8 8 8 8 8 8 8 8 8 8 8 8 8 8 8 8 8 8 8 8 8 8 8 8 8 8 8 8 > % 9.L.- 8 - |.U.X > 8 e e e e e e e e e e e e e e e e e e e e e e e e e e e e e e e e e e e e e 8 : $ E.'.* 8 - |.U.X > 8 e e e e e e e e e e e e e e e e e e e e e e e e ",
"# # # # # # # # # # # # # # # # # # # # # # : Z I.L.8 8 8 - &.!.-.8 % # # # # # # # # # # # # # # # # # # # # # # # # # # # # # # # # # # # # # # # # # # # # # # # # # # # # # # # # # # # # # # # # # # # # # # # # # # # # # # # # # # # # # # # # # # # # # # # # # # # # # # # # # # # # # # # # # # # # # # # # # # # # # # # # # # # # # # - f 9.Q.N : 8 - A @XU.f # X o X X X X X X X X X X X X X X X X X X X X X X X X X X X X X X X X X X o * m E.*XA - 8 - A @XU.f # X o X X X X X X X X X X X X X X X X X X X X X X ",
"n.n.n.n.n.n.n.n.n.n.n.n.n.n.n.n.n.n.n.n.n.S.K.Q.S.u > 8 8 8 - #.W.U.S.n.n.n.n.n.n.n.n.n.n.n.n.n.n.n.n.n.n.n.n.n.n.n.n.n.n.n.n.n.n.n.n.n.n.n.n.n.n.n.n.n.n.n.n.n.n.n.n.n.n.n.n.n.n.n.n.n.n.n.n.n.n.n.n.n.n.n.n.n.n.n.n.n.n.n.n.n.n.n.n.n.n.n.n.n.n.n.n.n.n.n.n.n.n.n.n.n.n.n.n.n.n.n.n.n.n.n.n.n.n.n.n.n.n.n.n.n.n.n.n.n.n.n.n.n.n.n.n.n.n.n.n.n.S.J.E.Y.Z - 8 8 8 - ) XXOX).^././././././././././././././././././././././././././././././././././././._.#X.X) - 8 8 8 - ) XXOX).^./././././././././././././././././././././././.",
"6.6.6.6.6.6.6.6.6.6.6.6.6.6.6.6.6.6.6.6.6.5.>.A - 8 8 8 8 8 8 - e @.5.6.6.6.6.6.6.6.6.6.6.6.6.6.6.6.6.6.6.6.6.6.6.6.6.6.6.6.6.6.6.6.6.6.6.6.6.6.6.6.6.6.6.6.6.6.6.6.6.6.6.6.6.6.6.6.6.6.6.6.6.6.6.6.6.6.6.6.6.6.6.6.6.6.6.6.6.6.6.6.6.6.6.6.6.6.6.6.6.6.6.6.6.6.6.6.6.6.6.6.6.6.6.6.6.6.6.6.6.6.6.6.6.6.6.6.6.6.6.6.6.6.6.6.6.6.6.6.6.6.6.6.6.6.6.<.+.8 : 8 8 8 8 8 - : &.J.Y.U.U.U.U.U.U.U.U.U.U.U.U.U.U.U.U.U.U.U.U.U.U.U.U.U.U.U.U.U.U.U.U.U.U.U.U.n.:.> - 8 8 8 8 8 - : &.J.Y.U.U.U.U.U.U.U.U.U.U.U.U.U.U.U.U.U.U.U.U.U.U.U.",
"# # # # # # # # # # # # # # # # # # # # # # * : 8 8 8 8 8 8 8 8 8 - # # # # # # # # # # # # # # # # # # # # # # # # # # # # # # # # # # # # # # # # # # # # # # # # # # # # # # # # # # # # # # # # # # # # # # # # # # # # # # # # # # # # # # # # # # # # # # # # # # # # # # # # # # # # # # # # # # # # # # # # # # # # # # # # # # # # # # # % - 8 8 8 8 8 8 8 8 8 - $ X X X X X X X X X X X X X X X X X X X X X X X X X X X X X X X X X X X X o # * 8 8 8 8 8 8 8 8 8 - $ X X X X X X X X X X X X X X X X X X X X X X X X ",
"8 8 8 8 8 8 8 8 8 8 8 8 8 8 8 8 8 8 8 8 8 8 8 8 8 8 8 8 8 8 8 8 8 8 8 8 8 8 8 8 8 8 8 8 8 8 8 8 8 8 8 8 8 8 8 8 8 8 8 8 8 8 8 8 8 8 8 8 8 8 8 8 8 8 8 8 8 8 8 8 8 8 8 8 8 8 8 8 8 8 8 8 8 8 8 8 8 8 8 8 8 8 8 8 8 8 8 8 8 8 8 8 8 8 8 8 8 8 8 8 8 8 8 8 8 8 8 8 8 8 8 8 8 8 8 8 8 8 8 8 8 8 8 8 8 8 8 8 8 8 8 8 8 8 8 8 8 8 8 8 8 8 8 8 8 8 8 8 8 8 8 8 8 8 8 8 8 8 8 8 8 8 e e e e e e e e e e e e e e e e e e e e e e e e e e e e e e e e e e e e e 8 8 8 8 8 8 8 8 8 8 8 8 8 e e e e e e e e e e e e e e e e e e e e e e e e ",
"8 8 8 8 8 8 8 8 8 8 8 8 8 8 8 8 8 8 8 8 8 8 8 8 8 8 8 8 8 8 8 8 8 8 8 8 8 8 8 8 8 8 8 8 8 8 8 8 8 8 8 8 8 8 8 8 8 8 8 8 8 8 8 8 8 8 8 8 8 8 8 8 8 8 8 8 8 8 8 8 8 8 8 8 8 8 8 8 8 8 8 8 8 8 8 8 8 8 8 8 8 8 8 8 8 8 8 8 8 8 8 8 8 8 8 8 8 8 8 8 8 8 8 8 8 8 8 8 8 8 8 8 8 8 8 8 8 8 8 8 8 8 8 8 8 8 8 8 8 8 8 8 8 8 8 8 8 8 8 8 8 8 8 8 8 8 8 8 8 8 8 8 8 8 8 8 8 8 8 8 8 8 8 8 8 8 8 8 8 8 8 8 8 8 8 8 8 8 8 8 8 8 8 8 8 8 8 8 8 8 8 8 8 8 8 8 8 8 8 8 8 8 8 8 8 8 8 8 8 8 8 8 8 8 8 8 8 8 8 8 8 8 8 8 8 8 8 8 8 8 8 8 8 8 8 8 ",
"8 8 8 8 8 8 8 8 8 8 8 8 8 8 8 8 8 8 8 8 8 8 8 8 8 8 8 8 8 8 8 8 8 8 8 8 8 8 8 8 8 8 8 8 8 8 8 8 8 8 8 8 8 8 8 8 8 8 8 8 8 8 8 8 8 8 8 8 8 8 8 8 8 8 8 8 8 8 8 8 8 8 8 8 8 8 8 8 8 8 8 8 8 8 8 8 8 8 8 8 8 8 8 8 8 8 8 8 8 8 8 8 8 8 8 8 8 8 8 8 8 8 8 8 8 8 8 8 8 8 8 8 8 8 8 8 8 8 8 8 8 8 8 8 8 8 8 8 8 8 8 8 8 8 8 8 8 8 8 8 8 8 8 8 8 8 8 8 8 8 8 8 8 8 8 8 8 8 8 8 8 8 8 8 8 8 8 8 8 8 8 8 8 8 8 8 8 8 8 8 8 8 8 8 8 8 8 8 8 8 8 8 8 8 8 8 8 8 8 8 8 8 8 8 8 8 8 8 8 8 8 8 8 8 8 8 8 8 8 8 8 8 8 8 8 8 8 8 8 8 8 8 8 8 8 8 ",
"8 8 8 8 8 8 8 8 8 8 8 8 8 8 8 8 8 8 8 8 8 8 8 8 8 8 8 8 8 8 8 8 8 8 8 8 8 8 8 8 8 8 8 8 8 8 8 8 8 8 8 8 8 8 8 8 8 8 8 8 8 8 8 8 8 8 8 8 8 8 8 8 8 8 8 8 8 8 8 8 8 8 8 8 8 8 8 8 8 8 8 8 8 8 8 8 8 8 8 8 8 8 8 8 8 8 8 8 8 8 8 8 8 8 8 8 8 8 8 8 8 8 8 8 8 8 8 8 8 8 8 8 8 8 8 8 8 8 8 8 8 8 8 8 8 8 8 8 8 8 8 8 8 8 8 8 8 8 8 8 8 8 8 8 8 8 8 8 8 8 8 8 8 8 8 8 8 8 8 8 8 8 8 8 8 8 8 8 8 8 8 8 8 8 8 8 8 8 8 8 8 8 8 8 8 8 8 8 8 8 8 8 8 8 8 8 8 8 8 8 8 8 8 8 8 8 8 8 8 8 8 8 8 8 8 8 8 8 8 8 8 8 8 8 8 8 8 8 8 8 8 8 8 8 8 8 ",
"8 8 8 8 8 8 8 8 8 8 8 8 8 8 8 8 8 8 8 8 8 8 8 8 8 8 8 8 8 8 8 8 8 8 8 8 8 8 8 8 8 8 8 8 8 8 8 8 8 8 8 8 8 8 8 8 8 8 8 8 8 8 8 8 8 8 8 8 8 8 8 8 8 8 8 8 8 8 8 8 8 8 8 8 8 8 8 8 8 8 8 8 8 8 8 8 8 8 8 8 8 8 8 8 8 8 8 8 8 8 8 8 8 8 8 8 8 8 8 8 8 8 8 8 8 8 8 8 8 8 8 8 8 8 8 8 8 8 8 8 8 8 8 8 8 8 8 8 8 8 8 8 8 8 8 8 8 8 8 8 8 8 8 8 8 8 8 8 8 8 8 8 8 8 8 8 8 8 8 8 8 8 8 8 8 8 8 8 8 8 8 8 8 8 8 8 8 8 8 8 8 8 8 8 8 8 8 8 8 8 8 8 8 8 8 8 8 8 8 8 8 8 8 8 8 8 8 8 8 8 8 8 8 8 8 8 8 8 8 8 8 8 8 8 8 8 8 8 8 8 8 8 8 8 8 8 ",
"8 8 8 8 8 8 8 8 8 8 8 8 8 8 8 8 8 8 8 8 8 8 8 8 8 8 8 8 8 8 8 8 8 8 8 8 8 8 8 8 8 8 8 8 8 8 8 8 8 8 8 8 8 8 8 8 8 8 8 8 8 8 8 8 8 8 8 8 8 8 8 8 8 8 8 8 8 8 8 8 8 8 8 8 8 8 8 8 8 8 8 8 8 8 8 8 8 8 8 8 8 8 8 8 8 8 8 8 8 8 8 8 8 8 8 8 8 8 8 8 8 8 8 8 8 8 8 8 8 8 8 8 8 8 8 8 8 8 8 8 8 8 8 8 8 8 8 8 8 8 8 8 8 8 8 8 8 8 8 8 8 8 8 8 8 8 8 8 8 8 8 8 8 8 8 8 8 8 8 8 8 8 8 8 8 8 8 8 8 8 8 8 8 8 8 8 8 8 8 8 8 8 8 8 8 8 8 8 8 8 8 8 8 8 8 8 8 8 8 8 8 8 8 8 8 8 8 8 8 8 8 8 8 8 8 8 8 8 8 8 8 8 8 8 8 8 8 8 8 8 8 8 8 8 8 8 ",
"8 8 8 8 8 8 8 8 8 8 8 8 8 8 8 8 8 8 8 8 8 8 8 8 8 8 8 8 8 8 8 8 8 8 8 8 8 8 8 8 8 8 8 8 8 8 8 8 8 8 8 8 8 8 8 8 8 8 8 8 8 8 8 8 8 8 8 8 8 8 8 8 8 8 8 8 8 8 8 8 8 8 8 8 8 8 8 8 8 8 8 8 8 8 8 8 8 8 8 8 8 8 8 8 8 8 8 8 8 8 8 8 8 8 8 8 8 8 8 8 8 8 8 8 8 8 8 8 8 8 8 8 8 8 8 8 8 8 8 8 8 8 8 8 8 8 8 8 8 8 8 8 8 8 8 8 8 8 8 8 8 8 8 8 8 8 8 8 8 8 8 8 8 8 8 8 8 8 8 8 8 8 8 8 8 8 8 8 8 8 8 8 8 8 8 8 8 8 8 8 8 8 8 8 8 8 8 8 8 8 8 8 8 8 8 8 8 8 8 8 8 8 8 8 8 8 8 8 8 8 8 8 8 8 8 8 8 8 8 8 8 8 8 8 8 8 8 8 8 8 8 8 8 8 8 8 ",
"8 8 8 8 8 8 8 8 8 8 8 8 8 8 8 8 8 8 8 8 8 8 8 8 8 8 8 8 8 8 8 8 8 8 8 8 8 8 8 8 8 8 8 8 8 8 8 8 8 8 8 8 8 8 8 8 8 8 8 8 8 8 8 8 8 8 8 8 8 8 8 8 8 8 8 8 8 8 8 8 8 8 8 8 8 8 8 8 8 8 8 8 8 8 8 8 8 8 8 8 8 8 8 8 8 8 8 8 8 8 8 8 8 8 8 8 8 8 8 8 8 8 8 8 8 8 8 8 8 8 8 8 8 8 8 8 8 8 8 8 8 8 8 8 8 8 8 8 8 8 8 8 8 8 8 8 8 8 8 8 8 8 8 8 8 8 8 8 8 8 8 8 8 8 8 8 8 8 8 8 8 8 8 8 8 8 8 8 8 8 8 8 8 8 8 8 8 8 8 8 8 8 8 8 8 8 8 8 8 8 8 8 8 8 8 8 8 8 8 8 8 8 8 8 8 8 8 8 8 8 8 8 8 8 8 8 8 8 8 8 8 8 8 8 8 8 8 8 8 8 8 8 8 8 8 8 ",
"8 8 8 8 8 8 8 8 8 8 8 8 8 8 8 8 8 8 8 8 8 8 8 8 8 8 8 8 8 8 8 8 8 8 8 8 8 8 8 8 8 8 8 8 8 8 8 8 8 8 8 8 8 8 8 8 8 8 8 8 8 8 8 8 8 8 8 8 8 8 8 8 8 8 8 8 8 8 8 8 8 8 8 8 8 8 8 8 8 8 8 8 8 8 8 8 8 8 8 8 8 8 8 8 8 8 8 8 8 8 8 8 8 8 8 8 8 8 8 8 8 8 8 8 8 8 8 8 8 8 8 8 8 8 8 8 8 8 8 8 8 8 8 8 8 8 8 8 8 8 8 8 8 8 8 8 8 8 8 8 8 8 8 8 8 8 8 8 8 8 8 8 8 8 8 8 8 8 8 8 8 8 8 8 8 8 8 8 8 8 8 8 8 8 8 8 8 8 8 8 8 8 8 8 8 8 8 8 8 8 8 8 8 8 8 8 8 8 8 8 8 8 8 8 8 8 8 8 8 8 8 8 8 8 8 8 8 8 8 8 8 8 8 8 8 8 8 8 8 8 8 8 8 8 8 8 ",
"8 8 8 8 8 8 8 8 8 8 8 8 8 8 8 8 8 8 8 8 8 8 8 8 8 8 8 8 8 8 8 8 8 8 8 8 8 8 8 8 8 8 8 8 8 8 8 8 8 8 8 8 8 8 8 8 8 8 8 8 8 8 8 8 8 8 8 8 8 8 8 8 8 8 8 8 8 8 8 8 8 8 8 8 8 8 8 8 8 8 8 8 8 8 8 8 8 8 8 8 8 8 8 8 8 8 8 8 8 8 8 8 8 8 8 8 8 8 8 8 8 8 8 8 8 8 8 8 8 8 8 8 8 8 8 8 8 8 8 8 8 8 8 8 8 8 8 8 8 8 8 8 8 8 8 8 8 8 8 8 8 8 8 8 8 8 8 8 8 8 8 8 8 8 8 8 8 8 8 8 8 8 8 8 8 8 8 8 8 8 8 8 8 8 8 8 8 8 8 8 8 8 8 8 8 8 8 8 8 8 8 8 8 8 8 8 8 8 8 8 8 8 8 8 8 8 8 8 8 8 8 8 8 8 8 8 8 8 8 8 8 8 8 8 8 8 8 8 8 8 8 8 8 8 8 8 ",
"8 8 8 8 8 8 8 8 8 8 8 8 8 8 8 8 8 8 8 8 8 8 8 8 8 8 8 8 8 8 8 8 8 8 8 8 8 8 8 8 8 8 8 8 8 8 8 8 8 8 8 8 8 8 8 8 8 8 8 8 8 8 8 8 8 8 8 8 8 8 8 8 8 8 8 8 8 8 8 8 8 8 8 8 8 8 8 8 8 8 8 8 8 8 8 8 8 8 8 8 8 8 8 8 8 8 8 8 8 8 8 8 8 8 8 8 8 8 8 8 8 8 8 8 8 8 8 8 8 8 8 8 8 8 8 8 8 8 8 8 8 8 8 8 8 8 8 8 8 8 8 8 8 8 8 8 8 8 8 8 8 8 8 8 8 8 8 8 8 8 8 8 8 8 8 8 8 8 8 8 8 8 8 8 8 8 8 8 8 8 8 8 8 8 8 8 8 8 8 8 8 8 8 8 8 8 8 8 8 8 8 8 8 8 8 8 8 8 8 8 8 8 8 8 8 8 8 8 8 8 8 8 8 8 8 8 8 8 8 8 8 8 8 8 8 8 8 8 8 8 8 8 8 8 8 8 ",
"8 8 8 8 8 8 8 8 8 8 8 8 8 8 8 8 8 8 8 8 8 8 8 8 8 8 8 8 8 8 8 8 8 8 8 8 8 8 8 8 8 8 8 8 8 8 8 8 8 8 8 8 8 8 8 8 8 8 8 8 8 8 8 8 8 8 8 8 8 8 8 8 8 8 8 8 8 8 8 8 8 8 8 8 8 8 8 8 8 8 8 8 8 8 8 8 8 8 8 8 8 8 8 8 8 8 8 8 8 8 8 8 8 8 8 8 8 8 8 8 8 8 8 8 8 8 8 8 8 8 8 8 8 8 8 8 8 8 8 8 8 8 8 8 8 8 8 8 8 8 8 8 8 8 8 8 8 8 8 8 8 8 8 8 8 8 8 8 8 8 8 8 8 8 8 8 8 8 8 8 8 8 8 8 8 8 8 8 8 8 8 8 8 8 8 8 8 8 8 8 8 8 8 8 8 8 8 8 8 8 8 8 8 8 8 8 8 8 8 8 8 8 8 8 8 8 8 8 8 8 8 8 8 8 8 8 8 8 8 8 8 8 8 8 8 8 8 8 8 8 8 8 8 8 8 8 ",
"- - - - - - - - - - - - - - - - - - - - - - : 8 8 8 8 8 8 : : : : : : : : : : : : : : : : : : : : : : : : : : : : : : : : : : - : : : : : : : : : : : : : : : : : : : : : : : : : : : : : : : : : : : : : : : : : : : : : : : : : : : : : : : : : : : : : : : : : : : : : : : : : : : : : : : : : : : : : : : : : : : : : : : : : : : : : : : : : : 8 8 8 8 8 8 8 : : : : : : : : : : : : : : : : : : : : : : : : - : : : : : : : : : : : : : : : : : : 8 8 8 8 8 8 > - - - - - - - - - - - - - - - - - - - - - - - - - - - - - ",
"A A A A A A A A ) ) ) ) ) ) ) ) ) ) ) ) ) ) m - * 8 8 8 8 f V M N N N N N N N N N N N N N N N N N N N N N N N N N N N N N N N V V V V V V V V V V V V V V V V V V V V V V V V V V V V V V V V V V V V V V V V V V V V V V V V V V V V V V V V V V V V V V V V V V V V V V V V V V V V V V V V V V V V V V V V V V V V V V V V V V V V V V V V V V m 8 - 8 8 8 8 s V M N N N N N N N N N N N N N N N N N N N N N N V V V V V V V V V V V V V V V V V V m 8 - 8 8 8 8 f ) A A A A A A A A A A A A A A A A A A A A A A A A A A A A ",
">X>X>X>X>X>X>X,X;X*X=X=X=X=X=X=X=X=X=X=X=X&X$X|.>.% 8 8 * n._.^.^.^.^.^.^.^.^.^.^.^.^.^.^.^.^.^.^.^.^.^.^.^.^.^.^.^.^.^.^.^.^.Q.Q.Q.Q.Q.Q.Q.Q.Q.Q.Q.Q.Q.Q.Q.Q.Q.Q.Q.Q.Q.Q.Q.Q.Q.Q.Q.Q.Q.Q.Q.Q.Q.Q.Q.Q.Q.Q.Q.Q.Q.Q.Q.Q.Q.Q.Q.Q.Q.Q.Q.Q.Q.Q.Q.Q.Q.Q.Q.Q.Q.Q.Q.Q.Q.Q.Q.Q.Q.Q.Q.Q.Q.Q.Q.Q.Q.Q.Q.Q.Q.Q.Q.Q.Q.Q.Q.Q.Q.Q.Q.Q.Q.Q.Q.Q.Q.Q.Q.Q.Q.Q.Q.Q.Q.Q.R.U.<.: 8 8 % :.`.^.^.^.^.^.^.^.^.^.^.^.^.^.^.^.^.^.^.^.^.^./.^.Q.Q.Q.Q.Q.Q.Q.Q.Q.Q.Q.Q.Q.Q.Q.Q.Q.Q.R.U.<.: 8 e # 9.2X:X>X>X>X>X>X>X>X>X>X>X>X>X>X>X>X>X>X>X>X>X>X>X>X>X>X>X>X",
":X:X:X:X:X:X;X2Xq.- f s s s s s s s s s u f O.P.-X9.* u * n.).~.^.^.^.~.^.(.^.^.^.^.^.^.^.^.^.^.^.^.^.^.^.^.^.^.^.^.^.^.~.(.U.8 u u u u u u u u u u u u u u u u u u u u u u u u u u u u u u u u u u u u u u u u u u u u u u u u u u u u u u u u u u u u u u u u u u u u u u u u u u u u u u u u u u u u u u u u u u u u u u u u u u u u u u u u u M :.W.0.> 8 * :._.~.^.^.^.^././.^.^.^.^.^.^.^.^.^.^.^.^.^.~.).K.: s u u u u u u u u u u u u u u u u m :.W.0.> e # 8.2X;X:X:X:X:X:X:X:X:X:X:X:X:X:X:X<X:X:X:X:X:X:X:X:X:X<X>X:X",
":X:X:X:X:X:X;X2X9.o 8 8 8 8 8 8 8 8 8 8 8 > - X +.=X;.- - n.).~.^.~.~.).Q.U.^.~.^./.^.^.^.^.^.~.^.^.^.^.^.^.^.^.^.^.^.^.~.).U.- 8 8 8 8 8 8 8 8 8 8 8 8 8 8 8 8 8 8 8 8 8 8 8 8 8 8 8 8 8 8 8 8 8 8 8 8 8 8 8 8 8 8 8 8 8 8 8 8 8 8 8 8 8 8 8 8 8 8 8 8 8 8 8 8 8 8 8 8 8 8 8 8 8 8 8 8 8 8 8 8 8 8 8 8 8 8 8 8 8 8 8 8 8 8 8 8 8 8 8 8 8 8 8 8 8 : % 8 Y.4.- - :._.~.^.~.^.^.T.R.^.~.~.^.^.^.^.^.^.^.^.^.^.~.).K.* 8 8 8 8 8 8 8 8 8 8 8 8 8 8 8 8 8 : % 8 Y.4.- # 8.2X;X:X<X:X:X<X>X:X:X:X:X:X:X:X-X X<X>X:X:X:X:X:X;X,XXX*X:X",
"<X>X:X:X:X:X;X2X0.# e 8 8 8 8 8 8 8 8 8 8 8 8 u X n.'.: * n.).).S.&.<.n.^.E.(.^.).P.Q./.^.(.^.)././.^.).^././.(.^.^.^.^.^.).U.: 8 8 8 8 8 8 8 8 8 8 8 8 8 8 8 8 8 8 8 8 8 8 8 8 8 8 8 8 8 8 8 8 8 8 8 8 8 8 8 8 8 8 8 8 8 8 8 8 8 8 8 8 8 8 8 8 8 8 8 8 8 8 8 8 8 8 8 8 8 8 8 8 8 8 8 8 8 8 8 8 8 8 8 8 8 8 8 8 8 8 8 8 8 8 8 8 8 8 8 8 8 8 8 8 8 8 e - S R.m # :._.^.Q.2.@.>.U.!.)./.)./.(.^./././.^.^.^.^.~.).K.- 8 8 8 8 8 8 8 8 8 8 8 8 8 8 8 8 8 8 e - S R.m o 8.2X>XOX<.-X3X0.!.2X,X<X:X1X<X<X;X=XOXoX<X<X<X,X>X1X,X&X-X1X",
"n.^.,X:X:X:X;X2X0.# e 8 8 8 8 8 8 8 8 8 8 8 8 8 : S +XZ # n.).).7.n.).-.J.n.U.<.q.O.<.T.3.7.T.2.<.J.~.1.6.Y.<.0.^.^.^.^.^.).U.: 8 8 8 8 8 8 8 8 8 8 8 8 8 8 8 8 8 8 8 8 8 8 8 8 8 8 8 8 8 8 8 8 8 8 8 8 8 8 8 8 8 8 8 8 8 8 8 8 8 8 8 8 8 8 8 8 8 8 8 8 8 8 8 8 8 8 8 8 8 8 8 8 8 8 8 8 8 8 8 8 8 8 8 8 8 8 8 8 8 8 8 8 8 8 8 8 8 8 8 8 8 8 8 8 8 8 8 8 8 U.&.X >._.~.^.^.<.!.L.P.q.<.4.5.2.^.U.<.n./.^.^.^.~.).K.- 8 8 8 8 8 8 8 8 8 8 8 8 8 8 8 8 8 8 8 8 8 U.=.  9.2X,X.X+.|.:X&.Q.oX9.R.>XI.S.T.@X^.P.-.OXR.9.OX.Xq.`.~.OXU.",
"U.;X:X:X:X:X;X3X7.# 8 8 8 8 8 8 8 8 8 8 8 8 8 8 8 u =X| $ n.).).8.0.'.8.3.5.8.2.).<.U.^.L.>.8.>.R.<.0.7.).:.9.&.P.).^.^.^.).L.: 8 8 8 8 8 8 8 8 8 8 8 8 8 8 8 8 8 8 8 8 8 8 8 8 8 8 8 8 8 8 8 8 8 8 8 8 8 8 8 8 8 8 8 8 8 8 8 8 8 8 8 8 8 8 8 8 8 8 8 8 8 8 8 8 8 8 8 8 8 8 8 8 8 8 8 8 8 8 8 8 8 8 8 8 8 8 8 8 8 8 8 8 8 8 8 8 8 8 8 8 8 8 8 8 8 8 8 8 % P.<.X >._.~.^.~.<.~.8.n.>.U.;.L.5.L.>.0.&.Y.(.^.^.~.).H.- 8 8 8 8 8 8 8 8 8 8 8 8 8 8 8 8 8 8 8 8 % P.<.  9.2X<X.X8.Q.{.9.Q.H.#XK.'.5.@Xn._.L.).Q.{.P.OXJ.^.8.2Xn.{.4.",
"!.L.,X:X:X:X:X,X>.* 8 8 8 8 8 8 8 8 8 8 8 8 8 8 8 s =X) $ n.).).8.H.}.>.9.3._.8.6.<.Q.0.4.;.7.8./.1.5.K.}.&.4.0.R./.^.^.~.).q.- 8 8 8 8 8 8 8 8 8 8 8 8 8 8 8 8 8 8 8 8 8 8 8 8 8 8 8 8 8 8 8 8 8 8 8 8 8 8 8 8 8 8 8 8 8 8 8 8 8 8 8 8 8 8 8 8 8 8 8 8 8 8 8 8 8 8 8 8 8 8 8 8 8 8 8 8 8 8 8 8 8 8 8 8 8 8 8 8 8 8 8 8 8 8 8 8 8 8 8 8 8 8 8 8 8 8 8 8 % P.<.X >._.~.^.^.<.~.0.S.3.~.4.R.0.J.-.6.0.Q.^.^.^.~.).6.- 8 8 8 8 8 8 8 8 8 8 8 8 8 8 8 8 8 8 8 8 % P.<.  9.2X<X|.U.Y.J.Q.Y.S.2XR.^.J.2XL.).Y./.).'.Q.2Xn.!.!.2XJ.{.H.",
"U.J.>X:X:X:X<X#Xf 8 8 8 8 8 8 8 8 8 8 8 8 8 8 8 8 s =X) $ n.).).9.=.3.5.T.1.U.3.5.6.3.3.4.2.6.6.^.<.U.-.q.q.4.H.!.^.^.^.~.).=.- 8 8 8 8 8 8 8 8 8 8 8 8 8 8 8 8 8 8 8 8 8 8 8 8 8 8 8 8 8 8 8 8 8 8 8 8 8 8 8 8 8 8 8 8 8 8 8 8 8 8 8 8 8 8 8 8 8 8 8 8 8 8 8 8 8 8 8 8 8 8 8 8 8 8 8 8 8 8 8 8 8 8 8 8 8 8 8 8 8 8 8 8 8 8 8 8 8 8 8 8 8 8 8 8 8 8 8 8 % P.<.X >._.~.^.^.<.~.9.n.3.Q.3.T.8.L.n.4.J.~.^.^.^.~.).+.- 8 8 8 8 8 8 8 8 8 8 8 8 8 8 8 8 8 8 8 8 % P.<.  9.2X<X{.E.Q.n.'.E.!.n.H.@X0.3XK.).P..X6.|.S.n.)./.E.2XH.{.n.",
"{.-X:X:X;X:X3X7.* 8 8 8 8 8 8 8 8 8 8 8 8 8 8 8 8 s =X) $ n.).~.Q.P.U.^.~.Q.E.K.!.~.U.Q.P.E.Q.Q.^.E./.T.P.^.P.P.~.^.~.~._.K.8 8 8 8 8 8 8 8 8 8 8 8 8 8 8 8 8 8 8 8 8 8 8 8 8 8 8 8 8 8 8 8 8 8 8 8 8 8 8 8 8 8 8 8 8 8 8 8 8 8 8 8 8 8 8 8 8 8 8 8 8 8 8 8 8 8 8 8 8 8 8 8 8 8 8 8 8 8 8 8 8 8 8 8 8 8 8 8 8 8 8 8 8 8 8 8 8 8 8 8 8 8 8 8 8 8 8 8 8 8 % P.<.X >._.!.^.^.W.~.Q.Q.Q.~.Q.~.Q.!.^.P.U.~.^.~.~._.n.> 8 8 8 8 8 8 8 8 8 8 8 8 8 8 8 8 8 8 8 8 8 % P.<.  9.2X;X-X&X-X=X=X*X:X|.&X>X@X:X@X=X@X>X.X=X@X|.,X=X*X:X@X=X@X",
"2X1X<X<X1X<XH.- 8 8 8 8 8 8 8 8 8 8 8 8 8 8 8 8 8 s =X) $ n.`./.).`._.(.).).).`.).)._.)._.).).).(.)./._._.(._._.).).)._.L.f : 8 8 8 8 8 8 8 8 8 8 8 8 8 8 8 8 8 8 8 8 8 8 8 8 8 8 8 8 8 8 8 8 8 8 8 8 8 8 8 8 8 8 8 8 8 8 8 8 8 8 8 8 8 8 8 8 8 8 8 8 8 8 8 8 8 8 8 8 8 8 8 8 8 8 8 8 8 8 8 8 8 8 8 8 8 8 8 8 8 8 8 8 8 8 8 8 8 8 8 8 8 8 8 8 8 8 8 8 8 % P.<.X >.`./.(.(.).(.).).).).).).).).(._._.(.).)._.H.s 8 8 8 8 8 8 8 8 8 8 8 8 8 8 8 8 8 8 8 8 8 8 % P.<.  9.2X,X1X1X1X1X1X1X<X2X1X<X3X<X1X1X1X<X2X1X1X2X<X1X1X<X1X1X1X",
".X.X.X'.R.&.- 8 8 8 8 8 8 8 8 8 8 8 8 8 8 8 8 8 8 s =X) o H.~.U.Y.Y.Y.Y.Y.Y.Y.Y.Y.Y.Y.Y.Y.Y.Y.Y.Y.Y.Y.Y.Y.Y.Y.Y.Y.P.n.:.e : 8 8 8 8 8 8 8 8 8 8 8 8 8 8 8 8 8 8 8 8 8 8 8 8 8 8 8 8 8 8 8 8 8 8 8 8 8 8 8 8 8 8 8 8 8 8 8 8 8 8 8 8 8 8 8 8 8 8 8 8 8 8 8 8 8 8 8 8 8 8 8 8 8 8 8 8 8 8 8 8 8 8 8 8 8 8 8 8 8 8 8 8 8 8 8 8 8 8 8 8 8 8 8 8 8 8 8 8 8 8 % P.<.X <.(.U.Y.Y.Y.Y.Y.Y.Y.Y.Y.Y.Y.Y.Y.Y.Y.Y.P.q.-.8 > 8 8 8 8 8 8 8 8 8 8 8 8 8 8 8 8 8 8 8 8 8 8 % P.<.  0.<X XoX.X.X.X.X.X.X.X.XoX.XoX.X.X.XoX.X.X.X.XoX.X.XoX.X.X.X",
": : : - - - 8 8 8 8 8 8 8 8 8 8 8 8 8 8 8 8 8 8 8 s =X) X L.1.# 8 > > > > > > > > > > > > > > > > > > > > > > > > : : - 8 8 8 8 8 8 8 8 8 8 8 8 8 8 8 8 8 8 8 8 8 8 8 8 8 8 8 8 8 8 8 8 8 8 8 8 8 8 8 8 8 8 8 8 8 8 8 8 8 8 8 8 8 8 8 8 8 8 8 8 8 8 8 8 8 8 8 8 8 8 8 8 8 8 8 8 8 8 8 8 8 8 8 8 8 8 8 8 8 8 8 8 8 8 8 8 8 8 8 8 8 8 8 8 8 8 8 8 8 8 8 8 % P.<.  3.K.# 8 > > > > > > > > > > > > > > > : : - 8 8 8 8 8 8 8 8 8 8 8 8 8 8 8 8 8 8 8 8 8 8 8 8 % P.<.  H.'.X 8 : : : : : : : : : : : : : : : : : : : : : : : : : : ",
"8 8 8 8 8 8 8 8 8 8 8 8 8 8 8 8 8 8 8 8 8 8 8 8 8 s =X) X L.2.# 8 8 8 8 8 8 8 8 8 8 8 8 8 8 8 8 8 8 8 8 8 8 8 8 8 8 8 8 8 8 8 8 8 8 8 8 8 8 8 8 8 8 8 8 8 8 8 8 8 8 8 8 8 8 8 8 8 8 8 8 8 8 8 8 8 8 8 8 8 8 8 8 8 8 8 8 8 8 8 8 8 8 8 8 8 8 8 8 8 8 8 8 8 8 8 8 8 8 8 8 8 8 8 8 8 8 8 8 8 8 8 8 8 8 8 8 8 8 8 8 8 8 8 8 8 8 8 8 8 8 8 8 8 8 8 8 8 8 8 8 % P.<.  3.L.# 8 8 8 8 8 8 8 8 8 8 8 8 8 8 8 8 8 8 8 8 8 8 8 8 8 8 8 8 8 8 8 8 8 8 8 8 8 8 8 8 8 8 8 % P.<.  H.'.$ e 8 8 8 8 8 8 8 8 8 8 8 8 8 8 8 8 8 8 8 8 8 8 8 8 8 8 ",
"8 8 8 8 8 8 8 8 8 8 8 8 8 8 8 8 8 8 8 8 8 8 8 8 8 s =X) X L.2.# 8 8 8 8 8 8 8 8 8 8 8 8 8 8 8 8 8 8 8 8 8 8 8 8 8 8 8 8 8 8 8 8 8 8 8 8 8 8 8 8 8 8 8 8 8 8 8 8 8 8 8 8 8 8 8 8 8 8 8 8 8 8 8 8 8 8 8 8 8 8 8 8 8 8 8 8 8 8 8 8 8 8 8 8 8 8 8 8 8 8 8 8 8 8 8 8 8 8 8 8 8 8 8 8 8 8 8 8 8 8 8 8 8 8 8 8 8 8 8 8 8 8 8 8 8 8 8 8 8 8 8 8 8 8 8 8 8 8 8 8 % P.<.  3.L.# 8 8 8 8 8 8 8 8 8 8 8 8 8 8 8 8 8 8 8 8 8 8 8 8 8 8 8 8 8 8 8 8 8 8 8 8 8 8 8 8 8 8 8 % P.<.  H.'.o e 8 8 8 8 8 8 8 8 8 8 8 8 8 8 8 8 8 8 8 8 8 8 8 8 8 8 ",
"8 8 8 8 8 8 8 8 8 8 8 8 8 8 8 8 8 8 8 8 8 8 8 8 8 s =X) X L.2.# 8 8 8 8 8 8 8 8 8 8 8 8 8 8 8 8 8 8 8 8 8 8 8 8 8 8 8 8 8 8 8 8 8 8 8 8 8 8 8 8 8 8 8 8 8 8 8 8 8 8 8 8 8 8 8 8 8 8 8 8 8 8 8 8 8 8 8 8 8 8 8 8 8 8 8 8 8 8 8 8 8 8 8 8 8 8 8 8 8 8 8 8 8 8 8 8 8 8 8 8 8 8 8 8 8 8 8 8 8 8 8 8 8 8 8 8 8 8 8 8 8 8 8 8 8 8 8 8 8 8 8 8 8 8 8 8 8 8 8 8 % P.<.  3.L.# 8 8 8 8 8 8 8 8 8 8 8 8 8 8 8 8 8 8 8 8 8 8 8 8 8 8 8 8 8 8 8 8 8 8 8 8 8 8 8 8 8 8 8 % P.<.  H.'.o e 8 8 8 8 8 8 8 8 8 8 8 8 8 8 8 8 8 8 8 8 8 8 8 8 8 8 ",
"8 8 8 8 8 8 8 8 8 8 8 8 8 8 8 8 8 8 8 8 8 8 8 8 8 s =X) X L.2.# 8 8 8 8 8 8 8 8 8 8 8 8 8 8 8 8 8 8 8 8 8 8 8 8 8 8 8 8 8 8 8 8 8 8 8 8 8 8 8 8 8 8 8 8 8 8 8 8 8 8 8 8 8 8 8 8 8 8 8 8 8 8 8 8 8 8 8 8 8 8 8 8 8 8 8 8 8 8 8 8 8 8 8 8 8 8 8 8 8 8 8 8 8 8 8 8 8 8 8 8 8 8 8 8 8 8 8 8 8 8 8 8 8 8 8 8 8 8 8 8 8 8 8 8 8 8 8 8 8 8 8 8 8 8 8 8 8 8 8 8 % P.<.  3.L.# 8 8 8 8 8 8 8 8 8 8 8 8 8 8 8 8 8 8 8 8 8 8 8 8 8 8 8 8 8 8 8 8 8 8 8 8 8 8 8 8 8 8 8 % P.<.  H.'.o e 8 8 8 8 8 8 8 8 8 8 8 8 8 8 8 8 8 8 8 8 8 8 8 8 8 8 ",
"8 8 8 8 8 8 8 8 8 8 8 8 8 8 8 8 8 8 8 8 8 8 8 8 8 s =X) X L.2.# 8 8 8 8 8 8 8 8 8 8 8 8 8 8 8 8 8 8 8 8 8 8 8 8 8 8 8 8 8 8 8 8 8 8 8 8 8 8 8 8 8 8 8 8 8 8 8 8 8 8 8 8 8 8 8 8 8 8 8 8 8 8 8 8 8 8 8 8 8 8 8 8 8 8 8 8 8 8 8 8 8 8 8 8 8 8 8 8 8 8 8 8 8 8 8 8 8 8 8 8 8 8 8 8 8 8 8 8 8 8 8 8 8 8 8 8 8 8 8 8 8 8 8 8 8 8 8 8 8 8 8 8 8 8 8 8 8 8 8 8 % P.<.  3.L.# 8 8 8 8 8 8 8 8 8 8 8 8 8 8 8 8 8 8 8 8 8 8 8 8 8 8 8 8 8 8 8 8 8 8 8 8 8 8 8 8 8 8 8 % P.<.  H.'.o e 8 8 8 8 8 8 8 8 8 8 8 8 8 8 8 8 8 8 8 8 8 8 8 8 8 8 ",
"8 8 8 8 8 : : 8 8 8 8 8 8 8 8 8 8 8 8 8 8 8 8 8 8 s =X) X L.2.# 8 8 8 8 8 8 8 8 8 8 8 8 8 8 8 8 8 8 8 8 8 8 8 8 8 8 8 8 8 8 8 8 8 8 8 8 8 8 8 8 8 8 8 8 8 8 8 8 8 8 8 8 8 8 8 8 8 8 8 8 8 8 8 8 8 8 8 8 8 8 8 8 8 8 8 8 8 8 8 8 8 8 8 8 8 8 8 8 8 8 8 8 8 8 8 8 8 8 8 8 8 8 8 8 8 8 8 8 8 8 8 8 8 8 8 8 8 8 8 8 8 8 8 8 8 8 8 8 8 8 8 8 8 8 8 8 8 8 8 8 % P.<.  3.L.# 8 8 8 8 8 8 8 8 8 8 8 8 8 8 8 8 8 8 8 8 8 : 8 8 8 8 8 8 8 8 8 8 8 8 8 8 8 8 8 8 8 8 8 % P.<.  H.'.o e 8 8 8 8 8 8 8 8 8 8 8 8 8 8 8 8 8 8 8 8 8 8 8 8 8 8 ",
"8 8 8 8 : S Z : 8 8 8 8 8 8 8 8 8 8 8 8 8 8 8 8 8 s =X) X L.2.# 8 8 8 8 8 8 8 8 8 8 8 8 8 8 8 8 8 - 8 8 : : 8 8 8 8 8 8 8 8 8 8 8 8 8 8 8 8 8 8 8 8 8 8 8 8 8 8 8 8 8 8 8 8 - - 8 8 8 8 8 8 8 8 8 8 e 8 8 8 8 8 8 8 8 8 8 8 8 8 8 8 8 8 8 8 8 8 8 8 8 8 8 : - - - 8 8 8 8 8 8 8 8 8 8 8 8 8 8 8 8 8 8 8 8 8 8 8 8 8 8 8 8 8 8 8 8 8 8 8 8 8 8 8 8 8 8 8 % P.<.  3.L.# 8 8 8 8 8 8 8 8 8 8 8 8 8 8 u e : 8 8 8 8 S 8 8 8 8 8 8 8 8 8 8 8 8 8 8 8 8 8 8 8 8 8 % P.<.  H.'.o e 8 8 8 8 8 8 8 8 8 8 8 8 8 8 8 8 8 8 8 8 8 8 8 8 8 8 ",
": 8 : 8 o 3.:.# 8 : : 8 8 8 8 8 8 8 8 8 8 8 8 8 8 s =X) X L.2.# 8 8 8 8 8 8 8 8 8 8 8 8 8 8 8 8 8 ) s : m Z 8 - : 8 8 : 8 - 8 8 - 8 : - 8 8 8 8 8 8 8 8 8 8 8 8 8 8 8 8 : f @.) 8 - : 8 : - 8 8 > 8 Z : : : : - 8 8 - : 8 8 : 8 - 8 8 - > : - 8 8 8 8 8 : N @.@.| 8 - 8 8 - : : - 8 8 : - 8 8 - : 8 : : 8 - : 8 8 : > 8 : 8 : : 8 - : 8 8 8 8 8 8 8 8 8 % P.<.  3.L.# 8 8 8 8 8 8 8 8 8 8 8 8 - #.3.<.) : 8 8 8 3.8 8 8 : 8 8 > 8 8 8 8 8 8 8 8 8 8 8 8 8 8 % P.<.  H.'.o e 8 8 8 8 8 8 8 8 8 > : 8 8 8 8 8 8 8 8 8 8 8 8 8 8 8 ",
") V n.n.) :.&.S n.&.+.q.-.: 8 8 8 8 8 8 8 8 8 8 8 s =X) X L.2.# 8 8 8 8 8 8 8 8 8 8 8 8 8 8 8 8 8 H.| # 2.4.- ) m Z 2.s f O.8 f Z f m ) u 8 8 8 8 8 8 8 8 8 8 8 8 8 8 8 s 2.O.) 8 A V 8 N ) 8 ) <.f s s A Z m ) 8 > A N m 3.m s O.e s Z f n O.s 8 8 8 8 8 f -.5.m u O.s u A Z m ) 8 s Z A 8 8 ) m 8 V V s O.f A <.m f 8 m u m Z 8 S V : 8 8 8 8 8 8 8 8 % P.<.  3.L.# 8 8 8 8 8 8 8 8 8 8 8 8 - -.Z 8 3.n &.:.m >.e &.;.@.) s &.8 8 8 8 8 8 8 8 8 8 8 8 8 8 % P.<.  H.'.o e 8 8 8 8 8 8 : - - n m 8 8 8 8 8 8 8 8 8 8 8 : : 8 8 ",
"5.+.9.f 9.<.;.n.>.K.q.4.8 8 8 8 8 8 8 8 8 8 8 8 8 s =X) X L.2.# 8 8 8 8 8 8 8 8 8 8 8 8 8 8 8 8 e 3.=.u 2.=.) ;.-.-.5.M ;.-.+.2.;.Z 3.) s 8 8 8 8 8 8 8 8 8 8 8 8 8 8 - +.&.# * ) ;.-.+.5.&.;.+.4.S -.+.2.<.>.>.) A ;.-.&.6.N ;.=.#.>.<.m 3.+.f 8 8 8 8 8 - m &.# -.&.&.-.<.<.>.>.A +.2.:.| O.-.-.@.6.N f O.:.&.4.S >.- 1.A 8.N O.-.:.N : 8 8 8 8 8 8 8 % P.<.  3.L.# 8 8 8 8 8 8 8 8 8 8 8 8 - -.) % &.>.:.&.<.:.8 m :.;.&.) =.- 8 8 8 8 8 8 8 8 8 8 8 8 8 % P.<.  H.'.o e 8 8 8 8 8 s 6.K.q.| s - * - - * 8 > * - 8 - ) #.# - ",
"4.+.4.- 9.<.:.J.<.&.8 ;.9.: 8 8 8 8 8 8 8 8 8 8 8 s =X) X L.2.# 8 8 8 8 8 8 8 8 8 8 8 8 8 8 8 8 s :.&.+.-.&.<.>.<.-.O.f 8.=.>.>.s : =.+.8 8 8 8 8 8 8 8 8 8 8 8 8 8 8 - #.+.* : >.<.>.;.&.* >.S O.u -.+.Z A O.m #.-.<.>.-.@.e 8.&.<.>.m - &.#.e 8 8 8 8 8 : Z -.8 6.=.<.>.m ) ) m +.+.Z 8 >.2.;.<.:.@.# V &.2.+.O.u >.% :.S -.o <.>.1.) - 8 8 8 8 8 8 8 % P.<.  3.L.# 8 8 8 8 8 8 8 8 8 8 8 8 - -.V - <.-.3.) S :.) ;.2.O.#.3.m : 8 8 8 8 8 8 8 8 8 8 8 8 8 % P.<.  H.'.o e 8 8 8 8 8 8 e n.V S S @.7.<.<.5.8 m 8.&.: - 8.) <.7.",
"4.) Y.0.=.;.&.&.6.@.#.6.6.8 8 8 8 8 8 8 8 8 8 8 8 s =X) X L.2.# 8 8 8 8 8 8 8 8 8 8 8 8 8 8 8 8 s :.) 9.Z ;.&.-.f A <.m 3.Z s 1.f 8 s 1.| - 8 8 8 8 8 8 8 8 8 8 8 8 8 : V 3.m e &.;.f S :.: <.) :.N ;.@.) ) +.Z &.O.:.f N 2.f 3.S u >.m 8 s >.#.- 8 8 8 8 : A :.- 2.| u ;.Z O.O.A @.+.-.O.&.-.&.s +.&.% 3.@.<.@.:.f 2.m 5.S ;.# =.-.m u 8 8 8 8 8 8 8 8 % P.<.  3.L.# 8 8 8 8 8 8 8 8 8 8 8 8 - =.2.>.+.u :.#.V ;.) <.:.) Z 7.: 8 8 8 8 8 8 8 8 8 8 8 8 8 8 % P.<.  H.'.o e 8 8 8 8 8 8 > 9.s :.:.0.&.J.-.6.O.8.>.J.Z u 8.V P.) ",
": &.7.s 8 u e > A N f S 8 8 8 8 8 8 8 8 8 8 8 8 8 s =X) X L.2.# 8 8 8 8 8 8 8 8 8 8 8 8 8 8 8 8 e ) s +.s ) e -.&.s =.A Z >.Z O.u u -.&.u 8 8 8 8 8 8 8 8 8 8 8 8 8 8 8 : ) <.+.u &.&.V ) > +.e -.| A Z m m Z f S 8 &.-.s #.) N >.A ) f 8 &.-.s 8 8 8 8 8 > m ) - m :.) ) n V V m V O.2.=.s s ;.@.Z A - A ;.+.f -.Z O.;.+.m ) - u &.-.s 8 8 8 8 8 8 8 8 % P.<.  3.L.# 8 8 8 8 8 8 8 8 8 8 8 8 8 e m f : 8 u V u u 8 m f : @.@.- 8 8 8 8 8 8 8 8 8 8 8 8 8 8 % P.<.  H.'.o e 8 8 8 8 8 8 8 9.s -.-.5.u 3.V -.&.H.6.4.n f 6.Z 7.: ",
"- ) &.# 8 8 8 8 - : > - 8 8 8 8 8 8 8 8 8 8 8 8 8 s =X) X L.2.# 8 8 8 8 8 8 8 8 8 8 8 8 8 8 8 8 8 : 8 - 8 : 8 - - 8 - > : - > : 8 8 - - 8 8 8 8 8 8 8 8 8 8 8 8 8 8 8 8 8 : - : 8 - - > : 8 : 8 - : : : 8 > : 8 : 8 - - 8 - : : - : : 8 8 - - 8 8 8 8 8 8 8 8 : 8 : - : : 8 > > 8 # =.) # 8 8 - : : : 8 : - - 8 - > : - - 8 : 8 8 - - 8 8 8 8 8 8 8 8 8 % P.<.  3.L.# 8 8 8 8 8 8 8 8 8 8 8 8 8 8 : : 8 8 8 : 8 8 8 > - V :.u 8 8 8 8 8 8 8 8 8 8 8 8 8 8 8 % P.<.  H.'.o e 8 8 8 8 8 8 8 q.s ;.:.8.f 6.A <.@.;.4.O.8 e 8.A 0.8 ",
"8 : : 8 8 8 8 8 8 8 8 8 8 8 8 8 8 8 8 8 8 8 8 8 8 s =X) X L.2.# 8 8 8 8 8 8 8 8 8 8 8 8 8 8 8 8 8 8 8 8 8 8 8 8 8 8 8 8 8 8 8 8 8 8 8 8 8 8 8 8 8 8 8 8 8 8 8 8 8 8 8 8 8 8 8 8 8 8 8 8 8 8 8 8 8 8 8 8 8 8 8 8 8 8 8 8 8 8 8 8 8 8 8 8 8 8 8 8 8 8 8 8 8 8 8 8 8 8 8 8 8 8 8 8 8 8 f s 8 8 8 8 8 8 8 8 8 8 8 8 8 8 8 8 8 8 8 8 8 8 8 8 8 8 8 8 8 8 8 8 % P.<.  3.L.# 8 8 8 8 8 8 8 8 8 8 8 8 8 8 8 8 8 8 8 8 8 8 8 8 8 8 : 8 8 8 8 8 8 8 8 8 8 8 8 8 8 8 8 % P.<.  H.'.o e 8 8 8 8 8 8 8 V 8 f f N 8 m u m f 8 &.@.e * 4.&.f 8 ",
"8 8 e 8 8 8 8 8 8 8 8 8 8 8 8 8 8 8 8 8 8 8 8 8 8 s =X) X L.2.# 8 8 8 8 8 8 8 8 8 8 8 8 8 8 8 8 8 8 8 8 8 8 8 8 8 8 8 8 8 8 8 8 8 8 8 8 8 8 8 8 8 8 8 8 8 8 8 8 8 8 8 8 8 8 8 8 8 8 8 8 8 8 8 8 8 8 8 8 8 8 8 8 8 8 8 8 8 8 8 8 8 8 8 8 8 8 8 8 8 8 8 8 8 8 8 8 8 8 8 8 8 8 8 8 8 8 > 8 8 8 8 8 8 8 8 8 8 8 8 8 8 8 8 8 8 8 8 8 8 8 8 8 8 8 8 8 8 8 8 8 % P.<.  3.L.# 8 8 8 8 8 8 8 8 8 8 8 8 8 8 8 8 8 8 8 8 8 8 8 8 8 8 8 8 8 8 8 8 8 8 8 8 8 8 8 8 8 8 8 % P.<.  H.'.o e 8 8 8 8 8 8 8 : 8 > > : 8 : 8 : 8 8 * - 8 8 f Z - 8 ",
"; ; ; 8 8 8 8 8 8 8 8 8 8 8 8 8 8 8 8 8 8 8 8 8 8 s =X) X L.2.# 8 8 8 8 8 8 8 8 8 8 8 8 8 8 8 8 8 8 8 8 8 8 8 8 8 8 8 8 8 8 8 8 8 8 8 8 8 8 8 8 8 8 8 8 8 8 8 8 8 8 8 8 8 8 8 8 8 8 8 8 8 8 8 8 8 8 8 8 8 8 8 8 8 8 8 8 8 8 8 8 8 8 8 8 8 8 8 8 8 8 8 8 8 8 8 8 8 8 8 8 8 8 8 8 8 8 8 8 8 8 8 8 8 8 8 8 8 8 8 8 8 8 8 8 8 8 8 8 8 8 8 8 8 8 8 8 8 8 8 8 % P.<.  3.L.# 8 8 8 8 8 8 8 8 8 8 8 8 8 8 8 8 8 8 8 > > 8 > 8 8 8 8 8 8 8 8 8 8 8 8 8 8 8 8 8 8 8 8 % P.<.  H.'.o e 8 8 8 8 8 8 8 8 8 8 8 8 8 8 8 8 8 8 8 8 8 8 8 : 8 8 ",
"} { { t ; ; 8 8 8 8 8 8 8 8 8 8 8 8 8 8 8 8 8 8 8 s =X) X L.2.# 8 8 8 8 8 8 8 8 8 8 8 8 8 8 8 8 8 8 8 8 8 8 8 8 8 8 8 8 8 8 8 8 8 8 8 8 8 8 8 8 8 8 8 8 8 8 8 8 8 8 8 8 8 8 8 8 8 8 8 8 8 8 8 8 8 8 8 8 8 8 8 8 8 8 8 8 8 8 8 8 8 8 8 8 8 8 8 8 8 8 8 8 8 8 8 8 8 8 8 8 8 8 8 8 8 8 8 8 8 8 8 8 8 8 8 8 8 8 8 8 8 8 8 8 8 8 8 8 8 8 8 8 8 8 8 8 8 8 8 8 % P.<.  3.L.# 8 8 8 8 8 8 8 8 8 8 8 8 8 8 8 8 8 8 8 n n f m s 8 > 8 8 8 8 8 8 8 8 8 8 8 8 8 8 8 8 8 % P.<.  H.'.o e 8 8 8 8 8 8 8 8 8 8 8 8 8 8 8 8 8 8 8 8 8 8 8 8 8 8 ",
"..Z.A.X.C.{ ; ; 8 8 8 8 8 8 8 8 8 8 8 8 8 8 8 8 8 s =X) X L.2.# 8 8 8 8 8 8 8 8 8 8 8 8 8 8 8 8 8 8 8 8 8 8 8 e s M n n M s u 8 8 8 8 8 8 8 8 8 8 8 8 8 8 8 8 8 8 8 8 8 8 8 8 8 8 8 8 8 8 8 8 8 8 8 e s M b n M s u 8 8 8 8 8 8 8 8 8 8 8 8 8 8 8 8 8 8 8 8 8 8 8 8 8 8 8 8 8 8 8 8 8 8 8 e s M b ` ` s s 8 8 8 8 8 8 8 8 8 8 8 8 8 8 8 8 8 8 8 8 8 8 8 % P.<.  3.L.# 8 8 8 8 8 8 8 8 8 8 8 8 8 8 8 8 m ( m ' _ Z *.Z ( Z 8 > 8 8 8 8 8 8 8 8 8 8 8 8 8 8 8 % P.<.  H.'.o e 8 8 8 8 8 8 8 8 8 8 8 8 8 8 8 8 8 8 8 8 8 8 8 8 8 8 ",
"..Z.D.Z.F.V.X.} ; 8 8 8 8 8 8 8 8 8 8 8 8 8 8 8 8 s =X) X L.2.# 8 8 8 8 8 8 8 8 8 8 8 8 8 8 8 8 8 8 8 8 8 8 M B n ( m m ( n B M 8 8 8 8 8 8 8 8 8 8 8 8 8 8 8 8 8 8 8 8 8 8 8 8 8 8 8 8 8 8 8 8 u M M n ( n M ( n Z m 8 8 8 8 8 8 8 8 8 8 8 8 8 8 8 8 8 8 8 8 8 8 8 8 8 8 8 8 8 8 8 8 s Z M m ( n ' ' ( %.Z 8 8 8 8 8 8 8 8 8 8 8 8 8 8 8 8 8 8 8 8 8 8 % P.<.  3.L.# 8 8 8 8 8 8 8 8 8 8 8 8 8 8 s M ( *._ %._ Z *._ %.' m m 8 8 8 8 8 8 8 8 8 8 8 8 8 8 8 % P.<.  H.'.o e 8 8 8 8 8 8 8 8 8 8 8 8 8 8 8 8 8 8 8 8 8 8 8 8 8 8 ",
"} [ ..Z.Z.X.D.A.y ; 8 8 8 8 8 8 8 8 8 8 8 8 8 8 8 s =X) X L.2.# 8 8 8 8 8 8 8 8 8 8 8 8 8 8 8 8 8 8 8 8 M m n ( Z B n n B Z ( n n M 8 8 8 8 8 8 8 8 8 8 8 8 8 8 8 8 8 8 8 8 8 8 8 8 8 8 8 8 e M n m ( Z B b m B Z ( b m m 8 8 8 8 8 8 8 8 8 8 8 8 8 8 8 8 8 8 8 8 8 8 8 8 8 8 8 8 u M b M ( Z M n ` ' %.%.M ` Z 8 8 8 8 8 8 8 8 8 8 8 8 8 8 8 8 8 8 8 8 % P.<.  3.L.# 8 8 8 8 8 8 8 8 8 8 8 8 8 8 _ %.M _ ` B n f M ( ' B ` *.m 8 8 8 8 8 8 8 8 8 8 8 8 8 8 % P.<.  H.'.o e 8 8 8 8 8 8 8 8 8 8 8 8 8 8 8 8 8 8 8 8 8 8 8 8 8 8 ",
"+ + < > t V.F.C.V.} ; 8 8 8 8 8 8 8 8 8 8 8 8 8 8 s =X) X L.2.# 8 8 8 8 8 8 8 8 8 8 8 8 8 8 8 8 8 8 8 s M ( b n s 8 > > 8 s n b Z B f 8 8 8 8 8 8 8 8 8 8 8 8 8 8 8 8 8 8 8 8 8 8 8 8 8 8 8 s Z Z f n s 8 > > 8 f n n ( M s 8 8 8 8 8 8 8 8 8 8 8 8 8 8 8 8 8 8 8 8 8 8 8 8 8 8 8 f ( M f n s 8 > 8 e M M ( *._ n 8 8 8 8 8 8 8 8 8 8 8 8 8 8 8 8 8 8 8 % P.<.  3.L.# 8 8 8 8 8 8 8 8 8 8 8 8 b Z ( *.( e : # O O O * 8 n %.` n b 8 8 8 8 8 8 8 8 8 8 8 8 8 % P.<.  H.'.o e 8 8 8 8 8 8 8 8 8 8 8 8 8 8 8 8 8 8 8 8 8 8 8 8 8 8 ",
"* * @ . O r V.D.F.C.> 8 8 8 8 8 8 8 8 8 8 8 8 8 8 s =X) X L.2.# 8 8 8 8 8 8 8 8 8 8 8 8 8 8 8 8 8 8 M M M M s - O . . . . O - s M M M M 8 8 8 8 8 8 8 8 8 8 8 8 8 8 8 8 8 8 8 8 8 8 8 8 8 M M M M u - O . . . . O : s B M M n 8 8 8 8 8 8 8 8 8 8 8 8 8 8 8 8 8 8 8 8 8 8 8 8 8 B m M M 8 * O . . . . O > M  .` ` n 8 8 8 8 8 8 8 8 8 8 8 8 8 8 8 8 8 8 % P.<.  3.L.# 8 8 8 8 8 8 8 8 8 8 8 8 ` *. .( 8 # . . O O O . . - b B Z ( u 8 8 8 8 8 8 8 8 8 8 8 8 % P.<.  H.'.o e 8 8 8 8 8 8 8 8 8 8 8 8 8 8 8 8 8 8 8 8 8 8 8 8 8 8 ",
"V V g 6 @ + > C.V...{ ; 8 8 8 8 8 8 8 8 8 8 8 8 8 s =X) X L.2.# 8 8 8 8 8 8 8 8 8 8 8 8 8 8 8 8 8 e M ( M 8 # . O * = = , O . # 8 M ( M e 8 8 8 8 8 8 8 8 8 8 8 8 8 8 8 8 8 8 8 8 8 8 8 u M ( M 8 # . O * = = * O . * u B Z m 8 8 8 8 8 8 8 8 8 8 8 8 8 8 8 8 8 8 8 8 8 8 8 8 s M ( m 8 O . O , = = * O   * n ` B n 8 8 8 8 8 8 8 8 8 8 8 8 8 8 8 8 8 8 % P.<.  3.L.# 8 8 8 8 8 8 8 8 8 8 8 m M ( ` > O . , 5 p p p = p > * f M f b 8 8 8 8 8 8 8 8 8 8 8 8 % P.<.  H.'.o e 8 8 8 8 8 8 8 8 8 8 8 8 8 8 8 8 8 8 8 8 8 8 8 : 8 8 ",
"S ~ ~ C a @ O t ..A.A.t > 8 8 8 8 8 8 8 8 8 8 8 8 s =X) X L.2.# 8 8 8 8 8 8 8 8 8 8 8 8 8 8 8 8 8 M n b s # . * 6 p g g g p = . # s b b M 8 8 8 8 8 8 8 8 8 8 8 8 8 8 8 8 8 8 8 8 8 8 e M b b e O . , u a g g g u * . * s f n m 8 8 8 8 8 8 8 8 8 8 8 8 8 8 8 8 8 8 8 8 8 8 s M b b 8 O . = u a g g g > 6 * * f f m n 8 8 8 8 8 8 8 8 8 8 8 8 8 8 8 8 8 % P.<.  3.L.# 8 8 8 8 8 8 8 8 8 8 8 _ %.B 8 O . = p g g c p -.L.@.. : s M ( f 8 8 8 8 8 8 8 8 8 8 8 % P.<.  H.'.o e 8 8 8 8 8 8 : 8 8 8 8 8 8 8 8 8 8 8 8 8 8 8 f Z : 8 ",
"S S ~ ~ S u O < V.G.C.y ; 8 8 8 8 8 8 8 8 8 8 8 8 s =X) X L.2.# 8 8 8 8 8 8 8 8 8 8 8 8 8 8 8 8 u Z ( n - . * u g g g x c c a = . - f ( Z s 8 8 8 8 8 8 8 8 8 8 8 8 8 8 8 8 8 8 8 8 8 s Z ( f * . , p g g g x c c p * . : n ( Z e 8 8 8 8 8 8 8 8 8 8 8 8 8 8 8 8 8 8 8 8 8 b ( Z s # . = p g g g c g ,.K.$.. 8 m ( B 8 8 8 8 8 8 8 8 8 8 8 8 8 8 8 8 8 % P.<.  3.L.# 8 8 8 8 8 8 8 8 8 8 u ( %.( * . , p g g g p $.^.Q.V . O u Z M s 8 8 8 8 8 8 8 8 8 8 8 % P.<.  H.'.o e 8 8 8 8 8 : +.n.3.8 - - 8 - - - - - 8 - - # | 9.# : ",
"S S ! ~ ~ V * + [ D.C.X.; 8 8 8 8 8 8 8 8 8 8 8 8 s =X) X L.2.# 8 8 8 8 8 8 8 8 8 8 8 8 8 8 8 8 s n Z s O O > a g g g g x c c p O O s Z m s 8 8 8 8 8 8 8 8 8 8 8 8 8 8 8 8 8 8 8 8 8 s m B e . O 6 g g g g g x c c u O # f Z n u 8 8 8 8 8 8 8 8 8 8 8 8 8 8 8 8 8 8 8 8 8 s M M 8 . * u g g g g a 5.).T.V . * n Z b e 8 8 8 8 8 8 8 8 8 8 8 8 8 8 8 8 % P.<.  3.L.# 8 8 8 8 8 8 8 8 8 8 B ` ' b O O 5 a a g a $.~.!.$.p = . > M M m 8 8 8 8 8 8 8 8 8 8 8 % P.<.  H.'.o e 8 8 8 8 8 - K.A - f 4.5.f 5.8.<.9.-.8 4.9.&.A 6.8 8.",
"S S S ! ~ C = + y A.G.V.; 8 8 8 8 8 8 8 8 8 8 8 8 s =X) X L.2.# 8 8 8 8 8 8 8 8 8 8 8 8 8 8 8 8 M ( M 8 . * p a a g g g x x c g , . 8 M ( M 8 8 8 8 8 8 8 8 8 8 8 8 8 8 8 8 8 8 8 8 8 B ( M : . , p a a g g g x x c g * O 8 Z ( m 8 8 8 8 8 8 8 8 8 8 8 8 8 8 8 8 8 8 8 8 u Z ( m * . = p a g g a 8.'.P.S u @ O s Z ( n 8 8 8 8 8 8 8 8 8 8 8 8 8 8 8 8 % P.<.  3.L.# 8 8 8 8 8 8 8 8 8 8 ( %._ u . * u a a g a $.R.,.a c 5 . * m ( B 8 8 8 8 8 8 8 8 8 8 8 % P.<.  H.'.o e 8 8 8 8 8 - &.P.O.> A 0.<.J.A U.Z 0.N I.m q.&.2.2.3.",
"D C S S S C > + r X...{ ; 8 8 8 8 8 8 8 8 8 8 8 8 s =X) X L.2.# 8 8 8 8 8 8 8 8 8 8 8 8 8 8 8 8 n M n : . , p a a a g g g g x g > . : n M n 8 8 8 8 8 8 8 8 8 8 8 8 8 8 8 8 8 8 8 8 8 m M n - . = p a a a g g g g x g = . 8 m M n 8 8 8 8 8 8 8 8 8 8 8 8 8 8 8 8 8 8 8 8 e m M b % . > p a a g p -.9.g g g * . 8 m M f 8 8 8 8 8 8 8 8 8 8 8 8 8 8 8 8 % P.<.  3.L.# 8 8 8 8 8 8 8 8 8 8 n M M 8 . * p a a a g p c g g x u . * s b b 8 8 8 8 8 8 8 8 8 8 8 % P.<.  H.'.o e 8 8 8 8 8 8 # s H.1.4.J.2.5.8 9.8 6.Z q.  8.>.2.8.0.",
",.D C C S D = + y A.D.V.; 8 8 8 8 8 8 8 8 8 8 8 8 s =X) X L.2.# 8 8 8 8 8 8 8 8 8 8 8 8 8 8 8 8 b m b - . = p a p D g a g g g g > . : n m n 8 8 8 8 8 8 8 8 8 8 8 8 8 8 8 8 8 8 8 8 8 n m f * . = p a p C g g g g g g = . 8 n m b 8 8 8 8 8 8 8 8 8 8 8 8 8 8 8 8 8 8 8 8 8 n n s # . > p a a a g a p g x a * . 8 n m s 8 8 8 8 8 8 8 8 8 8 8 8 8 8 8 8 % P.<.  3.L.# 8 8 8 8 8 8 8 8 8 8 ( %._ 8 . * u p a a a g g g g g > . * m Z B 8 8 8 8 8 8 8 8 8 8 8 % P.<.  H.'.o e 8 8 8 8 8 8 -.2.4.6.7.8.2.8.e n.u 9.N U.6.8.| 5.| 8.",
"5.c C C C g * + [ A.Z...; 8 8 8 8 8 8 8 8 8 8 8 8 s =X) X L.2.# 8 8 8 8 8 8 8 8 8 8 8 8 8 8 8 8 M ( M 8 . * u p p K.L.g g g g a , . 8 M ( M 8 8 8 8 8 8 8 8 8 8 8 8 8 8 8 8 8 8 8 8 8 Z ( M - . , p p g T.q.p g g g p * . 8 Z ( M 8 8 8 8 8 8 8 8 8 8 8 8 8 8 8 8 8 8 8 8 u ( ( m * . = p p a a a g g g g p @ O s Z ( n 8 8 8 8 8 8 8 8 8 8 8 8 8 8 8 8 % P.<.  3.L.# 8 8 8 8 8 8 8 8 8 8 M _ ' s O O > p p a a a g g g a = . : M M M 8 8 8 8 8 8 8 8 8 8 8 % P.<.  H.'.o e 8 8 8 8 8 8 Z &.f > +.Z s m 8 m 8 f m H.) f 8 m - ) ",
"g C C C V 6 O < V.D.V.y > 8 8 8 8 8 8 8 8 8 8 8 8 s =X) X L.2.# 8 8 8 8 8 8 8 8 8 8 8 8 8 8 8 8 s m B u O O 6 6 ,.`.9.p g g g u O O u Z n s 8 8 8 8 8 8 8 8 8 8 8 8 8 8 8 8 8 8 8 8 8 s M M 8 . O u 6 4.'.3.u g g g 6 O O s Z n s 8 8 8 8 8 8 8 8 8 8 8 8 8 8 8 8 8 8 8 8 8 s M M 8 . * u p p a a a a g g > . # n B n s 8 8 8 8 8 8 8 8 8 8 8 8 8 8 8 8 % P.<.  3.L.# 8 8 8 8 8 8 8 8 8 8 u ( %.( * . , u p p a a a a a 6 O O u Z M s 8 8 8 8 8 8 8 8 8 8 8 % P.<.  H.'.o e 8 8 8 8 8 8 - * 8 8 - : 8 : 8 : 8 - f 4.# 8 8 : 8 - ",
"V C C c u O O 8 ..D.A.t > 8 8 8 8 8 8 8 8 8 8 8 8 s =X) X L.2.# 8 8 8 8 8 8 8 8 8 8 8 8 8 8 8 8 s B ( b * . * p R.E.g p a a p , . * b ( Z s 8 8 8 8 8 8 8 8 8 8 8 8 8 8 8 8 8 8 8 8 8 s Z ( s # . * V ^.P.p p a a u * . - m ( M e 8 8 8 8 8 8 8 8 8 8 8 8 8 8 8 8 8 8 8 8 8 b Z Z u O . = u p p p a a a u * . : M ( M 8 8 8 8 8 8 8 8 8 8 8 8 8 8 8 8 8 % P.<.  3.L.# 8 8 8 8 8 8 8 8 8 8 8 ' %.B 8 O . = u p p a a a 6 * . - s M ( f 8 8 8 8 8 8 8 8 8 8 8 % P.<.  H.'.o e 8 8 8 8 8 8 8 8 8 8 8 8 8 8 8 8 8 8 8 : 8 8 8 8 8 8 ",
"g g p > O + > C.V...{ ; 8 8 8 8 8 8 8 8 8 8 8 8 8 s =X) X L.2.# 8 8 8 8 8 8 8 8 8 8 8 8 8 8 8 8 8 M m f e #   O.R.,.> a p u , . O u s m M 8 8 8 8 8 8 8 8 8 8 8 8 8 8 8 8 8 8 8 8 8 8 e B n s 8 O   -.E.$.5 a p 6 * . # s s M M 8 8 8 8 8 8 8 8 8 8 8 8 8 8 8 8 8 8 8 8 8 8 s B n s 8 . . = 6 p p p p 6 *   * s s M m 8 8 8 8 8 8 8 8 8 8 8 8 8 8 8 8 8 % P.<.  3.L.# 8 8 8 8 8 8 8 8 8 8 8 m B ( ( > . . * = 6 u 5 = O . * s M b n 8 8 8 8 8 8 8 8 8 8 8 8 % P.<.  H.'.o e 8 8 8 8 8 8 8 8 8 8 8 8 8 8 8 8 8 8 8 8 8 8 8 8 8 8 ",
"@ @ O . # 8 V.D.F.C.8 8 8 8 8 8 8 8 8 8 8 8 8 8 8 s =X) X L.2.# 8 8 8 8 8 8 8 8 8 8 8 8 8 8 8 8 8 u m Z M 8 O u S , = = , O . # 8 M Z m u 8 8 8 8 8 8 8 8 8 8 8 8 8 8 8 8 8 8 8 8 8 8 8 s M ( m 8 O a C * = = * O . # 8 M Z n e 8 8 8 8 8 8 8 8 8 8 8 8 8 8 8 8 8 8 8 8 8 8 8 s M ( n : . . O * = = * O . * s Z B n 8 8 8 8 8 8 8 8 8 8 8 8 8 8 8 8 8 8 % P.<.  3.L.# 8 8 8 8 8 8 8 8 8 8 8 8 ` *.%.B 8 O . . O O O . . - s M ( ( u 8 8 8 8 8 8 8 8 8 8 8 8 % P.<.  H.'.o e 8 8 8 8 8 8 8 8 8 8 8 8 8 8 8 8 8 8 8 8 8 8 8 8 8 8 ",
"O O * : ; B.G.V.V.[ ; 8 8 8 8 8 8 8 8 8 8 8 8 8 8 s =X) X L.2.# 8 8 8 8 8 8 8 8 8 8 8 8 8 8 8 8 8 8 M B M M e * O . . . . O - e M M B M 8 8 8 8 8 8 8 8 8 8 8 8 8 8 8 8 8 8 8 8 8 8 8 8 8 B M B m 8 * . . . . . O - s M M Z M 8 8 8 8 8 8 8 8 8 8 8 8 8 8 8 8 8 8 8 8 8 8 8 8 u Z M B n 8 * . . . . . O : s B M Z n 8 8 8 8 8 8 8 8 8 8 8 8 8 8 8 8 8 8 % P.<.  3.L.# 8 8 8 8 8 8 8 8 8 8 8 8 b ` ( *.Z 8 : # O O # - 8 u Z M n n 8 8 8 8 8 8 8 8 8 8 8 8 8 % P.<.  H.'.o e 8 8 8 8 8 8 8 8 8 8 8 8 8 8 8 8 8 8 8 8 8 8 8 8 8 8 ",
"8 8 8 8 ; { G.Z.t ; 8 8 8 8 8 8 8 8 8 8 8 8 8 8 8 s =X) X L.2.# 8 8 8 8 8 8 8 8 8 8 8 8 8 8 8 8 8 8 8 b M ( s 8 8 : - - : 8 8 s ( M s 8 8 8 8 8 8 8 8 8 8 8 8 8 8 8 8 8 8 8 8 8 8 8 8 8 8 u n B Z s 8 8 : - - > 8 8 b ( M s 8 8 8 8 8 8 8 8 8 8 8 8 8 8 8 8 8 8 8 8 8 8 8 8 8 8 s n Z Z e 8 8 : - - 8 8 8 n ( m s 8 8 8 8 8 8 8 8 8 8 8 8 8 8 8 8 8 8 8 % P.<.  3.L.# 8 8 8 8 8 8 8 8 8 8 8 8 8 s _ %.b 8 8 8 8 8 8 8 8 8 M ( s 8 8 8 8 8 8 8 8 8 8 8 8 8 8 % P.<.  H.'.o e 8 8 8 8 8 8 8 8 8 8 8 8 8 8 8 8 8 8 8 8 8 8 8 8 8 8 ",
"8 8 8 8 8 > ..[ ; 8 8 8 8 8 8 8 8 8 8 8 8 8 8 8 8 s =X) X L.2.# 8 8 8 8 8 8 8 8 8 8 8 8 8 8 8 8 8 8 8 8 M M 8 8 8 8 8 8 8 8 8 8 M M 8 8 8 8 8 8 8 8 8 8 8 8 8 8 8 8 8 8 8 8 8 8 8 8 8 8 8 8 u B m 8 8 8 8 8 8 8 8 8 8 M M 8 8 8 8 8 8 8 8 8 8 8 8 8 8 8 8 8 8 8 8 8 8 8 8 8 8 8 8 s Z b 8 8 8 8 8 8 8 8 8 8 Z m 8 8 8 8 8 8 8 8 8 8 8 8 8 8 8 8 8 8 8 8 % P.<.  3.L.# 8 8 8 8 8 8 8 8 8 8 8 8 8 8 f Z 8 8 8 8 8 8 8 8 8 8 s n 8 8 8 8 8 8 8 8 8 8 8 8 8 8 8 % P.<.  H.'.o e 8 8 8 8 8 8 8 8 8 8 8 8 8 8 8 8 8 8 8 8 8 8 8 8 8 8 ",
"8 8 8 8 8 8 ; ; 8 8 8 8 8 8 8 8 8 8 8 8 8 8 8 8 8 s =X) X L.2.# 8 8 8 8 8 8 8 8 8 8 8 8 8 8 8 8 8 8 8 8 8 8 8 8 8 8 8 8 8 8 8 8 8 8 8 8 8 8 8 8 8 8 8 8 8 8 8 8 8 8 8 8 8 8 8 8 8 8 8 8 8 8 8 8 8 8 8 8 8 8 8 8 8 8 8 e 8 8 8 8 8 8 8 8 8 8 8 8 8 8 8 8 8 8 8 8 8 8 8 8 8 8 8 8 8 8 e 8 8 8 8 8 8 8 8 8 8 8 u 8 8 8 8 8 8 8 8 8 8 8 8 8 8 8 8 8 8 8 8 8 % P.<.  3.L.# 8 8 8 8 8 8 8 8 8 8 8 8 8 8 8 8 8 8 8 8 8 8 8 8 8 8 8 8 8 8 8 8 8 8 8 8 8 8 8 8 8 8 8 % P.<.  H.'.o e 8 8 8 8 8 8 8 8 8 8 8 8 8 8 8 8 8 8 8 8 8 8 8 8 8 8 ",
"8 8 8 8 8 8 8 8 8 8 8 8 8 8 8 8 8 8 8 8 8 8 8 8 8 s =X) X L.2.# 8 8 8 8 8 8 8 8 8 8 8 8 8 8 8 8 8 8 8 8 8 8 8 8 8 8 8 8 8 8 8 8 8 8 8 8 8 8 8 8 8 8 8 8 8 8 8 8 8 8 8 8 8 8 8 8 8 8 8 8 8 8 8 8 8 8 8 8 8 8 8 8 8 8 8 8 8 8 8 8 8 8 8 8 8 8 8 8 8 8 8 8 8 8 8 8 8 8 8 8 8 8 8 8 8 8 8 8 8 8 8 8 8 8 8 8 8 8 8 8 8 8 8 8 8 8 8 8 8 8 8 8 8 8 8 8 8 8 8 8 % P.<.  3.L.# 8 8 8 8 8 8 8 8 8 8 8 8 8 8 8 8 8 8 8 8 8 8 8 8 8 8 8 8 8 8 8 8 8 8 8 8 8 8 8 8 8 8 8 % P.<.  H.'.o e 8 8 8 8 8 8 8 8 8 8 - 8 8 8 8 8 8 8 8 8 8 8 8 8 8 8 ",
"8 8 8 8 8 8 8 8 8 8 8 8 8 8 8 8 8 8 8 8 8 8 8 8 8 s =X) X L.2.# 8 8 8 8 8 8 8 8 8 8 8 8 8 8 8 8 8 8 8 8 8 8 8 8 8 8 8 8 8 8 8 8 8 8 8 8 8 8 8 8 8 8 8 8 8 8 8 8 8 8 8 8 8 8 8 8 8 8 8 8 8 8 8 8 8 8 8 8 8 8 8 8 8 8 8 8 8 8 8 8 8 8 8 8 8 8 8 8 8 8 8 8 8 8 8 8 8 8 8 8 8 8 8 8 8 8 8 8 8 8 8 8 8 8 8 8 8 8 8 8 8 8 8 8 8 8 8 8 8 8 8 8 8 8 8 8 8 8 8 8 % P.<.  3.L.# 8 8 8 8 8 8 8 8 8 8 8 8 8 8 8 8 8 8 8 8 8 8 8 8 8 8 8 8 8 8 8 8 8 8 8 8 8 8 8 8 8 8 8 % P.<.  H.'.o e 8 8 8 8 8 8 8 u - > ) e 8 8 8 8 8 8 8 8 8 8 8 8 8 8 ",
"8 8 8 8 8 8 8 8 8 8 8 8 8 8 8 8 8 8 8 8 8 8 8 8 8 s =X) X L.2.# 8 8 8 8 8 8 8 8 8 8 8 8 8 8 8 8 8 8 8 8 8 8 8 8 8 8 8 8 8 8 8 8 8 8 8 8 8 8 8 8 8 8 8 8 8 8 8 8 8 8 8 8 8 8 8 8 8 8 8 8 8 8 8 8 8 8 8 8 8 8 8 8 8 8 8 8 8 8 8 8 8 8 8 8 8 8 8 8 8 8 8 8 8 8 8 8 8 8 8 8 8 8 8 8 8 8 8 8 8 8 8 8 8 8 8 8 8 8 8 8 8 8 8 8 8 8 8 8 8 8 8 8 8 8 8 8 8 8 8 8 % P.<.  3.L.# 8 8 8 8 8 8 8 8 8 8 8 8 8 8 8 8 8 8 8 8 8 8 8 8 8 8 8 8 8 8 8 8 8 8 8 8 8 8 8 8 8 8 8 % P.<.  H.'.o e 8 8 8 8 : m L.0.5.8 f 8 : - V Z - 8 : > - : - 8 - > ",
"8 8 8 8 8 8 8 8 8 8 8 8 8 8 8 8 8 8 8 8 8 8 8 8 8 s =X) X L.2.# 8 8 8 8 8 8 8 8 8 8 8 8 8 8 8 8 8 8 8 8 8 8 8 8 8 8 8 8 8 8 8 8 8 8 8 8 8 8 8 8 8 8 8 8 8 8 8 8 8 8 8 8 8 8 8 8 8 8 8 8 8 8 8 8 8 8 8 8 8 8 8 8 8 8 8 8 8 8 8 8 8 8 8 8 8 8 8 8 8 8 8 8 8 8 8 8 8 8 8 8 8 8 8 8 8 8 8 8 8 8 8 8 8 8 8 8 8 8 8 8 8 8 8 8 8 8 8 8 8 8 8 8 8 8 8 8 8 8 8 8 % P.<.  3.L.# 8 8 8 8 8 8 8 8 8 8 8 8 8 8 8 8 8 8 8 8 8 8 8 8 8 8 8 8 8 8 8 8 8 8 8 8 8 8 8 8 8 8 8 % P.<.  H.'.o e 8 8 8 8 - S 9.o 7.>.-.V 8.<.q.R.Z >.0.m 4.0.3.: <.q.",
"8 8 8 8 8 8 8 8 8 8 8 8 8 8 8 8 8 8 8 8 8 8 8 8 8 s =X) X L.2.# 8 8 8 8 8 8 8 8 8 8 8 8 8 8 8 8 8 8 8 8 8 8 : - 8 8 8 8 8 8 8 8 8 8 8 8 8 8 8 8 8 8 8 8 8 8 8 8 8 8 8 8 8 8 8 8 8 8 8 8 8 : - 8 8 8 - - 8 8 8 8 8 8 8 8 8 8 8 8 8 8 8 8 8 8 8 8 8 8 8 8 8 8 8 8 8 8 8 8 8 8 8 : - : 8 - - 8 8 8 - - 8 8 > - 8 8 - - > 8 8 8 8 8 8 8 8 8 8 8 8 8 8 8 8 8 % P.<.  3.L.# 8 8 8 8 8 8 8 8 8 8 8 8 - : 8 8 - 8 - - 8 8 8 8 8 8 8 8 8 8 8 8 8 8 8 8 8 8 8 8 8 8 8 % P.<.  H.'.o e 8 8 8 8 - A 9.# | 6.9.&.J.8 ;.<.* Z 8.<.L.f 0.=.0.- ",
"% 8 * % 8 - # - % - 8 - % - 8 8 8 8 8 8 8 8 8 8 8 s =X) X L.2.# 8 8 8 8 8 8 8 8 8 8 8 8 8 8 8 8 8 8 8 8 8 : ) ;.s 8 8 - - : - : 8 8 8 8 8 8 8 8 8 8 8 8 8 8 8 8 8 8 8 8 8 8 8 8 8 8 8 8 : ) ;.s 8 8 | ;.u 8 8 : - : - - : - 8 8 8 8 8 8 8 8 8 8 8 8 8 8 8 8 8 8 8 8 8 8 8 8 8 A >.Z 8 -.+.8 8 u -.O.8 > m &.8 8 #.:.N > 8 8 8 8 8 8 8 8 8 8 8 8 8 8 8 8 % P.<.  3.L.# 8 8 8 8 8 8 8 8 8 8 8 u =.O.> u #.8 +.-.8 8 8 - - : - 8 8 - - 8 8 8 8 8 8 8 8 8 8 8 8 % P.<.  H.'.o e 8 8 8 8 - S 7.  1.3.8.u ) 6.5.&.Z 8.n.3.8.# 6.1.4.  ",
"2.f ;.<.e #.2.+.<.+.: #.2.O.: 8 8 8 8 8 8 8 8 8 8 s =X) X L.2.# 8 8 8 8 8 8 8 8 8 8 8 8 8 8 8 8 8 8 8 8 : m >.| -.: u | #.Z &.N > 8 8 8 8 8 8 8 8 8 8 8 8 8 8 8 8 8 8 8 8 8 8 8 8 8 8 > m >.| -.- N >.O.&.: 8 S &.N +.+.A &.u 8 8 8 8 8 8 8 8 8 8 8 8 8 8 8 8 8 8 8 8 8 8 8 8 Z A :.-.@.-.A % =.+.;.Z - @.<.m -.&.m f 8 8 8 8 8 8 8 8 8 8 8 8 8 8 8 8 8 % P.<.  3.L.# 8 8 8 8 8 8 8 8 8 8 : -.+.u - @.9.A ;.+.#.- f O.@.Z &.f 8 @.+.8 8 8 8 8 8 8 8 8 8 8 8 % P.<.  H.'.o e 8 8 8 8 - Z Y.4.n.f 0.) <.9.:.q.<.0.6.1.0.* 9.) 0.4.",
") f A 9.;.P.-.Y.=.n.f U.#.H.m : 8 8 8 8 8 8 8 8 8 s =X) X L.2.# 8 8 8 8 8 8 8 8 8 8 8 8 8 8 8 8 8 8 8 8 - ) @.> <.: m 6.O.6.| >.8 8 8 8 8 8 8 8 8 8 8 8 8 8 8 8 8 8 8 8 8 8 8 8 8 8 8 - ) @.: <.: | +.8 <.- V 2.n -.>.-.<.#.&.- 8 8 8 8 8 8 8 8 8 8 8 8 8 8 8 8 8 8 8 8 8 8 8 - s >.;.s S #.- :.u ) +.% Z &.f 2.8 : 8 8 8 8 8 8 8 8 8 8 8 8 8 8 8 8 8 8 % P.<.  3.L.# 8 8 8 8 8 8 8 8 8 8 u 3.:.#.m @.&.#.) s >.# ) 3.@.4.+.=.) 2.m 8 8 8 8 8 8 8 8 8 8 8 8 % P.<.  H.'.o e 8 8 8 8 8 8 A ) e : f s | m : Z s Z V e f 8 f 8 s O.",
"3.) 2.J.2.6.- 0.> 5.A q.  6.+.- 8 8 8 8 8 8 8 8 8 s =X) X L.2.# 8 8 8 8 8 8 8 8 8 8 8 8 8 8 8 8 8 8 8 8 : S @.: <.: m -.8 :.: :.e 8 8 8 8 8 8 8 8 8 8 8 8 8 8 8 8 8 8 8 8 8 8 8 8 8 8 : S #.: 1.% ) +.8 <.- +.@.  #.A V +.f -.- 8 8 8 8 8 8 8 8 8 8 8 8 8 8 8 8 8 8 8 8 8 8 8 : ;.f &.f ) #.# :.u | +.- 8 - 8 3.8 - 8 8 8 8 8 8 8 8 8 8 8 8 8 8 8 8 8 8 % P.<.  3.L.# 8 8 8 8 8 8 8 8 8 8 f 2.- :.8.@.3.;.A s >.# ) +.s -.8 ;.8 #.#.8 8 8 8 8 8 8 8 8 8 8 8 % P.<.  H.'.o e 8 8 8 8 8 8 - - 8 8 > 8 - : 8 - 8 - : 8 : 8 > 8 8 - ",
"9.I.4.8.4.q.8 H.s 9.V P.-.H.m : 8 8 8 8 8 8 8 8 8 s =X) X L.2.# 8 8 8 8 8 8 8 8 8 8 8 8 8 8 8 8 8 8 8 8 8 f >.&.&.- V >.u 1.e <.e 8 8 8 8 8 8 8 8 8 8 8 8 8 8 8 8 8 8 8 8 8 8 8 8 8 8 8 s >.&.&.O.Z :.&.&.- V 2.m ;.) ) #.m ;.- 8 8 8 8 8 8 8 8 8 8 8 8 8 8 8 8 8 8 8 8 8 8 : <.<.f @.-.;.+.) +.=.>.N : 8 8 - -.;.Z f 8 8 8 8 8 8 8 8 8 8 8 8 8 8 8 8 8 % P.<.  3.L.# 8 8 8 8 8 8 8 8 8 8 8 :.+.>.+.+.9.+.;.-.@.# | &.m :.s >.s Z 3.m : 8 8 8 8 8 8 8 8 8 8 % P.<.  H.'.o e 8 8 8 8 8 8 8 8 8 8 8 8 8 8 8 8 8 8 8 8 8 8 8 8 8 8 ",
"&.s <.&.V | 8 O.8 ) f H.<.) : 8 8 8 8 8 8 8 8 8 8 s =X) X L.2.# 8 8 8 8 8 8 8 8 8 8 8 8 8 8 8 8 8 8 8 8 8 : Z #.u : s V 8 Z 8 Z 8 8 8 8 8 8 8 8 8 8 8 8 8 8 8 8 8 8 8 8 8 8 8 8 8 8 8 8 : Z &.8 A e Z #.8 8 8 A #.Z f f m s V 8 8 8 8 8 8 8 8 8 8 8 8 8 8 8 8 8 8 8 8 8 8 8 8 +.#.#.u +.) s A 8 @.S : 8 8 8 8 8 +.&.f 8 8 8 8 8 8 8 8 8 8 8 8 8 8 8 8 8 % P.<.  3.L.# 8 8 8 8 8 8 8 8 8 8 8 s &.m - - V : ) @.8 : f m u V 8 V f &.Z 8 8 8 8 8 8 8 8 8 8 8 8 % P.<.  H.'.o e 8 8 8 8 8 8 8 8 8 8 8 8 8 8 8 8 8 8 8 8 8 8 8 8 8 8 ",
"* 8 % - : - 8 - 8 - u q.# - 8 8 8 8 8 8 8 8 8 8 8 s =X) X L.2.# 8 8 8 8 8 8 8 8 8 8 8 8 8 8 8 8 8 8 8 8 8 8 : - 8 8 8 : 8 : 8 : 8 8 8 8 8 8 8 8 8 8 8 8 8 8 8 8 8 8 8 8 8 8 8 8 8 8 8 8 8 : - 8 - 8 : - 8 8 8 : - : 8 8 : 8 : 8 8 8 8 8 8 8 8 8 8 8 8 8 8 8 8 8 8 8 8 8 8 8 8 - - - 8 - - 8 : 8 - - 8 8 8 8 8 8 - - 8 8 8 8 8 8 8 8 8 8 8 8 8 8 8 8 8 8 % P.<.  3.L.# 8 8 8 8 8 8 8 8 8 8 8 8 - : 8 8 : 8 - - 8 8 8 : 8 : 8 : 8 - : 8 8 8 8 8 8 8 8 8 8 8 8 % P.<.  H.'.o e 8 8 8 8 8 8 8 8 8 8 8 8 8 8 8 8 8 8 8 8 8 8 8 8 8 8 ",
"8 8 8 8 8 8 8 8 8 8 8 s 8 8 8 8 8 8 8 8 8 8 8 8 8 s =X) X L.2.# 8 8 8 8 8 8 8 8 8 8 8 8 8 8 8 8 8 8 8 8 8 8 8 8 8 8 8 8 8 8 8 8 8 8 8 8 8 8 8 8 8 8 8 8 8 8 8 8 8 8 8 8 8 8 8 8 8 8 8 8 8 8 8 8 8 8 8 8 8 8 8 8 8 8 8 8 8 8 8 8 8 8 8 8 8 8 8 8 8 8 8 8 8 8 8 8 8 8 8 8 8 8 8 8 8 8 8 8 8 8 8 8 8 8 8 8 8 8 8 8 8 8 8 8 8 8 8 8 8 8 8 8 8 8 8 8 8 8 8 8 % P.<.  3.L.# 8 8 8 8 8 8 8 8 8 8 8 8 8 8 8 8 8 8 8 8 8 8 8 8 8 8 8 8 8 8 8 8 8 8 8 8 8 8 8 8 8 8 8 % P.<.  H.'.o e 8 8 8 8 8 8 8 8 8 8 8 8 8 8 8 8 8 8 8 8 8 8 8 8 8 8 ",
"8 8 8 8 8 8 8 8 8 8 8 8 8 8 8 8 8 8 8 8 8 8 8 8 8 s =X) X L.2.# 8 8 8 8 8 8 8 8 8 8 8 8 8 8 8 8 8 8 8 8 8 8 8 8 8 8 8 8 8 8 8 8 8 8 8 8 8 8 8 8 8 8 8 8 8 8 8 8 8 8 8 8 8 8 8 8 8 8 8 8 8 8 8 8 8 8 8 8 8 8 8 8 8 8 8 8 8 8 8 8 8 8 8 8 8 8 8 8 8 8 8 8 8 8 8 8 8 8 8 8 8 8 8 8 8 8 8 8 8 8 8 8 8 8 8 8 8 8 8 8 8 8 8 8 8 8 8 8 8 8 8 8 8 8 8 8 8 8 8 8 % P.<.  3.L.# 8 8 8 8 8 8 8 8 8 8 8 8 8 8 8 8 8 8 8 8 8 8 8 8 8 8 8 8 8 8 8 8 8 8 8 8 8 8 8 8 8 8 8 % P.<.  H.'.o e 8 8 8 8 8 8 8 8 8 8 8 8 8 8 8 8 8 8 8 8 8 8 8 8 8 8 ",
"8 8 8 8 8 8 8 8 8 8 8 8 8 8 8 8 8 8 8 8 8 8 8 8 8 s =X) X L.2.# 8 8 8 8 8 8 8 8 8 8 8 8 8 8 8 8 8 8 8 8 8 8 8 8 8 8 8 8 8 8 8 8 8 8 8 8 8 8 8 8 8 8 8 8 8 8 8 8 8 8 8 8 8 8 8 8 8 8 8 8 8 8 8 8 8 8 8 8 8 8 8 8 8 8 8 8 8 8 8 8 8 8 8 8 8 8 8 8 8 8 8 8 8 8 8 8 8 8 8 8 8 8 8 8 8 8 8 8 8 8 8 8 8 8 8 8 8 8 8 8 8 8 8 8 8 8 8 8 8 8 8 8 8 8 8 8 8 8 8 8 % P.<.  3.L.# 8 8 8 8 8 8 8 8 8 8 8 8 8 8 8 8 8 8 8 8 8 8 8 8 8 8 8 8 8 8 8 8 8 8 8 8 8 8 8 8 8 8 8 % P.<.  H.'.o e 8 8 8 8 8 8 8 8 8 8 8 8 8 8 8 8 8 8 8 8 8 8 8 8 8 8 ",
"8 8 8 8 8 8 8 8 8 8 8 8 8 8 8 8 8 8 8 8 8 8 8 8 8 s =X) X L.2.# 8 8 8 8 8 8 8 8 8 8 8 8 8 8 8 8 8 8 8 8 8 8 8 8 8 8 8 8 8 8 8 8 8 8 8 8 8 8 8 8 8 8 8 8 8 8 8 8 8 8 8 8 8 8 8 8 8 8 8 8 8 8 8 8 8 8 8 8 8 8 8 8 8 8 8 8 8 8 8 8 8 8 8 8 8 8 8 8 8 8 8 8 8 8 8 8 8 8 8 8 8 8 8 8 8 8 8 8 8 8 8 8 8 8 8 8 8 8 8 8 8 8 8 8 8 8 8 8 8 8 8 8 8 8 8 8 8 8 8 8 % P.<.  3.L.# 8 8 8 8 8 8 8 8 8 8 8 8 8 8 8 8 8 8 8 8 8 8 8 8 8 8 8 8 8 8 8 8 8 8 8 8 8 8 8 8 8 8 8 % P.<.  H.'.o e 8 8 8 8 8 8 8 8 8 8 8 8 8 8 8 8 8 8 8 8 8 8 8 8 8 8 ",
"8 8 8 8 8 8 8 8 8 8 8 8 8 8 8 8 8 8 8 8 8 8 8 8 8 s =X) X L.2.# 8 8 8 8 8 8 8 8 8 8 8 8 8 8 8 8 8 8 8 8 8 8 8 8 8 8 8 8 8 8 8 8 8 8 8 8 8 8 8 8 8 8 8 8 8 8 8 8 8 8 8 8 8 8 8 8 8 8 8 8 8 8 8 8 8 8 8 8 8 8 8 8 8 8 8 8 8 8 8 8 8 8 8 8 8 8 8 8 8 8 8 8 8 8 8 8 8 8 8 8 8 8 8 8 8 8 8 8 8 8 8 8 8 8 8 8 8 8 8 8 8 8 8 8 8 8 8 8 8 8 8 8 8 8 8 8 8 8 8 8 % P.<.  3.L.# 8 8 8 8 8 8 8 8 8 8 8 8 8 8 8 8 8 8 8 8 8 8 8 8 8 8 8 8 8 8 8 8 8 8 8 8 8 8 8 8 8 8 8 % P.<.  H.'.o e 8 8 8 8 8 8 8 8 8 8 8 8 8 8 8 8 8 8 8 8 8 8 8 8 8 8 ",
": 8 8 8 8 8 8 u 8 8 8 8 8 8 8 8 8 8 8 8 8 8 8 8 8 s =X) X L.2.# 8 8 8 8 8 8 8 8 8 8 8 8 8 8 8 8 8 8 8 8 8 8 8 8 8 8 8 8 8 8 8 8 8 8 8 8 8 8 8 8 8 8 8 8 8 8 8 8 8 8 8 8 8 8 8 8 8 8 > > > > 8 8 8 8 8 8 > : 8 8 8 8 8 8 e 8 8 8 8 8 8 8 8 8 8 8 8 8 8 8 8 8 8 8 8 8 8 8 8 8 8 8 8 8 8 8 8 8 8 8 8 8 8 8 8 8 8 8 8 8 8 8 8 8 8 8 8 8 8 8 8 8 8 8 8 8 8 8 % P.<.  3.L.# 8 8 8 8 8 8 8 8 8 8 > > > > 8 8 8 8 8 8 : : 8 8 8 8 8 8 e 8 8 8 8 8 8 8 8 8 8 8 8 8 8 % P.<.  H.'.o e 8 8 8 8 8 8 8 8 8 8 8 8 8 8 8 8 8 8 8 8 8 8 8 8 8 8 ",
"Z : 8 * - e * | 8 > 8 : 8 % > 8 8 8 8 8 8 8 8 8 8 s =X) X L.2.# 8 8 8 8 8 8 8 8 8 8 8 8 8 8 8 8 8 8 8 8 8 8 8 8 8 8 8 8 8 8 8 8 8 8 8 8 8 8 8 8 8 8 8 8 8 8 8 8 8 8 8 8 8 8 8 8 8 > / c.c./ > 8 8 8 8 > f V > 8 - - 8 - Z 8 > 8 : 8 - > 8 8 8 8 8 8 8 8 8 8 8 8 8 8 8 8 8 8 8 8 8 8 8 8 8 8 8 8 8 8 8 8 8 8 8 8 8 8 8 8 8 8 8 8 8 8 8 8 8 8 8 8 8 8 8 8 % P.<.  3.L.# 8 8 8 8 8 8 8 8 8 8 / c.c./ > 8 8 8 8 : m m > 8 - - 8 - Z 8 8 8 : 8 - 8 8 8 8 8 8 8 8 % P.<.  H.'.o e 8 8 8 8 8 8 8 8 8 8 8 8 8 8 8 8 8 8 8 8 8 8 8 8 8 8 ",
"J.# u &.@.H.O.m Z s u N s -.f : 8 8 8 8 8 8 8 8 8 s =X) X L.2.# 8 8 8 8 8 8 8 8 8 8 8 8 8 8 8 8 8 8 8 8 8 8 8 8 8 8 8 8 8 8 8 8 8 8 8 8 8 8 8 8 8 8 8 8 8 8 8 8 8 8 8 8 8 8 8 8 > / v.M.M.b./ > 8 8 8 - ;.5.- 8 ) A 2.) s m s 8 m 8 O.f : 8 8 8 8 8 8 8 8 8 8 8 8 8 8 8 8 8 8 8 8 8 8 8 8 8 8 8 8 8 8 8 8 8 8 8 8 8 8 8 8 8 8 8 8 8 8 8 8 8 8 8 8 8 8 8 % P.<.  3.L.# 8 8 8 8 8 8 8 8 > / v.M.M.b.0 > 8 8 8 : <.3.- e ) S 2.Z f m u e f u O.s > 8 8 8 8 8 8 % P.<.  H.'.o e 8 8 8 8 8 8 8 8 8 8 8 8 8 8 8 8 8 8 8 8 8 8 8 8 8 8 ",
"3.f 4.5.&.T.O.9.6.#.@.3.3.3.7.8 8 8 8 8 8 8 8 8 8 s =X) X L.2.# 8 8 8 8 8 8 8 8 8 8 8 8 8 8 8 8 8 8 8 8 8 8 8 8 8 8 8 8 8 8 8 8 8 8 8 8 8 8 8 8 8 8 8 8 8 8 8 8 8 8 8 8 8 8 8 8 > ] b.N.N.M.c.= 8 8 8 s &.&.f @.:.S 8.S :.;.O.V -.#.&.:.u 8 8 8 8 8 8 8 8 8 8 8 8 8 8 8 8 8 8 8 8 8 8 8 8 8 8 8 8 8 8 8 8 8 8 8 8 8 8 8 8 8 8 8 8 8 8 8 8 8 8 8 8 8 8 8 % P.<.  3.L.# 8 8 8 8 8 8 8 8 > x.m.N.N.M.] = 8 8 8 f &.&.s &.-.) 8.Z >.;.) S &.&.&.;.8 8 8 8 8 8 8 % P.<.  H.'.o e 8 8 8 8 8 8 8 8 8 8 8 8 8 8 8 8 8 8 8 8 8 8 8 8 8 8 ",
"U.:.8.- - 9.# 9.) 5.2.#.P.3.K.f > 8 8 8 8 8 8 8 8 s =X) X L.2.# 8 8 8 8 8 8 8 8 8 8 8 8 8 8 8 8 8 8 8 8 8 8 8 8 8 8 8 8 8 8 8 8 8 8 8 8 8 8 8 8 8 8 8 8 8 8 8 8 8 8 8 8 8 8 8 8 > ] v.M.M.m.] = 8 8 - A 6.5.#.;.8 # >.* ;.Z -.&.) 3.-.3.m : 8 8 8 8 8 8 8 8 8 8 8 8 8 8 8 8 8 8 8 8 8 8 8 8 8 8 8 8 8 8 8 8 8 8 8 8 8 8 8 8 8 8 8 8 8 8 8 8 8 8 8 8 8 8 % P.<.  3.L.# 8 8 8 8 8 8 8 8 > x.v.M.M.m.] = 8 8 - O.6.5.+.:.: - >.% >.Z -.&.) 5.&.3.s 8 8 8 8 8 8 % P.<.  H.'.o e 8 8 8 8 8 8 8 8 8 8 8 8 8 8 8 8 8 8 8 8 8 8 8 8 8 8 ",
"O.9.q.+.m K.f H.s q.L.> H.&.V 8 8 8 8 8 8 8 8 8 8 s =X) X L.2.# 8 8 8 8 8 8 8 8 8 8 8 8 8 8 8 8 8 8 8 8 8 8 8 8 8 8 8 8 8 8 8 8 8 8 8 8 8 8 8 8 8 8 8 8 8 8 8 8 8 8 8 8 8 8 8 8 > 0 x.v.v.x.0 > 8 8 : :.) m >.<.| u 3.f <.f -.8.> <.O.m 8 8 8 8 8 8 8 8 8 8 8 8 8 8 8 8 8 8 8 8 8 8 8 8 8 8 8 8 8 8 8 8 8 8 8 8 8 8 8 8 8 8 8 8 8 8 8 8 8 8 8 8 8 8 8 8 % P.<.  3.L.# 8 8 8 8 8 8 8 8 > / x.v.v.x.9 8 8 8 8 <.Z Z >.<.S s 3.s 2.u <.4.8 2.) m 8 8 8 8 8 8 8 % P.<.  H.'.o e 8 8 8 8 8 8 8 8 8 8 8 8 8 8 8 8 8 8 8 8 8 8 8 8 8 8 ",
": -.) 0.+.&.<.-.8 #.;.# ) 8.;.8 8 8 8 8 8 8 8 8 8 s =X) X L.2.# 8 8 8 8 8 8 8 8 8 8 8 8 8 8 8 8 8 8 8 8 8 8 8 8 8 8 8 8 8 8 8 8 8 8 8 8 8 8 8 8 8 8 8 8 8 8 8 8 8 8 8 8 8 8 8 8 8 > 0 / / 9 > 8 8 8 8 O.8 - | V :.) S #.O.e V #.- m ;.@.8 8 8 8 8 8 8 8 8 8 8 8 8 8 8 8 8 8 8 8 8 8 8 8 8 8 8 8 8 8 8 8 8 8 8 8 8 8 8 8 8 8 8 8 8 8 8 8 8 8 8 8 8 8 8 8 % P.<.  3.L.# 8 8 8 8 8 8 8 8 8 > 0 / / 9 > 8 8 8 u O.> : O.V >.A ) @.O.8 ) +.- N :.O.8 8 8 8 8 8 8 % P.<.  H.'.o e 8 8 8 8 8 8 8 8 8 8 8 8 8 8 8 8 8 8 8 8 8 8 8 8 8 8 ",
"8 - : % : - - - 8 - - 8 : * - 8 8 8 8 8 8 8 8 8 8 s =X) X L.2.# 8 8 8 8 8 8 8 8 8 8 8 8 8 8 8 8 8 8 8 8 8 8 8 8 8 8 8 8 8 8 8 8 8 8 8 8 8 8 8 8 8 8 8 8 8 8 8 8 8 8 8 8 8 8 8 8 8 8 > > > 8 8 8 8 8 8 : 8 8 : : - : : - : 8 : - 8 > - : 8 8 8 8 8 8 8 8 8 8 8 8 8 8 8 8 8 8 8 8 8 8 8 8 8 8 8 8 8 8 8 8 8 8 8 8 8 8 8 8 8 8 8 8 8 8 8 8 8 8 8 8 8 8 8 8 % P.<.  3.L.# 8 8 8 8 8 8 8 8 8 8 > > > 8 8 8 8 8 8 : 8 8 : : - : : : : 8 : - 8 : - : 8 8 8 8 8 8 8 % P.<.  H.'.o e 8 8 8 8 8 8 8 8 8 8 8 8 8 8 8 8 8 8 8 8 8 8 8 8 8 8 ",
"8 8 8 8 8 8 8 8 8 8 8 8 8 8 8 8 8 8 8 8 8 8 8 8 8 s =X) X L.2.# 8 8 8 8 8 8 8 8 8 8 8 8 8 8 8 8 8 8 8 8 8 8 8 8 8 8 8 8 8 8 8 8 8 8 8 8 8 8 8 8 8 8 8 8 8 8 8 8 8 8 8 8 8 8 8 8 8 8 8 8 8 8 8 8 8 8 8 8 8 8 8 8 8 8 8 8 8 8 8 8 8 8 8 8 8 8 8 8 8 8 8 8 8 8 8 8 8 8 8 8 8 8 8 8 8 8 8 8 8 8 8 8 8 8 8 8 8 8 8 8 8 8 8 8 8 8 8 8 8 8 8 8 8 8 8 8 8 8 8 8 % P.<.  3.L.# 8 8 8 8 8 8 8 8 8 8 8 8 8 8 8 8 8 8 8 8 8 8 8 8 8 8 8 8 8 8 8 8 8 8 8 8 8 8 8 8 8 8 8 % P.<.  H.'.o e 8 8 8 8 8 8 8 8 8 8 8 8 8 8 8 8 8 8 8 8 8 8 8 8 8 8 ",
"8 8 8 8 8 8 8 8 8 8 8 8 8 8 8 8 8 8 8 8 8 8 8 8 8 s =X) X L.2.# 8 8 8 8 8 8 8 8 8 8 8 8 8 8 8 8 8 8 8 8 8 8 8 8 8 8 8 8 8 8 8 8 8 8 8 8 8 8 8 8 8 8 8 8 8 8 8 8 8 8 8 8 8 8 8 8 8 8 8 8 8 8 8 8 8 8 8 8 8 8 8 8 8 8 8 8 8 8 8 8 8 8 8 8 8 8 8 8 8 8 8 8 8 8 8 8 8 8 8 8 8 8 8 8 8 8 8 8 8 8 8 8 8 8 8 8 8 8 8 8 8 8 8 8 8 8 8 8 8 8 8 8 8 8 8 8 8 8 8 8 % P.<.  3.L.# 8 8 8 8 8 8 8 8 8 8 8 8 8 8 8 8 8 8 8 8 8 8 8 8 8 8 8 8 8 8 8 8 8 8 8 8 8 8 8 8 8 8 8 % P.<.  H.'.o e 8 8 8 8 8 8 8 8 8 8 8 8 8 8 8 8 8 8 8 8 8 8 8 8 8 8 ",
"8 8 8 8 8 8 8 8 8 8 8 8 8 8 8 8 8 8 8 8 8 8 8 8 8 s =X) X L.2.# 8 8 8 8 8 8 8 8 8 8 8 8 8 8 8 8 8 8 8 8 8 8 8 8 8 8 8 8 8 8 8 8 8 8 8 8 8 8 8 8 8 8 8 8 8 8 8 8 8 8 8 8 8 8 8 8 8 8 8 8 8 8 8 8 8 8 8 8 8 8 8 8 8 8 8 8 8 8 8 8 8 8 8 8 8 8 8 8 8 8 8 8 8 8 8 8 8 8 8 8 8 8 8 8 8 8 8 8 8 8 8 8 8 8 8 8 8 8 8 8 8 8 8 8 8 8 8 8 8 8 8 8 8 8 8 8 8 8 8 8 % P.<.  3.L.# 8 8 8 8 8 8 8 8 8 8 8 8 8 8 8 8 8 8 8 8 8 8 8 8 8 8 8 8 8 8 8 8 8 8 8 8 8 8 8 8 8 8 8 % P.<.  H.'.o e 8 8 8 8 8 8 8 8 8 8 8 8 8 8 8 8 8 8 8 8 8 8 8 8 8 8 ",
"8 8 8 8 8 8 8 8 8 8 8 8 8 8 8 8 8 8 8 8 8 8 8 8 8 s =X) X L.2.# 8 8 8 8 8 8 8 8 8 8 8 8 8 8 8 8 8 8 8 8 8 8 8 8 8 8 8 8 8 8 8 8 8 8 8 8 8 8 8 8 8 8 8 8 8 8 8 8 8 8 8 8 8 8 8 8 8 8 8 8 8 8 8 8 8 8 8 8 8 8 8 8 8 8 8 8 8 8 8 8 8 8 8 8 8 8 8 8 8 8 8 8 8 8 8 8 8 8 8 8 8 8 8 8 8 8 8 8 8 8 8 8 8 8 8 8 8 8 8 8 8 8 8 8 8 8 8 8 8 8 8 8 8 8 8 8 8 8 8 8 % P.<.  3.L.# 8 8 8 8 8 8 8 8 8 8 8 8 8 8 8 8 8 8 8 8 8 8 8 8 8 8 8 8 8 8 8 8 8 8 8 8 8 8 8 8 8 8 8 % P.<.  H.'.o e 8 8 8 8 8 8 8 8 8 8 8 8 8 8 8 8 8 8 8 8 8 8 8 8 8 8 ",
"8 8 8 8 8 8 8 8 8 8 8 8 8 8 8 8 8 8 8 8 8 8 8 8 8 s =X) X L.2.# 8 8 8 8 8 8 8 8 8 8 8 8 8 8 8 8 8 8 8 8 8 8 8 8 8 8 8 8 8 8 8 8 8 8 8 8 8 8 8 8 8 8 8 8 8 8 8 8 8 8 8 8 8 8 8 8 8 8 8 8 8 8 8 8 8 8 8 8 8 8 8 8 8 8 8 8 8 8 8 8 8 8 8 8 8 8 8 8 8 8 8 8 8 8 8 8 8 8 8 8 8 8 8 8 8 8 8 8 8 8 8 8 8 8 8 8 8 8 8 8 8 8 8 8 8 8 8 8 8 8 8 8 8 8 8 8 8 8 8 8 % P.<.  3.L.# 8 8 8 8 8 8 8 8 8 8 8 8 8 8 8 8 8 8 8 8 8 8 8 8 8 8 8 8 8 8 8 8 8 8 8 8 8 8 8 8 8 8 8 % P.<.  H.'.o e 8 8 8 8 8 8 8 8 8 8 8 8 8 8 8 8 8 8 8 8 8 8 8 8 8 8 ",
"8 8 8 8 8 8 8 8 8 8 8 8 8 8 8 8 8 8 8 8 8 8 8 8 8 s =X) X L.2.# 8 8 8 8 8 8 8 8 8 8 8 8 8 8 8 8 8 8 8 8 8 8 8 8 8 8 8 8 8 8 8 8 8 8 8 8 8 8 8 8 8 8 8 8 8 8 8 8 8 8 8 8 8 8 8 8 8 8 8 8 8 8 8 8 8 8 8 8 8 8 8 8 8 8 8 8 8 8 8 8 8 8 8 8 8 8 8 8 8 8 8 8 8 8 8 8 8 8 8 8 8 8 8 8 8 8 8 8 8 8 8 8 8 8 8 8 8 8 8 8 8 8 8 8 8 8 8 8 8 8 8 8 8 8 8 8 8 8 8 8 % P.<.  3.L.# 8 8 8 8 8 8 8 8 8 8 8 8 8 8 8 8 8 8 8 8 8 8 8 8 8 8 8 8 8 8 8 8 8 8 8 8 8 8 8 8 8 8 8 % P.<.  H.'.o e 8 8 8 8 8 8 8 8 8 8 8 8 8 8 8 8 8 8 8 8 8 8 8 8 8 8 ",
"8 8 8 8 8 8 8 8 8 8 8 8 8 8 8 8 8 8 8 8 8 8 8 8 > s *X) X L.2.# 8 8 8 8 8 8 8 8 8 8 8 8 8 8 8 8 8 8 8 8 8 8 8 8 8 8 8 8 8 8 8 8 8 8 8 8 8 8 8 8 8 8 8 8 8 8 8 8 8 8 8 8 8 8 8 8 8 8 8 8 8 8 8 8 8 8 8 8 8 8 8 8 8 8 8 8 8 8 8 8 8 8 8 8 8 8 8 8 8 8 8 8 8 8 8 8 8 8 8 8 8 8 8 8 8 8 8 8 8 8 8 8 8 8 8 8 8 8 8 8 8 8 8 8 8 8 8 8 8 8 8 8 8 8 8 8 8 8 8 8 * P.<.X 2.L.% 8 8 8 8 8 8 8 8 8 8 8 8 8 8 8 8 8 8 8 8 8 8 8 8 8 8 8 8 8 8 8 8 8 8 8 8 8 8 8 8 8 8 8 * P.<.  H.'.# 8 8 8 8 8 8 8 8 8 8 8 8 8 8 8 8 8 8 8 8 8 8 8 8 8 8 8 ",
"8 8 8 8 8 8 8 8 8 8 8 8 8 8 8 8 8 8 8 8 8 8 8 8 : S +XZ # q.6.- 8 8 8 8 8 8 8 8 8 8 8 8 8 8 8 8 8 8 8 8 8 8 8 8 8 8 8 8 8 8 8 8 8 8 8 8 8 8 8 8 8 8 8 8 8 8 8 8 8 8 8 8 8 8 8 8 8 8 8 8 8 8 8 8 8 8 8 8 8 8 8 8 8 8 8 8 8 8 8 8 8 8 8 8 8 8 8 8 8 8 8 8 8 8 8 8 8 8 8 8 8 8 8 8 8 8 8 8 8 8 8 8 8 8 8 8 8 8 8 8 8 8 8 8 8 8 8 8 8 8 8 8 8 8 8 8 8 8 8 8 8 U.&.o ;.L.: 8 8 8 8 8 8 8 8 8 8 8 8 8 8 8 8 8 8 8 8 8 8 8 8 8 8 8 8 8 8 8 8 8 8 8 8 8 8 8 8 8 8 8 8 U.=.  6.{.- 8 8 8 8 8 8 8 8 8 8 8 8 8 8 8 8 8 8 8 8 8 8 8 8 8 8 8 ",
"8 8 8 8 8 8 8 8 8 8 8 8 8 8 8 8 8 8 8 8 8 8 8 u # 9. X8 * <.U.- 8 8 8 8 8 8 8 8 8 8 8 8 8 8 8 8 8 8 8 8 8 8 8 8 8 8 8 8 8 8 8 8 8 8 8 8 8 8 8 8 8 8 8 8 8 8 8 8 8 8 8 8 8 8 8 8 8 8 8 8 8 8 8 8 8 8 8 8 8 8 8 8 8 8 8 8 8 8 8 8 8 8 8 8 8 8 8 8 8 8 8 8 8 8 8 8 8 8 8 8 8 8 8 8 8 8 8 8 8 8 8 8 8 8 8 8 8 8 8 8 8 8 8 8 8 8 8 8 8 8 8 8 8 8 8 8 8 8 8 - Z E.V * S W.m : 8 8 8 8 8 8 8 8 8 8 8 8 8 8 8 8 8 8 8 8 8 8 8 8 8 8 8 8 8 8 8 8 8 8 8 8 8 8 8 8 8 - Z E.V # @.@XZ - e 8 8 8 8 8 8 8 8 8 8 8 8 8 8 8 8 8 8 8 8 8 8 8 8 8 ",
"8 8 8 8 8 8 8 8 8 8 8 8 8 8 8 8 8 8 8 8 8 8 8 # m @X8.# 8 u R.>.# : 8 8 8 8 8 8 8 8 8 8 8 8 8 8 8 8 8 8 8 8 8 8 8 8 8 8 8 8 8 8 8 8 8 8 8 8 8 8 8 8 8 8 8 8 8 8 8 8 8 8 8 8 8 8 8 8 8 8 8 8 8 8 8 8 8 8 8 8 8 8 8 8 8 8 8 8 8 8 8 8 8 8 8 8 8 8 8 8 8 8 8 8 8 8 8 8 8 8 8 8 8 8 8 8 8 8 8 8 8 8 8 8 8 8 8 8 8 8 8 8 8 8 8 8 8 8 8 8 8 8 8 8 8 8 8 8 - - J.n.- 8 - S.n.* - 8 8 8 8 8 8 8 8 8 8 8 8 8 8 8 8 8 8 8 8 8 8 8 8 8 8 8 8 8 8 8 8 8 8 8 8 8 8 8 - - J.n.- 8 * /.^.# - 8 8 8 8 8 8 8 8 8 8 8 8 8 8 8 8 8 8 8 8 8 8 8 8 8 ",
"# # # # # # # # # # # # # # # # # # # # # * s 1.@XQ.- 8 8 - ) Q.6.m - * - * * * * * * * * * * * * * * * * * * * * * * * * * * * * * * * * * * * * * * * * * * * * * * * * * * * * * * * * * * * * * * * * * * * * * * * * * * * * * * * * * * * * * * * * * * * * * * * * * * * * * * * * * * * * * * * * * * * * * * * * * * * * * * * * * * * - 8 ) L.Y.s 8 8 8 s U.J.A 8 * - * * * * * * * * * * * * * * * * * * * * * * * * * * * * * * * * * * - 8 ) L.Y.s 8 8 : f XX_.O.> # # # # # # # # # # # # # # # # # # # # # # # # ",
"oXoXoXoXoXoXoXoXoXoXoXoXoXoXoXoXoXoXoXoXoX.XoX@XL.: 8 8 8 8 - A P.T.Y.Y.Y.Y.Y.Y.Y.Y.Y.Y.Y.Y.Y.Y.Y.Y.Y.Y.Y.Y.Y.Y.Y.Y.Y.Y.Y.Y.Y.Y.Y.Y.Y.Y.Y.Y.Y.Y.Y.Y.Y.Y.Y.Y.Y.Y.Y.Y.Y.Y.Y.Y.Y.Y.Y.Y.Y.Y.Y.Y.Y.Y.Y.Y.Y.Y.Y.Y.Y.Y.Y.Y.Y.Y.Y.Y.Y.Y.Y.Y.Y.Y.Y.Y.Y.Y.Y.Y.Y.Y.Y.Y.Y.Y.Y.Y.Y.Y.Y.Y.Y.Y.Y.Y.Y.Y.Y.Y.Y.Y.Y.Y.Y.Y.Y.Y.Y.Y.Y.Y.Y.Y.Y.Y.Y.Y.Y.Y.Y.Y.Y.Y.Y.Y.Y.Y.E.n.s : 8 8 8 : s n.R.Y.Y.Y.Y.Y.Y.Y.Y.Y.Y.Y.Y.Y.Y.Y.Y.Y.Y.Y.Y.Y.Y.Y.Y.Y.Y.Y.Y.Y.Y.Y.Y.Y.Y.Y.Y.Y.Y.Y.E.n.s : 8 8 8 - f ^.OX.XoXoXoXoXoXoXoXoXoXoXoXoXoXoXoXoXoXoXoXoXoXoXoXoX",
"6.6.6.6.6.6.6.6.6.6.6.6.6.6.6.6.6.6.6.6.6.5.;.N * e u e e e u 8 8 A -.;.;.;.;.;.;.;.;.;.;.;.;.;.;.;.;.;.;.;.;.;.;.;.;.;.;.;.;.;.;.;.;.;.;.;.;.;.;.;.;.;.;.;.;.;.;.;.;.;.;.;.;.;.;.;.;.;.;.;.;.;.;.;.;.;.;.;.;.;.;.;.;.;.;.;.;.;.;.;.;.;.;.;.;.;.;.;.;.;.;.;.;.;.;.;.;.;.;.;.;.;.;.;.;.;.;.;.;.;.;.;.;.;.;.;.;.;.;.;.;.;.;.;.;.;.;.;.;.;.;.;.;.;.;.#.Z : 8 u e e e u 8 : m &.;.;.;.;.;.;.;.;.;.;.;.;.;.;.;.;.;.;.;.;.;.;.;.;.;.;.;.;.;.;.;.;.;.;.;.;.;.#.Z : 8 u e e e u 8 - Z 2.6.6.6.6.6.6.6.6.6.6.6.6.6.6.6.6.6.6.6.6.6.6.6.6.",
"                                              X # o X o o o X o o                                                                                                                                                                                                                                                                                   X o o X o o o X o o X                                                                               X o o X o o o X o $                                                     ",
"U.U.U.U.U.U.U.U.U.U.U.U.U.U.U.U.U.U.U.U.U.U.U.I.P.P.P.P.P.P.P.P.P.I.U.U.U.U.U.U.U.U.U.U.U.U.U.U.U.U.U.U.U.U.U.U.U.U.U.U.U.U.U.U.U.U.U.U.U.U.U.U.U.U.U.U.U.U.U.U.U.U.U.U.U.U.U.U.U.U.U.U.U.U.U.U.U.U.U.U.U.U.U.U.U.U.U.U.U.U.U.U.U.U.U.U.U.U.U.U.U.U.U.U.U.U.U.U.U.U.U.U.U.U.U.U.U.U.U.U.U.U.U.U.U.U.U.U.U.U.U.U.U.U.U.U.U.U.U.U.U.U.U.U.U.U.U.U.U.U.I.P.P.P.P.P.P.P.P.P.I.U.U.U.U.U.U.U.U.U.U.U.U.U.U.U.U.U.U.U.U.U.U.U.U.U.U.U.U.U.U.U.U.U.U.U.U.U.U.U.I.P.P.P.P.P.P.P.P.P.U.U.U.U.U.U.U.U.U.U.U.U.U.U.U.U.U.U.U.U.U.U.U.U.U.U.",
"/./././././././././././././././././././././././././././././././././././././././././././././././././././././././././././././././././././././././././././././././././././././././././././././././././././././././././././././././././././././././././././././././././././././././././././././././././././././././././././././././././././././././././././././././././././././././././././././././././././././././././././././././././././././././././././././././././././././././././././././././././././././././././././././././.",
"X X X X X X X X X X X X X X X X X X X X X X X X X X X X X X X X X X X X X X X X X X X X X X X X X X X X X X X X X X X X X X X X X X X X X X X X X X X X X X X X X X X X X X X X X X X X X X X X X X X X X X X X X X X X X X X X X X X X X X X X X X X X X X X X X X X X X X X X X X X X X X X X X X X X X X X X X X X X X X X X X X X X X X X X X X X X X X X X X X X X X X X X X X X X X X X X X X X X X X X X X X X X X X X X X X X X X X X X X X X X X X X X X X X X X X X X X X X X X X X X X X X X X X X X X X X X X X X X ",
"e e e e e e e e e e e e e e e e e e e e e e e e e e e e e e e e e e e e e e e e e e e e e e e e e e e e e e e e e e e e e e e e e e e e e e e e e e e e e e e e e e e e e e e e e e e e e e e e e e e e e e e e e e e e e e e e e e e e e e e e e e e e e e e e e e e e e e e e e e e e e e e e e e e e e e e e e e e e e e e e e e e e e e e e e e e e e e e e e e e e e e e e e e e e e e e e e e e e e e e e e e e e e e e e e e e e e e e e e e e e e e e e e e e e e e e e e e e e e e e e e e e e e e e e e e e e e e e e ",
"8 8 8 8 8 8 8 8 8 8 8 8 8 8 8 8 8 8 8 8 8 8 8 8 8 8 8 8 8 8 8 8 8 8 8 8 8 8 8 8 8 8 8 8 8 8 8 8 8 8 8 8 8 8 8 8 8 8 8 8 8 8 8 8 8 8 8 8 8 8 8 8 8 8 8 8 8 8 8 8 8 8 8 8 8 8 8 8 8 8 8 8 8 8 8 8 8 8 8 8 8 8 8 8 8 8 8 8 8 8 8 8 8 8 8 8 8 8 8 8 8 8 8 8 8 8 8 8 8 8 8 8 8 8 8 8 8 8 8 8 8 8 8 8 8 8 8 8 8 8 8 8 8 8 8 8 8 8 8 8 8 8 8 8 8 8 8 8 8 8 8 8 8 8 8 8 8 8 8 8 8 8 8 8 8 8 8 8 8 8 8 8 8 8 8 8 8 8 8 8 8 8 8 8 8 8 8 8 8 8 8 8 8 8 8 8 8 8 8 8 8 8 8 8 8 8 8 8 8 8 8 8 8 8 8 8 8 8 8 8 8 8 8 8 8 8 8 8 8 8 8 8 8 8 8 8 ",
"8 8 8 8 8 8 8 8 8 8 8 8 8 8 8 8 8 8 8 8 8 8 8 8 8 8 8 8 8 8 8 8 8 8 8 8 8 8 8 8 8 8 8 8 8 8 8 8 8 8 8 8 8 8 8 8 8 8 8 8 8 8 8 8 8 8 8 8 8 8 8 8 8 8 8 8 8 8 8 8 8 8 8 8 8 8 8 8 8 8 8 8 8 8 8 8 8 8 8 8 8 8 8 8 8 8 8 8 8 8 8 8 8 8 8 8 8 8 8 8 8 8 8 8 8 8 8 8 8 8 8 8 8 8 8 8 8 8 8 8 8 8 8 8 8 8 8 8 8 8 8 8 8 8 8 8 8 8 8 8 8 8 8 8 8 8 8 8 8 8 8 8 8 8 8 8 8 8 8 8 8 8 8 8 8 8 8 8 8 8 8 8 8 8 8 8 8 8 8 8 8 8 8 8 8 8 8 8 8 8 8 8 8 8 8 8 8 8 8 8 8 8 8 8 8 8 8 8 8 8 8 8 8 8 8 8 8 8 8 8 8 8 8 8 8 8 8 8 8 8 8 8 8 8 8 8 ",
"8 8 8 8 8 8 8 8 8 8 8 8 8 8 8 8 8 8 8 8 8 8 8 8 8 8 8 8 8 8 8 8 8 8 8 8 8 8 8 8 8 8 8 8 8 8 8 8 8 8 8 8 8 8 8 8 8 8 8 8 8 8 8 8 8 8 8 8 8 8 8 8 8 8 8 8 8 8 8 8 8 8 8 8 8 8 8 8 8 8 8 8 8 8 8 8 8 8 8 8 8 8 8 8 8 8 8 8 8 8 8 8 8 8 8 8 8 8 8 8 8 8 8 8 8 8 8 8 8 8 8 8 8 8 8 8 8 8 8 8 8 8 8 8 8 8 8 8 8 8 8 8 8 8 8 8 8 8 8 8 8 8 8 8 8 8 8 8 8 8 8 8 8 8 8 8 8 8 8 8 8 8 8 8 8 8 8 8 8 8 8 8 8 8 8 8 8 8 8 8 8 8 8 8 8 8 8 8 8 8 8 8 8 8 8 8 8 8 8 8 8 8 8 8 8 8 8 8 8 8 8 8 8 8 8 8 8 8 8 8 8 8 8 8 8 8 8 8 8 8 8 8 8 8 8 8 ",
"8 8 8 8 8 8 8 8 8 8 8 8 8 8 8 8 8 8 8 8 8 8 8 8 8 8 8 8 8 8 8 8 8 8 8 8 8 8 8 8 8 8 8 8 8 8 8 8 8 8 8 8 8 8 8 8 8 8 8 8 8 8 8 8 8 8 8 8 8 8 8 8 8 8 8 8 8 8 8 8 8 8 8 8 8 8 8 8 8 8 8 8 8 8 8 8 8 8 8 8 8 8 8 8 8 8 8 8 8 8 8 8 8 8 8 8 8 8 8 8 8 8 8 8 8 8 8 8 8 8 8 8 8 8 8 8 8 8 8 8 8 8 8 8 8 8 8 8 8 8 8 8 8 8 8 8 8 8 8 8 8 8 8 8 8 8 8 8 8 8 8 8 8 8 8 8 8 8 8 8 8 8 8 8 8 8 8 8 8 8 8 8 8 8 8 8 8 8 8 8 8 8 8 8 8 8 8 8 8 8 8 8 8 8 8 8 8 8 8 8 8 8 8 8 8 8 8 8 8 8 8 8 8 8 8 8 8 8 8 8 8 8 8 8 8 8 8 8 8 8 8 8 8 8 8 8 ",
"8 8 8 8 8 8 8 8 8 8 8 8 8 8 8 8 8 8 8 8 8 8 8 8 8 8 8 8 8 8 8 8 8 8 8 8 8 8 8 8 8 8 8 8 8 8 8 8 8 8 8 8 8 8 8 8 8 8 8 8 8 8 8 8 8 8 8 8 8 8 8 8 8 8 8 8 8 8 8 8 8 8 8 8 8 8 8 8 8 8 8 8 8 8 8 8 8 8 8 8 8 8 8 8 8 8 8 8 8 8 8 8 8 8 8 8 8 8 8 8 8 8 8 8 8 8 8 8 8 8 8 8 8 8 8 8 8 8 8 8 8 8 8 8 8 8 8 8 8 8 8 8 8 8 8 8 8 8 8 8 8 8 8 8 8 8 8 8 8 8 8 8 8 8 8 8 8 8 8 8 8 8 8 8 8 8 8 8 8 8 8 8 8 8 8 8 8 8 8 8 8 8 8 8 8 8 8 8 8 8 8 8 8 8 8 8 8 8 8 8 8 8 8 8 8 8 8 8 8 8 8 8 8 8 8 8 8 8 8 8 8 8 8 8 8 8 8 8 8 8 8 8 8 8 8 8 ",
"8 8 8 8 8 8 8 8 8 8 8 8 8 8 8 8 8 8 8 8 8 8 8 8 8 8 8 8 8 8 8 8 8 8 8 8 8 8 8 8 8 8 8 8 8 8 8 8 8 8 8 8 8 8 8 8 8 8 8 8 8 8 8 8 8 8 8 8 8 8 8 8 8 8 8 8 8 8 8 8 8 8 8 8 8 8 8 8 8 8 8 8 8 8 8 8 8 8 8 8 8 8 8 8 8 8 8 8 8 8 8 8 8 8 8 8 8 8 8 8 8 8 8 8 8 8 8 8 8 8 8 8 8 8 8 8 8 8 8 8 8 8 8 8 8 8 8 8 8 8 8 8 8 8 8 8 8 8 8 8 8 8 8 8 8 8 8 8 8 8 8 8 8 8 8 8 8 8 8 8 8 8 8 8 8 8 8 8 8 8 8 8 8 8 8 8 8 8 8 8 8 8 8 8 8 8 8 8 8 8 8 8 8 8 8 8 8 8 8 8 8 8 8 8 8 8 8 8 8 8 8 8 8 8 8 8 8 8 8 8 8 8 8 8 8 8 8 8 8 8 8 8 8 8 8 8 ",
"8 8 8 8 8 8 8 8 8 8 8 8 8 8 8 8 8 8 8 8 8 8 8 8 8 8 8 8 8 8 8 8 8 8 8 8 8 8 8 8 8 8 8 8 8 8 8 8 8 8 8 8 8 8 8 8 8 8 8 8 8 8 8 8 8 8 8 8 8 8 8 8 8 8 8 8 8 8 8 8 8 8 8 8 8 8 8 8 8 8 8 8 8 8 8 8 8 8 8 8 8 8 8 8 8 8 8 8 8 8 8 8 8 8 8 8 8 8 8 8 8 8 8 8 8 8 8 8 8 8 8 8 8 8 8 8 8 8 8 8 8 8 8 8 8 8 8 8 8 8 8 8 8 8 8 8 8 8 8 8 8 8 8 8 8 8 8 8 8 8 8 8 8 8 8 8 8 8 8 8 8 8 8 8 8 8 8 8 8 8 8 8 8 8 8 8 8 8 8 8 8 8 8 8 8 8 8 8 8 8 8 8 8 8 8 8 8 8 8 8 8 8 8 8 8 8 8 8 8 8 8 8 8 8 8 8 8 8 8 8 8 8 8 8 8 8 8 8 8 8 8 8 8 8 8 8 ",
"8 8 8 8 8 8 8 8 8 8 8 8 8 8 8 8 8 8 8 8 8 8 8 8 8 8 8 8 8 8 8 8 8 8 8 8 8 8 8 8 8 8 8 8 8 8 8 8 8 8 8 8 8 8 8 8 8 8 8 8 8 8 8 8 8 8 8 8 8 8 8 8 8 8 8 8 8 8 8 8 8 8 8 8 8 8 8 8 8 8 8 8 8 8 8 8 8 8 8 8 8 8 8 8 8 8 8 8 8 8 8 8 8 8 8 8 8 8 8 8 8 8 8 8 8 8 8 8 8 8 8 8 8 8 8 8 8 8 8 8 8 8 8 8 8 8 8 8 8 8 8 8 8 8 8 8 8 8 8 8 8 8 8 8 8 8 8 8 8 8 8 8 8 8 8 8 8 8 8 8 8 8 8 8 8 8 8 8 8 8 8 8 8 8 8 8 8 8 8 8 8 8 8 8 8 8 8 8 8 8 8 8 8 8 8 8 8 8 8 8 8 8 8 8 8 8 8 8 8 8 8 8 8 8 8 8 8 8 8 8 8 8 8 8 8 8 8 8 8 8 8 8 8 8 8 8 ",
"8 8 8 8 8 8 8 8 8 8 8 8 8 8 8 8 8 8 8 8 8 8 8 8 8 8 8 8 8 8 8 8 8 8 8 8 8 8 8 8 8 8 8 8 8 8 8 8 8 8 8 8 8 8 8 8 8 8 8 8 8 8 8 8 8 8 8 8 8 8 8 8 8 8 8 8 8 8 8 8 8 8 8 8 8 8 8 8 8 8 8 8 8 8 8 8 8 8 8 8 8 8 8 8 8 8 8 8 8 8 8 8 8 8 8 8 8 8 8 8 8 8 8 8 8 8 8 8 8 8 8 8 8 8 8 8 8 8 8 8 8 8 8 8 8 8 8 8 8 8 8 8 8 8 8 8 8 8 8 8 8 8 8 8 8 8 8 8 8 8 8 8 8 8 8 8 8 8 8 8 8 8 8 8 8 8 8 8 8 8 8 8 8 8 8 8 8 8 8 8 8 8 8 8 8 8 8 8 8 8 8 8 8 8 8 8 8 8 8 8 8 8 8 8 8 8 8 8 8 8 8 8 8 8 8 8 8 8 8 8 8 8 8 8 8 8 8 8 8 8 8 8 8 8 8 8 ",
"8 8 8 8 8 8 8 8 8 8 8 8 8 8 8 8 8 8 8 8 8 8 8 8 8 8 8 8 8 8 8 8 8 8 8 8 8 8 8 8 8 8 8 8 8 8 8 8 8 8 8 8 8 8 8 8 8 8 8 8 8 8 8 8 8 8 8 8 8 8 8 8 8 8 8 8 8 8 8 8 8 8 8 8 8 8 8 8 8 8 8 8 8 8 8 8 8 8 8 8 8 8 8 8 8 8 8 8 8 8 8 8 8 8 8 8 8 8 8 8 8 8 8 8 8 8 8 8 8 8 8 8 8 8 8 8 8 8 8 8 8 8 8 8 8 8 8 8 8 8 8 8 8 8 8 8 8 8 8 8 8 8 8 8 8 8 8 8 8 8 8 8 8 8 8 8 8 8 8 8 8 8 8 8 8 8 8 8 8 8 8 8 8 8 8 8 8 8 8 8 8 8 8 8 8 8 8 8 8 8 8 8 8 8 8 8 8 8 8 8 8 8 8 8 8 8 8 8 8 8 8 8 8 8 8 8 8 8 8 8 8 8 8 8 8 8 8 8 8 8 8 8 8 8 8 8 ",
"8 8 8 8 8 8 8 8 8 8 8 8 8 8 8 8 8 8 8 8 8 8 8 8 8 8 8 8 8 8 8 8 8 8 8 8 8 8 8 8 8 8 8 8 8 8 8 8 8 8 8 8 8 8 8 8 8 8 8 8 8 8 8 8 8 8 8 8 8 8 8 8 8 8 8 8 8 8 8 8 8 8 8 8 8 8 8 8 8 8 8 8 8 8 8 8 8 8 8 8 8 8 8 8 8 8 8 8 8 8 8 8 8 8 8 8 8 8 8 8 8 8 8 8 8 8 8 8 8 8 8 8 8 8 8 8 8 8 8 8 8 8 8 8 8 8 8 8 8 8 8 8 8 8 8 8 8 8 8 8 8 8 8 8 8 8 8 8 8 8 8 8 8 8 8 8 8 8 8 8 8 8 8 8 8 8 8 8 8 8 8 8 8 8 8 8 8 8 8 8 8 8 8 8 8 8 8 8 8 8 8 8 8 8 8 8 8 8 8 8 8 8 8 8 8 8 8 8 8 8 8 8 8 8 8 8 8 8 8 8 8 8 8 8 8 8 8 8 8 8 8 8 8 8 8 8 ",
"8 8 8 8 8 8 8 8 8 8 8 8 8 8 8 8 8 8 8 8 8 8 8 8 8 8 8 8 8 8 8 8 8 8 8 8 8 8 8 8 8 8 8 8 8 8 8 8 8 8 8 8 8 8 8 8 8 8 8 8 8 8 8 8 8 8 8 8 8 8 8 8 8 8 8 8 8 8 8 8 8 8 8 8 8 8 8 8 8 8 8 8 8 8 8 8 8 8 8 8 8 8 8 8 8 8 8 8 8 8 8 8 8 8 8 8 8 8 8 8 8 8 8 8 8 8 8 8 8 8 8 8 8 8 8 8 8 8 8 8 8 8 8 8 8 8 8 8 8 8 8 8 8 8 8 8 8 8 8 8 8 8 8 8 8 8 8 8 8 8 8 8 8 8 8 8 8 8 8 8 8 8 8 8 8 8 8 8 8 8 8 8 8 8 8 8 8 8 8 8 8 8 8 8 8 8 8 8 8 8 8 8 8 8 8 8 8 8 8 8 8 8 8 8 8 8 8 8 8 8 8 8 8 8 8 8 8 8 8 8 8 8 8 8 8 8 8 8 8 8 8 8 8 8 8 8 ",
"8 8 8 8 8 8 8 8 8 8 8 8 8 8 8 8 8 8 8 8 8 8 8 8 8 8 8 8 8 8 8 8 8 8 8 8 8 8 8 8 8 8 8 8 8 8 8 8 8 8 8 8 8 8 8 8 8 8 8 8 8 8 8 8 8 8 8 8 8 8 8 8 8 8 8 8 8 8 8 8 8 8 8 8 8 8 8 8 8 8 8 8 8 8 8 8 8 8 8 8 8 8 8 8 8 8 8 8 8 8 8 8 8 8 8 8 8 8 8 8 8 8 8 8 8 8 8 8 8 8 8 8 8 8 8 8 8 8 8 8 8 8 8 8 8 8 8 8 8 8 8 8 8 8 8 8 8 8 8 8 8 8 8 8 8 8 8 8 8 8 8 8 8 8 8 8 8 8 8 8 8 8 8 8 8 8 8 8 8 8 8 8 8 8 8 8 8 8 8 8 8 8 8 8 8 8 8 8 8 8 8 8 8 8 8 8 8 8 8 8 8 8 8 8 8 8 8 8 8 8 8 8 8 8 8 8 8 8 8 8 8 8 8 8 8 8 8 8 8 8 8 8 8 8 8 8 "
};
