/* XPM */
static char *comp_delay_x2_stereo[] = {
/* columns rows colors chars-per-pixel */
"256 256 202 2 ",
"   c #09090B",
".  c #150E0B",
"X  c #130C07",
"o  c #18110F",
"O  c #17100D",
"+  c #0E0E14",
"@  c #0F1014",
"#  c #0E161C",
"$  c #111216",
"%  c #1C1615",
"&  c #1E1817",
"*  c #16161D",
"=  c #1B151A",
"-  c #17181E",
";  c #1D191B",
":  c #221C1D",
">  c #261C1B",
",  c #391F1F",
"<  c #29211F",
"1  c #26201F",
"2  c #161720",
"3  c #171922",
"4  c #1B1C22",
"5  c #1C1D28",
"6  c #231E20",
"7  c #321E20",
"8  c #1E2126",
"9  c #1F212C",
"0  c #1B2937",
"q  c #1C333C",
"w  c #242124",
"e  c #2A2326",
"r  c #25262E",
"t  c #2B2628",
"y  c #26282F",
"u  c #2D292D",
"i  c #322521",
"p  c #322B2E",
"a  c #3C2E2C",
"s  c #382725",
"d  c #232431",
"f  c #282732",
"g  c #262833",
"h  c #292A34",
"j  c #272939",
"k  c #2C2E3C",
"l  c #22263B",
"z  c #342D31",
"x  c #332F38",
"c  c #2E303E",
"v  c #353135",
"b  c #383236",
"n  c #35323C",
"m  c #3E363A",
"M  c #3C383F",
"N  c #3E302D",
"B  c #49201E",
"V  c #5C241D",
"C  c #51211D",
"Z  c #62251D",
"A  c #6D251B",
"S  c #74251A",
"D  c #7D2619",
"F  c #482A29",
"G  c #562721",
"H  c #41312E",
"J  c #463431",
"K  c #493632",
"L  c #4E3935",
"P  c #41383C",
"I  c #523C37",
"U  c #543E38",
"Y  c #5B3132",
"T  c #7E3329",
"R  c #1D3944",
"E  c #1A2656",
"W  c #1C254A",
"Q  c #252A43",
"!  c #2E3141",
"~  c #323547",
"^  c #393641",
"/  c #373946",
"(  c #3C3A44",
")  c #333649",
"_  c #36394B",
"`  c #3B3C4C",
"'  c #3B3E51",
"]  c #373B51",
"[  c #14266F",
"{  c #413D45",
"}  c #413F4C",
"|  c #1E4956",
" . c #1D414C",
".. c #3E404F",
"X. c #3E4154",
"o. c #3E425A",
"O. c #1E5360",
"+. c #44414C",
"@. c #48454F",
"#. c #434454",
"$. c #494752",
"%. c #4C4955",
"&. c #42455A",
"*. c #46495D",
"=. c #4A4B5C",
"-. c #484758",
";. c #504E5B",
":. c #52515E",
">. c #464A62",
",. c #4B4E63",
"<. c #494E6A",
"1. c #444962",
"2. c #4E5164",
"3. c #4D526A",
"4. c #525364",
"5. c #585766",
"6. c #595866",
"7. c #52556C",
"8. c #56596E",
"9. c #5C5B6C",
"0. c #595768",
"q. c #4F5471",
"w. c #525772",
"e. c #555973",
"r. c #5A5D74",
"t. c #555C7B",
"y. c #5A5E79",
"u. c #605F71",
"i. c #5D6076",
"p. c #5D617B",
"a. c #626274",
"s. c #63657C",
"d. c #66687D",
"f. c #696A7D",
"g. c #872617",
"h. c #8A2617",
"j. c #842618",
"k. c #882718",
"l. c #883C3B",
"z. c #813429",
"x. c #B23825",
"c. c #DF3D3F",
"v. c #E13D3F",
"b. c #EE452B",
"n. c #E53F40",
"m. c #E64242",
"M. c #FF5955",
"N. c #FA5653",
"B. c #EF4C4A",
"V. c #132A86",
"C. c #112C97",
"Z. c #0E2EA9",
"A. c #0B2FBB",
"S. c #0C2FB4",
"D. c #0B30BD",
"F. c #102EA1",
"G. c #217588",
"H. c #206F80",
"J. c #5D6282",
"K. c #5F6688",
"L. c #626682",
"P. c #656A84",
"I. c #6B6D83",
"U. c #656B8A",
"Y. c #6A6E8A",
"T. c #606689",
"R. c #6F7085",
"E. c #6D718C",
"W. c #707186",
"Q. c #72748C",
"!. c #76788F",
"~. c #6D7392",
"^. c #6B739A",
"/. c #727692",
"(. c #767994",
"). c #7A7C94",
"_. c #757B9B",
"`. c #7A7E9A",
"'. c #717798",
"]. c #656C91",
"[. c #727AA3",
"{. c #787FA4",
"}. c #0B30C1",
"|. c #7D819D",
" X c #7D82A1",
".X c #7A82AC",
"XX c #7780AB",
"oX c #7E87B4",
"OX c #81849E",
"+X c #8286A3",
"@X c #8589A4",
"#X c #868BAB",
"$X c #8A8EAC",
"%X c #8187AA",
"&X c #8D90AE",
"*X c #878DB3",
"=X c #8C93B7",
"-X c #9399BA",
";X c #9297B8",
":X c #969CC2",
">X c #ABB4E2",
",X c #9EA4C7",
/* pixels */
"r r r r r r r r r r r r r r r r r r r r r r r r r r r r r r r r r r r r r r r r r r r r r r r r r r r r r r r r r r r r r r r r r r r r r r r r r r r r r r r r r r r r r r r r r r r r r r r r r r r r r r r r r r r r r r r r r r r r r r r r r r r r r r r r r r r r r r r r r r r r r r r r r r r r r r r r r r r r r r r r r r r r r r r r r r r r r r r r r r r r r r r r r r r r r r r r r r r r r r r r r r r r r r r r r r r r r r r r r r r r r r r r r r r r r r r r r r r r r r r r r r r r r r r r r r r r r r r r ",
"r r r r r r r r r r r r r r r r r r r r r r r r r r r r r r r r r r r r r r r r r r r r r r r r r r r r r r r r r r r r r r r r r r r r r r r r r r r r r r r r r r r r r r r r r r r r r r r r r r r r r r r r r r r r r r r r r r r r r r r r r r r r r r r r r r r r r r r r r r r r r r r r r r r r r r r r r r r r r r r r r r r r r r r r r r r r r r r r r r r r r r r r r r r r r r r r r r r r r r r r r r r r r r r r r r r r r r r y y y y y r r y y y y r y y r r r r y y y r y y r r y y r r r r y y y y y r y y y ",
"r r r r r r r r r r r r r r r r r r r r r r r r r r r r r r r r r r r r r r r r r r r r r r r r r r r r r r r r r r r r r r r r r r r r r r r r r r r r r r r r r r r r r r r r r r r r r r r r r r r r r r r r r r r r r r r r r r r r r r r r r r r r r r r r r r r r r r r r r r r r r r r r r r r r r r r r r r r r r r r r r r r r r r r r r r r r r r r r r r r r r r r r r r r r r r r r r r r r r r r r r r r r r r r r r r r r r r r r w 8 w y y r r w 8 w r r r y r r y r r r y r r y y r r y r r y r w 8 w r y r 8 w ",
"r r r r r r r r r r r r r r r r r r r r r r r r r r r r r r r r r r r r r r r r r r r r r r r r r r r r r r r r r r r r r r r r r r r r r r r r r r r r r r r r r r r r r r r r r r r r r r r r r r r r r r r r r r r r r r r r r r r r r r r r r r r r r r r r r r r r r r r r r r r r r r r r r r r r r r r r r r r r r r r r r r r r r r r r r r r r r r r r r r r r r r r r r r r r r r r r r r r r r r r r r r r r r r r r r r r r y r y #.7.7.` r r y #.7.8.2.y #./ r y y r h *.c w #.X.r r #...r y y r h *.7.X.f r n 2.2.",
"r r r r r r r r r r r r r r r r r r r r r r r r r r r r r r r r r r r r r r r r r r r r r r r r r r r r r r r r r r r r r r r r r r r r r r r r r r r r r r r r r r r r r r r r r r r r r r r r r r r r r r r r r r r r r r r r r r r r r r r r r r r r r r r r r r r r r r r r r r r r r r r r r r r r r r r r r r r r r r r r r r r r r r r r r r r r r r r r r r r r r r r r r r r r r r r r r r r r r r r r r r r r r r r r r r r r y r y ~.P.e._.r.r r E.P.7.7.r Y.7.4 f f 8 #.*X=.4 &._.h h _.X.w f r k ~.Y.r.P.h ` _.p.p.",
"r r r r r r r r r r r r r r r r r r r r r r r r r r r r r r r r r r r r r r r r r r r r r r r r r r r r r r r r r r r r r r r r r r r r r r r r r r r r r r r r r r r r r r r r r r r r r r r r r r r r r r r r r r r r r r r r r r r r r r r r r r r r r r r r r r r r r r r r r r r r r r r r r r r r r r r r r r r r r r r r r r r r r r r r r r r r r r r r r r r r r r r r r r r r r r r r r r r r r r r r r r r r r r r r r r r r y r r ~.` * ~ `.` w ~.#.4 r w P.2.4 f y r p./.P.r w Y.2.7.P.8 y f 8 y.Y.w w y r /.4.4 4 ",
"r r r r r r r r r r r r r r r r r r r r r r r r r r r r r r r r r r r r r r r r r r r r r r r r r r r r r r r r r r r r r r r r r r r r r r r r r r r r r r r r r r r r r r r r r r r r r r r r r r r r r r r r r r r r r r r r r r r r r r r r r r r r r r r r r r r r r r r r r r r r r r r r r r r r r r r r r r r r r r r r r r r r r r r r r r r r r r r r r r r r r r r r r r r r r r r r r r r r r r r r r r r r r r r r r r r r y r r ~.#.w r P.2.8 Y.'.E.p.8 P.2.5 f r n /./ ~./ 8 ` _._./ r y y w Y.2.8 h r k _./ r r ",
"r r r r r r r r r r r r r r r r r r r r r r r r r r r r r r r r r r r r r r r r r r r r r r r r r r r r r r r r r r r r r r r r r r r r r r r r r r r r r r r r r r r r r r r r r r r r r r r r r r r r r r r r r r r r r r r r r r r r r r r r r r r r r r r r r r r r r r r r r r r r r r r r r r r r r r r r r r r r r r r r r r r r r r r r r r r r r r r r r r r r r r r r r r r r r r r r r r r r r r r r r r r r r r r r r r r r y r r ~.#.8 r Y.2.8 E.2.n / w P.2.4 f w 2. Xp. X8.w w Y.L.8 y y y w Y.4.4 f r h _./ w w ",
"r r r r r r r r r r r r r r r r r r r r r r r r r r r r r r r r r r r r r r r r r r r r r r r r r r r r r r r r r r r r r r r r r r r r r r r r r r r r r r r r r r r r r r r r r r r r r r r r r r r r r r r r r r r r r r r r r r r r r r r r r r r r r r r r r r r r r r r r r r r r r r r r r r r r r r r r r r r r r r r r r r r r r r r r r r r r r r r r r r r r r r r r r r r r r r r r r r r r r r r r r r r r r r r r r r r r y r r ~.X.4 &. X~ w E.#.- r w P.2.4 f r Y.s.=.p.E.f 4 p.e.4 f r f 8 e.~.h r h r Y.y.r r ",
"r r r r r r r r r r r r r r r r r r r r r r r r r r r r r r r r r r r r r r r r r r r r r r r r r r r r r r r r r r r r r r r r r r r r r r r r r r r r r r r r r r r r r r r r r r r r r r r r r r r r r r r r r r r r r r r r r r r r r r r r r r r r r r r r r r r r r r r r r r r r r r r r r r r r r r r r r r r r r r r r r r r r r r r r r r r r r r r r r r r r r r r r r r r r r r r r r r r r r r r r r r r r r r r r r r r r y r y ~.'.Y._.*.r r E.'.U.s.y L. XE.P.,._.h 4 r _.-.- P.p.4 f r y r h P.'.Y.L.f ^ ~.E.E.",
"r r r r r r r r r r r r r r r r r r r r r r r r r r r r r r r r r r r r r r r r r r r r r r r r r r r r r r r r r r r r r r r r r r r r r r r r r r r r r r r r r r r r r r r r r r r r r r r r r r r r r r r r r r r r r r r r r r r r r r r r r r r r r r r r r r r r r r r r r r r r r r r r r r r r r r r r r r r r r r r r r r r r r r r r r r r r r r r r r r r r r r r r r r r r r r r r r r r r r r r r r r r r r r r r r r r r r r y / ..` c w y r / ..X.` y n ` ..` ^ / r f r / c r ~ n r y r r y r y / ..~ y r h ` ` ",
"r r r r r r r r r r r r r r r r r r r r r r r r r r r r r r r r r r r r r r r r r r r r r r r r r r r r r r r r r r r r r r r r r r r r r r r r r r r r r r r r r r r r r r r r r r r r r r r r r r r y y y y y y y y y y y y y y y y y y y y y y y y y y y y y y y y y y y y y y y y y y y y y y y y y y y y y y y y y y y y y y y y y y y y y y y y y y y y y y y y y y y y y y y y y y y y y y y y y y y y y y y y y y y y y y y y y y y y r w w r f y y r w 8 w y r w w w r r y y y r r f r r y y y y y y y w w r y y r w w ",
"r r r r r r r r r r r r r r r r r r r r r r r r r r r r r r r r r r r r r r r r r r r r r r r r r r r r r r r r r r r r r r r r r r r r r r r r r r r r r r r r r r r r r r r r r r r r r r r r r r y r r r r r r r r r r r r r r r r r r r r r r r r r r r r r r r r r r r r r r r r r r r r r r r r r r r r r r r r r r r r r r r r r r r r r r r r r r r r r r r r r r r r r r r r r r r r r r r r r r r r r r r r r r r r r r r r r r r r r r r r r r r r r r r r r r r r r r r r r r r r r r r r r r r r r r r r r r r r r ",
"r r r r r r r r r r r r r r r r r r r r r r r r r r r r r r r r r r r r r r r r r r r r r r r r r r r r r r r r r r r r r r r r r r r r r r r r r r r r r r r r r r r r r r r r r r r r r r r r r y r 5 4 4 4 4 4 4 4 4 4 4 4 4 4 4 4 4 4 4 4 4 4 4 4 4 4 4 4 4 4 4 4 4 4 4 4 4 4 4 4 4 4 4 4 4 4 4 4 4 4 4 4 4 4 4 4 4 4 4 4 4 4 4 4 4 4 4 4 4 4 4 4 4 4 4 4 4 4 4 4 4 4 4 4 4 4 4 4 4 4 4 4 4 4 4 4 4 4 4 4 4 4 4 4 4 4 4 4 4 4 4 4 4 4 4 4 4 4 4 4 4 4 4 4 4 4 4 4 4 4 4 4 4 4 4 4 4 4 4 4 4 4 4 4 4 4 4 4 4 4 4 4 4 4 4 4 4 ",
"r r r r r r r r r r r r r r r r r r r r r r r r r r r r r r r r r r r r r r r r r r r r r r r r r r r r r r r r r r r r r r r r r r r r r r r r r r r r r r r r r r r r r r r r r r r r r r r r y r 5 4 4 4 4 4 4 4 4 4 4 4 4 4 4 4 4 4 4 4 4 4 4 4 4 4 4 4 4 4 4 4 4 4 4 4 4 4 4 4 4 4 4 4 4 4 4 4 4 4 4 4 4 4 4 4 4 4 4 4 4 4 4 4 4 4 4 4 4 4 4 4 4 4 4 4 4 4 4 4 4 4 4 4 4 4 4 4 4 4 4 4 4 4 4 4 4 4 4 4 4 4 4 4 4 4 4 4 4 4 4 4 4 4 4 4 4 4 4 4 4 4 4 4 4 4 4 4 4 4 4 4 4 4 4 4 4 4 4 4 4 4 4 4 4 4 4 4 4 4 4 4 4 4 4 4 4 4 ",
"r r r r r r r r r r r r r r r r r r r r r r r r r r r r r r r r r r r r r r r r r r r r r r r r r r r r r r r r r r r r r r r r r r r r r r r r r r r r r r r r r r r r r r r r r r r r r r r y r 5 4 4 4 4 4 4 4 4 4 4 4 4 4 4 4 4 4 4 4 4 4 4 4 4 4 4 4 4 4 4 4 4 4 4 4 4 4 4 4 4 4 4 4 4 4 4 4 4 4 4 4 4 4 4 4 4 4 4 4 4 4 4 4 4 4 4 4 4 4 4 4 4 4 4 4 4 4 4 4 4 4 4 4 4 4 4 4 4 4 4 4 4 4 4 4 4 4 4 4 4 4 4 4 4 4 4 4 4 4 4 4 4 4 4 4 4 4 4 4 4 4 4 4 4 4 4 4 4 4 4 4 4 4 4 4 4 4 4 4 4 4 4 4 4 4 4 4 4 4 4 4 4 4 4 4 4 4 4 ",
"r r r r r r r r r r r r r r r r r r r r r r r r r r r r r r r r r r r r r r r r r r r r r r r r r r r r r r r r r r r r r r r r r r r r r r r r r r r r r r r r r r r r r r r r r r r r r r y r 5 4 4 4 4 4 4 4 4 4 4 4 4 4 4 4 4 4 4 4 4 4 4 4 4 4 4 4 4 4 4 4 4 4 4 4 4 4 4 4 4 4 4 4 4 4 4 4 4 4 4 4 4 4 4 4 4 4 4 4 4 4 - * - 4 4 4 4 4 * - 4 4 4 4 4 4 4 4 4 4 4 4 4 4 4 4 4 4 4 4 4 4 4 4 4 4 4 4 4 4 4 4 4 4 4 4 4 4 4 4 4 4 4 4 4 4 4 4 4 4 4 4 4 4 4 4 4 4 4 4 4 4 4 4 4 4 4 4 4 4 4 4 4 4 4 4 4 4 4 4 4 4 4 4 4 4 4 4 ",
"r r r r r r r r r r r r r r r r r r r r r r r r r r r r r r r r r r r r r r r r r r r r r r r r r r r r r r r r r r r r r r r r r r r r r r r r r r r r r r r r r r r r r r r r r r r r r y r 5 4 4 4 4 4 4 4 4 4 4 = = 4 4 4 4 4 4 4 4 4 4 4 4 4 4 4 4 4 4 4 4 4 4 4 4 4 4 4 4 4 4 4 4 4 4 4 4 4 4 4 4 4 4 4 4 4 4 4 4 4 - h ^ r 4 4 4 5 * 8.` * 4 4 4 4 4 4 4 4 w 4 4 4 4 4 4 4 4 4 4 4 4 4 4 4 4 4 4 4 4 4 4 4 4 4 w 4 4 4 4 4 4 4 4 4 4 4 4 4 4 4 4 4 4 4 4 4 4 4 4 4 4 4 4 4 4 4 4 4 4 4 4 4 4 4 4 4 4 4 4 4 4 4 4 4 = ; 4 ",
"r r r r r r r r r r r r r r r r r r r r r r r r r r r r r r r r r r r r r r r r r r r r r r r r r r r r r r r r r r r r r r r r r r r r r r r r r r r r r r r r r r r r r r r r r r r r y r 5 4 4 4 4 4 4 4 4 4 4 = R  .; 4 4 4 4 4 4 4 4 4 4 4 4 4 4 4 4 4 4 4 4 4 4 4 4 4 4 4 4 4 4 4 4 4 4 4 4 4 4 4 4 4 4 4 4 4 4 4 * =.|.(.i.4 * - - + Q.=.$ - - - 4 * 3 $ ` r.* 4 4 3 * - * - 4 * - 4 - - * - - - - 4 - * - $ h s.8 3 4 4 4 4 4 4 4 4 4 4 4 4 4 4 4 4 4 4 4 4 4 4 4 4 4 4 4 4 4 4 4 4 4 4 4 4 4 4 4 4 4 4 4 4 4 4 4  .q = ",
"r r r r r r r r r r r r r r r r r r r r r r r r r r r r r r r r r r r r r r r r r r r r r r r r r r r r r r r r r r r r r r r r r r r r r r r r r r r r r r r r r r r r r r r r r r r y r 5 4 4 4 4 4 4 4 4 4 4 = R G.q ; 4 4 4 4 4 4 4 4 4 4 4 4 4 4 4 4 4 4 4 4 4 4 4 4 4 4 4 4 4 4 4 4 4 4 4 4 4 4 4 4 4 4 4 4 4 4 4 $ +X`   r - -.`.I.- I.#.r Q.).` $ 7.|.i.Q.:Xs.w $ ` d.I.(.f k s.P.=./ `.Q.y / /.(.^ r E.`.` 7.,XQ.h - 4 4 4 4 4 4 4 4 4 4 4 4 4 4 4 4 4 4 4 4 4 4 4 4 4 4 4 4 4 4 4 4 4 4 4 4 4 4 4 4 4 4 4 4 4 ; R G.0 ",
"r r r r r r r r r r r r r r r r r r r r r r r r r r r r r r r r r r r r r r r r r r r r r r r r r r r r r r r r r r r r r r r r r r r r r r r r r r r r r r r r r r r r r r r r r r y r 5 4 4 4 4 4 4 4 4 4 4 ; R G.0 = 4 4 4 4 4 4 4 4 4 4 4 4 4 4 4 4 4 4 4 4 4 4 4 4 4 4 4 4 4 4 4 4 4 4 4 4 4 4 4 4 4 4 4 4 4 4 4 4 * 4.+X#.$ n +Xy I.8.d.#.R.=.` `.-.|.h r 2.I.4 5 $ #.;Xr r.E.h :X/ r +Xc 8.I./.4.w 5 E.4.^ |.#.(.r 4 4 4 4 4 4 4 4 4 4 4 4 4 4 4 4 4 4 4 4 4 4 4 4 4 4 4 4 4 4 4 4 4 4 4 4 4 4 4 4 4 4 4 4 4 4 4 4 = q G.",
"r r r r r r r r r r r r r r r r r r r r r r r r r r r r r r r r r r r r r r r r r r r r r r r r r r r r r r r r r r r r r r r r r r r r r r r r r r r r r r r r r r r r r r r r r y r 5 4 4 4 4 4 4 4 4 4 4 4 = | G.; ; 4 4 4 4 4 4 4 4 4 4 4 4 4 4 4 4 4 4 4 4 4 4 4 4 4 4 4 4 4 4 4 4 4 4 4 4 4 4 4 4 4 4 4 4 4 4 4 4 4 - #. Xa.#.;XY.+X8.d.2.+X).(./.I.8.@ $ =.P.* 5 $ #.I.+ h (.` (.$ / ;XE.|.I.` |.8.5 @X`./.`.#.Q.8 4 4 4 4 4 4 4 4 4 4 4 4 4 4 4 4 4 4 4 4 4 4 4 4 4 4 4 4 4 4 4 4 4 4 4 4 4 4 4 4 4 4 4 4 4 4 4 4 ; 5 G.",
"r r r r r r r r r r r r r r r r r r r r r r r r r r r r r r r r r r r r r r r r r r r r r r r r r r r r r r r r r r r r r r r r r r r r r r r r r r r r r r r r r r r r r r r r y r 5 4 4 4 4 4 4 4 4 4 4 4 4 4 = | H.9 4 4 4 4 4 4 4 4 4 4 4 4 4 4 4 4 4 4 4 4 4 4 4 4 4 4 4 4 4 4 4 4 4 4 4 4 4 4 4 4 4 4 4 4 4 4 4 4 4 -   3 |.8.(.$ - $ I.-.|.^ $ + 8.I.  + 2.d.+ 5 $ #.|.  / ).^ (.* ~ @X4 * 4 * $ E.r.).` $ $ ^ (.* - 4 4 4 4 4 4 4 4 4 4 4 4 4 4 4 4 4 4 4 4 4 4 4 4 4 4 4 4 4 4 4 4 4 4 4 4 4 4 4 4 4 4 4 4 4 4 4 0 G. .",
"r r r r r r r r r r r r r r r r r r r r r r r r r r r r r r r r r r r r r r r r r r r r r r r r r r r r r r r r r r r r r r r r r r r r r r r r r r r r r r r r r r r r r r r y r 5 4 4 4 4 4 4 4 4 4 4 4 4 4 4 4 = | | ; 4 4 4 4 4 4 4 4 4 4 4 4 4 4 4 4 4 4 4 4 4 4 4 4 4 4 4 4 4 4 4 4 4 4 4 4 4 4 4 4 4 4 4 4 4 4 4 4 7.i.P.I.w (.I.i.c Q.#.,.|.r.2.k |.d.=./ #X=.8 $ X.-X8.|.=.n |.3 - E.E.r.#.2.r.Q.=.-.|.r.4.h  Xi.r 3 4 4 4 4 4 4 4 4 4 4 4 4 4 4 4 4 4 4 4 4 4 4 4 4 4 4 4 4 4 4 4 4 4 4 4 4 4 4 4 4 4 4 4 4 4 ; O. .= ",
"r r r r r r r r r r r r r r r r r r r r r r r r r r r r r r r r r r r r r r r r r r r r r r r r r r r r r r r r r r r r r r r r r r r r r r r r r r r r r r r r r r r r r r y r 5 4 4 4 4 4 4 4 4 4 4 4 4 4 4 4 4 4 = ; 4 4 4 4 4 4 4 4 4 4 4 4 4 4 4 4 4 4 4 4 4 4 4 4 4 4 4 4 4 4 4 4 4 4 4 4 4 4 4 4 4 4 4 4 4 4 4 4 4 / 4.=.w * r ,.2.r ^ h * ..7./ * h 4...- ` -.5 $ #.E.#.#.- r / 4 3 5 =.4.h n 7.#.4 - ` 7.` - n ,.r 4 4 4 4 4 4 4 4 4 4 4 4 4 4 4 4 4 4 4 4 4 4 4 4 4 4 4 4 4 4 4 4 4 4 4 4 4 4 4 4 4 4 4 4 4 4 4 = = 4 ",
"r r r r r r r r r r r r r r r r r r r r r r r r r r r r r r r r r r r r r r r r r r r r r r r r r r r r r r r r r r r r r r r r r r r r r r r r r r r r r r r r r r r r r y r 5 4 4 4 4 4 4 4 4 4 4 4 4 4 4 4 4 4 4 4 4 4 4 4 4 4 4 4 4 4 4 4 4 4 4 4 4 4 4 4 4 4 4 4 4 4 4 4 4 4 4 4 4 4 4 4 4 4 4 4 4 4 4 4 4 4 4 4 4 4 * @ $ 4 4 4 $ $ 3 * - 4 $ + * 4 - + $ 4 $ $ 4 $ -.E.  $ 4 3 * 4 4 4 $ @ - * + $ 4 4 * + * 4 * $ 4 4 4 4 4 4 4 4 4 4 4 4 4 4 4 4 4 4 4 4 4 4 4 4 4 4 4 4 4 4 4 4 4 4 4 4 4 4 4 4 4 4 4 4 4 4 4 4 4 4 4 ",
"r r r r r r r r r r r r r r r r r r r r r r r r r r r r r r r r r r r r r r r r r r r r r r r r r r r r r r r r r r r r r r r r r r r r r r r r r r r r r r r r r r r r y r 5 4 4 4 4 4 4 4 4 4 4 4 4 4 4 4 4 4 4 4 4 4 4 4 4 4 4 4 4 4 4 4 4 4 4 4 4 4 4 4 4 4 4 4 4 4 4 4 4 4 4 4 4 4 4 4 4 4 4 4 4 4 4 4 4 4 4 4 4 4 4 4 5 4 4 4 4 5 5 4 4 4 4 4 5 4 4 4 5 4 4 4 4 4 $ ..s.- 5 4 4 4 4 4 4 4 5 4 4 5 4 4 4 4 5 4 4 4 4 4 4 4 4 4 4 4 4 4 4 4 4 4 4 4 4 4 4 4 4 4 4 4 4 4 4 4 4 4 4 4 4 4 4 4 4 4 4 4 4 4 4 4 4 4 4 4 4 4 4 4 ",
"y y y y y y y y y y y y y y y y y y y y y y y y y y y y y y y y y y y y y y y y y y y y y y y y y y y y y y y y y y y y y y y y y y y y y y y y y y y y y y y y y y y y r 5 4 4 4 4 4 4 4 4 4 4 4 4 4 4 4 4 4 4 4 4 4 4 4 4 4 4 4 4 4 4 4 4 4 4 4 4 4 4 4 4 4 4 4 4 4 4 4 4 4 4 4 4 4 4 4 4 4 4 4 4 4 4 4 4 4 4 4 4 4 4 4 4 4 4 4 4 4 4 4 4 4 4 4 4 4 4 4 4 4 4 4 4 4 4 4 4 3 4 4 4 4 4 4 4 4 4 4 4 4 4 4 4 4 4 4 4 4 4 4 4 4 4 4 4 4 4 4 4 4 4 4 4 4 4 4 4 4 4 4 4 4 4 4 4 4 4 4 4 4 4 4 4 4 4 4 4 4 4 4 4 4 4 4 4 4 4 4 4 4 4 ",
"4 4 4 4 4 4 4 4 4 4 4 4 4 4 4 4 4 4 4 4 4 4 4 4 4 4 4 4 4 4 4 4 4 4 4 4 4 4 4 4 4 4 4 4 4 4 4 4 4 4 4 4 4 4 4 4 4 4 4 4 4 4 4 4 4 4 4 4 4 4 4 4 4 4 4 4 4 4 4 4 4 4 4 4 4 4 4 4 4 4 4 4 4 4 4 4 4 4 4 4 4 4 4 4 4 4 4 4 4 4 4 4 4 4 4 4 4 4 4 4 4 4 4 4 4 4 4 4 4 4 4 4 4 4 4 4 4 4 4 4 4 4 4 4 4 4 4 4 4 4 4 4 4 4 4 4 4 4 4 4 4 4 4 4 4 4 4 4 4 4 4 4 4 4 4 4 4 4 4 4 4 4 4 4 4 4 4 4 4 4 4 4 4 4 4 4 4 4 4 4 4 4 4 4 4 4 4 4 4 4 4 4 4 4 4 4 4 4 4 4 4 4 4 4 4 4 4 4 4 4 4 4 4 4 4 4 4 4 4 4 4 4 4 4 4 4 4 4 4 4 4 4 4 4 4 4 ",
"3 3 3 3 3 3 3 3 3 3 3 3 3 3 3 3 3 3 3 3 3 3 3 3 3 3 3 3 3 3 3 3 3 3 3 3 3 3 3 3 3 3 3 3 3 3 3 3 3 3 3 3 3 3 3 3 3 3 3 3 3 3 3 3 3 3 3 3 3 3 3 3 3 3 3 3 3 3 3 3 3 3 3 3 3 3 3 3 3 3 3 3 3 3 3 3 3 3 3 3 3 3 3 3 3 3 3 3 3 3 3 3 3 3 3 3 3 3 3 3 3 3 3 3 3 3 3 3 3 3 3 3 3 3 3 3 3 3 3 3 3 3 3 3 3 3 3 3 3 3 3 3 3 3 3 3 3 3 3 3 3 3 3 3 3 3 3 3 3 3 3 3 3 3 3 3 3 3 3 3 3 3 3 3 3 3 3 3 3 3 3 3 3 3 3 3 3 3 3 3 3 3 3 3 3 3 3 3 3 3 3 3 3 3 3 3 3 3 3 3 3 3 3 3 3 3 3 3 3 3 3 3 3 3 3 3 3 3 3 3 3 3 3 3 3 3 3 3 3 3 3 3 3 3 3 3 ",
"w w w w w w w w w w w w w w w w w w w w w w w w w w w w w w w w w w w w w w w w w w w w w w w w w w w w w w w w w w w w w w w w w w w w w w w w w w w w w w w w w w w w w w w w w w w w w w w w w w w w w w w w w w w w w w w w w w w w w w w w w w w w w w w w w w w w w w w w w w w w w w w w w w w w w w w w w w w w w w w w w w w w w w w w w w w w w w w w w w w w w w w w w w w w w w w w w w w w w w w w w w w w w w w w w w w w w w w w w w w w w w w w w w w w w w w w w w w w w w w w w w w w w w w w w w w w w w w w ",
"P P P P P P P P P P P P P P P P P P P P P P P P P P P P P P P P P P P P P P P P P P P P P P P P P P P P P P P P P P P P P P P P P P P P P P P P P P P P P P P P P P P P P P P P P P P P P P P P P P P P P P P P P P P P P P P P P P P P P P P P P P P P P P P P P P P P P P P P P P P P P P P P P P P P P P P P P P P P P P P P P P P P P P P P P P P P P P P P P P P P P P P P P P P P P P P P P P P P P P P P P P P P P P P P P P P P P P P P P P P P P P P P P P P P P P P P P P P P P P P P P P P P P P P P P P P P P P P P ",
"m m m m m m m m m m m m m m m m m m m m m m m m m m m m m m m m m m m m m m m m m m m m m m m m m m m m m m m m m m m m m m m m m m m m m m m m m m m m m m m m m m m m m m m m m m m m m m m m m m m m m m m m m m m m m m m m m m m m m m m m m m m m m m m m m m m m m m m m m m m m m m m m m m m m m m m m m m m m m m m m m m m m m m m m m m m m m m m m m m m m m m m m m m m m m m m m m m m m m m m m m m m m m m m m m m m m m m m m m m m m m m m m m m m m m m m m m m m m m m m m m m m m m m m m m m m m m m m m ",
"m m m m m m m m m m m m m m m m m m m m m m m m m m m m m m m m m m m m m m m m m m m m m m m m m m m m m m m m m m m m m m m m m m m m m m m m m m m m m m m m m m m m m m m m m m m m m m m m m m m m m m m m m m m m m m m m m m m m m m m m m m m m m m m m m m m m m m m m m m m m m m m m m m m m m m m m m m m m m m m m m m m m m m m m m m m m m m m m m m m m m m m m m m m m m m m m m m m m m m m m m m m m m m m m m m m m m m m m m m m m m m m m m m m m m m m m m m m m m m m m m m m m m m m m m m m m m m m m ",
"m m m m m m m m m m m m m m m m m m m m m m m m m m m m m m m m m m m m m m m m m m m m m m m m m m m m m m m m m m m m m m m m m m m m m m m m m m m m m m m m m m m m m m m m m m m m m m m m m m m m m m m m m m m m m m m m m m m m m m m m m m m m m m m m m m m m m m m m m m m m m m m m m m m m m m m m m m m m m m m m m m m m m m m m m m m m m m m m m m m m m m m m m m m m m m m m m m m m m m m m m m m m m m m m m m m m m m m m m m m m m m m m m m m m m m m m m m m m m m m m m m m m m m m m m m m m m m m m ",
"m m m m m m m m m m m m m m m m m m m m m m m m m m m m m m m m m m m m m m m m m m m m m m m m m m m m m m m m m m m m m m m m m m m m m m m m m m m m m m m m m m m m m m m m m m m m m m m m m m m m m m m m m m m m m m m m m m m m m m m m m m m m m m m m m m m m m m m m m m m m m m m m m m m m m m m m m m m m m m m m m m m m m m m m m m m m m m m m m m m m m m m m m m m m m m m m m m m m m m m m m m m m m m m m m m m m m m m m m m m m m m m m m m m m m m m m m m m m m m m m m m m m m m m m m m m m m m m m ",
"m m m m m m m m m m m m m m m m m m m m m m m m m m m m m m m m m m m m m m m m m m m m m m m m m m m m m m m m m m m m m m m m m m m m m m m m m m m m m m m m m m m m m m m m m m m m m m m m m m m m m m m m m m m m m m m m m m m m m m m m m m m m m m m m m m m m m m m m m m m m m m m m m m m m m m m m m m m m m m m m m m m m m m m m m m m m m m m m m m m m m m m m m m m m m m m m m m m m m m m m m m m m m m m m m m m m m m m m m m m m m m m m m m m m m m m m m m m m m m m m m m m m m m m m m m m m m m m m ",
"m m m m m m m m m m m m m m m m m m m m m m m m m m m m m m m m m m m m m m m m m m m m m m m m m m m m m m m m m m m m m m m m m m m m m m m m m m m m m m m m m m m m m m m m m m m m m m m m m m m m m m m m m m m m m m m m m m m m m m m m m m m m m m m m m m m m m m m m m m m m m m m m m m m m m m m m m m m m m m m m m m m m m m m m m m m m m m m m m m m m m m m m m m m m m m m m m m m m m m m m m m m m m m m m m m m m m m m m m m m m m m m m m m m m m m m m m m m m m m m m m m m m m m m m m m m m m m m m ",
"m m m m m m m m m m m m m m m m m m m m m m m m m m m m m m m m m m m m m m m m m m m m m m m m m m m m m m m m m m m m m m m m m m m m m m m m m m m m m m m m m m m m m m m m m m m m m m m m m m m m m m m m m m m m m m m m m m m m m m m m m m m m m m m m m m m m m m m m m m m m m m m m m m m m m m m m m m m m m m m m m m m m m m m m m m m m m m m m m m m m m m m m m m m m m m m m m m m m m m m m m m m m m m m m m m m m m m m m m m m m m m m m m m m m m m m m m m m m m m m m m m m m m m m m m m m m m m m m ",
"m m m m m m m m m m m m m m m m m m m m m m m m m m m m m m m m m m m m m m m m m m m m m m m m m m m m m m m m m m m m m m m m m m m m m m m m m m m m m m m m m m m m m m m m m m m m m m m m m m m m m m m m m m m m m m m m m m m m m m m m m m m m m m m m m m m m m m m m m m m m m m m m m m m m m m m m m m m m m m m m m m m m m m m m m m m m m m m m m m m m m m m m m m m m m m m m m m m m m m m m m m m m m m m m m m m m m m m m m m m m m m m m m m m m m m m m m m m m m m m m m m m m m m m m m m m m m m m m ",
"m m m m m m m m m m m m m m m m m m m m m m m m m m m m m m m m m m m m m m m m m m m m m m m m m m m m m m m m m m m m m m m m m m m m m m m m m m m m m m m m m m m m m m m m m m m m m m m m m m m m m m m m m m m m m m m m m m m m m m m m m m m m m m m m m m m m m m m m m m m m m m m m m m m m m m m m m m m m m m m m m m m m m m m m m m m m m m m m m m m m m m m m m m m m m m m m m m m m m m m m m m m m m m m m m m m m m m m m m m m m m m m m m m m m m m m m m m m m m m m m m m m m m m m m m m m m m m m m ",
"m m m m m m m m m m m m m m m m m m m m m m m m m m m m m m m m m m m m m m m m m m m m m m m m m m m m m m m m m m m m m m m m m m m m m m m m m m m m m m m m m m m m m m m m m m m m m m m m m m m m m m m m m m m m m m m m m m m m m m m m m m m m m m m m m m m m m m m m m m m m m m m m m m m m m m m m m m m m m m m m m m m m m m m m m m m m m m m m m m m m m m m m m m m m m m m m m m m m m m m m m m m m m m m m m m m m m m m m m m m m m m m m m m m m m m m m m m m m m m m m m m m m m m m m m m m m m m m m ",
"P P P P P P P P P P P P P P P P P P P P P P P P P P P P P P P P P P P P P P P P P P P P P P P P P P P P P P P P P P P P P P P P P P P P P P P P P P P P P P P P P P P P P P P P P P P P P P P P P P P P P P P P P P P P P P P P P P P P P P P P P P P P P P P P P P P P P P P P P P P P P P P P P P P P P P P P P P P P P P P P P P P P P P P P P P P P P P P P P P P P P P P P P P P P P P P P P P P P P P P P P P P P P P P P P P P P P P P P P P P P P P P P P P P P P P P P P P P P P P P P P P P P P P P P P P P P P P P P ",
"u u u u u u u u u u u u u u u u u u u u u u u u u u u u u u u u u u u u u u u u u u u u u u u u u u u u u u u u u u u u u u u u u u u u u u u u u u u u u u u u u u u u u u u u u u u u u u u u u u u u u u u u u u u u u u u u u u u u u u u u u u u u u u u u u u u u u u u u u u u u u u u u u u u u u u u u u u u u u u u u u u u u u u u u u u u u u u u u u u u u u u u u u u u u u u u u u u u u u u u u u u u u u u u u u u u u u u u u u u u u u u u u u u u u u u u u u u u u u u u u u u u u u u u u u u u u u u u u ",
"3 3 3 3 3 3 3 3 3 3 3 3 3 3 3 3 3 3 3 3 3 3 3 3 3 3 3 3 3 3 3 3 3 3 3 3 3 3 3 3 3 3 3 3 3 3 3 3 3 3 3 3 3 3 3 3 3 3 3 3 3 3 3 3 3 3 3 3 3 3 3 3 3 3 3 3 3 3 3 3 3 3 3 3 3 3 3 3 3 3 3 3 3 3 3 3 3 3 3 3 3 3 3 3 3 3 3 3 3 3 3 3 3 3 3 3 3 3 3 3 3 3 3 3 3 3 3 3 3 3 3 3 3 3 3 3 3 3 3 3 3 3 3 3 3 3 3 3 3 3 3 3 3 3 3 3 3 3 3 3 3 3 3 3 3 3 3 3 3 3 3 3 3 3 3 3 3 3 3 3 3 3 3 3 3 3 3 3 3 3 3 3 3 3 3 3 3 3 3 3 3 3 3 3 3 3 3 3 3 3 3 3 3 3 3 3 3 3 3 3 3 3 3 3 3 3 3 3 3 3 3 3 3 3 3 3 3 3 3 3 3 3 3 3 3 3 3 3 3 3 3 3 3 3 3 3 ",
"4 4 4 4 4 4 4 4 4 4 4 4 4 4 4 4 4 4 4 4 4 4 4 4 4 4 4 4 4 4 4 4 4 4 4 4 4 4 4 4 4 4 4 4 4 4 4 4 4 4 4 4 4 4 4 4 4 4 4 4 4 4 4 4 4 4 4 4 4 4 4 4 4 4 4 4 4 4 4 4 4 4 4 4 4 4 4 4 4 4 4 4 4 4 4 4 4 4 4 4 4 4 4 4 4 4 4 4 4 4 4 4 4 4 4 4 4 4 4 4 4 4 4 4 4 4 4 4 4 4 4 4 4 4 4 4 4 4 4 4 4 4 4 4 4 4 4 4 4 4 4 4 4 4 4 4 4 4 4 4 4 4 4 4 4 4 4 4 4 4 4 4 4 4 4 4 4 4 4 4 4 4 4 4 4 4 4 4 4 4 4 4 4 4 4 4 4 4 4 4 4 4 4 4 4 4 4 4 4 4 4 4 4 4 4 4 4 4 4 4 4 4 4 4 4 4 4 4 4 4 4 4 4 4 4 4 4 4 4 4 4 4 4 4 4 4 4 4 4 4 4 4 4 4 4 4 ",
"e e e e e e e e e e e e e e e e e e e e e w 4 4 w e e e e e e e e e e e e e e e e e e e e e e e e e e e e e e e e e e e e e e e e e e e e e e e e e e e e e e e e e e e e e e e e e e e e e e e e e e e e e e e e e e e e e e e e e e e e e e e e e e e e e e e e e e e e e e e e e e e e e e e e e e e e e e e e e e e e e e e e e e e e e e e e e e e e e e e e e e 4 4 w z p p p p p p p p p p p p p p p p p p p p p p p p p p p p p p p p p p p p p z w 3 4 p p p p p p p p p p p p p p p p p p p p p p p p p p p p p p p p ",
"e e e e e e e e e e e e e e e e e e e e e e 4 4 w e e e e e e e e e e e e e e e e e e e e e e e e e e e e e e e e e e e e e e e e e e e e e e e e e e e e e e e e e e e e e e e e e e e e e e e e e e e e e e e e e e e e e e e e e e e e e e e e e e e e e e e e e e e e e e e e e e e e e e e e e e e e e e e e e e e e e e e e e e e e e e e e e e e e e e e e e e 4 3 w z z z z z z z z z z z z z z z z z z z z z z z z z z z z z z z z z z z z z z z w 3 4 z z z z z z z z z z z z z z z z z z z z z z z z z z z z z z z z ",
"e e e e e e e e e e e e e e e e e e e e e e 4 4 w e e e e 6 w e e e e e e e e e e e e e e e e e e e e e e e e e e e e e e e e e e e e e e e e e e e e e e e e e e e e e e e e e e e e e e e e e e e e e e e e e e e e e e e e e e e e e e e e e e e e e e e e e e e e e e e e e e e e e e e e e e e e e e e e e e e e e e e e e e e e e e e e e e e e e e e e e e e e 4 4 w z z z p t p t p p z z z z z z z z z z z z z z z z z z z z z z z z z z z z z z w 3 4 z z z p p z z p p p z z z z z z z z z p z z z z z z z z z z z p ",
"e e e e e e e e e e e e e e e e e e e e e e 4 4 w e e e u n x e w } u e e e e e e e e e e e e e e e e e e e e e e e e e e e e e e e e e e e e e e e e e e e e e e e e e e e e e e e e e e e e e e e e e e e e e e e e e e e e e e e e e e e e e e e e e e e e e e e e e e e e e e e e e e e e e e e e e e e e e e e e e e e e e e e e e e e e e e e e e e e e e e e e 4 3 w z z p m +.{ +.{ 4.p z z z z z z z z z z z z z z z z z z z z z z z z z z z z z w 3 4 z z p v M z z z M z z z z z z z z z v 5.p z z z z z z z z z p 5.",
"e e e e e e e e e e e e e e e e e e e e e e 4 4 w e e 6 y.8.7.,.e e e e e > ` x w e e w e 6 e w e e e e e e e e e e e e e e e e e e e e e e e e e e e e e e e e e e e e e e e e e e e e e e e e e e e e e e e e e e e e e e e e e e e e e e e e e e e e e e e e e e e e e e e e e e e e e e e e e e e e e e e e e e e e e e e e e e e e e e e e e e e e e e e e e e e 4 3 w z z p @.Q.#X(.%.p z p p p p p p z p p p z z z z z z z z z z z z z z z z z z z w 3 4 z z t $.:XM e ;.-XM t p p p p p p p z p b 0.p p p p p z t p z p ",
"w e e e e e e e e e e e e e e e e e e e e e 4 4 w e e w e.t > e.( =.z -.e.#.J.J.v #.y.} x 7.7.,.w ^ e.=.z 7.7.z e e e e e e e e e e e e e e e e e e e e e e e e e e e e e e e e e e e e e e e e e e e e e e e e e e e e e e e e e e e e e e e e e e e e e e e e e e e e e e e e e e e e e e e e e e e e e e e e e e e e e e e e e e e e e e e e e e e e e e e e e e e 4 3 w z z z p t Y.z v d.b Q.Q.P.s.`.{ p 9.`.4.p z z z z z z z z z z z z z z z z z z w 3 4 z z t %.*X4.t u.*Xb ;.`.I.p ;.W./.0.v d.=.:Xs.M I.(.$.z I.I.@.d.",
"e e e e e e e e e e e e e e e e e e e e e e 4 4 w e e w e.x > #.-.7.^ y.n > 4.( 6 u v 7.` p.6 r.n w.n w 7.` } 4.> e e e e e e e e e e e e e e e e e e e e e e e e e e e e e e e e e e e e e e e e e e e e e e e e e e e e e e e e e e e e e e e e e e e e e e e e e e e e e e e e e e e e e e e e e e e e e e e e e e e e e e e e e e e e e e e e e e e e e e e e e e 4 3 w z z z p b Q.( { (.( #Xz +X=.4.s.{ (.m `.{ p z z z z z z z z z z z z z z z z z w 3 4 z z t =.Q.d.m P.Q.$.(.z d.5.9.Q.z `.M `.b `.t I.0.M `.m *X{ p |.",
"e e e e e e e e e e e e e e e e e e e e e e 4 4 w e e w w.z > =.#.7.z n e.n ,.^ e ,.e.e.} ,.% 7.} 7.e w e.e.7.=.6 e e e e e e e e e e e e e e e e e e e e e e e e e e e e e e e e e e e e e e e e e e e e e e e e e e e e e e e e e e e e e e e e e e e e e e e e e e e e e e e e e e e e e e e e e e e e e e e e e e e e e e e e e e e e e e e e e e e e e e e e e e 4 3 w z z z p b Q.M M Q.{ Q.> R.{ @.a.=.#XI.(.{ p z z z z z z z z z z z z z z z z z w 3 4 z z t ;.s.9.a.0.P.0.I.> ;.a.9.5.< (.{ /.b (.t E.+.< (.+./.t p (.",
"> t e e e e e e e e e e e e e e e e e e e e 4 4 w e e w y.n n p.h e.n t ( 7.,.+.` w.x e.#.7.% e.^ 7.( t ,.#.t u e e e e e e e e e e e e e e e e e e e e e e e e e e e e e e e e e e e e e e e e e e e e e e e e e e e e e e e e e e e e e e e e e e e e e e e e e e e e e e e e e e e e e e e e e e e e e e e e e e e e e e e e e e e e e e e e e e e e e e e e e e e 4 3 w z z z p b (.M ( (.{ `.> (.+.%.P.{ (.b m z z z z z z z z z z z z z z z z z z z w 3 4 z z e 4.a.%.:Xb /.$.(.{ I.;.r.r.e |.{ `.b  Xb s.r.@./.M `.t p |.",
"e e e e e e e e e e e e e e e e e e e e e e 4 4 w e e w ,.e.7.n > *.z ,.w.n x w.^ ,.4.} ( #.> -.z x e.=.u ,.w.^ e e e e e e e e e e e e e e e e e e e e e e e e e e e e e e e e e e e e e e e e e e e e e e e e e e e e e e e e e e e e e e e e e e e e e e e e e e e e e e e e e e e e e e e e e e e e e e e e e e e e e e e e e e e e e e e e e e e e e e e e e e e 4 3 w z z z p v r.m m r.M u.e r.( { 0.t 4.(.a.v p z z z z z z z z z z z z z z z z z w 3 4 z z t @.:.m d.p u.m $.(.a.t 4.%.t a.M a.p r.I.b f.Q.{ b a.p p a.",
"e e e e e e e e e e e e e e e e e e e e e e 4 4 w e e e > > > w e 6 e 6 > e e > e 6 > 6 e 6 t 6 e e > 6 e > > e e e e e e e e e e e e e e e e e e e e e e e e e e e e e e e e e e e e e e e e e e e e e e e e e e e e e e e e e e e e e e e e e e e e e e e e e e e e e e e e e e e e e e e e e e e e e e e e e e e e e e e e e e e e e e e e e e e e e e e e e e e e 4 4 w z z z z z t p p t p t z t p p p z p t t p z z z z z z z z z z z z z z z z z z w 3 4 z z z p p p t z t p p t t z p p z t p t z t t p t t p p t z z t ",
"e e e e e e e e e e e e e e e e e e e e e e 4 4 w e e e t t t e e t e t t e e t e t t e e t e t e e t t e t t e e e e e e e e e e e e e e e e e e e e e e e e e e e e e e e e e e e e e e e e e e e e e e e e e e e e e e e e e e e e e e e e e e e e e e e e e e e e e e e e e e e e e e e e e e e e e e e e e e e e e e e e e e e e e e e e e e e e e e e e e e e e 4 3 w z z z z z z z z z z z z z z z z z z z z z z z z z z z z z z z z z z z z z z z w 3 4 z z z z z z z z z z z z z z z z z z z z z z z z z z z z z z z z ",
"e e e e e e e e e e e e e e e e e e e e e w 4 4 w e e e e e e e e e e e e e e e e e e e e e e e e e e e e e e e e e e e e e e e e e e e e e e e e e e e e e e e e e e e e e e e e e e e e e e e e e e e e e e e e e e e e e e e e e e e e e e e e e e e e e e e e e e e e e e e e e e e e e e e e e e e e e e e e e e e e e e e e e e e e e e e e e e e e e e e e e e 4 4 w z p p p p p p p p p p p p p p p p p p p p p p p p p p p p p p p p p p p p p z w 3 4 p p p p p p p p p p p p p p p p p p p p p p p p p p p p p p p p ",
"6 6 6 6 6 6 6 6 6 6 6 6 6 6 6 6 6 6 6 6 6 6 4 4 6 6 6 6 6 6 6 6 6 6 6 6 6 6 6 6 6 6 6 6 6 6 6 6 6 6 6 6 6 6 6 6 6 6 6 6 6 6 6 6 6 6 6 6 6 6 6 6 6 6 6 6 6 6 6 6 6 6 6 6 6 6 6 6 6 6 6 6 6 6 6 6 6 6 6 6 6 6 6 6 6 6 6 6 6 6 6 6 6 6 6 6 6 6 6 6 6 6 6 6 6 6 6 6 6 6 6 6 6 6 6 6 6 6 6 6 6 6 6 6 6 6 6 6 6 6 6 6 6 6 6 6 6 6 6 6 6 6 6 6 6 6 6 6 6 6 6 6 6 6 6 6 6 6 6 4 4 4 t t t t t t t t t t t t t t t t t t t t t t t t t t t t t t t t t t t t t t t w 4 4 t t t t t t t t t t t t t t t t t t t t t t t t t t t t t t t t ",
"6 6 6 6 6 6 6 6 6 6 6 6 6 6 6 6 6 6 6 6 6 6 4 4 6 6 6 6 6 6 6 6 6 6 6 6 6 6 6 6 6 6 6 6 6 6 6 6 6 6 6 6 6 6 6 6 6 6 6 6 6 6 6 6 6 6 6 6 6 6 6 6 6 6 6 6 6 6 6 6 6 6 6 6 6 6 6 6 6 6 6 6 6 6 6 6 6 6 6 6 6 6 6 6 6 6 6 6 6 6 6 6 6 6 6 6 6 6 6 6 6 6 6 6 6 6 6 6 6 6 6 6 6 6 6 6 6 6 6 6 6 6 6 6 6 6 6 6 6 6 6 6 6 6 6 6 6 6 6 6 6 6 6 6 6 6 6 6 6 6 6 6 6 6 6 6 6 6 6 4 4 4 t t t t t t t t t t t t t t t t t t t t t t t t t t t t t t t t t t t t t t t w 4 4 t t t t t t t t t t t t t t t t t t t t t t t t t t t t t t t t ",
"6 6 6 6 6 6 6 6 6 6 6 6 6 6 6 6 6 6 6 6 6 6 4 4 6 6 6 6 6 6 6 6 6 6 6 6 6 6 6 6 6 6 6 6 6 6 6 6 6 6 6 6 6 6 6 6 6 6 6 6 6 6 6 6 6 6 6 6 6 6 6 6 6 6 6 6 6 6 6 6 6 6 6 6 6 6 6 6 6 6 6 6 6 6 6 6 6 6 6 6 6 6 6 6 6 6 6 6 6 6 6 6 6 6 6 6 6 6 6 6 6 6 6 6 6 6 6 6 6 6 6 6 6 6 6 6 6 6 6 6 6 6 6 6 6 6 6 6 6 6 6 6 6 6 6 6 6 6 6 6 6 6 6 6 6 6 6 6 6 6 6 6 6 6 6 6 6 6 6 4 4 4 t t t t t t t t t t t t t t t t t t t t t t t t t t t t t t t t t t t t t t t w 4 4 t t t t t t t t t t t t t t t t t t t t t t t t t t t t t t t t ",
": 6 6 6 6 6 6 6 6 6 6 6 6 6 6 6 6 6 6 6 6 6 4 4 6 6 6 6 6 6 6 6 6 6 6 6 6 6 6 6 6 6 6 6 6 6 6 6 6 6 6 6 6 6 6 6 6 6 6 6 6 6 6 6 6 6 6 6 6 6 6 6 6 6 6 6 6 6 6 6 6 6 6 6 w 6 6 6 6 6 6 6 6 6 6 6 6 : 6 6 6 6 6 6 6 6 6 6 6 6 6 6 6 6 6 6 6 6 6 6 6 6 6 6 6 6 6 6 6 6 w w w 6 6 6 6 6 6 6 6 6 6 6 6 6 6 6 6 6 6 6 6 6 6 6 6 6 6 6 6 6 6 6 6 6 6 6 6 6 6 6 6 6 6 6 6 6 6 4 4 4 t t t t t t t t t t t u u t t t t t t t t t t t t t t t t t t t t t t t t t t w 4 4 t t t t t t t t t t t t t t t t t t t t t t t t t t t t t t t t ",
"w 6 6 6 6 6 6 6 6 6 6 6 6 6 6 6 6 6 6 6 6 6 4 4 6 6 6 6 6 6 6 6 6 6 6 6 6 6 6 6 ; ; 6 6 : ; 6 6 6 6 : 6 6 6 6 6 6 6 6 6 6 6 6 6 6 6 6 6 6 6 6 6 6 6 6 6 6 6 6 6 6 6 6 & % : 6 6 6 6 6 6 6 6 6 6 6 e 6 6 6 6 6 6 6 6 6 6 6 6 : 6 6 6 6 6 6 6 6 6 6 6 6 6 6 6 6 6 6 & % % % : 6 6 6 6 6 6 6 6 6 6 6 6 6 6 6 6 6 6 6 6 6 6 6 6 6 6 : 6 6 6 6 6 6 6 6 6 6 6 6 6 6 6 6 6 6 4 4 4 t t t t t t t t t t e : : w t t t t t u t t t t t t t t t t t t t t t t t t t w 4 4 t t t t t t t t t t t t t t t t t t t t t t t t t t t t t t t t ",
"8.: 6 ; : 6 : : : 6 6 6 6 6 6 6 6 6 6 6 6 6 4 4 6 6 6 6 6 6 6 6 6 6 6 6 6 6 6 : n n : : v n : : : : 6 6 : 6 ; : 6 : : : : ; : 6 6 6 6 6 6 6 6 6 6 6 6 6 6 6 6 6 6 : 6 ` -.x : : : 6 : : : 6 6 w ; ( w : : : : : 6 6 6 : : : w : 6 : : 6 : : : 6 : : 6 6 6 6 6 6 : ^ #.+.#.u : : 6 : : : 6 : : 6 : : : 6 6 6 ; : 6 : : : : ; : 6 w : : : 6 : 6 : : : 6 ; : 6 6 6 6 6 6 4 4 4 t t t t t t t t t e M 9.9.{ w u e e : f.%.: w e t e t e e t t t t t t t t t t w 4 4 t t t t t t t t t t t t t t t t t t t t t t t t t t t t t t t t ",
"r.& w x w : h x w : 6 6 6 6 6 6 6 6 6 6 6 6 4 4 6 6 6 6 6 6 6 6 6 6 6 6 6 6 w % y.s.: & L.r.& t x & #.-.w : x e : w u w e v t : 6 6 6 6 6 6 6 6 6 6 6 6 6 6 6 6 6 : 4.,.+.^ ; h u : e u h & ( =.e w 6 w h t w x 6 : : x e e 7.z : u h : w t u : z h 6 6 6 6 6 6 : v =.L.` e e x : w t h 6 h t : w t z 6 : 6 x w 6 w u w t v 6 h 4.u e w 6 e 6 w u e : x e : 6 6 6 6 6 4 4 4 t t t t t t t t u : a.).=.`.%.: b { & I.%.w { b u z e p z e t t t t t t t t t w 4 4 t t t t t t t t w t t t t t t t t t t t t t t t t t t t t t t t ",
"r.: ,.7.#.^ 8.=.h : 6 6 6 6 6 6 6 6 6 6 6 6 4 4 6 6 6 6 6 6 6 6 6 6 6 6 6 6 w & 2.r.z t y.,.t 4.7.( 8.P.x #.7.=.h s.=.n 4.4.( : 6 6 6 6 6 6 6 6 6 6 6 6 6 6 6 6 ; n r.% & & ` 7.7.u r.4.r.n =.Y.n r.t r.4.r.2.r.-.& #.7.,.( ~.-.n 4.8.n =.y.( } 8.=.t : 6 6 6 6 6 % u 2.o u 4.7.^ #.r.8.8.4.r.6 #.y.7.,.: =.7.=.z s.=.u ( 4.,.` ~.` 4.n : r.t s.,.u #.7.2.e : 6 6 6 6 4 4 4 t t t t t t t t u : 9.4.X $.Q.M W.Q.+.d.$.M f.Q.9.f.: I.;.: t t t t t t t t t w 4 4 t t t t e w e e %.u t u u t u t t t u t t t t w t u u t t u t t ",
"7.n p.z p.,.4.e : 6 6 6 6 6 6 6 6 6 6 6 6 6 4 4 6 6 6 6 6 6 6 6 6 6 6 6 6 6 w & =.2.( ( ,.=.#.4.^ r.-.( w s.x r.-.r.; e r.n : 6 6 6 6 6 6 6 6 6 6 6 6 6 6 6 6 6 & ` ,.& e 6 y.( ,.,.r.e n =.n =.O y.e p.: -.-.: 8.u s.v 8.#.4.% 4.=.` 8.4.+.. -.,.6 : 6 6 6 6 6 6 : n 7.& =.4.^ r.2.+.w s.% ,.x #.-.% r.( p.z r.-.r.& ; t n e.n 4.. 4.n : r.u s.& t s.x r.+.& 6 6 6 6 4 4 4 t t t t t t t t u : 9.9.: M I.I.d.=.).I.$.e M R.6.W.n (.z e t t t t t t t t t w 4 4 t t e n Q.OXOX9.z t : : : w : e t e : 6 t t e 9.( & : w : : t t ",
"4.n L.#.#.w n r.n ; 6 6 6 6 6 6 6 6 6 6 6 6 4 4 6 6 6 6 6 6 6 6 6 6 6 6 6 6 w & 4.^ 4.=.( =.-.y.#.^ =.` e P.-.#.^ 4.& 6 e 4.-.: 6 6 6 6 6 6 6 6 6 6 6 6 6 6 6 6 ; n r.% & 6 p.,.#.n 8.: ^ -.^ =.O r.t e.: #.+.w 4.h s.-.#.n e.& 4.8.#.n 4.n : : ( e.u : 6 6 6 6 6 : v 4.& =.r.#.^ =.^ e 7.; =.x #.+.. 8.+.s.#.+.( 4.% h 7.=.r.^ 8.O 7.x : r.u 8.% x L.-.#.h : 6 6 6 6 4 4 4 t t t t t t t t u : 9.4.X $.Q.d.).9.$.f.%.u.d.|.;.4.Q.a.e t t t t t t t t t t w 4 4 t t t t e I.%.: :.u :.a.0.$.I.^ 6 ( R.;.w e ( Q.v 5.d.%.5.s.u u ",
"y.w 8.n x n M 7.` & 6 6 6 6 6 6 6 6 6 6 6 6 4 4 6 6 6 6 6 6 6 6 6 6 6 6 6 6 w % 8.u r.4.h 7.v 4.n t } e.u 4.( x n r.% u ^ #.7.; 6 6 6 6 6 6 6 6 6 6 6 6 6 6 6 6 : 6 8.=.( u -.#.n t p.: ^ 4.x p.u i.t p.: -.#.w r.w 2.` n t y.^ ` ,.n e 8.n & n ^ e.n ; 6 6 6 6 6 : n 8.& M 4.n t 4.` e r.& 4.n #.p.+.e.w 7.( z n r.% n y.n r.n y.n -.4.-.s.u y.& 6 4.( n e : 6 6 6 6 4 4 4 t t t t t t t t u : a.(.%.|.+.@.I.+.z W.:.Q.:.W.0.z -X@.w t t t t t t t t t t w 4 4 t t t t w f.%.: @Xz &X%.`.I.5.R.t !.+.R.+.: 4.9.( &X@.&X4.I.:.%.",
"^ ; z =.` z =.( 6 6 6 6 6 6 6 6 6 6 6 6 6 6 4 4 6 6 6 6 6 6 6 6 6 6 6 6 6 6 6 : n e z h e n : ^ =.n 6 #.v e =.#.u n : w #.-.t : 6 6 6 6 6 6 6 6 6 6 6 6 6 6 6 6 6 : w #.-.z 6 #.=.u n 6 u n : } ^ n w ^ : z h 6 n 6 e -.#.e v #.: ( =.x n u : n =.M : 6 6 6 6 6 6 : t n : : ^ =.n x u w n : n w #.,.+.u ; u =.} u n : : ( #.n w n +.w #.` n e n : : t -.#.e : 6 6 6 6 4 4 4 t t t t t t t t t e ^ a.a.{ w e %.d.{ +.v M a.%.z t `.z e t t t t t t t t t t w 4 4 t t t t e f.%.: ).z ).& u.:.t I.( $Xs.@X4.% a.;.+.I.o (.z $.a.p ",
"& 6 : % & : % & 6 6 6 6 6 6 6 6 6 6 6 6 6 6 4 4 6 6 6 6 6 6 6 6 6 6 6 6 6 6 6 6 ; : : : : ; 6 ; % ; 6 % : : % & : ; 6 : & % : 6 6 6 6 6 6 6 6 6 6 6 6 6 6 6 6 6 6 6 : % % : 6 & % : ; 6 : ; 6 & & ; : & 6 : : 6 ; 6 : % % : : % 6 & % : : : 6 : % ; 6 6 6 6 6 6 6 6 : ; 6 6 ; % : : : : ; 6 : % ,.` . : 6 : % & : ; 6 6 & % : : ; & 6 % & ; : ; 6 6 : % % : 6 6 6 6 6 4 4 4 t t t t t t t t t t e : : w t t : & w w e e : : z R.a.: t t t t t t t t t t t w 4 4 t t t t e I.%.: |.z `.: a.4.z W.b OX( v p : 9.4.+.W.& ).v %.a.: ",
"6 6 6 w 6 6 w 6 6 6 6 6 6 6 6 6 6 6 6 6 6 6 4 4 6 6 6 6 6 6 6 6 6 6 6 6 6 6 6 6 6 6 6 6 6 6 6 6 w 6 6 w 6 6 w 6 6 6 6 6 6 w 6 6 6 6 6 6 6 6 6 6 6 6 6 6 6 6 6 6 6 6 6 w w 6 6 6 w 6 6 6 6 6 6 6 6 6 6 6 6 6 6 6 6 6 6 w w 6 6 w 6 6 w 6 6 6 6 6 w 6 6 6 6 6 6 6 6 6 6 6 6 6 6 w 6 6 6 6 6 6 6 : h u : 6 6 6 w 6 6 6 6 6 6 w 6 6 6 6 6 w 6 6 6 6 6 6 6 w 6 6 6 6 6 6 6 4 4 4 t t t t t t t t t t t u u t t t t u t t t t u e n 4.u t t t t t t t t t t t t w 4 4 t t t t e s.$.: (.z !.: 9.;.z I.e 5.!.f.b : $.d.( I.: W.v %.9.( ",
"6 6 6 6 6 6 6 6 6 6 6 6 6 6 6 6 6 6 6 6 6 6 4 4 6 6 6 6 6 6 6 6 6 6 6 6 6 6 6 6 6 6 6 6 6 6 6 6 6 6 6 6 6 6 6 6 6 6 6 6 6 6 6 6 6 6 6 6 6 6 6 6 6 6 6 6 6 6 6 6 6 6 6 6 6 6 6 6 6 6 6 6 6 6 6 6 6 6 6 6 6 6 6 6 6 6 6 6 6 6 6 6 6 6 6 6 6 6 6 6 6 6 6 6 6 6 6 6 6 6 6 6 6 6 6 6 6 6 6 6 6 6 6 6 : : 6 6 6 6 6 6 6 6 6 6 6 6 6 6 6 6 6 6 6 6 6 6 6 6 6 6 6 6 6 6 6 6 6 4 4 4 t t t t t t t t t t t t t t t t t t t t t t t t e : t t t t t t t t t t t t t w 4 4 t t t t t t t t t t t t t t t t t e v v t e u Q.M e t t t t t t ",
"6 6 6 6 6 6 6 6 6 6 6 6 6 6 6 6 6 6 6 6 6 6 4 4 6 6 6 6 6 6 6 6 6 6 6 6 6 6 6 6 6 6 6 6 6 6 6 6 6 6 6 6 6 6 6 6 6 6 6 6 6 6 6 6 6 6 6 6 6 6 6 6 6 6 6 6 6 6 6 6 6 6 6 6 6 6 6 6 6 6 6 6 6 6 6 6 6 6 6 6 6 6 6 6 6 6 6 6 6 6 6 6 6 6 6 6 6 6 6 6 6 6 6 6 6 6 6 6 6 6 6 6 6 6 6 6 6 6 6 6 6 6 6 6 6 6 6 6 6 6 6 6 6 6 6 6 6 6 6 6 6 6 6 6 6 6 6 6 6 6 6 6 6 6 6 6 6 6 6 4 4 4 t t t t t t t t t t t t t t t t t t t t t t t t t t t t t t t t t t t t t t t w 4 4 t t t t t t t t t t t t t t t t t t e e t t e n v e t t t t t t ",
"6 6 6 6 6 6 6 6 6 6 6 6 6 6 6 6 6 6 6 6 6 6 4 4 6 6 6 6 6 6 6 6 6 6 6 6 6 6 6 6 6 6 6 6 6 6 6 6 6 6 6 6 6 6 6 6 6 6 6 6 6 6 6 6 6 6 6 6 6 6 6 6 6 6 6 6 6 6 6 6 6 6 6 6 6 6 6 6 6 6 6 6 6 6 6 6 6 6 6 : : : 6 6 6 6 6 6 6 6 6 6 6 6 6 6 6 6 6 6 6 6 6 6 6 6 6 6 6 6 6 6 6 6 6 6 6 6 6 6 6 6 6 6 6 6 6 6 6 6 : : : 6 6 6 6 6 6 6 6 6 6 6 6 6 6 6 6 6 6 6 6 6 6 6 6 6 6 4 4 4 t t t t t t t t t t t t t t t t t t t t t t t t t t t t t t t t t t t t t t t w 4 4 t t t t t t t t t t t t t t t t t t t t t t t e e t t t t t t t ",
"6 6 6 6 6 6 6 6 6 6 6 6 6 6 6 6 6 6 6 6 6 6 4 4 6 6 6 6 6 6 6 6 6 6 6 6 6 6 6 6 6 6 6 6 6 6 6 6 6 6 6 6 6 6 6 6 6 6 6 6 6 6 6 6 6 6 6 6 6 6 6 6 6 6 6 6 6 6 6 6 6 6 6 6 6 6 6 6 6 6 6 6 6 6 6 6 : : 6 e e e w 6 6 6 6 6 6 6 6 6 6 6 6 6 6 6 6 6 6 6 6 6 6 6 6 6 6 6 6 6 6 6 6 6 6 6 6 6 6 6 6 6 6 6 6 6 6 6 e e e 6 : : 6 6 6 6 6 6 6 6 6 6 6 6 6 6 6 6 6 6 6 6 6 6 6 4 4 4 t t t t t t t t t t t t t t t t i s s s s t r t t t t t t t t t t t t t t t t w 4 4 t t t t t t t t t t t t t t t t t t t t t t t t t t t t t t t t ",
"6 6 6 6 6 6 6 6 6 6 6 6 6 6 6 6 6 6 6 6 6 6 4 4 6 6 6 6 6 6 6 6 6 6 6 6 6 6 6 6 6 6 6 6 6 6 6 e e e i i i e e w 6 6 6 6 6 6 6 6 6 6 6 6 6 6 6 6 6 6 6 6 6 6 6 6 6 6 6 6 6 6 6 6 6 6 6 6 6 6 6 : e a J L I I a < e 6 6 6 6 6 6 6 6 6 6 6 6 6 6 6 6 6 6 6 6 6 6 6 6 6 6 6 6 6 6 6 6 6 6 6 6 6 6 6 6 6 6 e e e a I L J a e : 6 6 6 6 6 6 6 6 6 6 6 6 6 6 6 6 6 6 6 6 6 6 4 4 4 t t t t t t t t t t t t t t s Z S D j.j.D A G s t t t t t t t t t t t t t t t w 4 4 t t t t t t t t t t t t t t t t t t t t t t t t t t t t t t t t ",
"6 6 6 6 6 6 6 6 6 6 6 6 6 6 6 6 6 6 6 6 6 6 4 4 6 6 6 6 6 6 6 6 6 6 6 6 6 6 6 6 6 6 6 6 6 e e i i i i i i i i i e 6 6 6 6 6 6 6 6 6 6 6 6 6 6 6 6 6 6 6 6 6 6 6 6 6 6 6 6 6 6 6 6 6 6 6 6 : w a L I U U U U a i i i e 6 6 6 6 6 6 6 6 6 6 6 6 6 6 6 6 6 6 6 6 6 6 6 6 6 6 6 6 6 6 6 6 6 6 6 6 6 6 e i i i i H U U U U L H w : 6 6 6 6 6 6 6 6 6 6 6 6 6 6 6 6 6 6 6 6 4 4 4 t t t t t t t t t t t t s Z j.h.h.h.h.h.h.h.k.D Z t t t t t t t t t t t t t t w 4 4 t t t t t t t t t t t t t t t t t t t t t t t t t t t t t t t t ",
"i e 6 6 6 6 6 6 6 6 6 6 6 6 6 6 6 6 6 6 6 6 4 4 6 6 6 6 6 6 6 6 6 6 6 6 6 6 6 6 6 6 6 6 e i i i e > : : : w i i i i w 6 6 6 6 6 6 6 6 6 6 6 6 6 6 6 6 6 6 6 6 6 6 6 6 6 6 6 6 6 6 6 6 6 : e K U I I J a t t w < i i i i w 6 6 6 6 6 6 6 6 6 6 6 6 6 6 6 6 6 6 6 6 6 6 6 6 6 6 6 6 6 6 6 6 6 6 6 e i i i e : w t p H L U I K t : 6 6 6 6 6 6 6 6 6 6 6 6 6 6 6 6 6 6 6 4 4 4 t t t t t t t t t t t F D h.k.j.A C B B C A j.k.g.S s t t t t t t t t t t t t w 4 4 t t t t t t t t t t t t t t t t t t t t t t t t t t t t t t t t ",
"i i e 6 6 6 6 6 6 6 6 6 6 6 6 6 6 6 6 6 6 6 4 4 6 6 6 6 6 6 6 6 6 6 6 6 6 6 6 6 6 6 6 e i i e : - * * * * * - > i i i w 6 6 6 6 6 6 6 6 6 6 6 6 6 6 6 6 6 6 6 6 6 6 6 6 6 6 6 6 6 6 6 : e K I I J e - * * + @ * ; < i i i w 6 6 6 6 6 6 6 6 6 6 6 6 6 6 6 6 6 6 6 6 6 6 6 6 6 6 6 6 6 6 6 6 6 i i i e ; * * * * * * 6 J I U L e : 6 6 6 6 6 6 6 6 6 6 6 6 6 6 6 6 6 6 4 4 4 t t t t t t t t t t F j.g.j.Z 7 4 3 3 3 3 4 , A g.g.S s t t t t t t t t t t t w 4 4 t t t t t t t t t t t t t t t t t t t t t t t t t t t t t t t t ",
"i i i w 6 6 6 6 6 6 6 6 6 6 6 6 6 6 6 6 6 6 4 4 6 6 6 6 6 6 6 6 6 6 6 6 6 6 6 6 6 6 e i i e - * * * * * * * * * ; i i i 6 6 6 6 6 6 6 6 6 6 6 6 6 6 6 6 6 6 6 6 6 6 6 6 6 6 6 6 6 6 6 6 J I L a - * - * r t.&.- * * : i i i 6 6 6 6 6 6 6 6 6 6 6 6 6 6 6 6 6 6 6 6 6 6 6 6 6 6 6 6 6 6 6 6 e i i > * * * * - - - - * * p L H e 6 6 6 6 6 6 6 6 6 6 6 6 6 6 6 6 6 6 6 4 4 4 t t t t t t t t t s D g.D C 3 3 4 4 4 4 4 4 3 4 V g.k.A t t t t t t t t t t t w 4 4 t t t t t t t t t t t t t t t t t t t t t t t t t t t t t t t t ",
"; i i e 6 6 6 6 6 6 6 6 6 6 6 6 6 6 6 6 6 6 4 4 6 6 6 6 6 6 6 6 6 6 6 6 6 6 6 6 6 w i i e - * - * * * * * * * - * ; i i e 6 6 6 6 6 6 6 6 6 6 6 6 6 6 6 6 6 6 6 6 6 6 6 6 6 6 6 6 6 : s I I a * * - - $ k XXJ.* * - * : i i e 6 6 6 6 6 6 6 6 6 6 6 6 6 6 6 6 6 6 6 6 6 6 6 6 6 6 6 6 6 6 e i i : * * * * * * * - * - 4 $ e i i e 6 6 6 6 6 6 6 6 6 6 6 6 6 6 6 6 6 6 4 4 4 t t t t t t t t r V k.j.B 3 4 4 4 4 4 4 4 4 4 4 3 V g.k.G r t t t t t t t t t w 4 4 t t t t t t t t t t t t t t t t t t t t t t t t t t t t t t t t ",
"* : i i w 6 6 6 6 6 6 6 6 6 6 6 6 6 6 6 6 6 4 4 6 6 6 6 6 6 6 6 6 6 6 6 6 6 6 6 6 e i i ; * - * * * * * * * * * - * > i i w 6 6 6 6 6 6 6 6 6 6 6 6 6 6 6 6 6 6 6 6 6 6 6 6 6 6 6 6 w K I K 4 * - * - $ ~ {.3.$ - * * * w i i 6 6 6 6 6 6 6 6 6 6 6 6 6 6 6 6 6 6 6 6 6 6 6 6 6 6 6 6 6 6 i i e - * * * * * * - * * &.U.r * e i i 6 6 6 6 6 6 6 6 6 6 6 6 6 6 6 6 6 6 4 4 4 t t t t t t t t s j.k.A 4 4 4 4 4 4 4 4 4 4 4 4 4 6 S k.S i t t t t t t t t t w 4 4 t t t t t t t t t t t t t t t t t t t t t t t w e t t t t t t t ",
"* - e i e 6 6 6 6 6 6 6 6 6 6 6 6 6 6 6 6 6 4 4 6 6 6 6 6 6 6 6 6 6 6 6 6 6 6 6 6 i i > * - * * * * * * * * * * * * ; i i e 6 6 6 6 6 6 6 6 6 6 6 6 6 6 6 6 6 6 6 6 6 6 6 6 6 6 6 : e I U p * - * * - + o.oX1.$ - * * * ; i i e 6 6 6 6 6 6 6 6 6 6 6 6 6 6 6 6 6 6 6 6 6 6 6 6 6 6 6 6 w i i : * - * * * * - $ 3 3.[.[.k $ : i i e 6 6 6 6 6 6 6 6 6 6 6 6 6 6 6 6 6 4 4 4 t t t t t t t r G h.g., 3 4 4 4 4 4 4 4 4 4 4 4 4 3 B k.g.F t t t t t t t t t w 4 4 t t t t e u u t t u t t t u t t u t t t u u w $.( w u u t t u t ",
"* * < i e 6 6 6 6 6 6 6 6 6 6 6 6 6 6 6 6 6 4 4 6 6 6 6 6 6 6 6 6 6 6 6 6 6 6 6 w i i ; * * * * * * * * * * * * * * * e i e 6 6 6 6 6 6 6 6 6 6 6 6 6 6 6 6 6 6 6 6 6 6 6 6 6 6 6 : s I L 6 * - * * - $ 1.XX_ $ - * * * - e i e 6 6 6 6 6 6 6 6 6 6 6 6 6 6 6 6 6 6 6 6 6 6 6 6 6 6 6 6 e i e ; * * * * * - * 4 t.oX^.k $ - - e i e 6 6 6 6 6 6 6 6 6 6 6 6 6 6 6 6 6 4 4 4 t t t t t t t t Z h.S 6 4 4 4 4 4 4 4 4 4 4 4 4 4 3 7 D g.G t t t t t t t t t w 4 4 t t t w %.).!.M : : : t : : : w : e t : : w & I.4.: : : t w : w ",
"* * : i i 6 6 6 6 6 6 6 6 6 6 6 6 6 6 6 6 6 4 4 6 6 6 6 6 6 6 6 6 6 6 6 6 6 6 6 e i i - * * * * - - - * * * * * * * * > i e 6 6 6 6 6 6 6 6 6 6 6 6 6 6 6 6 6 6 6 6 6 6 6 6 6 6 6 : H U K - * * * * - * 5 j 9 * - * * * * w i e 6 6 6 6 6 6 6 6 6 6 6 6 6 6 6 6 6 6 6 6 6 6 6 6 6 6 6 6 e i e * * * * * * - * 5 ^.J.r $ - * - e i e 6 6 6 6 6 6 6 6 6 6 6 6 6 6 6 6 6 4 4 4 t t t t t t t t S h.Z 4 4 4 4 4 4 4 4 4 4 4 4 4 4 4 6 S h.Z t t t t t t t t t w 4 4 t t t t OXb w u $.!.6.t 9.f.9.:.Q.M t 9.s.s.: s.;.e I.f.t %.Q.4.",
"- * : i i 6 6 6 6 6 6 6 6 6 6 6 6 6 6 6 6 6 4 4 6 6 6 6 6 6 6 6 6 6 6 6 6 6 6 6 e i e - * * * - * * * - * * * * * - * : i i 6 6 6 6 6 6 6 6 6 6 6 6 6 6 6 6 6 6 6 6 6 6 6 6 6 6 6 : H U J * * * * * * - * $ * - * * * - * : i e 6 6 6 6 6 6 6 6 6 6 6 6 6 6 6 6 6 6 6 6 6 6 6 6 6 6 6 6 e i e * * * * * * * - $ d 5 $ - * * * w i e 6 6 6 6 6 6 6 6 6 6 6 6 6 6 6 6 6 4 4 4 t t t t t t t t D h.V 3 4 4 4 4 - * 4 4 4 4 4 4 4 4 3 A h.A r t t t t t t t t w 4 4 t t t w a.).{ : M n Q.@.$X} OXa.4.I.t &X{ W.;.a.%.a.4.5.d.).$.n ",
"* * : i i 6 6 6 6 6 6 6 6 6 6 6 6 6 6 6 6 6 4 4 6 6 6 6 6 6 6 6 6 6 6 6 6 6 6 6 e i e - * * - $ j 3.5 * - * * * * * * : i i 6 6 6 6 6 6 6 6 6 6 6 6 6 6 6 6 6 6 6 6 6 6 6 6 6 6 6 : H U K - * * * * * * - - - * * * * * * 1 i e 6 6 6 6 6 6 6 6 6 6 6 6 6 6 6 6 6 6 6 6 6 6 6 6 6 6 6 6 e i e * * * * * * * * - * * - * * * * e i e 6 6 6 6 6 6 6 6 6 6 6 6 6 6 6 6 6 4 4 4 t t t t t t t t S h.V 3 4 4 4 * k 7.- 4 4 4 4 4 4 4 4 A h.A r t t t t t t t t w 4 4 t t t t e ;.OX+.%.W.OX%.!.% d.@.z I.z ).% %.a.a.:.Q.(.).f.%.(.+.",
"* * : i e 6 6 6 6 6 6 6 6 6 6 6 6 6 6 6 6 6 4 4 6 6 6 6 6 6 6 6 6 6 6 6 6 6 6 6 e i i ; * - $ j ].oX&.$ - * * * * * * > i e 6 6 6 6 6 6 6 6 6 6 6 6 6 6 6 6 6 6 6 6 6 6 6 6 6 6 6 : N U L 6 * - * * * * * * * * * * * * * e i e 6 6 6 6 6 6 6 6 6 6 6 6 6 6 6 6 6 6 6 6 6 6 6 6 6 6 6 6 e i e - * * * * * * * * - - * * * * - e i e 6 6 6 6 6 6 6 6 6 6 6 6 6 6 6 6 6 4 4 4 t t t t t t t t S h.A 6 4 4 - r %X>X=.* 4 4 4 4 4 4 6 S h.V t t t t t t t t t w 4 4 t t t u z % 9.W.).M ).;.).: I.%.m W.u #Xu a.0.a.;.f.5.t v e ( OX",
"* - e i e 6 6 6 6 6 6 6 6 6 6 6 6 6 6 6 6 6 4 4 6 6 6 6 6 6 6 6 6 6 6 6 6 6 6 6 w i i : * * ! ^.XXw.4 * - * * * * * - e i e 6 6 6 6 6 6 6 6 6 6 6 6 6 6 6 6 6 6 6 6 6 6 6 6 6 6 6 : s I U t * - * * * * * * * * * * * * ; e i e 6 6 6 6 6 6 6 6 6 6 6 6 6 6 6 6 6 6 6 6 6 6 6 6 6 6 6 6 e i i ; * - * * * * * * * * * * * * ; i i w 6 6 6 6 6 6 6 6 6 6 6 6 6 6 6 6 6 4 4 4 t t t t t t t t V k.j.7 3 - 4 _.>X Xr 4 4 4 4 4 4 3 , j.g.F t t t t t t t t t w 4 4 t t t u s.).I.v I.W.f.$.I.: a.@.b s.u @XW.).u 9.$.b Q.Q.$.a.).6.",
"* ; i i e 6 6 6 6 6 6 6 6 6 6 6 6 6 6 6 6 6 4 4 6 6 6 6 6 6 6 6 6 6 6 6 6 6 6 6 6 e i e - * T..X3.- * - * * * * - * : i i w 6 6 6 6 6 6 6 6 6 6 6 6 6 6 6 6 6 6 6 6 6 6 6 6 6 6 6 6 w L U H * * * * * * * * * * * * - * : i i w 6 6 6 6 6 6 6 6 6 6 6 6 6 6 6 6 6 6 6 6 6 6 6 6 6 6 6 6 6 i i w * * * * * * * * * * * * * * > i i 6 6 6 6 6 6 6 6 6 6 6 6 6 6 6 6 6 6 4 4 4 t t t t t t t r F j.k.C 3 ; L.>X=Xk * 4 4 4 4 4 4 4 Z h.D s t t t t t t t t t w 4 4 t t t t t p t e t u e t e t e t t e z `.e t e t t e t p t u u e ",
"- e i i 6 6 6 6 6 6 6 6 6 6 6 6 6 6 6 6 6 6 4 4 6 6 6 6 6 6 6 6 6 6 6 6 6 6 6 6 6 e i i 6 @ j >.4 * - * * * * - * - e i e 6 6 6 6 6 6 6 6 6 6 6 6 6 6 6 6 6 6 6 6 6 6 6 6 6 6 6 6 6 : a I I t * - * * * * * * * * - * ; i i e 6 6 6 6 6 6 6 6 6 6 6 6 6 6 6 6 6 6 6 6 6 6 6 6 6 6 6 6 6 6 e i i ; * - * * * * * * * * - * ; i i e 6 6 6 6 6 6 6 6 6 6 6 6 6 6 6 6 6 6 4 4 4 t t t t t t t t t S g.j.7 * 7.=X~ $ 5 4 4 4 4 4 3 B g.g.Z t t t t t t t t t t w 4 4 t t t t t e t t t t t t t t t t t e z I.w t t t t t t e t t t t ",
"e i i e 6 6 6 6 6 6 6 6 6 6 6 6 6 6 6 6 6 6 4 4 6 6 6 6 6 6 6 6 6 6 6 6 6 6 6 6 6 6 e i s e $ $ * - * * * * * * - e i i e 6 6 6 6 6 6 6 6 6 6 6 6 6 6 6 6 6 6 6 6 6 6 6 6 6 6 6 6 6 6 w L I L e * * * * * * * * * * ; e i i w 6 6 6 6 6 6 6 6 6 6 6 6 6 6 6 6 6 6 6 6 6 6 6 6 6 6 6 6 6 6 6 i i i ; * * * * * * * * * * ; e i i 6 6 6 6 6 6 6 6 6 6 6 6 6 6 6 6 6 6 6 4 4 4 t t t t t t t t t F g.g.D > # r - 4 4 4 4 4 4 3 , D g.D s t t t t t t t t t t w 4 4 t t t t t t t t t t t t t t t t t t t w t t t t t t t t t t t t ",
"i i e 6 6 6 6 6 6 6 6 6 6 6 6 6 6 6 6 6 6 6 4 4 6 6 6 6 6 6 6 6 6 6 6 6 6 6 6 6 6 6 6 s K I p - * * * * * * * ; e i i e 6 6 6 6 6 6 6 6 6 6 6 6 6 6 6 6 6 6 6 6 6 6 6 6 6 6 6 6 6 6 6 : i I I I p - * * * * * * * ; e i i e 6 6 6 6 6 6 6 6 6 6 6 6 6 6 6 6 6 6 6 6 6 6 6 6 6 6 6 6 6 6 6 6 w i i i : * * * * * * * * : i i i e 6 6 6 6 6 6 6 6 6 6 6 6 6 6 6 6 6 6 6 4 4 4 t t t t t t t t t r G g.k.x.G 3 4 4 4 4 4 4 4 B j.g.j.F t t t t t t t t t t t w 4 4 t t t t t t t t t t t t t t t t t t t t t t t t t t t t t t t t ",
"i e 6 6 6 6 6 6 6 6 6 6 6 6 6 6 6 6 6 6 6 6 4 4 6 6 6 6 6 6 6 6 6 6 6 6 6 6 6 6 6 6 : i L U K 6 ; - - - - ; ; w i i e 6 6 6 6 6 6 6 6 6 6 6 6 6 6 6 6 6 6 6 6 6 6 6 6 6 6 6 6 6 6 6 6 6 : s L U J : ; - - - - ; ; w i i e 6 6 6 6 6 6 6 6 6 6 6 6 6 6 6 6 6 6 6 6 6 6 6 6 6 6 6 6 6 6 6 6 6 6 e i i e : ; - - - - ; ; e i i e 6 6 6 6 6 6 6 6 6 6 6 6 6 6 6 6 6 6 6 6 4 4 4 t t t t t t t t t t t V x.b.z.8 w 4 4 4 4 w w Z h.j.G t t t t t t t t t t t t w 4 4 t t t t t t t t t t t t t t t t t t t t t t t t t t t t t t t t ",
"e 6 6 6 6 6 6 6 6 6 6 6 6 6 6 6 6 6 6 6 6 6 4 4 6 6 6 6 6 6 6 6 6 6 6 6 6 6 6 6 6 6 6 : e K e : 6 6 6 6 6 6 6 6 e e 6 6 6 6 6 6 6 6 6 6 6 6 6 6 6 6 6 6 6 6 6 6 6 6 6 6 6 6 6 6 6 6 6 6 6 : i J e : 6 6 6 6 6 6 6 6 e e 6 6 6 6 6 6 6 6 6 6 6 6 6 6 6 6 6 6 6 6 6 6 6 6 6 6 6 6 6 6 6 6 6 6 6 6 w e 6 6 6 6 6 6 6 6 6 6 e e 6 6 6 6 6 6 6 6 6 6 6 6 6 6 6 6 6 6 6 6 6 4 4 4 t t t t t t t t t t t r T x.t t t t t t t t t s A G t t t t t t t t t t t t t w 4 4 t t t t t t t t t t t t t t t t t t t t t t t t t t t t t t t t ",
"6 6 6 6 6 6 6 6 6 6 6 6 6 6 6 6 6 6 6 6 6 6 4 4 6 6 6 6 6 6 6 6 6 6 6 6 6 6 6 6 6 6 6 6 : 6 6 6 6 6 6 6 6 6 6 6 6 6 6 6 6 6 6 6 6 6 6 6 6 6 6 6 6 6 6 6 6 6 6 6 6 6 6 6 6 6 6 6 6 6 6 6 6 6 : 6 6 6 6 6 6 6 6 6 6 6 6 6 6 6 6 6 6 6 6 6 6 6 6 6 6 6 6 6 6 6 6 6 6 6 6 6 6 6 6 6 6 6 6 6 6 6 6 6 6 6 6 6 6 6 6 6 6 6 6 6 6 6 6 6 6 6 6 6 6 6 6 6 6 6 6 6 6 6 6 6 6 6 6 4 4 4 t t t t t t t t t t t t w t t t t t t t t t t t t t t t t t t t t t t t t t t w 4 4 t t t t t t t t t t t t t t t t t t t t t t t t t t t t t t t t ",
"6 6 6 6 6 6 6 6 6 6 6 6 6 6 6 6 6 6 6 6 6 6 4 4 6 6 6 6 6 6 6 6 6 6 6 6 6 6 6 6 6 6 6 6 6 6 6 6 6 6 6 6 6 6 6 6 6 6 6 6 6 6 6 6 6 6 6 6 6 6 6 6 6 6 6 6 6 6 6 6 6 6 6 6 6 6 6 6 6 6 6 6 6 6 6 6 6 6 6 6 6 6 6 6 6 6 6 6 6 6 6 6 6 6 6 6 6 6 6 6 6 6 6 6 6 6 6 6 6 6 6 6 6 6 6 6 6 6 6 6 6 6 6 6 6 6 6 6 6 6 6 6 6 6 6 6 6 6 6 6 6 6 6 6 6 6 6 6 6 6 6 6 6 6 6 6 6 6 6 4 4 4 t t t t t t t t t t t t t t t t t t t t t t t t t t t t t t t t t t t t t t t w 4 4 t t t t t t t t t t t t t t t t t t t t t t t t t t t t t t t t ",
"6 6 6 6 6 6 6 6 6 6 6 6 6 6 6 6 6 6 6 6 6 6 4 4 6 6 6 6 6 6 6 6 6 6 6 6 6 6 6 6 6 6 6 6 6 6 6 6 6 6 6 6 6 6 6 6 6 6 6 6 6 6 6 6 6 6 6 6 6 6 6 6 6 6 6 6 6 6 6 6 6 6 6 6 6 6 6 6 6 6 6 6 6 6 6 6 6 6 6 6 6 6 6 6 6 6 6 6 6 6 6 6 6 6 6 6 6 6 6 6 6 6 6 6 6 6 6 6 6 6 6 6 6 6 6 6 6 6 6 6 6 6 6 6 6 6 6 6 6 6 6 6 6 6 6 6 6 6 6 6 6 6 6 6 6 6 6 6 6 6 6 6 6 6 6 6 6 6 6 4 4 4 t t t t t t t t t t t t t t t t t t t t t t t t t t t t t t t t t t t t t t t w 4 4 t t t t t t t t t t t t t t t t t t t t t t t t t t t t t t t t ",
"6 6 6 6 6 6 6 6 6 6 6 6 6 6 6 6 6 6 6 6 6 6 4 4 6 6 6 6 6 6 6 6 6 6 6 6 6 6 6 6 6 6 6 6 6 6 6 6 6 6 6 6 6 6 6 6 6 6 6 6 6 6 6 6 6 6 6 6 6 6 6 6 6 6 6 6 6 6 6 6 6 6 6 6 6 6 6 6 6 6 6 6 6 6 6 6 6 6 6 6 6 6 6 6 6 6 6 6 6 6 6 6 6 6 6 6 6 6 6 6 6 6 6 6 6 6 6 6 6 6 6 6 6 6 6 6 6 6 6 6 6 6 6 6 6 6 6 6 6 6 6 6 6 6 6 6 6 6 6 6 6 6 6 6 6 6 6 6 6 6 6 6 6 6 6 6 6 6 6 4 4 4 t t t t t t t t t t t t t t t t t t t t t t t t t t t t t t t t t t t t t t t w 4 4 t t t t t t t t t t t t t t t t t t t t t t t t t t t t t t t t ",
"6 6 6 6 6 6 6 6 6 6 6 6 6 6 6 6 6 6 6 6 6 6 4 4 6 6 6 6 6 6 6 6 6 6 6 6 6 6 6 6 6 6 6 6 6 6 6 6 6 6 6 6 6 6 6 6 6 6 6 6 6 6 6 6 6 6 6 6 6 6 6 6 6 6 6 6 6 6 6 6 6 6 6 6 6 6 6 6 6 6 6 6 6 6 6 6 6 6 6 6 6 6 6 6 6 6 6 6 6 6 6 6 6 6 6 6 6 6 6 6 6 6 6 6 6 6 6 6 6 6 6 6 6 6 6 6 6 6 6 6 6 6 6 6 6 6 6 6 6 6 6 6 6 6 6 6 6 6 6 6 6 6 6 6 6 6 6 6 6 6 6 6 6 6 6 6 6 6 6 4 4 4 t t t t t t t t t t t t t t t t t t t t t t t t t t t t t t t t t t t t t t t w 4 4 t t t t e e t t e w t t t t t t t t t t t t t t t t t t t t t t ",
"6 6 6 6 6 6 6 6 6 6 6 6 6 6 6 6 6 6 6 6 6 6 4 4 6 6 6 6 6 6 6 6 6 6 6 6 6 6 6 6 6 6 6 6 6 6 6 6 6 6 6 6 6 6 6 6 6 6 6 6 6 6 6 6 6 6 6 6 6 6 6 6 6 6 6 6 6 6 6 6 6 6 6 6 6 6 6 6 6 6 6 6 6 6 6 6 6 6 6 6 6 6 6 6 6 6 6 6 6 6 6 6 6 6 6 6 6 6 6 6 6 6 6 6 6 6 6 6 6 6 6 6 6 6 6 6 6 6 6 6 6 6 6 6 6 6 6 6 6 6 6 6 6 6 6 6 6 6 6 6 6 6 6 6 6 6 6 6 6 6 6 6 6 6 6 6 6 6 6 4 4 4 t t t t t t t t u t t t u t t t t t t t t t t t t t t t t t t t t t t t t t t w 4 4 t t t t z b t : M %.w u t t e t t t t t t t t t t t u t t u t t ",
"6 6 6 6 6 w 6 6 6 6 w 6 6 6 6 6 6 6 6 6 6 6 4 4 6 6 6 6 6 6 6 6 6 6 6 6 6 6 6 6 6 6 6 6 : & : 6 : & : 6 6 6 6 w 6 6 6 6 6 6 6 6 6 6 6 6 6 6 6 6 6 6 6 6 6 6 6 6 6 6 6 6 6 6 6 6 6 : & & : : & & : 6 6 6 : & 6 6 6 6 w 6 6 6 6 6 w 6 6 6 6 6 6 6 6 6 6 6 6 6 6 6 6 6 6 6 6 6 6 6 6 6 6 6 : & & : : & & : 6 6 : & & 6 6 6 ; ; 6 6 & & ; : 6 6 6 6 6 6 6 6 6 6 6 6 6 6 6 4 4 4 t t t t t t t w : : t w : w t t t e : w t t t t u t u u t t u u t t t t t t t w 4 4 t t : +.$XW.!.( e u e : : u %.: e : : t w : : e t w : e w : w t ",
"6 : & & : % : 6 : & % : 6 6 6 6 6 6 6 6 6 6 4 4 6 6 6 6 6 6 6 6 6 6 6 6 6 6 6 6 6 6 6 : e 4.h ; h 7.e : 6 : & % : & & 6 6 6 6 6 6 6 6 6 6 6 6 6 6 6 6 6 6 6 6 6 6 6 6 6 6 6 6 6 ; n r.8.x n 8.=.w : 6 : h 2.: 6 6 : % : : & & : % : 6 6 6 6 6 6 6 6 6 6 6 6 6 6 6 6 6 6 6 6 6 6 6 6 6 : u 4.8.h w 4.7.t : : z 8.=.6 6 : -.-.6 6 -.8.=.w : 6 6 6 6 6 6 6 6 6 6 6 6 6 6 4 4 4 t t t t t t e :.).s.u 9.).9.e t e ( !.9.t t e : : w : : t t : : e t t t t t t w 4 4 t t : %.f.o ;.!.( 5.z W.f.9.-Xa.M W.W.u 4.d.Q.{ w 0.).{ $.`.:.e ",
": n ` +.h -.x ; n ( #.w : 6 6 6 6 6 6 6 6 6 4 4 6 6 6 6 6 6 6 6 6 6 6 6 6 6 6 6 6 6 6 : ` U.n : -.U.u : : t ( #.x ` } 6 6 6 6 6 6 6 6 6 6 6 6 6 6 6 6 6 6 6 6 6 6 6 6 6 6 6 6 w % -.#.: 6 n u ,.#.& 6 : ,.P.: 6 : z =.n n +.( v -.t : 6 6 6 6 6 6 6 6 6 6 6 6 6 6 6 6 6 6 6 6 6 6 6 6 : h n ( ,.-.#.` =.: : 8.n =.` & x -.=.u -.4.t x w : 6 6 6 6 6 6 6 6 6 6 6 6 6 6 4 4 4 t t t t t t t @.u f.6.{ p !.@.: z Q.( t t e b %.9.( 4.4.e u 6.9.z e t t t t t w 4 4 t t : %.I.: p W.9.f.4.W.t { `.u v p s.:.).6.%.W.{ ).z { ).b (.{ ",
"n r.=.4.r.#.e.: r.,.=.,.& 6 6 6 6 6 6 6 6 6 4 4 6 6 6 6 6 6 6 6 6 6 6 6 6 6 6 6 6 6 6 w & =.^ : : 7.h : & ( L.` P.+.8.( ; 6 6 6 6 6 6 6 6 6 6 6 6 6 6 6 6 6 6 6 6 6 6 6 6 6 6 6 & +.p.4.h : % =.` : & ( -.4.w : u r.} x L.#.y.4.-.4.: 6 6 6 6 6 6 6 6 6 6 6 6 6 6 6 6 6 6 6 6 6 6 6 6 6 : % n 4.,.z w 8.: t 7.: n ,.& w =.,.w r.t ; : : 6 6 6 6 6 6 6 6 6 6 6 6 6 6 6 4 4 4 t t t t t t t t { Q.{ e %.Q.b w +.|.I.9.t : 4.@X5.$X5.).+.6.W.@.b e t t t t t w 4 4 t t : %.I.: p Q.4.f.e W.a.M !.: @.I.@X5.W.b v W.5.9.o $.$XI.OX+.",
"+.7.e n ,.% 7.e 7.u 6 r.w : 6 6 6 6 6 6 6 6 4 4 6 6 6 6 6 6 6 6 6 6 6 6 6 6 6 6 6 6 6 w % 4.^ ; & 8.h : & ( ,.o r.: ( -.& 6 6 6 6 6 6 6 6 6 6 6 6 6 6 6 6 6 6 6 6 6 6 6 6 6 6 6 6 w w ` 7.% n e.w ; t 4.t 8.w & ` =.o w y.% -.} : 7.w : 6 6 6 6 6 6 6 6 6 6 6 6 6 6 6 6 6 6 6 6 6 6 6 6 : w e.n =.x e r.& t 4.6 n 4.& 6 6 : w r.w 6 6 6 6 6 6 6 6 6 6 6 6 6 6 6 6 6 6 4 4 4 t t t t t t e b R.).M M !.W.v : 4.!.u (.+.% 6.a.& |.6 5.5.( ).$.e t t t t t t w 4 4 t t : =.R.: a.I.+.Q.w t R.a.Q.u `.@.s.9.Q.M M Q.$.Q.w { ).z z u ",
"+.7.t ^ =.: 7.e 8.v e r.: 6 6 6 6 6 6 6 6 6 4 4 6 6 6 6 6 6 6 6 6 6 6 6 6 6 6 6 6 6 6 w % 2.^ : & 8.h : & ( =.& e.e ` #.& 6 6 6 6 6 6 6 6 6 6 6 6 6 6 6 6 6 6 6 6 6 6 6 6 6 6 6 6 w % x 4.t 4.w & e ^ s.8./.+.& ( 4.% w r.& -.` e 7.w : 6 6 6 6 6 6 6 6 6 6 6 6 6 6 6 6 6 6 6 6 6 6 6 6 : =.n . ,.n u 7.e e 8.6 } -.& w 6 6 & r.( % : 6 6 6 6 6 6 6 6 6 6 6 6 6 6 6 6 4 4 4 t t t t t t u e X 6.I.% X f.9.e %.I.. R.@.% 6.a.w ).t 0.6.: u (.%.: t t t t t w 4 4 t t w { +X!.I.u { 9.{ `.f.v d.f.:.).f.$.a.b v d.e d.|.+.=.).d.z ",
"` 7.t ^ =.; 7.e 7.e.e.} & 6 6 6 6 6 6 6 6 6 4 4 6 6 6 6 6 6 6 6 6 6 6 6 6 6 6 6 6 6 6 w % 2.^ ; & 8.h : & ( =.% e.w ` #.& 6 6 6 6 6 6 6 6 6 6 6 6 6 6 6 6 6 6 6 6 6 6 6 6 6 6 6 : ` 7.e.n r.s.,.` 7.h : e r.w : w 7.8.( 8.; -.` w 7.w : 6 6 6 6 6 6 6 6 6 6 6 6 6 6 6 6 6 6 6 6 6 6 6 ; #.Y.,.-.n 8.r.v 2.n ( r.8.u : 6 6 6 : x r.7.#.w : 6 6 6 6 6 6 6 6 6 6 6 6 6 6 4 4 4 t t t t t e p a.W.Q.%.s.Q.R.+.Q.u I.(.f.u : 5.a.w ).t 0.4.+.R.Q.{ w t t t t t w 4 4 t t t e w t w e e e t e e e w e e e w e e t t w t w e t w e e t ",
"6 e 6 w e : t & 8.n u : 6 6 6 6 6 6 6 6 6 6 4 4 6 6 6 6 6 6 6 6 6 6 6 6 6 6 6 6 6 6 6 6 : e w : : e 6 6 : w e : e 6 w w : 6 6 6 6 6 6 6 6 6 6 6 6 6 6 6 6 6 6 6 6 6 6 6 6 6 6 6 : e x u : u z v u e w : : e 6 6 : w v t e 6 w w 6 e 6 6 6 6 6 6 6 6 6 6 6 6 6 6 6 6 6 6 6 6 6 6 6 6 6 6 t h x z : u h : e w : h t : 6 6 6 6 6 : e v u 6 6 6 6 6 6 6 6 6 6 6 6 6 6 6 6 4 4 4 t t t t t t t n { v e M { p e v e u { u e t u p t z t p u z { v e t t t t t t w 4 4 t t t t t t t t t t t t t t t t t t t t t t t t t t t t t t t t ",
": : 6 : : 6 6 & 7.u & 6 6 6 6 6 6 6 6 6 6 6 4 4 6 6 6 6 6 6 6 6 6 6 6 6 6 6 6 6 6 6 6 6 6 : : 6 6 : 6 6 6 : : 6 : 6 : : 6 6 6 6 6 6 6 6 6 6 6 6 6 6 6 6 6 6 6 6 6 6 6 6 6 6 6 6 6 : ; : 6 : : ; : : : 6 6 : 6 6 6 : ; : : 6 : : 6 : 6 6 6 6 6 6 6 6 6 6 6 6 6 6 6 6 6 6 6 6 6 6 6 6 6 6 : : ; : 6 : : 6 : : 6 : : 6 6 6 6 6 6 6 : ; : 6 6 6 6 6 6 6 6 6 6 6 6 6 6 6 6 4 4 4 t t t t t t t e w e t w w e t e t t w t t t e e t e t e t e w e t t t t t t t w 4 4 t t t t t t t t t t t t t t t t t t t t t t t t t t t t t t t t ",
"6 6 6 6 6 6 6 6 w 6 6 6 6 6 6 6 6 6 6 6 6 6 4 4 6 6 6 6 6 6 6 6 6 6 6 6 6 6 6 6 6 6 6 6 6 6 6 6 6 6 6 6 6 6 6 6 6 6 6 6 6 6 6 6 6 6 6 6 6 6 6 6 6 6 6 6 6 6 6 6 6 6 6 6 6 6 6 6 6 6 6 6 6 6 6 6 6 6 6 6 6 6 6 6 6 6 6 6 6 6 6 6 6 6 6 6 6 6 6 6 6 6 6 6 6 6 6 6 6 6 6 6 6 6 6 6 6 6 6 6 6 6 6 6 6 6 6 6 6 6 6 6 6 6 6 6 6 6 6 6 6 6 6 6 6 6 6 6 6 6 6 6 6 6 6 6 6 6 6 4 4 4 t t t t t t t t t t t t t t t t t t t t t t t t t t t t t t t t t t t t t t t w 4 4 t t t t t t t t t t t t t t t t t t t t t t t t t t t t t t t t ",
"6 6 6 6 6 6 6 6 : 6 6 6 6 6 6 6 6 6 6 6 6 6 4 4 6 6 6 6 6 6 6 6 6 6 6 6 6 6 6 6 6 6 6 6 6 6 6 6 6 6 6 6 6 6 6 6 6 6 6 6 6 6 6 6 6 6 6 6 6 6 6 6 6 6 6 6 6 6 6 6 6 6 6 6 6 6 6 6 6 6 6 6 6 6 6 6 6 6 6 6 6 6 6 6 6 6 6 6 6 6 6 6 6 6 6 6 6 6 6 6 6 6 6 6 6 6 6 6 6 6 6 6 6 6 6 6 6 6 6 6 6 6 6 6 6 6 6 6 6 6 6 6 6 6 6 6 6 6 6 6 6 6 6 6 6 6 6 6 6 6 6 6 6 6 6 6 6 6 6 4 4 4 t t t t t t t t t t t t t t t t t t t t t t t t t t t t t t t t t t t t t t t w 4 4 t t t t t t t t t t t t t t t t t t t t t t t t t t t t t t t t ",
"6 6 6 6 6 6 6 6 6 6 6 6 6 6 6 6 6 6 6 6 6 6 4 4 6 6 6 6 6 6 6 6 6 6 6 6 6 6 6 6 6 6 6 6 6 6 6 6 6 6 6 6 6 6 6 6 6 6 6 6 6 6 6 6 6 6 6 6 6 6 6 6 6 6 6 6 6 6 6 6 6 6 6 6 6 6 6 6 6 6 6 6 6 6 6 6 6 6 6 6 6 6 6 6 6 6 6 6 6 6 6 6 6 6 6 6 6 6 6 6 6 6 6 6 6 6 6 6 6 6 6 6 6 6 6 6 6 6 6 6 6 6 6 6 6 6 6 6 6 6 6 6 6 6 6 6 6 6 6 6 6 6 6 6 6 6 6 6 6 6 6 6 6 6 6 6 6 6 6 4 4 4 t t t t t t t t t t t t t t t t t t t t t t t t t t t t t t t t t t t t t t t w 4 4 t t t t t t t t t t t t t t t t t t t t t t t t t t t t t t t t ",
"6 6 6 6 6 6 6 6 6 6 6 6 6 6 6 6 6 6 6 6 6 6 4 4 6 6 6 6 6 6 6 6 6 6 6 6 6 6 6 6 6 6 6 6 6 6 6 6 6 6 6 6 6 6 6 6 6 6 6 6 6 6 6 6 6 6 6 6 6 6 6 6 6 6 6 6 6 6 6 6 6 6 6 6 6 6 6 6 6 6 6 6 6 6 6 6 6 6 6 6 6 6 6 6 6 6 6 6 6 6 6 6 6 6 6 6 6 6 6 6 6 6 6 6 6 6 6 6 6 6 6 6 6 6 6 6 6 6 6 6 6 6 6 6 6 6 6 6 6 6 6 6 6 6 6 6 6 6 6 6 6 6 6 6 6 6 6 6 6 6 6 6 6 6 6 6 6 6 6 4 4 4 t t t t t t t t t t t t t t t t t t t t t t t t t t t t t t t t t t t t t t t w 4 4 t t t t t t t t t t t t t t t t t t t t t t t t t t t t t t t t ",
"6 6 6 6 6 6 6 6 6 6 6 6 6 6 6 6 6 6 6 6 6 6 4 4 6 6 6 6 6 6 6 6 6 6 6 6 6 6 6 6 6 6 6 6 6 6 6 6 6 6 6 6 6 6 6 6 6 6 6 6 6 6 6 6 6 6 6 6 6 6 6 6 6 6 6 6 6 6 6 6 6 6 6 6 6 6 6 6 6 6 6 6 6 6 6 6 6 6 6 6 6 6 6 6 6 6 6 6 6 6 6 6 6 6 6 6 6 6 6 6 6 6 6 6 6 6 6 6 6 6 6 6 6 6 6 6 6 6 6 6 6 6 6 6 6 6 6 6 6 6 6 6 6 6 6 6 6 6 6 6 6 6 6 6 6 6 6 6 6 6 6 6 6 6 6 6 6 6 6 4 4 4 t t t t t t t t t t t t t t t t t t t t t t t t t t t t t t t t t t t t t t t w 4 4 t t t t t t t t t t t t t t t t t t t t t t t t t t t t t t t t ",
": 6 6 6 6 6 6 6 6 6 6 6 6 6 6 6 6 6 6 6 6 6 4 4 6 6 6 6 6 6 6 6 6 6 6 6 6 6 6 6 6 6 6 6 6 6 6 6 6 6 6 6 6 6 6 6 6 6 6 6 6 6 6 6 6 6 6 6 6 6 6 6 6 6 6 6 6 6 6 6 6 6 6 6 6 6 6 6 6 6 6 6 6 6 6 6 6 6 6 6 6 6 6 6 6 6 : : 6 6 6 6 6 6 6 6 6 6 6 6 6 6 6 6 6 6 6 6 6 6 6 6 6 6 6 6 6 6 6 6 6 6 6 6 6 6 6 6 6 6 6 6 6 6 6 6 6 6 6 6 6 6 6 6 6 6 6 6 6 6 6 6 6 6 6 6 6 6 6 4 4 4 t t t t t t t t t t t t t t t t t t t t t t t t t t t t t t t t t t t t t t t w 4 4 t t t t t t t t t t t t t t t t t t t t t t t t t t t t t t t t ",
"e 6 6 6 6 6 6 6 6 6 6 6 6 6 6 6 6 6 6 6 6 6 4 4 6 6 6 6 6 6 6 6 6 6 6 6 6 6 6 6 6 6 6 6 6 6 6 6 6 6 6 6 6 6 6 6 6 6 6 6 6 6 6 6 6 6 6 6 6 6 6 6 6 6 6 6 6 6 6 6 6 6 6 6 6 6 6 6 6 6 6 6 6 6 6 6 6 : ; 6 6 6 6 6 : 6 w w : 6 6 6 6 6 6 6 6 6 6 6 6 6 6 6 6 6 6 6 6 6 6 6 6 6 6 6 6 6 6 6 6 6 6 6 6 6 6 6 6 6 6 6 6 6 6 6 6 6 6 6 6 6 6 6 6 6 6 6 6 6 6 6 6 6 6 6 6 6 6 4 4 4 t t t t t t t t t t t t t t t e w t t t t t t t u u t t t t t t t t t t t t t w 4 4 t t t t t t t t t t t t t t t t t t t t t t t t t t t t t t t t ",
"( : 6 6 : 6 : : 6 6 6 6 6 6 6 6 6 6 6 6 6 6 4 4 6 6 6 6 6 6 6 6 6 6 6 6 6 6 6 6 6 6 6 6 6 6 6 6 6 6 6 6 6 6 6 6 6 6 6 6 6 6 6 6 6 6 6 6 6 6 6 6 6 6 6 6 6 6 6 6 6 6 6 6 6 6 6 h h h h h h r : 6 : e n : 6 6 : : w ; u ^ & 6 6 : 6 : : 6 6 6 6 6 6 6 6 6 6 6 6 6 6 6 6 6 6 6 6 6 6 6 6 6 6 6 6 6 6 6 6 6 6 6 6 6 6 6 6 6 6 6 6 6 6 6 6 6 6 6 6 6 6 6 6 6 6 6 6 6 6 6 6 4 4 4 t t t w F N.B.B.B.B.N.Y w t e n { e t t w e u : +.{ : t t e t e e t t t t t t w 4 4 t t t t t t t t t t t t t t t t t t t t t t t t t t t t t t t t ",
"6 e 6 : w 6 w h : : 6 6 6 6 6 6 6 6 6 6 6 6 4 4 6 6 6 6 6 6 6 6 6 6 6 6 6 6 6 6 6 6 6 6 6 6 6 6 6 6 6 6 6 6 6 6 6 6 6 6 6 6 6 6 6 6 6 6 6 6 6 6 6 6 6 6 6 6 6 6 6 6 6 6 6 6 6 h g r r r h r : 6 ; ( E.t : 6 h t =.n 6 6 e 6 6 e : t u : 6 6 6 6 6 6 6 6 6 6 6 6 6 6 6 6 6 6 6 6 6 6 6 6 6 6 6 6 6 6 6 6 6 6 6 6 6 6 6 6 6 6 6 6 6 6 6 6 6 6 6 6 6 6 6 6 6 6 6 6 6 6 6 4 4 4 t t t w F M.B.B.B.B.M.Y 8 u 6 f.@Xe e u M M I.M t u p t t z e n v e t t t t t w 4 4 t t t t t t t t t t t t t t t t t t t t t t t t t t t t t t t t ",
"4.-.( 6 7.x ,.8.} : 6 6 6 6 6 6 6 6 6 6 6 6 4 4 6 6 6 6 6 6 6 6 6 6 6 6 6 6 6 6 6 6 6 6 6 6 6 6 6 6 6 6 6 6 6 6 6 6 6 6 6 6 6 6 6 6 6 6 6 6 6 6 6 6 6 6 6 6 6 6 6 6 6 6 6 6 6 h r w r w h r : 6 : =.,.( & =.e.-.P.7.` ,.=.z h 4.x 4.8.n : 6 6 6 6 6 6 6 6 6 6 6 6 6 6 6 6 6 6 6 6 6 6 6 6 6 6 6 6 6 6 6 6 6 6 6 6 6 6 6 6 6 6 6 6 6 6 6 6 6 6 6 6 6 6 6 6 6 6 6 6 6 6 4 4 4 t t t w F M.m.v.v.v.M.Y w t z d.f.( u W.Q.a.-X9.a.a.I.t :.9.$.Q.W.M e t t t t w 4 4 t t t t t t t t t t t t t t t t t t t t t t t t t t t t t t t t ",
"e.v 2.x ,.( 8.x s.t : 6 6 6 6 6 6 6 6 6 6 6 4 4 6 6 6 6 6 6 6 6 6 6 6 6 6 6 6 6 6 6 6 6 6 6 6 6 6 6 6 6 6 6 6 6 6 6 6 6 6 6 6 6 6 6 6 6 6 6 6 6 6 6 6 6 6 6 6 6 6 6 6 6 6 6 6 h y r r r h r : : h 8.+.4.h r.: % 7.w n ,.( #.( #.=.=.( y.: 6 6 6 6 6 6 6 6 6 6 6 6 6 6 6 6 6 6 6 6 6 6 6 6 6 6 6 6 6 6 6 6 6 6 6 6 6 6 6 6 6 6 6 6 6 6 6 6 6 6 6 6 6 6 6 6 6 6 6 6 6 6 4 4 4 t t t w F M.m.n.n.m.M.Y w w %.W.u.9.$.I.% t ).% a.4.a.+.d.$.(.%.d.I.: u t t t w 4 4 t t t t t t t t t t t t t t t t t t t t t t t t t t t t t t t t ",
"r.6 4.,.n +.s.#.#.w : 6 6 6 6 6 6 6 6 6 6 6 4 4 6 6 6 6 6 6 6 6 6 6 6 6 6 6 6 6 6 6 6 6 6 6 6 6 6 6 6 6 6 6 6 6 6 6 6 6 6 6 6 6 6 6 6 6 6 6 6 6 6 6 6 6 6 6 6 6 6 6 6 6 6 6 6 h r w r w h r 6 & ` s.4.i.( 4.% % e.e n ,.t 4.4.h 2.r.-.} : 6 6 6 6 6 6 6 6 6 6 6 6 6 6 6 6 6 6 6 6 6 6 6 6 6 6 6 6 6 6 6 6 6 6 6 6 6 6 6 6 6 6 6 6 6 6 6 6 6 6 6 6 6 6 6 6 6 6 6 6 6 6 4 4 4 t t t w F M.m.c.v.c.M.Y r > f.).!.W.5.r.% p `.% a.;.@.I.f.b |.I.a.$.w t t t t w 4 4 t t t t t t t t t t t t t t t t t t t t t t t t t t t t t t t t ",
"p.% -.~.: n 7.x z 6 6 6 6 6 6 6 6 6 6 6 6 6 4 4 6 6 6 6 6 6 6 6 6 6 6 6 6 6 6 6 6 6 6 6 6 6 6 6 6 6 6 6 6 6 6 6 6 6 6 6 6 6 6 6 6 6 6 6 6 6 6 6 6 6 6 6 6 6 6 6 6 6 6 6 6 6 6 h h h h h k r : 6 8.z . #.=.7.#.h 4.#.( 8.o r.L.% } ,.z h : 6 6 6 6 6 6 6 6 6 6 6 6 6 6 6 6 6 6 6 6 6 6 6 6 6 6 6 6 6 6 6 6 6 6 6 6 6 6 6 6 6 6 6 6 6 6 6 6 6 6 6 6 6 6 6 6 6 6 6 6 6 6 4 4 4 t t t w K M.N.M.M.N.M.Y 4 M (.t & I.a.!.;.( `.@.s.9.: ;XI.% f.0.( v e t t t t w 4 4 t t t t t t t t t t t t t t t t t t t t t t t t t t t t t t t t ",
"^ ; z ` : : n ,.( : 6 6 6 6 6 6 6 6 6 6 6 6 4 4 6 6 6 6 6 6 6 6 6 6 6 6 6 6 6 6 6 6 6 6 6 6 6 6 6 6 6 6 6 6 6 6 6 6 6 6 6 6 6 6 6 6 6 6 6 6 6 6 6 6 6 6 6 6 6 6 6 6 6 6 6 6 6 e r r r r r w : w ( w : u n u ,.^ t -.n n % n ^ : : ` ,.n : 6 6 6 6 6 6 6 6 6 6 6 6 6 6 6 6 6 6 6 6 6 6 6 6 6 6 6 6 6 6 6 6 6 6 6 6 6 6 6 6 6 6 6 6 6 6 6 6 6 6 6 6 6 6 6 6 6 6 6 6 6 6 4 4 4 t t t e a l.l.l.l.l.l.H w m $.t e +.( +.f.( } 9.+.( : :.( w p 9.s.M e t t t t w 4 4 t t t t t t t t t t t t t t t t t t t t t t t t t t t t t t t t ",
"; 6 : & 6 6 ; % & 6 6 6 6 6 6 6 6 6 6 6 6 6 4 4 6 6 6 6 6 6 6 6 6 6 6 6 6 6 6 6 6 6 6 6 6 6 6 6 6 6 6 6 6 6 6 6 6 6 6 6 6 6 6 6 6 6 6 6 6 6 6 6 6 6 6 6 6 6 6 6 6 6 6 6 6 6 6 : : : : : : : 6 : & 6 6 : ; : % & : % : ; 6 ; ; 6 6 & % : 6 6 6 6 6 6 6 6 6 6 6 6 6 6 6 6 6 6 6 6 6 6 6 6 6 6 6 6 6 6 6 6 6 6 6 6 6 6 6 6 6 6 6 6 6 6 6 6 6 6 6 6 6 6 6 6 6 6 6 6 6 6 6 4 4 4 t t t t t 8 8 8 8 8 8 e t e w t t w w w & w w : w w t : w t t : : e t t t t t w 4 4 t t t t t t t t t t t t t t t t t t t t t t t t t t t t t t t t ",
"6 6 6 6 6 6 6 w 6 6 6 6 6 6 6 6 6 6 6 6 6 6 4 4 6 6 6 6 6 6 6 6 6 6 6 6 6 6 6 6 6 6 6 6 6 6 6 6 6 6 6 6 6 6 6 6 6 6 6 6 6 6 6 6 6 6 6 6 6 6 6 6 6 6 6 6 6 6 6 6 6 6 6 6 6 6 6 6 6 6 6 6 6 6 6 6 6 6 6 6 6 6 w 6 6 w 6 6 6 6 6 6 6 6 w 6 6 6 6 6 6 6 6 6 6 6 6 6 6 6 6 6 6 6 6 6 6 6 6 6 6 6 6 6 6 6 6 6 6 6 6 6 6 6 6 6 6 6 6 6 6 6 6 6 6 6 6 6 6 6 6 6 6 6 6 6 6 6 6 4 4 4 t t t t t t t t t t t t t t t t t t t t u t t u t t t t t t t u u t t t t t t w 4 4 t t t t t t t t t t t t t t t t t t t t t t t t t t t t t t t t ",
"6 6 6 6 6 6 6 6 6 6 6 6 6 6 6 6 6 6 6 6 6 6 4 4 6 6 6 6 6 6 6 6 6 6 6 6 6 6 6 6 6 6 6 6 6 6 6 6 6 6 6 6 6 6 6 6 6 6 6 6 6 6 6 6 6 6 6 6 6 6 6 6 6 6 6 6 6 6 6 6 6 6 6 6 6 6 6 6 6 6 6 6 6 6 6 6 6 6 6 6 6 6 6 6 6 6 6 6 6 6 6 6 6 6 6 6 6 6 6 6 6 6 6 6 6 6 6 6 6 6 6 6 6 6 6 6 6 6 6 6 6 6 6 6 6 6 6 6 6 6 6 6 6 6 6 6 6 6 6 6 6 6 6 6 6 6 6 6 6 6 6 6 6 6 6 6 6 6 6 4 4 4 t t t t t t t t t t t t t t t t t t t t t t t t t t t t t t t t t t t t t t t w 4 4 t t t t t t t t t t t t t t t t t t t t t t t t t t t t t t t t ",
"6 6 6 6 6 6 6 6 6 6 6 6 6 6 6 6 6 6 6 6 6 6 4 4 6 6 6 6 6 6 6 6 6 6 6 6 6 6 6 6 6 6 6 6 6 6 6 6 6 6 6 6 6 6 6 6 6 6 6 6 6 6 6 6 6 6 6 6 6 6 6 6 6 6 6 6 6 6 6 6 6 6 6 6 6 6 6 6 6 6 6 6 6 6 6 6 6 6 6 6 6 6 6 6 6 6 6 6 6 6 6 6 6 6 6 6 6 6 6 6 6 6 6 6 6 6 6 6 6 6 6 6 6 6 6 6 6 6 6 6 6 6 6 6 6 6 6 6 6 6 6 6 6 6 6 6 6 6 6 6 6 6 6 6 6 6 6 6 6 6 6 6 6 6 6 6 6 6 6 4 4 4 t t t t t t t t t t t t t t t t t t t t t t t t t t t t t t t t t t t t t t t w 4 4 t t t t t t t t t t t t t t t t t t t t t t t t t t t t t t t t ",
"6 6 6 6 6 6 6 6 6 6 6 6 6 6 6 6 6 6 6 6 6 6 4 4 6 6 6 6 6 6 6 6 6 6 6 6 6 6 6 6 6 6 6 6 6 6 6 6 6 6 6 6 6 6 6 6 6 6 6 6 6 6 6 6 6 6 6 6 6 6 6 6 6 6 6 6 6 6 6 6 6 6 6 6 6 6 6 6 6 6 6 6 6 6 6 6 6 6 6 6 6 6 6 6 6 6 6 6 6 6 6 6 6 6 6 6 6 6 6 6 6 6 6 6 6 6 6 6 6 6 6 6 6 6 6 6 6 6 6 6 6 6 6 6 6 6 6 6 6 6 6 6 6 6 6 6 6 6 6 6 6 6 6 6 6 6 6 6 6 6 6 6 6 6 6 6 6 6 6 4 4 4 t t t t t t t t t t t t t t t t t t t t t t t t t t t t t t t t t t t t t t t w 4 4 t t t t t t t t t t t t t t t t t t t t t t t t t t t t t t t t ",
"6 6 6 6 6 6 6 6 6 6 6 6 6 6 6 6 6 6 6 6 6 6 4 4 6 6 6 6 6 6 6 6 6 6 6 6 6 6 6 6 6 6 6 6 6 6 6 6 6 6 6 6 6 6 6 6 6 6 6 6 6 6 6 6 6 6 6 6 6 6 6 6 6 6 6 6 6 6 6 6 6 6 6 6 6 6 6 6 6 6 6 6 6 6 6 6 6 6 6 6 6 6 6 6 6 6 6 6 6 6 6 6 6 6 6 6 6 6 6 6 6 6 6 6 6 6 6 6 6 6 6 6 6 6 6 6 6 6 6 6 6 6 6 6 6 6 6 6 6 6 6 6 6 6 6 6 6 6 6 6 6 6 6 6 6 6 6 6 6 6 6 6 6 6 6 6 6 6 6 4 4 4 t t t t t t t t t t t t t t t t t t t t t t t t t t t t t t t t t t t t t t t w 4 4 t t t t t t t t t t t t t t t t t t t t t t t t t t t t t t t t ",
"6 6 6 6 6 6 6 6 6 6 6 6 6 6 6 6 6 6 6 6 6 6 4 4 6 6 6 6 6 6 6 6 6 6 6 6 6 6 6 6 6 6 6 6 6 6 6 6 6 6 6 6 6 6 6 6 6 6 6 6 6 6 6 6 6 6 6 6 6 6 6 6 6 6 6 6 6 6 6 6 6 6 6 6 6 6 6 6 6 6 6 6 6 6 6 6 6 6 6 6 6 6 6 6 6 6 6 6 6 6 6 6 6 6 6 6 6 6 6 6 6 6 6 6 6 6 6 6 6 6 6 6 6 6 6 6 6 6 6 6 6 6 6 6 6 6 6 6 6 6 6 6 6 6 6 6 6 6 6 6 6 6 6 6 6 6 6 6 6 6 6 6 6 6 6 6 6 6 6 4 4 4 t t t t t t t t t t t t t t t t t t t t t t t t t t t t t t t t t t t t t t t w 4 4 t t t t t t t t t t t t t t t t t t t t t t t t t t t t t t t t ",
"6 6 6 6 6 6 6 6 6 6 6 6 6 6 6 6 6 6 6 6 6 6 4 4 6 6 6 6 6 6 6 6 6 6 6 6 6 6 6 6 6 6 6 6 6 6 6 6 6 6 6 6 6 6 6 6 6 6 6 6 6 6 6 6 6 6 6 6 6 6 6 6 6 6 6 6 6 6 6 6 6 6 6 6 6 6 6 6 6 6 6 6 6 6 6 6 6 6 6 6 6 6 6 6 6 6 6 6 6 6 6 6 6 6 6 6 6 6 6 6 6 6 6 6 6 6 6 6 6 6 6 6 6 6 6 6 6 6 6 6 6 6 6 6 6 6 6 6 6 6 6 6 6 6 6 6 6 6 6 6 6 6 6 6 6 6 6 6 6 6 6 6 6 6 6 6 6 6 6 4 4 6 t t t t t t t t t t t t t t t t t t t t t t t t t t t t t t t t t t t t t t t w 4 4 t t t t t t t t t t t t t t t t t t t t t t t t t t t t t t t t ",
"4 4 4 4 4 4 4 4 4 4 4 4 4 4 4 4 4 4 4 4 4 4 4 4 4 4 4 4 4 4 4 4 4 4 4 4 4 4 4 4 4 4 4 4 4 4 4 4 4 4 4 4 4 4 4 4 4 4 4 4 4 4 4 4 4 4 4 4 4 4 4 4 4 4 4 4 4 4 4 4 4 4 4 4 4 4 4 4 4 4 4 4 4 4 4 4 4 4 4 4 4 4 4 4 4 4 4 4 4 4 4 4 4 4 4 4 4 4 4 4 4 4 4 4 4 4 4 4 4 4 4 4 4 4 4 4 4 4 4 4 4 4 4 4 4 4 4 4 4 4 4 4 4 4 4 4 4 4 4 4 4 4 4 4 4 4 4 4 4 4 4 4 4 4 4 4 4 4 4 4 4 4 w w w w w w w w w w w w w w w w w w w w w w w w w w w w w w w w w w w w w w w 4 4 4 w w w w w w w w w w w w w w w w w w w w w w w w w w w w w w w w ",
"4 4 4 4 4 4 4 4 4 4 4 4 4 4 4 4 4 4 4 4 4 4 4 4 4 4 4 4 4 4 4 4 4 4 4 4 4 4 4 4 4 4 4 4 4 4 4 4 4 4 4 4 4 4 4 4 4 4 4 4 4 4 4 4 4 4 4 4 4 4 4 4 4 4 4 4 4 4 4 4 4 4 4 4 4 4 4 4 4 4 4 4 4 4 4 4 4 4 4 4 4 4 4 4 4 4 4 4 4 4 4 4 4 4 4 4 4 4 4 4 4 4 4 4 4 4 4 4 4 4 4 4 4 4 4 4 4 4 4 4 4 4 4 4 4 4 4 4 4 4 4 4 4 4 4 4 4 4 4 4 4 4 4 4 4 4 4 4 4 4 4 4 4 4 4 4 4 4 4 4 4 4 4 4 4 4 4 4 4 4 4 4 4 4 4 4 4 4 4 4 4 4 4 4 4 4 4 4 4 4 4 4 4 4 4 4 4 4 4 4 4 4 4 4 4 4 4 4 4 4 4 4 4 4 4 4 4 4 4 4 4 4 4 4 4 4 4 4 4 4 4 4 4 4 4 4 ",
"4 4 4 4 4 4 4 4 4 4 4 4 4 4 4 4 4 4 4 4 4 4 4 4 4 4 4 4 4 4 4 4 4 4 4 4 4 4 4 4 4 4 4 4 4 4 4 4 4 4 4 4 4 4 4 4 4 4 4 4 4 4 4 4 4 4 4 4 4 4 4 4 4 4 4 4 4 4 4 4 4 4 4 4 4 4 4 4 4 4 4 4 4 4 4 4 4 4 4 4 4 4 4 4 4 4 4 4 4 4 4 4 4 4 4 4 4 4 4 4 4 4 4 4 4 4 4 4 4 4 4 4 4 4 4 4 4 4 4 4 4 4 4 4 4 4 4 4 4 4 4 4 4 4 4 4 4 4 4 4 4 4 4 4 4 4 4 4 4 4 4 4 4 4 4 4 4 4 4 4 4 4 5 5 5 5 5 5 5 5 5 5 5 5 5 5 5 5 5 5 5 5 5 5 5 5 5 5 5 5 5 5 5 5 5 5 5 5 5 5 5 4 4 4 5 5 5 5 5 5 5 5 5 5 5 5 5 5 5 5 5 5 5 5 5 5 5 5 5 5 5 5 5 5 5 5 ",
"~ ~ ~ ~ ~ ~ ~ ~ ~ ~ ~ ~ ~ ~ ~ ~ ~ ~ ~ ~ ~ ~ ~ ~ ~ ~ ~ ~ ~ ~ ~ ~ ~ ~ ~ ~ ~ ~ ~ ~ ~ ~ ~ ~ ~ ~ ~ ~ ~ ~ ~ ~ ~ ~ ~ ~ ~ ~ ~ ~ ~ ~ ~ ~ ~ ~ ~ ~ ~ ~ ~ ~ ~ ~ ~ ~ ~ ~ ~ ~ ~ ~ ~ ~ ~ ~ ~ ~ ~ ~ ~ ~ ~ ~ ~ ~ ~ ~ ~ ~ ~ ~ ~ ~ ~ ~ ~ ~ ~ ~ ~ ~ ~ ~ ~ ~ ~ ~ ~ ~ ~ ~ ~ ~ ~ ~ ~ ~ ~ ~ ~ ~ ~ ~ ~ ~ ~ ~ ~ ~ ~ ~ ~ ~ ~ ~ ~ ~ ~ ~ ~ ~ ~ ~ ~ ~ ~ ~ ~ ~ ~ ~ ~ ~ ~ ~ ~ ~ ~ ~ ~ ~ ~ ~ ~ ~ ~ ~ ~ ~ ~ ~ ~ ~ ~ ~ ~ ~ ~ ~ ~ ~ ~ ~ ~ ~ ~ ~ ~ ~ ~ ~ ~ ~ ~ ~ ~ ~ ~ ~ ~ ~ ~ ~ ~ ~ ~ ~ ~ ~ ~ ~ ~ ~ ~ ~ ~ ~ ~ ~ ~ ~ ~ ~ ~ ~ ~ ~ ~ ~ ~ ~ ~ ~ ~ ~ ~ ~ ~ ~ ~ ~ ~ ~ ~ ~ ",
"~ ~ ~ ~ ~ ~ ~ ~ ~ ~ ~ ~ ~ ~ ~ ~ ~ ~ ~ ~ ~ ~ ~ ~ ~ ~ ~ ~ ~ ~ ~ ~ ~ ~ ~ ~ ~ ~ ~ ~ ~ ~ ~ ~ ~ ~ ~ ~ ~ ~ ~ ~ ~ ~ ~ ~ ~ ~ ~ ~ ~ ~ ~ ~ ~ ~ ~ ~ ~ ~ ~ ~ ~ ~ ~ ~ ~ ~ ~ ~ ~ ~ ~ ~ ~ ~ ~ ~ ~ ~ ~ ~ ~ ~ ~ ~ ~ ~ ~ ~ ~ ~ ~ ~ ~ ~ ~ ~ ~ ~ ~ ~ ~ ~ ~ ~ ~ ~ ~ ~ ~ ~ ~ ~ ~ ~ ~ ~ ~ ~ ~ ~ ~ ~ ~ ~ ~ ~ ~ ~ ~ ~ ~ ~ ~ ~ ~ ~ ~ ~ ~ ~ ~ ~ ~ ~ ~ ~ ~ ~ ~ ~ ~ ~ ~ ~ ~ ~ ~ ~ ~ ~ ~ ~ ~ ~ ~ ~ ~ ~ ~ ~ ~ ~ ~ ~ ~ ~ ~ ~ ~ ~ ~ ~ ~ ~ ~ ~ ~ ~ ~ ~ ~ ~ ~ ~ ~ ~ ~ ~ ~ ~ ~ ~ ~ ~ ~ ~ ~ ~ ~ ~ ~ ~ ~ ~ ~ ~ ~ ~ ~ ~ ~ ~ ~ ~ ~ ~ ~ ~ ~ ~ ~ ~ ~ ~ ~ ~ ~ ~ ~ ~ ~ ~ ~ ~ ",
"~ ~ ~ ~ ~ ~ ~ ~ ~ ~ ~ ~ ~ ~ ~ ~ ~ ~ ~ ~ ~ ~ ~ ~ ~ ~ ~ ~ ~ ~ ~ ~ ~ ~ ~ ~ ~ ~ ~ ~ ~ ~ ~ ~ ~ ~ ~ ~ ~ ~ ~ ~ ~ ~ ~ ~ ~ ~ ~ ~ ~ ~ ~ ~ ~ ~ ~ ~ ~ ~ ~ ~ ~ ~ ~ ~ ~ ~ ~ ~ ~ ~ ~ ~ ~ ~ ~ ~ ~ ~ ~ ~ ~ ~ ~ ~ ~ ~ ~ ~ ~ ~ ~ ~ ~ ~ ~ ~ ~ ~ ~ ~ ~ ~ ~ ~ ~ ~ ~ ~ ~ ~ ~ ~ ~ ~ ~ ~ ~ ~ ~ ~ ~ ~ ~ ~ ~ ~ ~ ~ ~ ~ ~ ~ ~ ~ ~ ~ ~ ~ ~ ~ ~ ~ ~ ~ ~ ~ ~ ~ ~ ~ ~ ~ ~ ~ ~ ~ ~ ~ ~ ~ ~ ~ ~ ~ ~ ~ ~ ~ ~ ~ ~ ~ ~ ~ ~ ~ ~ ~ ~ ~ ~ ~ ~ ~ ~ ~ ~ ~ ~ ~ ~ ~ ~ ~ ~ ~ ~ ~ ~ ~ ~ ~ ~ ~ ~ ~ ~ ~ ~ ~ ~ ~ ~ ~ ~ ~ ~ ~ ~ ~ ~ ~ ~ ~ ~ ~ ~ ~ ~ ~ ~ ~ ~ ~ ~ ~ ~ ~ ~ ~ ~ ~ ~ ~ ",
"~ ~ ~ ~ ~ ~ ~ ~ ~ ~ ~ ~ ~ ~ ~ ~ ~ ~ ~ ~ ~ ~ ~ ~ ~ ~ ~ ~ ~ ~ ~ ~ ~ ~ ~ ~ ~ ~ ~ ~ ~ ~ ~ ~ ~ ~ ~ ~ ~ ~ ~ ~ ~ ~ ~ ~ ~ ~ ~ ~ ~ ~ ~ ~ ~ ~ ~ ~ ~ ~ ~ ~ ~ ~ ~ ~ ~ ~ ~ ~ ~ ~ ~ ~ ~ ~ ~ ~ ~ ~ ~ ~ ~ ~ ~ ~ ~ ~ ~ ~ ~ ~ ~ ~ ~ ~ ~ ~ ~ ~ ~ ~ ~ ~ ~ ~ ~ ~ ~ ~ ~ ~ ~ ~ ~ ~ ~ ~ ~ ~ ~ ~ ~ ~ ~ ~ ~ ~ ~ ~ ~ ~ ~ ~ ~ ~ ~ ~ ~ ~ ~ ~ ~ ~ ~ ~ ~ ~ ~ ~ ~ ~ ~ ~ ~ ~ ~ ~ ~ ~ ~ ~ ~ ~ ~ ~ ~ ~ ~ ~ ~ ~ ~ ~ ~ ~ ~ ~ ~ ~ ~ ~ ~ ~ ~ ~ ~ ~ ~ ~ ~ ~ ~ ~ ~ ~ ~ ~ ~ ~ ~ ~ ~ ~ ~ ~ ~ ~ ~ ~ ~ ~ ~ ~ ~ ~ ~ ~ ~ ~ ~ ~ ~ ~ ~ ~ ~ ~ ~ ~ ~ ~ ~ ~ ~ ~ ~ ~ ~ ~ ~ ~ ~ ~ ~ ~ ",
"~ ~ ~ ~ ~ ~ ~ ~ ~ ~ ~ ~ ~ ~ ~ ~ ~ ~ ~ ~ ~ ~ ~ ~ ~ ~ ~ ~ ~ ~ ~ ~ ~ ~ ~ ~ ~ ~ ~ ~ ~ ~ ~ ~ ~ ~ ~ ~ ~ ~ ~ ~ ~ ~ ~ ~ ~ ~ ~ ~ ~ ~ ~ ~ ~ ~ ~ ~ ~ ~ ~ ~ ~ ~ ~ ~ ~ ~ ~ ~ ~ ~ ~ ~ ~ ~ ~ ~ ~ ~ ~ ~ ~ ~ ~ ~ ~ ~ ~ ~ ~ ~ ~ ~ ~ ~ ~ ~ ~ ~ ~ ~ ~ ~ ~ ~ ~ ~ ~ ~ ~ ~ ~ ~ ~ ~ ~ ~ ~ ~ ~ ~ ~ ~ ~ ~ ~ ~ ~ ~ ~ ~ ~ ~ ~ ~ ~ ~ ~ ~ ~ ~ ~ ~ ~ ~ ~ ~ ~ ~ ~ ~ ~ ~ ~ ~ ~ ~ ~ ~ ~ ~ ~ ~ ~ ~ ~ ~ ~ ~ ~ ~ ~ ~ ~ ~ ~ ~ ~ ~ ~ ~ ~ ~ ~ ~ ~ ~ ~ ~ ~ ~ ~ ~ ~ ~ ~ ~ ~ ~ ~ ~ ~ ~ ~ ~ ~ ~ ~ ~ ~ ~ ~ ~ ~ ~ ~ ~ ~ ~ ~ ~ ~ ~ ~ ~ ~ ~ ~ ~ ~ ~ ~ ~ ~ ~ ~ ~ ~ ~ ~ ~ ~ ~ ~ ~ ",
"~ ~ ~ ~ ~ ~ ~ ~ ~ ~ ~ ~ ~ ~ ~ ~ ~ ~ ~ ~ ~ ~ ~ ~ ~ ~ ~ ~ ~ ~ ~ ~ ~ ~ ~ ~ ~ ~ ~ ~ ~ ~ ~ ~ ~ ~ ~ ~ ~ ~ ~ ~ ~ ~ ~ ~ ~ ~ ~ ~ ~ ~ ~ ~ ~ ~ ~ ~ ~ ~ ~ ~ ~ ~ ~ ~ ~ ~ ~ ~ ~ ~ ~ ~ ~ ~ ~ ~ ~ ~ ~ ~ ~ ~ ~ ~ ~ ~ ~ ~ ~ ~ ~ ~ ~ ~ ~ ~ ~ ~ ~ ~ ~ ~ ~ ~ ~ ~ ~ ~ ~ ~ ~ ~ ~ ~ ~ ~ ~ ~ ~ ~ ~ ~ ~ ~ ~ ~ ~ ~ ~ ~ ~ ~ ~ ~ ~ ~ ~ ~ ~ ~ ~ ~ ~ ~ ~ ~ ~ ~ ~ ~ ~ ~ ~ ~ ~ ~ ~ ~ ~ ~ ~ ~ ~ ~ ~ ~ ~ ~ ~ ~ ~ ~ ~ ~ ~ ~ ~ ~ ~ ~ ~ ~ ~ ~ ~ ~ ~ ~ ~ ~ ~ ~ ~ ~ ~ ~ ~ ~ ~ ~ ~ ~ ~ ~ ~ ~ ~ ~ ~ ~ ~ ~ ~ ~ ~ ~ ~ ~ ~ ~ ~ ~ ~ ~ ~ ~ ~ ~ ~ ~ ~ ~ ~ ~ ~ ~ ~ ~ ~ ~ ~ ~ ~ ~ ",
"~ ~ ~ ~ ~ ~ ~ ~ ~ ~ ~ ~ ~ ~ ~ ~ ~ ~ ~ ~ ~ ~ ~ ~ ~ ~ ~ ~ ~ ~ ~ ~ ~ ~ ~ ~ ~ ~ ~ ~ ~ ~ ~ ~ ~ ~ ~ ~ ~ ~ ~ ~ ~ ~ ~ ~ ~ ~ ~ ~ ~ ~ ~ ~ ~ ~ ~ ~ ~ ~ ~ ~ ~ ~ ~ ~ ~ ~ ~ ~ ~ ~ ~ ~ ~ ~ ~ ~ ~ ~ ~ ~ ~ ~ ~ ~ ~ ~ ~ ~ ~ ~ ~ ~ ~ ~ ~ ~ ~ ~ ~ ~ ~ ~ ~ ~ ~ ~ ~ ~ ~ ~ ~ ~ ~ ~ ~ ~ ~ ~ ~ ~ ~ ~ ~ ~ ~ ~ ~ ~ ~ ~ ~ ~ ~ ~ ~ ~ ~ ~ ~ ~ ~ ~ ~ ~ ~ ~ ~ ~ ~ ~ ~ ~ ~ ~ ~ ~ ~ ~ ~ ~ ~ ~ ~ ~ ~ ~ ~ ~ ~ ~ ~ ~ ~ ~ ~ ~ ~ ~ ~ ~ ~ ~ ~ ~ ~ ~ ~ ~ ~ ~ ~ ~ ~ ~ ~ ~ ~ ~ ~ ~ ~ ~ ~ ~ ~ ~ ~ ~ ~ ~ ~ ~ ~ ~ ~ ~ ~ ~ ~ ~ ~ ~ ~ ~ ~ ~ ~ ~ ~ ~ ~ ~ ~ ~ ~ ~ ~ ~ ~ ~ ~ ~ ~ ~ ",
"~ ~ ~ ~ ~ ~ ~ ~ ~ ~ ~ ~ ~ ~ ~ ~ ~ ~ ~ ~ ~ ~ ~ ~ ~ ~ ~ ~ ~ ~ ~ ~ ~ ~ ~ ~ ~ ~ ~ ~ ~ ~ ~ ~ ~ ~ ~ ~ ~ ~ ~ ~ ~ ~ ~ ~ ~ ~ ~ ~ ~ ~ ~ ~ ~ ~ ~ ~ ~ ~ ~ ~ ~ ~ ~ ~ ~ ~ ~ ~ ~ ~ ~ ~ ~ ~ ~ ~ ~ ~ ~ ~ ~ ~ ~ ~ ~ ~ ~ ~ ~ ~ ~ ~ ~ ~ ~ ~ ~ ~ ~ ~ ~ ~ ~ ~ ~ ~ ~ ~ ~ ~ ~ ~ ~ ~ ~ ~ ~ ~ ~ ~ ~ ~ ~ ~ ~ ~ ~ ~ ~ ~ ~ ~ ~ ~ ~ ~ ~ ~ ~ ~ ~ ~ ~ ~ ~ ~ ~ ~ ~ ~ ~ ~ ~ ~ ~ ~ ~ ~ ~ ~ ~ ~ ~ ~ ~ ~ ~ ~ ~ ~ ~ ~ ~ ~ ~ ~ ~ ~ ~ ~ ~ ~ ~ ~ ~ ~ ~ ~ ~ ~ ~ ~ ~ ~ ~ ~ ~ ~ ~ ~ ~ ~ ~ ~ ~ ~ ~ ~ ~ ~ ~ ~ ~ ~ ~ ~ ~ ~ ~ ~ ~ ~ ~ ~ ~ ~ ~ ~ ~ ~ ~ ~ ~ ~ ~ ~ ~ ~ ~ ~ ~ ~ ~ ~ ",
"~ ~ ~ ~ ~ ~ ~ ~ ~ ~ ~ ~ ~ ~ ~ ~ ~ ~ ~ ~ ~ ~ ~ ~ ~ ~ ~ ~ ~ ~ ~ ~ ~ ~ ~ ~ ~ ~ ~ ~ ~ ~ ~ ~ ~ ~ ~ ~ ~ ~ ~ ~ ~ ~ ~ ~ ~ ~ ~ ~ ~ ~ ~ ~ ~ ~ ~ ~ ~ ~ ~ ~ ~ ~ ~ ~ ~ ~ ~ ~ ~ ~ ~ ~ ~ ~ ~ ~ ~ ~ ~ ~ ~ ~ ~ ~ ~ ~ ~ ~ ~ ~ ~ ~ ~ ~ ~ ~ ~ ~ ~ ~ ~ ~ ~ ~ ~ ~ ~ ~ ~ ~ ~ ~ ~ ~ ~ ~ ~ ~ ~ ~ ~ ~ ~ ~ ~ ~ ~ ~ ~ ~ ~ ~ ~ ~ ~ ~ ~ ~ ~ ~ ~ ~ ~ ~ ~ ~ ~ ~ ~ ~ ~ ~ ~ ~ ~ ~ ~ ~ ~ ~ ~ ~ ~ ~ ~ ~ ~ ~ ~ ~ ~ ~ ~ ~ ~ ~ ~ ~ ~ ~ ~ ~ ~ ~ ~ ~ ~ ~ ~ ~ ~ ~ ~ ~ ~ ~ ~ ~ ~ ~ ~ ~ ~ ~ ~ ~ ~ ~ ~ ~ ~ ~ ~ ~ ~ ~ ~ ~ ~ ~ ~ ~ ~ ~ ~ ~ ~ ~ ~ ~ ~ ~ ~ ~ ~ ~ ~ ~ ~ ~ ~ ~ ~ ~ ",
"~ ~ ~ ~ ~ ~ ~ ~ ~ ~ ~ ~ ~ ~ ~ ~ ~ ~ ~ ~ ~ ~ ~ ~ ~ ~ ~ ~ ~ ~ ~ ~ ~ ~ ~ ~ ~ ~ ~ ~ ~ ~ ~ ~ ~ ~ ~ ~ ~ ~ ~ ~ ~ ~ ~ ~ ~ ~ ~ ~ ~ ~ ~ ~ ~ ~ ~ ~ ~ ~ ~ ~ ~ ~ ~ ~ ~ ~ ~ ~ ~ ~ ~ ~ ~ ~ ~ ~ ~ ~ ~ ~ ~ ~ ~ ~ ~ ~ ~ ~ ~ ~ ~ ~ ~ ~ ~ ~ ~ ~ ~ ~ ~ ~ ~ ~ ~ ~ ~ ~ ~ ~ ~ ~ ~ ~ ~ ~ ~ ~ ~ ~ ~ ~ ~ ~ ~ ~ ~ ~ ~ ~ ~ ~ ~ ~ ~ ~ ~ ~ ~ ~ ~ ~ ~ ~ ~ ~ ~ ~ ~ ~ ~ ~ ~ ~ ~ ~ ~ ~ ~ ~ ~ ~ ~ ~ ~ ~ ~ ~ ~ ~ ~ ~ ~ ~ ~ ~ ~ ~ ~ ~ ~ ~ ~ ~ ~ ~ ~ ~ ~ ~ ~ ~ ~ ~ ~ ~ ~ ~ ~ ~ ~ ~ ~ ~ ~ ~ ~ ~ ~ ~ ~ ~ ~ ~ ~ ~ ~ ~ ~ ~ ~ ~ ~ ~ ~ ~ ~ ~ ~ ~ ~ ~ ~ ~ ~ ~ ~ ~ ~ ~ ~ ~ ~ ~ ",
"~ ~ ~ ~ ~ ~ ~ ~ ~ ~ ~ ~ ~ ~ ~ ~ ~ ~ ~ ~ ~ ~ ~ ~ ~ ~ ~ ~ ~ ~ ~ ~ ~ ~ ~ ~ ~ ~ ~ ~ ~ ~ ~ ~ ~ ~ ~ ~ ~ ~ ~ ~ ~ ~ ~ ~ ~ ~ ~ ~ ~ ~ ~ ~ ~ ~ ~ ~ ~ ~ ~ ~ ~ ~ ~ ~ ~ ~ ~ ~ ~ ~ ~ ~ ~ ~ ~ ~ ~ ~ ~ ~ ~ ~ ~ ~ ~ ~ ~ ~ ~ ~ ~ ~ ~ ~ ~ ~ ~ ~ ~ ~ ~ ~ ~ ~ ~ ~ ~ ~ ~ ~ ~ ~ ~ ~ ~ ~ ~ ~ ~ ~ ~ ~ ~ ~ ~ ~ ~ ~ ~ ~ ~ ~ ~ ~ ~ ~ ~ ~ ~ ~ ~ ~ ~ ~ ~ ~ ~ ~ ~ ~ ~ ~ ~ ~ ~ ~ ~ ~ ~ ~ ~ ~ ~ ~ ~ ~ ~ ~ ~ ~ ~ ~ ~ ~ ~ ~ ~ ~ ~ ~ ~ ~ ~ ~ ~ ~ ~ ~ ~ ~ ~ ~ ~ ~ ~ ~ ~ ~ ~ ~ ~ ~ ~ ~ ~ ~ ~ ~ ~ ~ ~ ~ ~ ~ ~ ~ ~ ~ ~ ~ ~ ~ ~ ~ ~ ~ ~ ~ ~ ~ ~ ~ ~ ~ ~ ~ ~ ~ ~ ~ ~ ~ ~ ~ ",
") ) ) ) ) ) ) ) ) ) ) ) ) ) ) ) ) ) ) ) ) ) ) ) ) ) ) ) ) ) ) ) ) ) ) ) ) ) ) ) ) ) ) ) ) ) ) ) ) ) ) ) ) ) ) ) ) ) ) ) ) ) ) ) ) ) ) ) ) ) ) ) ) ) ) ) ) ) ) ) ) ) ) ) ) ) ) ) ) ) ) ) ) ) ) ) ) ) ) ) ) ) ) ) ) ) ) ) ) ) ) ) ) ) ) ) ) ) ) ) ) ) ) ) ) ) ) ) ) ) ) ) ) ) ) ) ) ) ) ) ) ) ) ) ) ) ) ) ) ) ) ) ) ) ) ) ) ) ) ) ) ) ) ) ) ) ) ) ) ) ) ) ) ) ) ) ) ) ) ) ) ) ) ) ) ) ) ) ) ) ) ) ) ) ) ) ) ) ) ) ) ) ) ) ) ) ) ) ) ) ) ) ) ) ) ) ) ) ) ) ) ) ) ) ) ) ) ) ) ) ) ) ) ) ) ) ) ) ) ) ) ) ) ) ) ) ) ) ) ) ) ) ) ) ) ) ",
"k k k k k k k k k k k k k k k k k k k k k k k k k k k k k k k k k k k k k k k k k k k k k k k k k k k k k k k k k k k k k k k k k k k k k k k k k k k k k k k k k k k k k k k k k k k k k k k k k k k k k k k k k k k k k k k k k k k k k k k k k k k k k k k k k k k k k k k k k k k k k k k k k k k k k k k k k k k k k k k k k k k k k k k k k k k k k k k k k k k k k k k k k k k k k k k k k k k k k k k k k k k k k k k k k k k k k k k k k k k k k k k k k k k k k k k k k k k k k k k k k k k k k k k k k k k k k k k k ",
"4 4 4 4 4 4 4 4 4 4 4 4 4 4 4 4 4 4 4 4 4 4 4 4 4 4 4 4 4 4 4 4 4 4 4 4 4 4 4 4 4 4 4 4 4 4 4 4 4 4 4 4 4 4 4 4 4 4 4 4 4 4 4 4 4 4 4 4 4 4 4 4 4 4 4 4 4 4 4 4 4 4 4 4 4 4 4 4 4 4 4 4 4 4 4 4 4 4 4 4 4 4 4 4 4 4 4 4 4 4 4 4 4 4 4 4 4 4 4 4 4 4 4 4 4 4 4 4 4 4 4 4 4 4 4 4 4 4 4 4 4 4 4 4 4 4 4 4 4 4 4 4 4 4 4 4 4 4 4 4 4 4 4 4 4 4 4 4 4 4 4 4 4 4 4 4 4 4 4 4 4 4 4 4 4 4 4 4 4 4 4 4 4 4 4 4 4 4 4 4 4 4 4 4 4 4 4 4 4 4 4 4 4 4 4 4 4 4 4 4 4 4 4 4 4 4 4 4 4 4 4 4 4 4 4 4 4 4 4 4 4 4 4 4 4 4 4 4 4 4 4 4 4 4 4 4 ",
"4 4 4 4 4 4 4 4 4 4 4 4 4 4 4 4 4 4 4 4 4 4 4 4 4 4 4 4 4 4 4 4 4 4 4 4 4 4 4 4 4 4 4 4 4 4 4 4 4 4 4 4 4 4 4 4 4 4 4 4 4 4 4 4 4 4 4 4 4 4 4 4 4 4 4 4 4 4 4 4 4 4 4 4 4 4 4 4 4 4 4 4 4 4 4 4 4 4 4 4 4 4 4 4 4 4 4 4 4 4 4 4 4 4 4 4 4 4 4 4 4 4 4 4 4 4 4 4 4 4 4 4 4 4 4 4 4 4 4 4 4 4 4 4 4 4 4 4 4 4 4 4 4 4 4 4 4 4 4 4 4 4 4 4 4 4 4 4 4 4 4 4 4 4 4 4 4 4 4 4 4 4 4 4 4 4 4 4 4 4 4 4 4 4 4 4 4 4 4 4 4 4 4 4 4 4 4 4 4 4 4 4 4 4 4 4 4 4 4 4 4 4 4 4 4 4 4 4 4 4 4 4 4 4 4 4 4 4 4 4 4 4 4 4 4 4 4 4 4 4 4 4 4 4 4 4 ",
"g g g g g g g g g g g g g g g g g g g g g d 4 4 5 9 9 9 9 9 9 9 9 9 9 9 9 9 9 9 9 9 9 9 9 9 9 9 9 9 9 9 9 9 9 9 9 9 9 9 9 9 9 9 9 9 9 9 9 9 9 9 9 9 9 9 9 9 9 9 9 9 9 9 9 9 9 9 9 9 9 9 9 9 9 9 9 9 9 9 9 9 9 9 9 9 9 9 9 9 9 9 9 9 9 9 9 9 9 9 9 9 9 9 9 9 9 9 9 9 9 9 9 9 9 9 9 9 9 9 9 9 9 9 9 9 9 9 9 9 9 9 9 9 9 9 9 9 9 9 9 9 9 9 9 9 9 9 9 9 9 9 9 9 9 9 9 9 9 4 4 4 9 9 9 9 9 9 9 9 9 9 9 9 9 9 9 9 9 9 9 9 9 9 9 9 9 9 9 9 9 9 9 9 9 9 9 9 9 9 9 5 4 4 g g g g g g g g g g g g g g g g g g g g g g g g g g g g g g g g ",
"k k k k k k k k k k k k k k k k k k k k k j 4 4 9 d d d d d d d d d d d d d d d d d d d d d d d d d d d d d d d d d d d d d d d d d d d d d d d d d d d d d d d d d d d d d d d d d d d d d d d d d d d d d d d d d d d d d d d d d d d d d d d d d d d d d d d d d d d d d d d d d d d d d d d d d d d d d d d d d d d d d d d d d d d d d d d d d d d d d d d d d d 4 4 5 d d d d d d d d d d d d d d d d d d d d d d d d d d d d d d d d d d d d d d d 5 4 4 k k k k k k k k k k k k k k k k k k k k k k k k k k k k k k k k ",
"k k k k k k k k k k k k k k k k k k k k k j 4 4 9 d d d d d d d d 5 d d d d d d d d d d d d d d d d d d d d d d d d d d d d d d d d d d d d d d d d d d d d d d d d d d d d d d d d d d d d d d d d d d d d d d d d d d d d d d d d d d d d d d d d d d d d d d d d d d d d d d d d d d d d d d d d d d d d d d d d d d d d d d d d d d d d d d d d d d d d d d d d d 4 4 5 d d d d d d d d 5 d d d d d d d d d d d d d d d d d d d d d d d d d d d d d d 5 4 4 k k k k k k k k k k k k k k k k k k k g k k k k k k k k k k k g ",
"k k k k k k k k k k k k k k k k k k k k k j 4 4 9 d d d 9 d d 9 9 _ g d d d r d d d d d d d d d d d d d d d d d d d d d d d d d d d d d d d d d d d d d d d d d d d d d d d d d d d d d d d d d d d d d d d d d d d d d d d d d d d d d d d d d d d d d d d d d d d d d d d d d d d d d d d d d d d d d d d d d d d d d d d d d d d d d d d d d d d d d d d d d d d d 4 4 5 d d d d d r d j _ 9 d d d d d d d d d d d d d d d d d d d d d d d d d d d d d 5 4 4 k k k k g k k j g k k k k k k k k k c ,.k j k k k k k k k k k ,.",
"k k k k k k k k k k k k k k k k k k k k k j 4 4 9 d d 5 q.t.w.' 9 j d 5 5 5 ! g 5 5 5 9 d 5 5 5 d r 5 5 d 5 5 d d d d d d d d d d d d d d d d d d d d d d d d d d d d d d d d d d d d d d d d d d d d d d d d d d d d d d d d d d d d d d d d d d d d d d d d d d d d d d d d d d d d d d d d d d d d d d d d d d d d d d d d d d d d d d d d d d d d d d d d d d d d 4 4 5 d d 5 ) t.J.t.] g d 5 5 5 5 5 d d 9 5 9 d d d d d d d d d d d d d d d d d d d 5 4 4 k k g X.#X~ d &..X) g r d k j d r g k ~ k &.d k d r j k g d j ~ ",
"j k k k k k k k k k k k k k k k k k k k k j 4 4 9 d d 9 t.k g y.! ] g _ q.] t.t.k ' w.~ j &.<.o.9 k 3.1.d <.<.d d d d d d d d d d d d d d d d d d d d d d d d d d d d d d d d d d d d d d d d d d d d d d d d d d d d d d d d d d d d d d d d d d d d d d d d d d d d d d d d d d d d d d d d d d d d d d d d d d d d d d d d d d d d d d d d d d d d d d d d d d d d 4 4 5 d d d r d w.j d ' g &.<.' o.<.j 5 _ q.~ 9 d d d d d d d d d d d d d d d d d d 5 4 4 k k g *.:X*.r r.-X~ ' E.e.g &.r.U.*.k 3.*.=Xy.k y.Y.) k 7.y.X.3.",
"j k k k k k k k k k k k k k k k k k k k k j 4 4 9 d d 9 w.k 4 1.o.w.) t.) j w.&.d k ) 3.] K.! t.k q.o.j <.o.o.1.5 d d d d d d d d d d d d d d d d d d d d d d d d d d d d d d d d d d d d d d d d d d d d d d d d d d d d d d d d d d d d d d d d d d d d d d d d d d d d d d d d d d d d d d d d d d d d d d d d d d d d d d d d d d d d d d d d d d d d d d d d d d 4 4 5 d d d d g q.j k t.j T.~ K.o.1.&.j w.! w.j 9 d d d d d d d d d d d d d d d d d 5 4 4 k k d >.'.J.c L._.X.'.&.E.>.r._.#._.~ {._ .X~ p.L.,.~.! =X,.k  X",
"k k k k k k k k k k k k k k k k k k k k k j 4 4 9 d d 9 w.! 4 *.&.q.k o.w.g <.) 5 o.q.w.o.<.$ 3.' 3.d 5 t.w.w.q.5 d d d d d d d d d d d d d d d d d d d d d d d d d d d d d d d d d d d d d d d d d d d d d d d d d d d d d d d d d d d d d d d d d d d d d d d d d d d d d d d d d d d d d d d d d d d d d d d d d d d d d d d d d d d d d d d d d d d d d d d d d d 4 4 5 d d d d g q.j j q.k w.2 q.k ! 1._ K.<.J.! 9 d d d d d d d d d d d d d d d d d 5 4 4 k k d ,.L.p.7.y.P.7.Y.4 ,.p.e.8.4 _.` '.! '.d E.X.9 '.X.'.d j _.",
"r k k k k k k k k k k k k k k k k k k k k j 4 4 9 d d 9 t.j d J.! w.! 5 _ q.3.) _ w.! t.o.3.* w._ w.k 5 q.o.d j d d d d d d d d d d d d d d d d d d d d d d d d d d d d d d d d d d d d d d d d d d d d d d d d d d d d d d d d d d d d d d d d d d d d d d d d d d d d d d d d d d d d d d d d d d d d d d d d d d d d d d d d d d d d d d d d d d d d d d d d d d d 4 4 5 d d d d g w.j k w.k w.3 w.! ) >.! t.j j d d d d d d d d d d d d d d d d d d d 5 4 4 k k d 2.p.,.=X_ ~.>._.g p.8.e.e.r _.` _.~ {.r Y.3.c _._ _.g k _.",
"j k k k k k k k k k k k k k k k k k k k k j 4 4 9 d d 5 w.t.e.o.5 q.! <.e.' _ t.] q.3.>.' >.2 3.! _ t.>.! q.q.) 9 d d d d d d d d d d d d d d d d d d d d d d d d d d d d d d d d d d d d d d d d d d d d d d d d d d d d d d d d d d d d d d d d d d d d d d d d d d d d d d d d d d d d d d d d d d d d d d d d d d d d d d d d d d d d d d d d d d d d d d d d d d 4 4 5 d d d d g 3.j j 3.k 3.4 3.! ~ 1.5 1.w.1.d d d d d d d d d d d d d d d d d d d 5 4 4 k k d ,.e._ {.j Y._ 7._.E.k r.7.r ~._ ~.j Y.P.` ~._.>.~ ~.g k ~.",
"k k k k k k k k k k k k k k k k k k k k k j 4 4 9 d d d d j d 9 d d d g j r 9 g d d g 9 d d d d d 9 g g 9 d j d d d d d d d d d d d d d d d d d d d d d d d d d d d d d d d d d d d d d d d d d d d d d d d d d d d d d d d d d d d d d d d d d d d d d d d d d d d d d d d d d d d d d d d d d d d d d d d d d d d d d d d d d d d d d d d d d d d d d d d d d d d d 4 4 5 d d d d d d d d d d d d d d d d d 9 j g d d d d d d d d d d d d d d d d d d d 5 4 4 k k k k k k j k k k j ~ k j k k k k k k k k ~ j k ! j k k k k k ",
"k k k k k k k k k k k k k k k k k k k k k j 4 4 9 d d d d r d d d d d d d d d d d d d d d d d d d d d d d d r d d d d d d d d d d d d d d d d d d d d d d d d d d d d d d d d d d d d d d d d d d d d d d d d d d d d d d d d d d d d d d d d d d d d d d d d d d d d d d d d d d d d d d d d d d d d d d d d d d d d d d d d d d d d d d d d d d d d d d d d d d d d 4 4 5 d d d d d d d d d d d d d d d d d d r d d d d d d d d d d d d d d d d d d d d 5 4 4 k k k k k k k k k k k j k k k k k k k k k k j k k k k k k k k k ",
"k k k k k k k k k k k k k k k k k k k k k j 4 4 9 d d d d d d d d d d d d d d d d d d d d d d d d d d d d d d d d d d d d d d d d d d d d d d d d d d d d d d d d d d d d d d d d d d d d d d d d d d d d d d d d d d d d d d d d d d d d d d d d d d d d d d d d d d d d d d d d d d d d d d d d d d d d d d d d d d d d d d d d d d d d d d d d d d d d d d d d d d 4 4 5 d d d d d d d d d d d d d d d d d d d d d d d d d d d d d d d d d d d d d d d 5 4 4 k k k k k k k k k k k k k k k k k k k k k k k k k k k k k k k k ",
"d d d d d d d d d d d d d d d d d d d d f r 4 4 5 5 5 5 5 5 5 5 5 5 5 5 5 5 5 5 5 5 5 5 5 5 5 5 5 5 5 5 5 5 5 5 5 5 5 5 5 5 5 5 5 5 5 5 5 5 5 5 5 5 5 5 5 5 5 5 5 5 5 5 5 5 5 5 5 5 5 5 5 5 5 5 5 5 5 5 5 5 5 5 5 5 5 5 5 5 5 5 5 5 5 5 5 5 5 5 5 5 5 5 5 5 5 5 5 5 5 5 5 5 5 5 5 5 5 5 5 5 5 5 5 5 5 5 5 5 5 5 5 5 5 5 5 5 5 5 5 5 5 5 5 5 5 5 5 5 5 5 5 5 5 5 5 5 5 4 4 4 5 5 5 5 5 5 5 5 5 5 5 5 5 5 5 5 5 5 5 5 5 5 5 5 5 5 5 5 5 5 5 5 5 5 5 5 5 5 5 4 4 4 d d d d d d d d d d d d d d d d d d d d d d d d d d d d d d d d ",
"d d d d d d d d d d d d d d d d d d d d d r 4 4 5 5 5 5 5 5 5 5 5 5 5 5 5 5 5 5 5 5 5 5 5 5 5 5 5 5 5 5 5 5 5 5 5 5 5 5 5 5 5 5 5 5 5 5 5 5 5 5 5 5 5 5 5 5 5 5 5 5 5 5 5 5 5 5 5 5 5 5 5 5 5 5 5 5 5 5 5 5 5 5 5 5 5 5 5 5 5 5 5 5 5 5 5 5 5 5 5 5 5 5 5 5 5 5 5 5 5 5 5 5 5 5 5 5 5 5 5 5 5 5 5 5 5 5 5 5 5 5 5 5 5 5 5 5 5 5 5 5 5 5 5 5 5 5 5 5 5 5 5 5 5 5 5 5 5 4 4 4 5 5 5 5 5 5 5 5 5 5 5 5 5 5 5 5 5 5 5 5 5 5 5 5 5 5 5 5 5 5 5 5 5 5 5 5 5 5 5 4 4 4 d d d d d d d d d d d d d d d d d d d d d d d d d d d d d d d d ",
"d d d d d d d d d d d d d d d d d d d d d r 4 4 5 5 5 5 5 5 5 5 5 5 5 5 5 5 5 5 5 5 5 5 5 5 5 5 5 5 5 5 5 5 5 5 5 5 5 5 5 5 5 5 5 5 5 5 5 5 5 5 5 5 5 5 5 5 5 5 5 5 5 5 5 5 5 5 5 5 5 5 5 5 5 5 5 5 5 5 5 5 5 5 5 5 5 5 5 5 5 5 5 5 5 5 5 5 5 5 5 5 5 5 5 5 5 5 5 5 5 5 5 5 5 5 5 5 5 5 5 5 5 5 5 5 5 5 5 5 5 5 5 5 5 5 5 5 5 5 5 5 5 5 5 5 5 5 5 5 5 5 5 5 5 5 5 5 5 4 4 4 5 5 5 5 5 5 5 5 5 5 5 5 5 5 5 5 5 5 5 5 5 5 5 5 5 5 5 5 5 5 5 5 5 5 5 5 5 5 5 4 4 4 d d d d d d d d d d d d d d d d d d d d d d d d d d d d d d d d ",
"f d d d d d d d d d d d d d d d d d d d d r 4 4 5 5 5 5 5 5 5 5 5 5 5 5 5 5 5 5 5 5 5 5 5 5 5 5 5 5 5 5 5 5 5 5 5 5 5 5 5 5 5 5 5 5 5 5 5 5 5 5 5 5 5 5 5 5 5 5 5 5 5 5 5 5 5 5 5 5 5 5 5 5 5 5 5 5 5 5 5 5 5 5 5 5 5 5 5 5 5 5 5 5 5 5 5 5 5 5 5 5 5 5 5 5 5 5 5 5 5 5 5 5 5 5 5 5 5 5 5 5 5 5 5 5 5 5 5 5 5 5 5 5 5 5 5 5 5 5 5 5 5 5 5 5 5 5 5 5 5 5 5 5 5 5 5 5 5 4 4 4 5 5 5 5 5 5 5 5 5 5 5 5 5 5 5 5 5 5 5 5 5 5 5 5 5 5 5 5 5 5 5 5 5 5 5 5 5 5 5 4 4 4 d d d d d d d d d d d d d d d d d d d d d d d d d d d d d d d d ",
"9 d d d d d d d d d d d d d d d d d d d d r 4 4 5 5 5 5 5 5 5 5 5 5 5 5 5 5 5 5 4 4 5 5 5 4 5 5 5 5 5 5 5 5 5 5 5 5 5 5 5 5 5 5 5 5 5 5 5 5 5 5 5 5 5 5 5 5 5 5 5 5 5 3 3 4 5 5 5 5 5 5 5 5 5 5 5 5 5 5 5 5 5 5 5 5 5 5 5 5 5 5 5 5 5 5 5 5 5 5 5 5 5 5 5 5 5 5 5 4 3 3 3 5 5 5 5 5 5 5 5 5 5 5 5 5 5 5 5 5 5 5 5 5 5 5 5 5 5 5 5 5 5 5 5 5 5 5 5 5 5 5 5 5 5 5 5 5 5 4 4 4 5 5 5 5 5 5 5 5 5 5 5 3 3 5 5 5 5 5 5 4 5 5 5 5 5 5 5 5 5 5 5 5 5 5 5 5 5 5 5 4 4 4 d d d d d d d d d d d d d d d d d d d d d d d d d d d d d d d d ",
"d.w f d d d d d d d d d d d d d d d d d d r 4 4 5 5 5 5 5 5 5 5 5 5 5 5 5 5 5 5 d d 5 5 r d 5 5 5 5 5 5 5 5 5 5 5 5 5 5 5 5 5 5 5 5 5 5 5 5 5 5 5 5 5 5 5 5 5 5 5 5 4 j ! d 5 5 5 5 5 5 5 5 5 5 4 ` r 5 5 5 5 5 5 5 5 5 5 5 5 5 5 5 5 5 5 5 5 5 5 5 5 5 5 5 5 5 5 j ! k ! r 5 5 5 5 5 5 5 5 5 5 5 5 5 5 5 5 5 5 5 5 5 5 5 5 5 5 5 5 5 5 5 5 5 5 5 5 5 5 5 5 5 5 5 5 5 4 4 4 5 5 5 5 5 5 5 5 5 5 r k ! r 4 5 5 5 2 &.! 3 5 5 5 5 5 5 5 5 5 5 5 5 5 5 5 5 5 4 4 4 d d d d d d d d d d d d d d d d d d d d d d d d d d d d d d d d ",
"|.5 r d r r r d r d d d d d d d d d d d d r 4 4 5 5 5 5 5 5 5 5 5 5 5 5 5 5 5 * r.y.2 2 y.e.2 5 5 * ~ ~ 4 4 5 4 5 3 5 5 4 5 5 5 5 5 5 5 5 5 5 5 5 5 5 5 5 5 5 5 5 4 &.e.3.` 3 5 5 5 4 5 5 2 k _ 3 5 5 4 5 4 4 5 4 5 4 5 4 5 X.5 5 5 5 5 4 4 5 4 5 5 5 5 5 5 5 5 4 ` e.P.,.g 3 5 4 5 4 5 3 5 4 5 5 4 5 4 5 4 5 4 5 3 5 5 5 5 3 d X.5 5 5 5 4 5 3 5 5 4 5 4 5 5 5 5 5 5 4 4 4 5 5 5 5 5 5 5 5 5 * &.L.,.e.j 3 5 5 $ 3._ * 5 5 4 4 5 4 5 5 5 5 5 5 5 5 5 5 5 4 4 4 d d d d g g g f 9 d d d d d d d d d d d d d d f d d d d d d d d ",
"`.5 r.`.2.~ Q.E./ r d d d d d d d d d d d r 4 4 5 5 5 5 5 5 5 5 5 5 5 5 5 5 5 * 3.y.g 5 p.3.5 ,.y.k e.Y.! _ y.&.d 7.,.! *.e.` 4 5 5 5 5 5 5 5 5 5 5 5 5 5 5 5 5 4 j p.5 2 4 k e.3.9 ,.3.r.j ,.~._ ,.r 3.7.w.&.y.` 2 _ y.*.~ ~.,.g 3.e.g X.7.' ~ w.3.d 5 5 5 5 5 5 * g 2.$ 9 ,.y.k ` w.e.*.7.3.3 ` 7.e.X.2 X.y.X.g 7.,.j ` y.&.` '.#.*.c 5 3.r 7.,.j ) y.*.5 5 5 5 5 5 4 4 4 5 5 5 5 5 5 5 5 5 * &.' + X.3.5 3.y.g ,.~ j w.3.` &.2 &._ 3 5 5 5 5 5 5 5 5 5 4 4 4 d d d r 4 3 3 5 _ f d f f d f d d d f d d d d 5 r f f d f f d d ",
"Q._ `.c (.Y.I.d g d d d d d d d d d d d d r 4 4 5 5 5 5 5 5 5 5 5 5 5 5 5 5 5 2 >.7.~ ~ 3.*.X.,.k 7.*.' 5 p.d 7.#.L.r g p.g 5 5 5 5 5 5 5 5 5 5 5 5 5 5 5 5 5 5 3 ` ,.* r 4 e.~ &.*.y.k ` >.~ ,.$ p.d L.g ,.,.d w.r y.g 3.X.7.3 ,.&.) 3.7.>.$ ,.*.4 5 5 5 5 5 5 5 4 ! 7.2 &.>.k 7.3.*.j P.5 3.k &.2.5 y.! y.d w.#.L.9 4 r g w.~ w.$ 7.~ 5 y.g U.r r p.g 7.` 2 5 5 5 5 4 4 4 5 5 5 5 5 5 5 5 5 * &.&.* j 3.>.*.~ 3.,.~ 5 9 ,.&.7.9 e.g 4 5 5 5 5 5 5 5 5 5 4 4 4 d d r ~ I.Y.E.7.` g 9 5 5 r 4 r d r 4 w d d r =./ 4 5 r 5 5 d d ",
"E.-.$XP./.~ 8.Q.~ r d d d d d d d d d d d r 4 4 5 5 5 5 5 5 5 5 5 5 5 5 5 5 5 2 ,.' >.&.X.>.*.J.3.*.*.` d P.3.7.' 3.2 5 ~ e._ 4 5 5 5 5 5 5 5 5 5 5 5 5 5 5 5 5 3 ) 7.* 4 5 p.w.w.' 7.4 ~ *.~ >.$ r.d e.3 X.' 5 3.k L.3.w._ 7.3 7.y.7.&.3.! 2 r ,.,.r 5 5 5 5 5 5 3 k 3.2 ,.p.3.*.,.) r 7.2 >.k &.' + 7.o.L.3.7.X.,.* r >.7.y.) 7.$ 3.c 4 e.j w.* k L.3.e.~ 3 5 5 5 5 4 4 4 5 5 5 5 5 5 5 5 5 * &.X.+ k 7.<.p.3.&.,.~ _ 7.J._ &.*.,.4 5 5 5 5 5 5 5 5 5 5 4 4 4 d d r h / (.r.k / f / *.X.~ 2.k r h 7._ r r n /.n ` ,.~ #.=.r r ",
"`.~ (.k k ~ h Y.8.4 g d d d d d d d d d d r 4 4 5 5 5 5 5 5 5 5 5 5 5 5 5 5 5 * e.j y.7.k 7._ 3.r 5 &.,.r e.j 9 k y.* d d _ e.3 5 5 5 5 5 5 5 5 5 5 5 5 5 5 5 5 5 r p._ g r 3._ r 5 p.5 ) ,.! e.4 p.d p.3 &.&.5 e.r w.k r r p.d &.*.r 5 w.~ 2 j r e.~ 2 5 5 5 5 5 3 ! e.* ' <.r 5 3.` d y.2 3.! #.e.k y.g e.j 5 ~ e.$ ~ y.g y.~ y.5 ,.&._ L.g y.* r e.k d 9 5 5 5 5 5 4 4 4 5 5 5 5 5 5 5 5 5 * *.,.r e.' _ ,.r 5 3.` e.k 3.o.g ~.) 3 5 5 5 5 5 5 5 5 5 5 4 4 4 d d d r 4 s.#.2 @Xj #Xp. XI.I.s.5 I.r.Y.~ 4 ,.i.~ &Xr.#Xi.(.-.#.",
"r.5 ,.(.r.#./.s.h r d d d d d d d d d d d r 4 4 5 5 5 5 5 5 5 5 5 5 5 5 5 5 5 3 X.d _ ) d X.4 &.e.` d 7.~ k e.>.k X.3 d ,.7.k 4 5 5 5 5 5 5 5 5 5 5 5 5 5 5 5 5 5 4 j 3.7.! d 3.7.k &.5 k ' 5 3.` X.r &.4 ) ~ 5 X.5 k 7.3.d ' 3.9 *.e.~ ' k 2 _ e.#.5 5 5 5 5 5 5 4 j X.5 5 &.e.) _ k 9 &.3 ` g X.e.3.~ 2 ~ e.*.k X.3 5 *.3.X.d &.>.d 3.>.X.d &.3 4 k w.,.d 5 5 5 5 5 4 4 4 5 5 5 5 5 5 5 5 5 3 ~ e.7.' 4 5 &.e.~ ` k ~ 7.&.k 5 p.g 4 5 5 5 5 5 5 5 5 5 5 4 4 4 d d d d r P.*.5 `.k |.3 i.4.r E./ #X,.+X7.* r.,.` Q.$ `.k #.i./ ",
"5 d 9 4 5 r 4 5 r d d d d d d d d d d d d r 4 4 5 5 5 5 5 5 5 5 5 5 5 5 5 5 5 5 3 5 3 3 5 3 5 3 * 3 5 - 4 4 * 3 4 3 5 5 2 2 4 5 5 5 5 5 5 5 5 5 5 5 5 5 5 5 5 5 5 5 4 2 2 4 5 2 2 4 3 5 4 3 5 2 3 3 5 3 5 3 4 5 3 5 4 2 2 5 3 2 5 2 * 4 3 4 5 3 * 3 5 5 5 5 5 5 5 5 5 3 5 5 3 * 4 3 4 5 3 5 4 $ ,.' + 5 5 3 * 3 4 3 5 5 2 2 3 5 3 3 5 2 2 3 5 3 5 5 4 - 2 5 5 5 5 5 5 4 4 4 5 5 5 5 5 5 5 5 5 5 4 * 2 3 5 5 3 * 4 3 4 3 2 2 5 X.,.3 5 5 5 5 5 5 5 5 5 5 5 4 4 4 d d d d r P.-.5 `.k (.5 i.2.k Y./ +X=.#.c 5 r.,.' Y.3 Q.c =.p.3 ",
"f d d g f d g f d d d d d d d d d d d d d r 4 4 5 5 5 5 5 5 5 5 5 5 5 5 5 5 5 5 5 5 5 5 5 5 5 5 5 5 5 5 5 5 5 5 5 5 5 5 5 5 5 5 5 5 5 5 5 5 5 5 5 5 5 5 5 5 5 5 5 5 5 5 5 5 5 5 5 5 5 5 5 5 5 5 5 5 5 5 5 5 5 5 5 5 5 5 5 5 5 5 5 5 5 5 5 5 5 5 5 5 5 5 5 5 5 5 5 5 5 5 5 5 5 5 5 5 5 5 5 5 5 3 ) ! 4 5 5 5 5 5 5 5 5 5 5 5 5 5 5 5 5 5 5 5 5 5 5 5 5 5 5 5 5 5 5 5 5 4 4 4 5 5 5 5 5 5 5 5 5 5 5 5 5 5 5 5 5 5 5 5 5 5 5 4 k <.d 4 5 5 5 5 5 5 5 5 5 5 5 4 4 4 d d d d r Y.*.4  Xk |.4 s.4.k /.r s.s.7.c 5 ,.i.` Q.- `.c =.p./ ",
"d d d d d d d d d d d d d d d d d d d d d r 4 4 5 5 5 5 5 5 5 5 5 5 5 5 5 5 5 5 5 5 5 5 5 5 5 5 5 5 5 5 5 5 5 5 5 5 5 5 5 5 5 5 5 5 5 5 5 5 5 5 5 5 5 5 5 5 5 5 5 5 5 5 5 5 5 5 5 5 5 5 5 5 5 5 5 5 5 5 5 5 5 5 5 5 5 5 5 5 5 5 5 5 5 5 5 5 5 5 5 5 5 5 5 5 5 5 5 5 5 5 5 5 5 5 5 5 5 5 5 5 5 5 3 4 5 5 5 5 5 5 5 5 5 5 5 5 5 5 5 5 5 5 5 5 5 5 5 5 5 5 5 5 5 5 5 5 5 4 4 4 5 5 5 5 5 5 5 5 5 5 5 5 5 5 5 5 5 5 5 5 5 5 5 5 4 * 5 5 5 5 5 5 5 5 5 5 5 5 5 4 4 4 d d d d r ~ k r / f / r c k f ~ r g *.&.h r c /.~ n r ~ g k c j ",
"d d d d d d d d d d d d d d d d d d d d d r 4 4 5 5 5 5 5 5 5 5 5 5 5 5 5 5 5 5 5 5 5 5 5 5 5 5 5 5 5 5 5 5 5 5 5 5 5 5 5 5 5 5 5 5 5 5 5 5 5 5 5 5 5 5 5 5 5 5 5 5 5 5 5 5 5 5 5 5 5 5 5 5 5 5 5 5 5 5 5 5 5 5 5 5 5 5 5 5 5 5 5 5 5 5 5 5 5 5 5 5 5 5 5 5 5 5 5 5 5 5 5 5 5 5 5 5 5 5 5 5 5 5 5 5 5 5 5 5 5 5 5 5 5 5 5 5 5 5 5 5 5 5 5 5 5 5 5 5 5 5 5 5 5 5 5 5 5 4 4 4 5 5 5 5 5 5 5 5 5 5 5 5 5 5 5 5 5 5 5 5 5 5 5 5 5 5 5 5 5 5 5 5 5 5 5 5 5 5 5 4 4 4 d d d d d r r d r r r d r r d r d r 5 5 r d r #.~ 5 f r r r r r ",
"d d d d d d d d d d d d d d d d d d d d d r 4 4 5 5 5 5 5 5 5 5 5 5 5 5 5 5 5 5 5 5 5 5 5 5 5 5 5 5 5 5 5 5 5 5 5 5 5 5 5 5 5 5 5 5 5 5 5 5 5 5 5 5 5 5 5 5 5 5 5 5 5 5 5 5 5 5 5 5 5 5 5 5 5 5 5 5 5 5 5 5 5 5 5 5 5 5 5 5 5 5 5 5 5 5 5 5 5 5 5 5 5 5 5 5 5 5 5 5 5 5 5 5 5 5 5 5 5 5 5 5 5 5 5 5 5 5 5 5 5 5 5 5 5 5 5 5 5 5 5 5 5 5 5 5 5 5 5 5 5 5 5 5 5 5 5 5 5 4 4 4 5 5 5 5 5 5 5 5 5 5 5 5 5 5 5 5 5 5 5 5 5 5 5 5 5 5 5 5 5 5 5 5 5 5 5 5 5 5 5 4 4 4 d d d d d d d d d d d d d d d d d d f d d d d 5 r f d d d d d d ",
"d d d d d d d d d d d d d d d d d d d d d r 4 4 5 5 5 5 5 5 5 5 5 5 5 5 5 5 5 5 5 5 5 5 5 5 5 5 5 5 5 5 5 5 5 5 5 5 5 5 5 5 5 5 5 5 5 5 5 5 5 5 5 5 5 5 5 5 5 5 5 5 5 5 5 5 5 5 5 5 5 5 5 5 5 5 5 5 5 5 5 5 5 5 5 5 5 5 5 5 5 5 5 5 5 5 5 5 5 5 5 5 5 5 5 5 5 5 5 5 5 5 5 5 5 5 5 5 5 5 5 5 5 5 5 5 5 5 5 5 5 5 5 5 4 5 5 5 5 5 5 5 5 5 5 5 5 5 5 5 5 5 5 5 5 5 5 5 5 4 4 4 5 5 5 5 5 5 5 5 5 5 5 5 5 5 5 4 5 5 5 5 5 5 4 5 5 5 5 5 5 5 5 5 5 5 5 5 5 5 5 4 4 4 d d d d d d d d d d d d d d d d d d d d d d d f d d d d d d d d ",
"r d d d d d d d d d d d d d d d d d d d d r 4 4 5 5 5 5 5 5 5 5 5 5 5 5 5 5 5 5 5 5 5 5 5 5 5 9 r r d d d r r 5 5 5 5 5 5 5 5 5 5 5 5 5 5 5 5 5 5 5 5 5 5 5 5 5 5 5 5 5 5 5 5 5 5 5 5 5 5 5 5 5 5 r r r d d d r r 5 5 5 5 5 5 5 5 5 5 5 5 5 5 5 5 5 5 5 5 5 5 5 5 5 5 5 5 5 5 5 5 5 5 5 5 5 5 5 5 5 5 r r r n ` / ~ j 5 4 5 5 5 5 5 5 5 5 5 5 5 5 5 5 5 5 5 5 5 5 5 5 4 4 4 5 5 5 5 5 5 5 5 5 5 5 5 5 4 9 k ~ _ ` ` _ c g 5 4 5 5 5 5 5 5 5 5 5 5 5 5 5 5 4 4 4 d d d d d d d d d d d d d d d d d d d d d d d d d d d d d d d d ",
"l r d d d d d d d d d d d d d d d d d d d r 4 4 5 5 5 5 5 5 5 5 5 5 5 5 5 5 5 5 5 5 5 5 5 5 r f f f h h f f f d r 5 5 5 5 5 5 5 5 5 5 5 5 5 5 5 5 5 5 5 5 5 5 5 5 5 5 5 5 5 5 5 5 5 5 5 5 5 5 9 d f f f h h f f f d r 5 5 5 5 5 5 5 5 5 5 5 5 5 5 5 5 5 5 5 5 5 5 5 5 5 5 5 5 5 5 5 5 5 5 5 5 5 5 r d f f f ~ #.#.#.#.` k 5 5 5 5 5 5 5 5 5 5 5 5 5 5 5 5 5 5 5 5 5 5 4 4 4 5 5 5 5 5 5 5 5 5 5 5 5 5 k ` #.#.#.#.#.#.#.#._ j 4 5 5 5 5 5 5 5 5 5 5 5 5 5 4 4 4 d d d d d d d d d d d d d d d d d d d d d d d d d d d d d d d d ",
"F.W r d d d d d d d d d d d d d d d d d d r 4 4 5 5 5 5 5 5 5 5 5 5 5 5 5 5 5 5 5 5 5 5 r f f f f r r r r r f f f d 5 5 5 5 5 5 5 5 5 5 5 5 5 5 5 5 5 5 5 5 5 5 5 5 5 5 5 5 5 5 5 5 5 5 5 5 r f f f f r r r r r f f f d 5 5 5 5 5 5 5 5 5 5 5 5 5 5 5 5 5 5 5 5 5 5 5 5 5 5 5 5 5 5 5 5 5 5 5 5 r f f f f r g ~ ~ ` #.#.#.~ 9 5 5 5 5 5 5 5 5 5 5 5 5 5 5 5 5 5 5 5 5 4 4 4 5 5 5 5 5 5 5 5 5 5 5 r / #.#.#.` ~ ~ ~ ~ ` #.#.#.~ 5 5 5 5 5 5 5 5 5 5 5 5 5 4 4 4 d d d d d d d d d d d d d d d d d d d d d d d d d d d d d d d d ",
"A.S.W r d d d d d d d d d d d d d d d d d r 4 4 5 5 5 5 5 5 5 5 5 5 5 5 5 5 5 5 5 5 5 r f f f w 3 - * * * - 4 r f f f 5 5 5 5 5 5 5 5 5 5 5 5 5 5 5 5 5 5 5 5 5 5 5 5 5 5 5 5 5 5 5 5 5 5 r f f f 5 3 - * * * - 4 r f f d 5 5 5 5 5 5 5 5 5 5 5 5 5 5 5 5 5 5 5 5 5 5 5 5 5 5 5 5 5 5 5 5 5 5 d f f d 5 3 - * * * 4 f ` #.#.` 9 5 5 5 5 5 5 5 5 5 5 5 5 5 5 5 5 5 5 5 4 4 4 5 5 5 5 5 5 5 5 5 5 r ` #.X.` g 4 - * * * 4 h ` #./ r 5 5 5 5 5 5 5 5 5 5 5 5 4 4 4 d d d d d d d d d d d d d d d d d d d d d d d d d d d d d d d d ",
"A.A.Z.l r d d d d d d d d d d d d d d d d r 4 4 5 5 5 5 5 5 5 5 5 5 5 5 5 5 5 5 5 5 r f f r 4 * * * * * * * * * 8 f f f 5 5 5 5 5 5 5 5 5 5 5 5 5 5 5 5 5 5 5 5 5 5 5 5 5 5 5 5 5 5 5 5 r f f r 3 * * * * * * * * - w f f d 5 5 5 5 5 5 5 5 5 5 5 5 5 5 5 5 5 5 5 5 5 5 5 5 5 5 5 5 5 5 5 5 r f f r - * * * - - * * * 4 ~ #./ d 5 5 5 5 5 5 5 5 5 5 5 5 5 5 5 5 5 5 5 4 4 4 5 5 5 5 5 5 5 5 5 5 _ #.X.~ 3 * * * - - * * $ 5 c f f r 5 5 5 5 5 5 5 5 5 5 5 4 4 4 d d d d d d d d d d d d d d d d d d d d d d d d d d d d d d d d ",
"[ D.D.C.r d d d d d d d d d d d d d d d d r 4 4 5 5 5 5 5 5 5 5 5 5 5 5 5 5 5 5 5 5 f f r 3 * * * * * * * * - * * 5 f f r 5 5 5 5 5 5 5 5 5 5 5 5 5 5 5 5 5 5 5 5 5 5 5 5 5 5 5 5 5 5 5 f f r - * - * * * * * * - * * w f f r 5 5 5 5 5 5 5 5 5 5 5 5 5 5 5 5 5 5 5 5 5 5 5 5 5 5 5 5 5 5 r f f r - * - * * * * - - * $ * h f f r 5 5 5 5 5 5 5 5 5 5 5 5 5 5 5 5 5 5 4 4 4 5 5 5 5 5 5 5 5 4 k #.#.k - * - - * * * - * c * * r f f r 5 5 5 5 5 5 5 5 5 5 4 4 4 d d d d d d d d d d d d d d d d d d d d d d d d d d d d d d d d ",
"; V.D.S.E r d d d d d d d d d d d d d d d r 4 4 5 5 5 5 5 5 5 5 5 5 5 5 5 5 5 5 5 r f f 4 * - * * * * * * * * * * * r f f 5 5 5 5 5 5 5 5 5 5 5 5 5 5 5 5 5 5 5 5 5 5 5 5 5 5 5 5 5 5 r f f 4 * - * * * * * * * * * * - r f f 5 5 5 5 5 5 5 5 5 5 5 5 5 5 5 5 5 5 5 5 5 5 5 5 5 5 5 5 5 5 d f f 3 * - * * * * - * $ ) q.4 * d f d 5 5 5 5 5 5 5 5 5 5 5 5 5 5 5 5 5 5 4 4 4 5 5 5 5 5 5 5 5 r ` #.` 3 * - * * * * - @ ' XX<.* 3 f f r 5 5 5 5 5 5 5 5 5 5 4 4 4 d d d d d g f d d d d d d d d d d d d d d d d r r d d d d d d d ",
"; 0 S.}.V.r d d d d d d d d d d d d d d d r 4 4 5 5 5 5 5 5 5 5 5 5 5 5 5 5 5 5 5 f f r * * * * * * * * * * * * - * 4 f f r 5 5 5 5 5 5 5 5 5 5 5 5 5 5 5 5 5 5 5 5 5 5 5 5 5 5 5 5 5 f f w * - * * * * * * * * * * - * 4 f f r 5 5 5 5 5 5 5 5 5 5 5 5 5 5 5 5 5 5 5 5 5 5 5 5 5 5 5 5 9 f f 5 * - * * * * - * * ' ^..X~ $ 5 f f r 5 5 5 5 5 5 5 5 5 5 5 5 5 5 5 5 5 4 4 4 5 5 5 5 5 5 5 4 j #.#.d * - * * * * - $ ~ [.[._ * * w f f 5 5 5 5 5 5 5 5 5 5 4 4 4 d d d d r 4 5 r d g f d f f f f g d d f f g r / c r g f d d g f ",
"4 4 C.}.C.l r d d d d d d d d d d d d d d r 4 4 5 5 5 5 5 5 5 5 5 5 5 5 5 5 5 5 9 f f 5 * - * * * * * * * * * * * * - r f d 5 5 5 5 5 5 5 5 5 5 5 5 5 5 5 5 5 5 5 5 5 5 5 5 5 5 5 5 r f f 4 * - * * * * * * * * * * * * - d f r 5 5 5 5 5 5 5 5 5 5 5 5 5 5 5 5 5 5 5 5 5 5 5 5 5 5 5 5 r f f 4 * * * * * - * - 1.XX[.' * * 3 f f r 5 5 5 5 5 5 5 5 5 5 5 5 5 5 5 5 5 4 4 4 5 5 5 5 5 5 5 5 ~ #.` 4 * - * * * - $ ~ [.[.` @ - * 4 f f r 5 5 5 5 5 5 5 5 5 4 4 4 d d d r ` E.Y.~ 5 3 5 d 5 4 5 5 3 r d 5 4 5 3 P.4.4 5 4 d r 3 5 ",
"4 ; [ }.Z.Q r d d d d d d d d d d d d d d r 4 4 5 5 5 5 5 5 5 5 5 5 5 5 5 5 5 5 r f f 3 * * * * * - * * * * * * * * * w f d 5 5 5 5 5 5 5 5 5 5 5 5 5 5 5 5 5 5 5 5 5 5 5 5 5 5 5 5 r f d - * * * * * - * * * * * * * * * r f d 5 5 5 5 5 5 5 5 5 5 5 5 5 5 5 5 5 5 5 5 5 5 5 5 5 5 5 5 r f r - * * * * * - * r [.^.~ $ * * - r f r 5 5 5 5 5 5 5 5 5 5 5 5 5 5 5 5 5 4 4 4 5 5 5 5 5 5 5 5 _ #.~ * * * * * * - $ _ [.*.$ - - * - r f r 5 5 5 5 5 5 5 5 5 4 4 4 d d d r `.X./ k / i.#.r #.4.#.` 8.h d X.2.,.- s.,.4 7.4.9 / r.#.",
"4 ; E }.S.Q r d d d d d d d d d d d d d d r 4 4 5 5 5 5 5 5 5 5 5 5 5 5 5 5 5 5 r f d - * * * * - * - - * * * * * - * 5 h f 5 5 5 5 5 5 5 5 5 5 5 5 5 5 5 5 5 5 5 5 5 5 5 5 5 5 5 5 r f r * * * * * - * - * * * * * * - * w h f 5 5 5 5 5 5 5 5 5 5 5 5 5 5 5 5 5 5 5 5 5 5 5 5 5 5 5 5 d h r * * * * * * * - $ ~ j @ - - * * r h d 5 5 5 5 5 5 5 5 5 5 5 5 5 5 5 5 5 4 4 4 5 5 5 5 5 5 5 5 ` #.n * - * * * * * - $ r 4 * - * * * r f r 5 5 5 5 5 5 5 5 5 4 4 4 d d d w E.s.r 5 X.=./.` $X8.+XP.P.p.d &X7.`.X.i.*.2.i.s.7.Q.8.#.",
"4 ; E }.A.Q r d d d d d d d d d d d d d d r 4 4 5 5 5 5 5 5 5 5 5 5 5 5 5 5 5 5 r f d - * * * - * 5 $ * - * * * * - * 5 f f 5 5 5 5 5 5 5 5 5 5 5 5 5 5 5 5 5 5 5 5 5 5 5 5 5 5 5 5 r f r * * * * - * 5 $ * * * * * * - * w h f 5 5 5 5 5 5 5 5 5 5 5 5 5 5 5 5 5 5 5 5 5 5 5 5 5 5 5 5 d h r * * * * * * * * - $ * - * * * * r h d 5 5 5 5 5 5 5 5 5 5 5 5 5 5 5 5 5 4 4 4 5 5 5 5 5 5 5 5 ` #.n * - * * * * * * - $ * - * * * * r f r 5 5 5 5 5 5 5 5 5 4 4 4 d d d r h I.|.c / r.`.=.(.* P.-.h E.h |.$ ,.r.i.,.Q.P.E./.r.P.k ",
"4 ; [ }.Z.Q r d d d d d d d d d d d d d d r 4 4 5 5 5 5 5 5 5 5 5 5 5 5 5 5 5 5 r f f 4 * * - * * t.t.5 * - * * * * * 9 h d 5 5 5 5 5 5 5 5 5 5 5 5 5 5 5 5 5 5 5 5 5 5 5 5 5 5 5 5 r f d 3 * * - * 3 J.w.4 * - * * * * * r h d 5 5 5 5 5 5 5 5 5 5 5 5 5 5 5 5 5 5 5 5 5 5 5 5 5 5 5 5 r f r - * * * * * * * * - - * * * * * r f r 5 5 5 5 5 5 5 5 5 5 5 5 5 5 5 5 5 4 4 4 5 5 5 5 5 5 5 5 ` #.~ - * * * * * * * * - - * * * * - r f r 5 5 5 5 5 5 5 5 5 4 4 4 d d d f r   r.E.Q.-.`.=./.4 P.-.~ I.h +X3 7.r.r.,.Y.r./ ~ 4 *.`.",
"4 5 V.}.C.d r d d d d d d d d d d d d d d r 4 4 5 5 5 5 5 5 5 5 5 5 5 5 5 5 5 5 r f f 5 * - - $ _ XX].5 * - * * * * - r f r 5 5 5 5 5 5 5 5 5 5 5 5 5 5 5 5 5 5 5 5 5 5 5 5 5 5 5 5 r f f 4 * - - $ &..XJ.3 * - * * * * - r f r 5 5 5 5 5 5 5 5 5 5 5 5 5 5 5 5 5 5 5 5 5 5 5 5 5 5 5 5 r f f 4 * - * * * * * * * * * * * * 3 d f r 5 5 5 5 5 5 5 5 5 5 5 5 5 5 5 5 5 4 4 4 5 5 5 5 5 5 5 5 ~ #.' 5 * - * * * * * * * * * * * * 4 f f r 5 5 5 5 5 5 5 5 5 4 4 4 d d r g i.Y.E.#./.p./.,.(.3 P.-.~ E.f $XI.|.n s.=.' E.i.#.r.I.P.",
"; W S.}.[ e d d d d d d d d d d d d d d d r 4 4 5 5 5 5 5 5 5 5 5 5 5 5 5 5 5 5 5 f f r * - * 4 U.{.~ $ - * * * - * 4 f f r 5 5 5 5 5 5 5 5 5 5 5 5 5 5 5 5 5 5 5 5 5 5 5 5 5 5 5 5 5 f f r * - * r ^.[.k $ - * * * - * 5 f f r 5 5 5 5 5 5 5 5 5 5 5 5 5 5 5 5 5 5 5 5 5 5 5 5 5 5 5 5 5 f f 8 * - * * * * * * * * * * - * 5 f f 5 5 5 5 5 5 5 5 5 5 5 5 5 5 5 5 5 5 4 4 4 5 5 5 5 5 5 5 4 g #.#.g * - * * * * * * * * * * - * w f f 5 5 5 5 5 5 5 5 5 5 4 4 4 d d d d / #.n 5 n X.k h c r k h f k k `./ ~ 9 k h 9 / #.k / #.g ",
"4 C.D.S.E r d d d d d d d d d d d d d d d r 4 4 5 5 5 5 5 5 5 5 5 5 5 5 5 5 5 5 5 r f f 5 * $ 1.oXe.$ - * * * - * - r f f 5 5 5 5 5 5 5 5 5 5 5 5 5 5 5 5 5 5 5 5 5 5 5 5 5 5 5 5 5 5 r f f 4 * $ 3.*X<.$ - * * * - * - d f f 5 5 5 5 5 5 5 5 5 5 5 5 5 5 5 5 5 5 5 5 5 5 5 5 5 5 5 5 5 5 d f f 4 * - * * * * * * * * - * 3 f f d 5 5 5 5 5 5 5 5 5 5 5 5 5 5 5 5 5 5 4 4 4 5 5 5 5 5 5 5 5 5 ` #.` 4 * - * * * * * * * * - * 4 f f r 5 5 5 5 5 5 5 5 5 5 4 4 4 d d d d r 5 r f r 5 r r r d r r d r k (.4 r f r r d w 5 r w 5 r ",
"[ D.A.V.r d d d d d d d d d d d d d d d d r 4 4 5 5 5 5 5 5 5 5 5 5 5 5 5 5 5 5 5 5 f f f 4 $ c J.j $ - * * * * * w f f r 5 5 5 5 5 5 5 5 5 5 5 5 5 5 5 5 5 5 5 5 5 5 5 5 5 5 5 5 5 5 5 f f d 3 $ ) y.r * - * * * * - r f f r 5 5 5 5 5 5 5 5 5 5 5 5 5 5 5 5 5 5 5 5 5 5 5 5 5 5 5 5 5 5 9 f f r - * * * * * * * * * * - r f f w 5 5 5 5 5 5 5 5 5 5 5 5 5 5 5 5 5 5 4 4 4 5 5 5 5 5 5 5 5 4 k #.#./ - * - * * * * * * * * 3 r f f 5 5 5 5 5 5 5 5 5 5 5 4 4 4 d d d d d d d d d d d d d d d d d d d h d d d d d d d d d d d d ",
"D.A.C.l r d d d d d d d d d d d d d d d d r 4 4 5 5 5 5 5 5 5 5 5 5 5 5 5 5 5 5 5 5 r f f f r $ $ * * * * * * 3 r f f d 5 5 5 5 5 5 5 5 5 5 5 5 5 5 5 5 5 5 5 5 5 5 5 5 5 5 5 5 5 5 5 5 r f f f r $ $ * * * * * * 3 r f f r 5 5 5 5 5 5 5 5 5 5 5 5 5 5 5 5 5 5 5 5 5 5 5 5 5 5 5 5 5 5 5 5 r f f r 4 * * * * * * * * 4 r f f r 5 5 5 5 5 5 5 5 5 5 5 5 5 5 5 5 5 5 5 4 4 4 5 5 5 5 5 5 5 5 5 5 ~ #.#./ 5 * * * * * * * * 4 d f f r 5 5 5 5 5 5 5 5 5 5 5 4 4 4 d d d d d d d d d d d d d d d d d d d r d d d d d d d d d d d d ",
"A.Z.W r d d d d d d d d d d d d d d d d d r 4 4 5 5 5 5 5 5 5 5 5 5 5 5 5 5 5 5 5 5 5 r f / ` 5 3 - * * - - 3 9 f f d 5 5 5 5 5 5 5 5 5 5 5 5 5 5 5 5 5 5 5 5 5 5 5 5 5 5 5 5 5 5 5 5 5 5 r f ` _ 4 3 - * * - - 3 r f f d 5 5 5 5 5 5 5 5 5 5 5 5 5 5 5 5 5 5 5 5 5 5 5 5 5 5 5 5 5 5 5 5 5 5 r f f r 4 2 - * * - 2 3 r f f r 5 5 5 5 5 5 5 5 5 5 5 5 5 5 5 5 5 5 5 5 4 4 4 5 5 5 5 5 5 5 5 5 5 5 / #.#.n 3 2 * * * - 3 4 r f f r 5 5 5 5 5 5 5 5 5 5 5 5 4 4 4 d d d d d d d d d d d d d d d d d d d d d d d d d d d d d d d d ",
"F.Q r d d d d d d d d d d d d d d d d d d r 4 4 5 5 5 5 5 5 5 5 5 5 5 5 5 5 5 5 5 5 5 5 d ' j 5 5 5 5 5 5 5 5 5 r d 5 5 5 5 5 5 5 5 5 5 5 5 5 5 5 5 5 5 5 5 5 5 5 5 5 5 5 5 5 5 5 5 5 5 5 5 g ' g 5 5 5 5 5 5 5 5 5 d r 5 5 5 5 5 5 5 5 5 5 5 5 5 5 5 5 5 5 5 5 5 5 5 5 5 5 5 5 5 5 5 5 5 5 5 5 r f 5 5 5 5 5 5 5 5 5 5 d r 5 5 5 5 5 5 5 5 5 5 5 5 5 5 5 5 5 5 5 5 5 4 4 4 5 5 5 5 5 5 5 5 5 5 5 5 ~ ` 9 5 5 5 5 5 5 5 5 5 f r 5 5 5 5 5 5 5 5 5 5 5 5 5 4 4 4 d d d d d d d d d d d d d d d d d d d d d d d d d d d d d d d d ",
"l r d d d d d d d d d d d d d d d d d d d r 4 4 5 5 5 5 5 5 5 5 5 5 5 5 5 5 5 5 5 5 5 5 5 r 5 5 5 5 5 5 5 5 5 5 5 5 5 5 5 5 5 5 5 5 5 5 5 5 5 5 5 5 5 5 5 5 5 5 5 5 5 5 5 5 5 5 5 5 5 5 5 5 5 r 5 5 5 5 5 5 5 5 5 5 5 5 5 5 5 5 5 5 5 5 5 5 5 5 5 5 5 5 5 5 5 5 5 5 5 5 5 5 5 5 5 5 5 5 5 5 5 5 5 5 5 5 5 5 5 5 5 5 5 5 5 5 5 5 5 5 5 5 5 5 5 5 5 5 5 5 5 5 5 5 5 5 5 4 4 4 5 5 5 5 5 5 5 5 5 5 5 5 5 r 5 5 5 5 5 5 5 5 5 5 5 5 5 5 5 5 5 5 5 5 5 5 5 5 5 4 4 4 d d d d d d d d d d d d d d d d d d d d d d d d d d d d d d d d ",
"r d d d d d d d d d d d d d d d d d d d d r 4 4 5 5 5 5 5 5 5 5 5 5 5 5 5 5 5 5 5 5 5 5 5 5 5 5 5 5 5 5 5 5 5 5 5 5 5 5 5 5 5 5 5 5 5 5 5 5 5 5 5 5 5 5 5 5 5 5 5 5 5 5 5 5 5 5 5 5 5 5 5 5 5 5 5 5 5 5 5 5 5 5 5 5 5 5 5 5 5 5 5 5 5 5 5 5 5 5 5 5 5 5 5 5 5 5 5 5 5 5 5 5 5 5 5 5 5 5 5 5 5 5 5 5 5 5 5 5 5 5 5 5 5 5 5 5 5 5 5 5 5 5 5 5 5 5 5 5 5 5 5 5 5 5 5 5 5 4 4 4 5 5 5 5 5 5 5 5 5 5 5 5 5 5 5 5 5 5 5 5 5 5 5 5 5 5 5 5 5 5 5 5 5 5 5 5 5 5 5 4 4 4 d d d d d d d d d d d d d d d d d d d d d d d d d d d d d d d d ",
"d d d d d d d d d d d d d d d d d d d d d r 4 4 5 5 5 5 5 5 5 5 5 5 5 5 5 5 5 5 5 5 5 5 5 5 5 5 5 5 5 5 5 5 5 5 5 5 5 5 5 5 5 5 5 5 5 5 5 5 5 5 5 5 5 5 5 5 5 5 5 5 5 5 5 5 5 5 5 5 5 5 5 5 5 5 5 5 5 5 5 5 5 5 5 5 5 5 5 5 5 5 5 5 5 5 5 5 5 5 5 5 5 5 5 5 5 5 5 5 5 5 5 5 5 5 5 5 5 5 5 5 5 5 5 5 5 5 5 5 5 5 5 5 5 5 5 5 5 5 5 5 5 5 5 5 5 5 5 5 5 5 5 5 5 5 5 5 5 4 4 4 5 5 5 5 5 5 5 5 5 5 5 5 5 5 5 5 5 5 5 5 5 5 5 5 5 5 5 5 5 5 5 5 5 5 5 5 5 5 5 4 4 4 d d d d d d d d d d d d d d d d d d d d d d d d d d d d d d d d ",
"d d d d d d d d d d d d d d d d d d d d d r 4 4 5 5 5 5 5 5 5 5 5 5 5 5 5 5 5 5 5 5 5 5 5 5 5 5 5 5 5 5 5 5 5 5 5 5 5 5 5 5 5 5 5 5 5 5 5 5 5 5 5 5 5 5 5 5 5 5 5 5 5 5 5 5 5 5 5 5 5 5 5 5 5 5 5 5 5 5 5 5 5 5 5 5 5 5 5 5 5 5 5 5 5 5 5 5 5 5 5 5 5 5 5 5 5 5 5 5 5 5 5 5 5 5 5 5 5 5 5 5 5 5 5 5 5 5 5 5 5 5 5 5 5 5 5 5 5 5 5 5 5 5 5 5 5 5 5 5 5 5 5 5 5 5 5 5 5 4 4 4 5 5 5 5 5 5 5 5 5 5 5 5 5 5 5 5 5 5 5 5 5 5 5 5 5 5 5 5 5 5 5 5 5 5 5 5 5 5 5 4 4 4 d d d d d d d d d d d d d d d d d d d d d d d d d d d d d d d d ",
"d d d d d d d d d d d d d d d d d d d d d r 4 4 5 5 5 5 5 5 5 5 5 5 5 5 5 5 5 5 5 5 5 5 5 5 5 5 5 5 5 5 5 5 5 5 5 5 5 5 5 5 5 5 5 5 5 5 5 5 5 5 5 5 5 5 5 5 5 5 5 5 5 5 5 5 5 5 5 5 5 5 5 5 5 5 5 5 5 5 5 5 5 5 5 5 5 5 5 5 5 5 5 5 5 5 5 5 5 5 5 5 5 5 5 5 5 5 5 5 5 5 5 5 5 5 5 5 5 5 5 5 5 5 5 5 5 5 5 5 5 5 5 5 5 5 5 5 5 5 5 5 5 5 5 5 5 5 5 5 5 5 5 5 5 5 5 5 5 4 4 4 5 5 5 5 5 5 5 5 5 5 5 5 5 5 5 5 5 5 5 5 5 5 5 5 5 5 5 5 5 5 5 5 5 5 5 5 5 5 5 4 4 4 d d d d f f f d r 9 d d d d d d d d d d d d d d d d d d d d d d ",
"d d d d d d d d d d d d d d d d d d d d d r 4 4 5 5 5 5 5 5 5 5 5 5 5 5 5 5 5 5 5 5 5 5 5 5 5 5 5 5 5 5 5 5 5 5 5 5 5 5 5 5 5 5 5 5 5 5 5 5 5 5 5 5 5 5 5 5 5 5 5 5 5 5 5 5 5 5 5 5 5 5 5 5 5 5 5 5 5 5 5 5 5 5 5 5 5 5 5 5 5 5 5 5 5 5 5 5 5 5 5 5 5 5 5 5 5 5 5 5 5 5 5 5 5 5 5 5 5 5 5 5 5 5 5 5 5 5 5 5 5 5 5 5 5 5 5 5 5 5 5 5 5 5 5 5 5 5 5 5 5 5 5 5 5 5 5 5 5 4 4 4 5 5 5 5 5 5 5 5 5 5 5 5 5 5 5 5 5 5 5 5 5 5 5 5 5 5 5 5 5 5 5 5 5 5 5 5 5 5 5 4 4 4 d d d r 5 5 5 r c ` r g g d r g d g g d f f g d d f g d d g d d ",
"d d d d d d d d d d d d d d d d d d d d d r 4 4 5 5 5 5 5 5 5 5 5 5 5 5 5 5 5 5 5 5 5 5 5 5 4 * 3 5 5 5 5 5 5 5 5 5 5 5 5 5 5 5 5 5 5 5 5 5 5 5 5 5 5 5 5 5 5 5 5 5 5 5 5 5 5 5 5 5 5 5 * * 5 5 5 5 * 3 5 5 5 5 5 5 5 5 5 5 5 5 5 5 5 5 5 5 5 5 5 5 5 5 5 5 5 5 5 5 5 5 5 5 5 5 5 5 5 5 5 * * 5 5 * * 5 5 5 5 * 2 5 5 5 3 2 5 5 3 * 2 5 5 5 5 5 5 5 5 5 5 5 5 5 5 5 5 4 4 4 5 5 5 5 5 5 5 5 5 * 2 5 5 3 3 5 2 * 5 5 5 5 5 5 5 5 5 5 5 5 5 5 5 5 5 5 5 5 5 4 4 4 d d 9 _ |./.s.h h ~ r 4 3 r / 4 r 4 4 d 9 5 3 r d 5 2 r r 3 w d ",
"9 5 r 5 r d r w 5 d d d d d d d d d d d d r 4 4 5 5 5 5 5 5 5 5 5 5 5 5 5 5 5 5 5 5 5 5 5 4 j ,.k 3 5 5 4 3 5 3 3 5 5 5 5 5 5 5 5 5 5 5 5 5 5 5 5 5 5 5 5 5 5 5 5 5 5 5 5 5 5 5 5 5 5 5 &.X.5 5 5 d >.) 3 5 5 5 2 4 5 3 3 5 2 5 5 5 5 5 5 5 5 5 5 5 5 5 5 5 5 5 5 5 5 5 5 5 5 5 5 5 5 5 r #.*.r 5 X.&.5 5 5 r *._ 4 5 4 _ ` 5 4 ~ ,.' 5 5 5 5 5 5 5 5 5 5 5 5 5 5 5 5 4 4 4 5 5 5 5 5 5 5 5 r *.' 5 3 ! ~ 3 ' &.9 5 5 5 3 3 5 3 4 5 5 2 3 5 5 5 5 5 5 5 5 4 4 4 d f 4 =.Q.r i.Y.j X.d r.e.2.&X4.c i.r.r X.2.i.k 9 #.P./ ~ P.` r ",
"/ ` g #.k r k / X.r d d d d d d d d d d d r 4 4 5 5 5 5 5 5 5 5 5 5 5 5 5 5 5 5 5 5 5 5 5 5 e.X.w.d 4 9 g ! r j k 5 5 5 5 5 5 5 5 5 5 5 5 5 5 5 5 5 5 5 5 5 5 5 5 5 5 5 5 5 5 5 5 5 2 *.>.,.' 3 4 7.&.7.k 4 5 9 ~ j r k j r ~ 9 5 5 5 5 5 5 5 5 5 5 5 5 5 5 5 5 5 5 5 5 5 5 5 5 5 5 5 4 k X.*.*.' 2.,.#.4 3 3.&.7.~ 2 j *.,.d ` e.) ` r 5 5 5 5 5 5 5 5 5 5 5 5 5 5 5 4 4 4 5 5 5 5 5 5 5 5 ,.` j 5 4 P.>.~ 7.*.*.3 5 d j k 5 ~ d 3 9 ~ k 5 5 5 5 5 5 5 5 4 4 4 d f 5 *.P.3 h Q.7.I.,.Q._ =.@X` ~ ` Y.*.(.P.i.P.~ `.*.` E.-.E.~ ",
"(.(./.I./.5 I.(.E.p.5 f d d d d d d d d d r 4 4 5 5 5 5 5 5 5 5 5 5 5 5 5 5 5 5 5 5 5 5 3 ! 3.+ >.` $ ! L.,.p.>.y.~ 3 5 5 5 5 5 5 5 5 5 5 5 5 5 5 5 5 5 5 5 5 5 5 5 5 5 5 5 5 5 5 5 5 7.d g 7.2 g w.* ' &.* 9 3.7.~ y.3.y.3.7.,.4 5 5 5 5 5 5 5 5 5 5 5 5 5 5 5 5 5 5 5 5 5 5 5 5 5 5 5 5 * j 3.3.k r w.4 d w.3 ~ >.* d ,.3.r y.j * 3 5 5 5 5 5 5 5 5 5 5 5 5 5 5 5 5 4 4 4 5 5 5 5 5 5 4 j r.&.~ * X.7.&.*.~ 4 e.9 * 3.e.w.e.3.w.5 >.3.X.5 5 5 5 5 5 5 5 4 4 4 d f 5 *.I.5 h E.7.s.~ (.*.k /.2 ~ e.|.7.E.~ k E.4.r.+ #.$Xr.$X#.",
"` ` (.* Q.c Y.-.9 `.h r d d d d d d d d d r 4 4 5 5 5 5 5 5 5 5 5 5 5 5 5 5 5 5 5 5 5 5 3 ~ >.* *.' $ ~ e.+ y.d ~ >.2 5 5 5 5 5 5 5 5 5 5 5 5 5 5 5 5 5 5 5 5 5 5 5 5 5 5 5 5 5 5 5 9 3.g g w.* k 3.4 ` >.$ ~ 7.$ 3 p.5 X.>.2 w.r 5 5 5 5 5 5 5 5 5 5 5 5 5 5 5 5 5 5 5 5 5 5 5 5 5 5 5 5 4 3._ >.k r e.3 g 3.5 ~ 3.* 5 g g r r.r 5 5 5 5 5 5 5 5 5 5 5 5 5 5 5 5 5 5 4 4 4 5 5 5 5 5 5 3 _ y.~ w.' ' ! *.&.~ 5 e.r * w.c j e.$ 3.k >.*.5 5 5 5 5 5 5 5 5 4 4 4 d f 4 =.s.+ =./.#.E.- d E.r.Q.4 /.,.P.8.E.~ ~ E.,.P.$ `  X/ ~ h ",
"/ ` P.5 E.c I.#.5 `.k r d d d d d d d d d r 4 4 5 5 5 5 5 5 5 5 5 5 5 5 5 5 5 5 5 5 5 5 4 k 3.+ ,.` $ ~ 3.* 7.g ) *.2 5 5 5 5 5 5 5 5 5 5 5 5 5 5 5 5 5 5 5 5 5 5 5 5 5 5 5 5 5 5 5 4 3.g j 7.2 d w.* X.*.$ _ 3.$ 4 e.5 X.X.5 7.r 5 5 5 5 5 5 5 5 5 5 5 5 5 5 5 5 5 5 5 5 5 5 5 5 5 5 5 2 X.X.+ 2.k r e.3 9 w.3 _ ,.* 5 4 4 4 y.k $ 3 5 5 5 5 5 5 5 5 5 5 5 5 5 5 5 5 4 4 4 5 5 5 5 5 5 3 ) 3.  *.Y.e.y.J.,.~ 5 e.9 * 7.k k 3.3 3.k * ' e.r 5 5 5 5 5 5 5 4 4 4 d f 5 #.$XI.`.~ X.I.` Q.E.` Q.s.i.E.E.2.E.~ ~ Q.g /.(.#.r.E.r.k ",
"` X.Q.4 /.~ P.(.s.I.5 f d d d d d d d d d r 4 4 5 5 5 5 5 5 5 5 5 5 5 5 5 5 5 5 5 5 5 5 5 5 7.>.w.d 2 ) w.$ y.g _ ,.2 5 5 5 5 5 5 5 5 5 5 5 5 5 5 5 5 5 5 5 5 5 5 5 5 5 5 5 5 5 5 5 2 ' 3.7.) ,.j >.,.e.k 3 r e.*.~ y.5 &.*.5 e.r 5 5 5 5 5 5 5 5 5 5 5 5 5 5 5 5 5 5 5 5 5 5 5 5 5 5 3 ' Y.X.) _ 7.7.` >.k &.,.w.! 4 5 5 5 3 ` y.X._ 5 5 5 5 5 5 5 5 5 5 5 5 5 5 5 5 4 4 4 5 5 5 5 5 5 5 r w.*.7.k g *.7.k 7.3.&.4 * e.k k w.2 7.! ~ X.e.d 4 5 5 5 5 5 5 4 4 4 d d d d ~ / h 9 g h h _ k w h ~ d / k d h d d h r g _ h r / ~ f ",
"h k ` r ` r P.r.,.h r d d d d d d d d d d r 4 4 5 5 5 5 5 5 5 5 5 5 5 5 5 5 5 5 5 5 5 5 5 5 d X.j 4 5 d k 4 c 9 d j 5 5 5 5 5 5 5 5 5 5 5 5 5 5 5 5 5 5 5 5 5 5 5 5 5 5 5 5 5 5 5 5 5 5 _ _ 4 ! r 9 X.k 4 5 4 g &.c k 5 g j 5 k 5 5 5 5 5 5 5 5 5 5 5 5 5 5 5 5 5 5 5 5 5 5 5 5 5 5 5 5 k ' X.` 5 ) ` 4 k d 5 ' ~ 4 5 5 5 5 5 3 ! &.~ 5 5 5 5 5 5 5 5 5 5 5 5 5 5 5 5 4 4 4 5 5 5 5 5 5 5 4 g X.j 3 3 r j 3 ~ ' 5 5 4 k r r k 4 k r ! &.j 4 5 5 5 5 5 5 5 4 4 4 d d d d r 9 r f r r r 9 r d r r d w r d r d d r d r 9 r d 9 r d ",
"r r 9 d r 2 /.` $ d d d d d d d d d d d d r 4 4 5 5 5 5 5 5 5 5 5 5 5 5 5 5 5 5 5 5 5 5 5 5 4 * 4 5 5 5 3 5 3 5 5 4 5 5 5 5 5 5 5 5 5 5 5 5 5 5 5 5 5 5 5 5 5 5 5 5 5 5 5 5 5 5 5 5 5 5 2 2 5 3 5 5 * 3 5 5 5 4 * 3 3 5 4 4 5 3 5 5 5 5 5 5 5 5 5 5 5 5 5 5 5 5 5 5 5 5 5 5 5 5 5 5 5 5 3 * * * 5 2 2 5 3 4 5 * 3 5 5 5 5 5 5 5 3 * 2 5 5 5 5 5 5 5 5 5 5 5 5 5 5 5 5 4 4 4 5 5 5 5 5 5 5 5 4 * 4 5 5 5 4 5 3 * 5 5 5 3 5 5 3 5 3 5 3 * 4 5 5 5 5 5 5 5 5 4 4 4 d d d d d d d d d d d d d d d d d d d d d d d d d d d d d d d d ",
"d d d d f r / k d d d d d d d d d d d d d r 4 4 5 5 5 5 5 5 5 5 5 5 5 5 5 5 5 5 5 5 5 5 5 5 5 5 5 5 5 5 5 5 5 5 5 5 5 5 5 5 5 5 5 5 5 5 5 5 5 5 5 5 5 5 5 5 5 5 5 5 5 5 5 5 5 5 5 5 5 5 5 5 5 5 5 5 5 5 5 5 5 5 5 5 5 5 5 5 5 5 5 5 5 5 5 5 5 5 5 5 5 5 5 5 5 5 5 5 5 5 5 5 5 5 5 5 5 5 5 5 5 5 5 5 5 5 5 5 5 5 5 5 5 5 5 5 5 5 5 5 5 5 5 5 5 5 5 5 5 5 5 5 5 5 5 5 5 4 4 4 5 5 5 5 5 5 5 5 5 5 5 5 5 5 5 5 5 5 5 5 5 5 5 5 5 5 5 5 5 5 5 5 5 5 5 5 5 5 5 4 4 4 d d d d d d d d d d d d d d d d d d d d d d d d d d d d d d d d ",
"d d d d d d r r d d d d d d d d d d d d d r 4 4 5 5 5 5 5 5 5 5 5 5 5 5 5 5 5 5 5 5 5 5 5 5 5 5 5 5 5 5 5 5 5 5 5 5 5 5 5 5 5 5 5 5 5 5 5 5 5 5 5 5 5 5 5 5 5 5 5 5 5 5 5 5 5 5 5 5 5 5 5 5 5 5 5 5 5 5 5 5 5 5 5 5 5 5 5 5 5 5 5 5 5 5 5 5 5 5 5 5 5 5 5 5 5 5 5 5 5 5 5 5 5 5 5 5 5 5 5 5 5 5 5 5 5 5 5 5 5 5 5 5 5 5 5 5 5 5 5 5 5 5 5 5 5 5 5 5 5 5 5 5 5 5 5 5 5 4 4 4 5 5 5 5 5 5 5 5 5 5 5 5 5 5 5 5 5 5 5 5 5 5 5 5 5 5 5 5 5 5 5 5 5 5 5 5 5 5 5 4 4 4 d d d d d d d d d d d d d d d d d d d d d d d d d d d d d d d d ",
"d d d d d d d d d d d d d d d d d d d d d r 4 4 5 5 5 5 5 5 5 5 5 5 5 5 5 5 5 5 5 5 5 5 5 5 5 5 5 5 5 5 5 5 5 5 5 5 5 5 5 5 5 5 5 5 5 5 5 5 5 5 5 5 5 5 5 5 5 5 5 5 5 5 5 5 5 5 5 5 5 5 5 5 5 5 5 5 5 5 5 5 5 5 5 5 5 5 5 5 5 5 5 5 5 5 5 5 5 5 5 5 5 5 5 5 5 5 5 5 5 5 5 5 5 5 5 5 5 5 5 5 5 5 5 5 5 5 5 5 5 5 5 5 5 5 5 5 5 5 5 5 5 5 5 5 5 5 5 5 5 5 5 5 5 5 5 5 5 4 4 4 5 5 5 5 5 5 5 5 5 5 5 5 5 5 5 5 5 5 5 5 5 5 5 5 5 5 5 5 5 5 5 5 5 5 5 5 5 5 5 4 4 4 d d d d d d d d d d d d d d d d d d d d d d d d d d d d d d d d ",
"d d d d d d d d d d d d d d d d d d d d d r 4 4 5 5 5 5 5 5 5 5 5 5 5 5 5 5 5 5 5 5 5 5 5 5 5 5 5 5 5 5 5 5 5 5 5 5 5 5 5 5 5 5 5 5 5 5 5 5 5 5 5 5 5 5 5 5 5 5 5 5 5 5 5 5 5 5 5 5 5 5 5 5 5 5 5 5 5 5 5 5 5 5 5 5 5 5 5 5 5 5 5 5 5 5 5 5 5 5 5 5 5 5 5 5 5 5 5 5 5 5 5 5 5 5 5 5 5 5 5 5 5 5 5 5 5 5 5 5 5 5 5 5 5 5 5 5 5 5 5 5 5 5 5 5 5 5 5 5 5 5 5 5 5 5 5 5 5 4 4 4 5 5 5 5 5 5 5 5 5 5 5 5 5 5 5 5 5 5 5 5 5 5 5 5 5 5 5 5 5 5 5 5 5 5 5 5 5 5 5 4 4 4 d d d d d d d d d d d d d d d d d d d d d d d d d d d d d d d d ",
"d d d d d d d d d d d d d d d d d d d d d r 4 4 5 5 5 5 5 5 5 5 5 5 5 5 5 5 5 5 5 5 5 5 5 5 5 5 5 5 5 5 5 5 5 5 5 5 5 5 5 5 5 5 5 5 5 5 5 5 5 5 5 5 5 5 5 5 5 5 5 5 5 5 5 5 5 5 5 5 5 5 5 5 5 5 5 5 5 5 5 5 5 5 5 5 5 5 5 5 5 5 5 5 5 5 5 5 5 5 5 5 5 5 5 5 5 5 5 5 5 5 5 5 5 5 5 5 5 5 5 5 5 5 5 5 5 5 5 5 5 5 5 5 5 5 5 5 5 5 5 5 5 5 5 5 5 5 5 5 5 5 5 5 5 5 5 5 5 4 4 4 5 5 5 5 5 5 5 5 5 5 5 5 5 5 5 5 5 5 5 5 5 5 5 5 5 5 5 5 5 5 5 5 5 5 5 5 5 5 5 4 4 4 d d d d d d d d d d d d d d d d d d d d d d d d d d d d d d d d ",
"d d d d d d d d d d d d d d d d d d d d d r 4 4 5 5 5 5 5 5 5 5 5 5 5 5 5 5 5 5 5 5 5 5 5 5 5 5 5 5 5 5 5 5 5 5 5 5 5 5 5 5 5 5 5 5 5 5 5 5 5 5 5 5 5 5 5 5 5 5 5 5 5 5 5 5 5 5 5 5 5 5 5 5 5 5 5 5 5 5 5 5 5 5 5 5 5 5 5 5 5 5 5 5 5 5 5 5 5 5 5 5 5 5 5 5 5 5 5 5 5 5 5 5 5 5 5 5 5 5 5 5 5 5 5 5 5 5 5 5 5 5 5 5 5 5 5 5 5 5 5 5 5 5 5 5 5 5 5 5 5 5 5 5 5 5 5 5 5 4 4 4 5 5 5 5 5 5 5 5 5 5 5 5 5 5 5 5 5 5 5 5 5 5 5 5 5 5 5 5 5 5 5 5 5 5 5 5 5 5 5 4 4 4 d d d d d d d d d d d d d d d d d d d d d d d d d d d d d d d d ",
"r d d d d d d d d d d d d d d d d d d d d r 4 4 5 5 5 5 5 5 5 5 5 5 5 5 5 5 5 5 5 5 5 5 5 5 5 5 5 5 5 5 5 5 5 5 5 5 5 5 5 5 5 5 5 5 5 5 5 5 5 5 5 5 5 5 5 5 5 5 5 5 5 5 5 5 5 5 5 5 5 5 5 5 5 5 5 5 5 5 5 5 5 5 5 5 5 4 5 5 5 5 5 5 5 5 5 5 5 5 5 5 5 5 5 5 5 5 5 5 5 5 5 5 5 5 5 5 5 5 5 5 5 5 5 5 5 5 5 5 5 5 5 5 5 5 5 5 5 5 5 5 5 5 5 5 5 5 5 5 5 5 5 5 5 5 5 5 5 4 4 4 5 5 5 5 5 5 5 5 5 5 5 5 5 5 5 5 5 5 5 5 5 5 5 5 5 5 5 5 5 5 5 5 5 5 5 5 5 5 5 4 4 4 d d d d d d d d d d d d d d d d d d d d d d d d d d d d d d d d ",
"2.r d d d d d d d d d d d d d d d d d d d r 4 4 5 5 5 5 5 5 5 5 5 5 5 5 5 5 5 5 5 5 5 5 5 5 5 5 5 5 5 5 5 5 5 5 5 5 5 5 5 5 5 5 5 5 5 5 5 5 5 5 5 5 5 5 5 5 5 5 5 5 5 5 5 5 5 f g g g g g r 5 5 5 5 r 5 5 5 5 5 5 4 g _ 3 5 5 5 5 5 5 5 5 5 5 5 5 5 5 5 5 5 5 5 5 5 5 5 5 5 5 5 5 5 5 5 5 5 5 5 5 5 5 5 5 5 5 5 5 5 5 5 5 5 5 5 5 5 5 5 5 5 5 5 5 5 5 5 5 5 5 5 5 5 5 4 4 4 5 5 5 5 5 g g g g g g 5 5 5 5 9 r 5 5 5 5 5 5 3 ~ c 3 5 5 5 5 5 5 5 5 5 5 5 5 4 4 4 d d d d d d d d d d d d d d d d d d d d d d d d d d d d d d d d ",
"d r r d r r r r r d d d d d d d d d d d d r 4 4 5 5 5 5 5 5 5 5 5 5 5 5 5 5 5 5 5 5 5 5 5 5 5 5 5 5 5 5 5 5 5 5 5 5 5 5 5 5 5 5 5 5 5 5 5 5 5 5 5 5 5 5 5 5 5 5 5 5 5 5 5 5 5 h h f g f k r 5 5 3 ~ P.r 5 4 5 3 ' d 4 5 4 5 5 4 5 4 4 4 5 5 5 5 5 5 5 5 5 5 5 5 5 5 5 5 5 5 5 5 5 5 5 5 5 5 5 5 5 5 5 5 5 5 5 5 5 5 5 5 5 5 5 5 5 5 5 5 5 5 5 5 5 5 5 5 5 5 5 5 5 5 5 4 4 4 5 5 5 5 9 k g f f g k 9 5 5 2 *.y.3 5 3 5 5 ' 5 5 5 4 5 5 4 4 4 4 5 5 5 5 5 5 4 4 4 d d d d d d d d d d d d d d d d d d d d d d d d d d d d d d d d ",
"r.r.#.d s.~ i.`.#.w d d d d d d d d d d d r 4 4 5 5 5 5 5 5 5 5 5 5 5 5 5 5 5 5 5 5 5 5 5 5 5 5 5 5 5 5 5 5 5 5 5 5 5 5 5 5 5 5 5 5 5 5 5 5 5 5 5 5 5 5 5 5 5 5 5 5 5 5 5 5 5 h r 9 r 9 h r 5 5 3 *.y.) * ' y.*.U.e._ &.&.g g *.g 3.e.j 4 5 5 5 5 5 5 5 5 5 5 5 5 5 5 5 5 5 5 5 5 5 5 5 5 5 5 5 5 5 5 5 5 5 5 5 5 5 5 5 5 5 5 5 5 5 5 5 5 5 5 5 5 5 5 5 5 5 5 5 5 5 5 4 4 4 5 5 5 5 5 h r w w r h 9 5 5 9 3.e.g 4 *.e.>.~.>.' X.*.5 ~ X.j e.3.r 5 5 5 5 5 4 4 4 d d d d d d d d d d d d d d d d d d d d d d d d d d d d d d d d ",
"(.*.s.~ E.=.E.~ `.h r d d d d d d d d d d r 4 4 5 5 5 5 5 5 5 5 5 5 5 5 5 5 5 5 5 5 5 5 5 5 5 5 5 5 5 5 5 5 5 5 5 5 5 5 5 5 5 5 5 5 5 5 5 5 5 5 5 5 5 5 5 5 5 5 5 5 5 5 5 5 5 h y r r r h r 5 5 d 3.) >.d y.d 4 w.g ~ 3.X.' ) *.&.&.~ w.4 5 5 5 5 5 5 5 5 5 5 5 5 5 5 5 5 5 5 5 5 5 5 5 5 5 5 5 5 5 5 5 5 5 5 5 5 5 5 5 5 5 5 5 5 5 5 5 5 5 5 5 5 5 5 5 5 5 5 5 5 5 5 4 4 4 5 5 5 5 5 h r r r r h 9 5 3 ! >.' ' ! w.4 d y.2 *.#.,.j >._ 7.~ &.>.2 5 5 5 5 4 4 4 d d d d d d d d d d d d d d d d d d d d d d d d d d d d d d d d ",
"(.h E.r.2.7.#XI.Q.h r d d d d d d d d d d r 4 4 5 5 5 5 5 5 5 5 5 5 5 5 5 5 5 5 5 5 5 5 5 5 5 5 5 5 5 5 5 5 5 5 5 5 5 5 5 5 5 5 5 5 5 5 5 5 5 5 5 5 5 5 5 5 5 5 5 5 5 5 5 5 5 h r 9 r 9 h r 5 2 _ P.e.p.~ 3.2 * w.d ! ,.j 2.>.~ ,.y.7.,.4 5 5 5 5 5 5 5 5 5 5 5 5 5 5 5 5 5 5 5 5 5 5 5 5 5 5 5 5 5 5 5 5 5 5 5 5 5 5 5 5 5 5 5 5 5 5 5 5 5 5 5 5 5 5 5 5 5 5 5 5 5 5 4 4 4 5 5 5 5 5 h r w w r h 9 5 * >.J.p.7.' &.$ 9 y.* *._ _ *.,.j y.w.w.X.3 5 5 5 5 4 4 4 d d d d d d d d d d d d d d d d d d d d d d d d d d d d d d d d ",
" X4 s.-Xg *.E.g k d d d d d d d d d d d d r 4 4 5 5 5 5 5 5 5 5 5 5 5 5 5 5 5 5 5 5 5 5 5 5 5 5 5 5 5 5 5 5 5 5 5 5 5 5 5 5 5 5 5 5 5 5 5 5 5 5 5 5 5 5 5 5 5 5 5 5 5 5 5 5 5 h h g g g k r 5 5 3.~ * *.*.e.k 5 w.~ ~ w.* e.L.* &.*.5 r 5 5 5 5 5 5 5 5 5 5 5 5 5 5 5 5 5 5 5 5 5 5 5 5 5 5 5 5 5 5 5 5 5 5 5 5 5 5 5 5 5 5 5 5 5 5 5 5 5 5 5 5 5 5 5 5 5 5 5 5 5 5 5 4 4 4 5 5 5 5 9 k h g g g k r 4 d e.d 5 3.*.7.d g y.r >.#.5 U.3.* 7._ 5 r 5 5 5 5 5 4 4 4 d d d d d d d d d d d d d d d d d d d d d d d d d d d d d d d d ",
"r.4 #.I.r r 8.(.8.r d d d d d d d d d d d r 4 4 5 5 5 5 5 5 5 5 5 5 5 5 5 5 5 5 5 5 5 5 5 5 5 5 5 5 5 5 5 5 5 5 5 5 5 5 5 5 5 5 5 5 5 5 5 5 5 5 5 5 5 5 5 5 5 5 5 5 5 5 5 5 5 d g g g g g r 4 r &.9 3 k ' ~ y.' ! 7.) X.$ X.&.2 r >.e._ 4 5 5 5 5 5 5 5 5 5 5 5 5 5 5 5 5 5 5 5 5 5 5 5 5 5 5 5 5 5 5 5 5 5 5 5 5 5 5 5 5 5 5 5 5 5 5 5 5 5 5 5 5 5 5 5 5 5 5 5 5 5 5 4 4 4 5 5 5 5 5 g g g g g g 9 3 k X.5 3 ` ~ ' y.! ' ,.` ) * ,.) * j 3.7.k 4 5 5 5 5 4 4 4 d d d d d d d d d d d d d d d d d d d d d d d d d d d d d d d d ",
"5 d r 5 d d 5 5 9 d d d d d d d d d d d d r 4 4 5 5 5 5 5 5 5 5 5 5 5 5 5 5 5 5 5 5 5 5 5 5 5 5 5 5 5 5 5 5 5 5 5 5 5 5 5 5 5 5 5 5 5 5 5 5 5 5 5 5 5 5 5 5 5 5 5 5 5 5 5 5 5 5 5 5 5 5 5 5 5 5 3 5 5 4 3 4 2 4 4 2 4 3 5 3 3 5 5 3 2 4 5 5 5 5 5 5 5 5 5 5 5 5 5 5 5 5 5 5 5 5 5 5 5 5 5 5 5 5 5 5 5 5 5 5 5 5 5 5 5 5 5 5 5 5 5 5 5 5 5 5 5 5 5 5 5 5 5 5 5 5 5 5 5 4 4 4 5 5 5 5 5 5 5 5 5 5 5 5 5 5 3 5 5 3 4 3 2 4 3 3 3 4 5 2 4 5 4 2 3 5 5 5 5 5 5 4 4 4 d d d d d d d d d d d d d d d d d d d d d d d d d d d d d d d d ",
"f d d f d d f f d d d d d d d d d d d d d r 4 4 5 5 5 5 5 5 5 5 5 5 5 5 5 5 5 5 5 5 5 5 5 5 5 5 5 5 5 5 5 5 5 5 5 5 5 5 5 5 5 5 5 5 5 5 5 5 5 5 5 5 5 5 5 5 5 5 5 5 5 5 5 5 5 5 5 5 5 5 5 5 5 5 5 5 5 5 5 5 5 5 5 5 5 5 5 5 5 5 5 5 5 5 5 5 5 5 5 5 5 5 5 5 5 5 5 5 5 5 5 5 5 5 5 5 5 5 5 5 5 5 5 5 5 5 5 5 5 5 5 5 5 5 5 5 5 5 5 5 5 5 5 5 5 5 5 5 5 5 5 5 5 5 5 5 5 4 4 4 5 5 5 5 5 5 5 5 5 5 5 5 5 5 5 5 5 5 5 5 5 5 5 5 5 5 5 5 5 5 5 5 5 5 5 5 5 5 5 4 4 4 d d d d d d d d d d d d d d d d d d d d d d d d d d d d d d d d ",
"d d d d d d d d d d d d d d d d d d d d d r 4 4 5 5 5 5 5 5 5 5 5 5 5 5 5 5 5 5 5 5 5 5 5 5 5 5 5 5 5 5 5 5 5 5 5 5 5 5 5 5 5 5 5 5 5 5 5 5 5 5 5 5 5 5 5 5 5 5 5 5 5 5 5 5 5 5 5 5 5 5 5 5 5 5 5 5 5 5 5 5 5 5 5 5 5 5 5 5 5 5 5 5 5 5 5 5 5 5 5 5 5 5 5 5 5 5 5 5 5 5 5 5 5 5 5 5 5 5 5 5 5 5 5 5 5 5 5 5 5 5 5 5 5 5 5 5 5 5 5 5 5 5 5 5 5 5 5 5 5 5 5 5 5 5 5 5 5 4 4 4 5 5 5 5 5 5 5 5 5 5 5 5 5 5 5 5 5 5 5 5 5 5 5 5 5 5 5 5 5 5 5 5 5 5 5 5 5 5 5 4 4 4 d d d d d d d d d d d d d d d d d d d d d d d d d d d d d d d d ",
"d d d d d d d d d d d d d d d d d d d d d r 4 4 5 5 5 5 5 5 5 5 5 5 5 5 5 5 5 5 5 5 5 5 5 5 5 5 5 5 5 5 5 5 5 5 5 5 5 5 5 5 5 5 5 5 5 5 5 5 5 5 5 5 5 5 5 5 5 5 5 5 5 5 5 5 5 5 5 5 5 5 5 5 5 5 5 5 5 5 5 5 5 5 5 5 5 5 5 5 5 5 5 5 5 5 5 5 5 5 5 5 5 5 5 5 5 5 5 5 5 5 5 5 5 5 5 5 5 5 5 5 5 5 5 5 5 5 5 5 5 5 5 5 5 5 5 5 5 5 5 5 5 5 5 5 5 5 5 5 5 5 5 5 5 5 5 5 5 4 4 4 5 5 5 5 5 5 5 5 5 5 5 5 5 5 5 5 5 5 5 5 5 5 5 5 5 5 5 5 5 5 5 5 5 5 5 5 5 5 5 4 4 4 d d d d d d d d d d d d d d d d d d d d d d d d d d d d d d d d ",
"d d d d d d d d d d d d d d d d d d d d d r 4 4 5 5 5 5 5 5 5 5 5 5 5 5 5 5 5 5 5 5 5 5 5 5 5 5 5 5 5 5 5 5 5 5 5 5 5 5 5 5 5 5 5 5 5 5 5 5 5 5 5 5 5 5 5 5 5 5 5 5 5 5 5 5 5 5 5 5 5 5 5 5 5 5 5 5 5 5 5 5 5 5 5 5 5 5 5 5 5 5 5 5 5 5 5 5 5 5 5 5 5 5 5 5 5 5 5 5 5 5 5 5 5 5 5 5 5 5 5 5 5 5 5 5 5 5 5 5 5 5 5 5 5 5 5 5 5 5 5 5 5 5 5 5 5 5 5 5 5 5 5 5 5 5 5 5 5 4 4 4 5 5 5 5 5 5 5 5 5 5 5 5 5 5 5 5 5 5 5 5 5 5 5 5 5 5 5 5 5 5 5 5 5 5 5 5 5 5 5 4 4 4 d d d d d d d d d d d d d d d d d d d d d d d d d d d d d d d d ",
"d d d d d d d d d d d d d d d d d d d d d r 4 4 5 5 5 5 5 5 5 5 5 5 5 5 5 5 5 5 5 5 5 5 5 5 5 5 5 5 5 5 5 5 5 5 5 5 5 5 5 5 5 5 5 5 5 5 5 5 5 5 5 5 5 5 5 5 5 5 5 5 5 5 5 5 5 5 5 5 5 5 5 5 5 5 5 5 5 5 5 5 5 5 5 5 5 5 5 5 5 5 5 5 5 5 5 5 5 5 5 5 5 5 5 5 5 5 5 5 5 5 5 5 5 5 5 5 5 5 5 5 5 5 5 5 5 5 5 5 5 5 5 5 5 5 5 5 5 5 5 5 5 5 5 5 5 5 5 5 5 5 5 5 5 5 5 5 5 4 4 4 5 5 5 5 5 5 5 5 5 5 5 5 5 5 5 5 5 5 5 5 5 5 5 5 5 5 5 5 5 5 5 5 5 5 5 5 5 5 5 4 4 4 d d d d d d d d d d d d d d d d d d d d d d d d d d d d d d d d ",
"d d d d d d d d d d d d d d d d d d d d d r 4 4 5 5 5 5 5 5 5 5 5 5 5 5 5 5 5 5 5 5 5 5 5 5 5 5 5 5 5 5 5 5 5 5 5 5 5 5 5 5 5 5 5 5 5 5 5 5 5 5 5 5 5 5 5 5 5 5 5 5 5 5 5 5 5 5 5 5 5 5 5 5 5 5 5 5 5 5 5 5 5 5 5 5 5 5 5 5 5 5 5 5 5 5 5 5 5 5 5 5 5 5 5 5 5 5 5 5 5 5 5 5 5 5 5 5 5 5 5 5 5 5 5 5 5 5 5 5 5 5 5 5 5 5 5 5 5 5 5 5 5 5 5 5 5 5 5 5 5 5 5 5 5 5 5 5 5 4 4 4 5 5 5 5 5 5 5 5 5 5 5 5 5 5 5 5 5 5 5 5 5 5 5 5 5 5 5 5 5 5 5 5 5 5 5 5 5 5 5 4 4 4 d d d d d d d d d d d d d d d d d d d d d d d d d d d d d d d d ",
"d d d d d d d d d d d d d d d d d d d d d r 4 4 5 5 5 5 5 5 5 5 5 5 5 5 5 5 5 5 5 5 5 5 5 5 5 5 5 5 5 5 5 5 5 5 5 5 5 5 5 5 5 5 5 5 5 5 5 5 5 5 5 5 5 5 5 5 5 5 5 5 5 5 5 5 5 5 5 5 5 5 5 5 5 5 5 5 5 5 5 5 5 5 5 5 5 5 5 5 5 5 5 5 5 5 5 5 5 5 5 5 5 5 5 5 5 5 5 5 5 5 5 5 5 5 5 5 5 5 5 5 5 5 5 5 5 5 5 5 5 5 5 5 5 5 5 5 5 5 5 5 5 5 5 5 5 5 5 5 5 5 5 5 5 5 5 5 5 4 4 4 5 5 5 5 5 5 5 5 5 5 5 5 5 5 5 5 5 5 5 5 5 5 5 5 5 5 5 5 5 5 5 5 5 5 5 5 5 5 5 4 4 4 d d d d d d d d d d d d d d d d d d d d d d d d d d d d d d d d ",
"r r r r r r r r r r r r r r r r r r r r r w 4 4 4 5 5 5 5 5 5 5 5 5 5 5 5 5 5 5 5 5 5 5 5 5 5 5 5 5 5 5 5 5 5 5 5 5 5 5 5 5 5 5 5 5 5 5 5 5 5 5 5 5 5 5 5 5 5 5 5 5 5 5 5 5 5 5 5 5 5 5 5 5 5 5 5 5 5 5 5 5 5 5 5 5 5 5 5 5 5 5 5 5 5 5 5 5 5 5 5 5 5 5 5 5 5 5 5 5 5 5 5 5 5 5 5 5 5 5 5 5 5 5 5 5 5 5 5 5 5 5 5 5 5 5 5 5 5 5 5 5 5 5 5 5 5 5 5 5 5 5 5 5 5 5 5 5 5 4 4 4 5 5 5 5 5 5 5 5 5 5 5 5 5 5 5 5 5 5 5 5 5 5 5 5 5 5 5 5 5 5 5 5 5 5 5 5 5 5 5 4 4 4 r r r r r r r r r r r r r r r r r r r r r r r r r r r r r r r r ",
"4 4 4 4 4 4 4 4 4 4 4 4 4 4 4 4 4 4 4 4 4 4 4 4 4 4 4 4 4 4 4 4 4 4 4 4 4 4 4 4 4 4 4 4 4 4 4 4 4 4 4 4 4 4 4 4 4 4 4 4 4 4 4 4 4 4 4 4 4 4 4 4 4 4 4 4 4 4 4 4 4 4 4 4 4 4 4 4 4 4 4 4 4 4 4 4 4 4 4 4 4 4 4 4 4 4 4 4 4 4 4 4 4 4 4 4 4 4 4 4 4 4 4 4 4 4 4 4 4 4 4 4 4 4 4 4 4 4 4 4 4 4 4 4 4 4 4 4 4 4 4 4 4 4 4 4 4 4 4 4 4 4 4 4 4 4 4 4 4 4 4 4 4 4 4 4 4 4 4 4 4 4 4 4 4 4 4 4 4 4 4 4 4 4 4 4 4 4 4 4 4 4 4 4 4 4 4 4 4 4 4 4 4 4 4 4 4 4 4 4 4 4 4 4 4 4 4 4 4 4 4 4 4 4 4 4 4 4 4 4 4 4 4 4 4 4 4 4 4 4 4 4 4 4 4 4 ",
"4 4 4 4 4 4 4 4 4 4 4 4 4 4 4 4 4 4 4 4 4 4 4 4 4 4 4 4 4 4 4 4 4 4 4 4 4 4 4 4 4 4 4 4 4 4 4 4 4 4 4 4 4 4 4 4 4 4 4 4 4 4 4 4 4 4 4 4 4 4 4 4 4 4 4 4 4 4 4 4 4 4 4 4 4 4 4 4 4 4 4 4 4 4 4 4 4 4 4 4 4 4 4 4 4 4 4 4 4 4 4 4 4 4 4 4 4 4 4 4 4 4 4 4 4 4 4 4 4 4 4 4 4 4 4 4 4 4 4 4 4 4 4 4 4 4 4 4 4 4 4 4 4 4 4 4 4 4 4 4 4 4 4 4 4 4 4 4 4 4 4 4 4 4 4 4 4 4 4 4 4 4 4 4 4 4 4 4 4 4 4 4 4 4 4 4 4 4 4 4 4 4 4 4 4 4 4 4 4 4 4 4 4 4 4 4 4 4 4 4 4 4 4 4 4 4 4 4 4 4 4 4 4 4 4 4 4 4 4 4 4 4 4 4 4 4 4 4 4 4 4 4 4 4 4 4 ",
"r r r r r r r r r r r r r r r r r r r r r r r r r r r r r r r r r r r r r r r r r r r r r r r r r r r r r r r r r r r r r r r r r r r r r r r r r r r r r r r r r r r r r r r r r r r r r r r r r r r r r r r r r r r r r r r r r r r r r r r r r r r r r r r r r r r r r r r r r r r r r r r r r r r r r r r r r r r r r r r r r r r r r r r r r r r r r r r r r r r r r r r r r r r r r r r r r r r r r r r r r r r r r r r r r r r r r r r r r r r r r r r r r r r r r r r r r r r r r r r r r r r r r r r r r r r r r r r r ",
"y y y y y y y y y y y y y y y y y y y y y y y y y y y y y y y y y y y y y y y y y y y y y y y y y y y y y y y y y y y y y y y y y y y y y y y y y y y y y y y y y y y y y y y y y y y y y y y y y y y y y y y y y y y y y y y y y y y y y y y y y y y y y y y y y y y y y y y y y y y y y y y y y y y y y y y y y y y y y y y y y y y y y y y y y y y y y y y y y y y y y y y y y y y y y y y y y y y y y y y y y y y y y y y y y y y y y y y y y y y y y y y y y y y y y y y y y y y y y y y y y y y y y y y y y y y y y y y y ",
"r r r r r r r r r r r r r r r r r r r r r r r r r r r r r r r r r r r r r r r r r r r r r r r r r r r r r r r r r r r r r r r r r r r r r r r r r r r r r r r r r r r r r r r r r r r r r r r r r r r r r r r r r r r r r r r r r r r r r r r r r r r r r r r r r r r r r r r r r r r r r r r r r r r r r r r r r r r r r r r r r r r r r r r r r r r r r r r r r r r r r r r r r r r r r r r r r r r r r r r r r r r r r r r r r r r r r r r r r r r r r r r r r r r r r r r r r r r r r r r r r r r r r r r r r r r r r r r r ",
"r r r r r r r r r r r r r r r r r r r r r r r r r r r r r r r r r r r r r r r r r r r r r r r r r r r r r r r r r r r r r r r r r r r r r r r r r r r r r r r r r r r r r r r r r r r r r r r r r r r r r r r r r r r r r r r r r r r r r r r r r r r r r r r r r r r r r r r r r r r r r r r r r r r r r r r r r r r r r r r r r r r r r r r r r r r r r r r r r r r r r r r r r r r r r r r r r r r r r r r r r r r r r r r r r r r r r r r r r r r r r r r r r r r r r r r r r r r r r r r r r r r r r r r r r r r r r r r r ",
"r r r r r r r r r r r r r r r r r r r r r r r r r r r r r r r r r r r r r r r r r r r r r r r r r r r r r r r r r r r r r r r r r r r r r r r r r r r r r r r r r r r r r r r r r r r r r r r r r r r r r r r r r r r r r r r r r r r r r r r r r r r r r r r r r r r r r r r r r r r r r r r r r r r r r r r r r r r r r r r r r r r r r r r r r r r r r r r r r r r r r r r r r r r r r r r r r r r r r r r r r r r r r r r r r r r r r r r r r r r r r r r r r r r r r r r r r r r r r r r r r r r r r r r r r r r r r r r r ",
"r r r r r r r r r r r r r r r r r r r r r r r r r r r r r r r r r r r r r r r r r r r r r r r r r r r r r r r r r r r r r r r r r r r r r r r r r r r r r r r r r r r r r r r r r r r r r r r r r r r r r r r r r r r r r r r r r r r r r r r r r r r r r r r r r r r r r r r r r r r r r r r r r r r r r r r r r r r r r r r r r r r r r r r r r r r r r r r r r r r r r r r r r r r r r r r r r r r r r r r r r r r r r r r r r r r r r r r r r r r r r r r r r r r r r r r r r r r r r r r r r r r r r r r r r r r r r r r r ",
"r r r r r r r r r r r r r r r r r r r r r r r r r r r r r r r r r r r r r r r r r r r r r r r r r r r r r r r r r r r r r r r r r r r r r r r r r r r r r r r r r r r r r r r r r r r r r r r r r r r r r r r r r r r r r r r r r r r r r r r r r r r r r r r r r r r r r r r r r r r r r r r r r r r r r r r r r r r r r r r r r r r r r r r r r r r r r r r r r r r r r r r r r r r r r r r r r r r r r r r r r r r r r r r r r r r r r r r r r r r r r r r r r r r r r r r r r r r r r r r r r r r r r r r r r r r r r r r r ",
"r r r r r r r r r r r r r r r r r r r r r r r r r r r r r r r r r r r r r r r r r r r r r r r r r r r r r r r r r r r r r r r r r r r r r r r r r r r r r r r r r r r r r r r r r r r r r r r r r r r r r r r r r r r r r r r r r r r r r r r r r r r r r r r r r r r r r r r r r r r r r r r r r r r r r r r r r r r r r r r r r r r r r r r r r r r r r r r r r r r r r r r r r r r r r r r r r r r r r r r r r r r r r r r r r r r r r r r r r r r r r r r r r r r r r r r r r r r r r r r r r r r r r r r r r r r r r r r r ",
"r r r r r r r r r r r r r r r r r r r r r r r r r r r r r r r r r r r r r r r r r r r r r r r r r r r r r r r r r r r r r r r r r r r r r r r r r r r r r r r r r r r r r r r r r r r r r r r r r r r r r r r r r r r r r r r r r r r r r r r r r r r r r r r r r r r r r r r r r r r r r r r r r r r r r r r r r r r r r r r r r r r r r r r r r r r r r r r r r r r r r r r r r r r r r r r r r r r r r r r r r r r r r r r r r r r r r r r r r r r r r r r r r r r r r r r r r r r r r r r r r r r r r r r r r r r r r r r r ",
"r r r r r r r r r r r r r r r r r r r r r r r r r r r r r r r r r r r r r r r r r r r r r r r r r r r r r r r r r r r r r r r r r r r r r r r r r r r r r r r r r r r r r r r r r r r r r r r r r r r r r r r r r r r r r r r r r r r r r r r r r r r r r r r r r r r r r r r r r r r r r r r r r r r r r r r r r r r r r r r r r r r r r r r r r r r r r r r r r r r r r r r r r r r r r r r r r r r r r r r r r r r r r r r r r r r r r r r r r r r r r r r r r r r r r r r r r r r r r r r r r r r r r r r r r r r r r r r r ",
"r r r r r r r r r r r r r r r r r r r r r r r r r r r r r r r r r r r r r r r r r r r r r r r r r r r r r r r r r r r r r r r r r r r r r r r r r r r r r r r r r r r r r r r r r r r r r r r r r r r r r r r r r r r r r r r r r r r r r r r r r r r r r r r r r r r r r r r r r r r r r r r r r r r r r r r r r r r r r r r r r r r r r r r r r r r r r r r r r r r r r r r r r r r r r r r r r r r r r r r r r r r r r r r r r r r r r r r r r r r r r r r r r r r r r r r r r r r r r r r r r r r r r r r r r r r r r r r r ",
"r r r r r r r r r r r r r r r r r r r r r r r r r r r r r r r r r r r r r r r r r r r r r r r r r r r r r r r r r r r r r r r r r r r r r r r r r r r r r r r r r r r r r r r r r r r r r r r r r r r r r r r r r r r r r r r r r r r r r r r r r r r r r r r r r r r r r r r r r r r r r r r r r r r r r r r r r r r r r r r r r r r r r r r r r r r r r r r r r r r r r r r r r r r r r r r r r r r r r r r r r r r r r r r r r r r r r r r r r r r r r r r r r r r r r r r r r r r r r r r r r r r r r r r r r r r r r r r r ",
"r r r r r r r r r r r r r r r r r r r r r r r r r r r r r r r r r r r r r r r r r r r r r r r r r r r r r r r r r r r r r r r r r r r r r r r r r r r r r r r r r r r r r r r r r r r r r r r r r r r r r r r r r r r r r r r r r r r r r r r r r r r r r r r r r r r r r r r r r r r r r r r r r r r r r r r r r r r r r r r r r r r r r r r r r r r r r r r r r r r r r r r r r r r r r r r r r r r r r r r r r r r r r r r r r r r r r r r r r r r r r r r r r r r r r r r r r r r r r r r r r r r r r r r r r r r r r r r r "
};
