/* XPM */
static char *comp_delay_mono[] = {
/* columns rows colors chars-per-pixel */
"1057 256 232 2 ",
"   c #16171D",
".  c #17181E",
"X  c #19191F",
"o  c #1B171C",
"O  c #27271C",
"+  c #373719",
"@  c #343816",
"#  c #1C1E24",
"$  c #1F1F28",
"%  c #201E25",
"&  c #1F2026",
"*  c #1E2229",
"=  c #1F282F",
"-  c #1C2B23",
";  c #1F3A26",
":  c #1A3221",
">  c #1E2C33",
",  c #1C2A36",
"<  c #1D333C",
"1  c #1F3037",
"2  c #212227",
"3  c #25272E",
"4  c #26282F",
"5  c #292C2B",
"6  c #282C22",
"7  c #213329",
"8  c #293329",
"9  c #323626",
"0  c #252730",
"q  c #262A32",
"w  c #2A2C35",
"e  c #2C2E39",
"r  c #252E39",
"t  c #24333C",
"y  c #2E313B",
"u  c #283436",
"i  c #31333E",
"p  c #19381E",
"a  c #403F10",
"s  c #174C1D",
"d  c #15571A",
"f  c #0F5C13",
"g  c #39481D",
"h  c #09780C",
"j  c #0E6A12",
"k  c #116315",
"l  c #0C6E0E",
"z  c #1B4621",
"x  c #3A4726",
"c  c #384E3A",
"v  c #4A4808",
"b  c #514E03",
"n  c #545100",
"m  c #5B5800",
"M  c #495017",
"N  c #5B7918",
"B  c #50691B",
"V  c #727109",
"C  c #445622",
"Z  c #444B26",
"A  c #4F6D34",
"S  c #615F0C",
"D  c #1C3A44",
"F  c #1C3845",
"G  c #1D3B53",
"H  c #243641",
"J  c #233A44",
"K  c #243E49",
"L  c #283946",
"P  c #333641",
"I  c #373944",
"U  c #383A45",
"Y  c #373A49",
"T  c #3A3D4B",
"R  c #343748",
"E  c #3B3F50",
"W  c #243D54",
"Q  c #1A424C",
"!  c #1C4A56",
"~  c #1D515D",
"^  c #23424D",
"/  c #29434B",
"(  c #3E414E",
")  c #334D43",
"_  c #234651",
"`  c #234955",
"'  c #224D5A",
"]  c #274558",
"[  c #3E4252",
"{  c #22515E",
"}  c #2A525B",
"|  c #365647",
" . c #1F5663",
".. c #1F5A67",
"X. c #1F5B69",
"o. c #105761",
"O. c #1F547B",
"+. c #1F5176",
"@. c #1B4E6B",
"#. c #214968",
"$. c #225562",
"%. c #235C6B",
"&. c #255967",
"*. c #245375",
"=. c #116773",
"-. c #22606F",
";. c #226473",
":. c #236B7C",
">. c #2A6877",
",. c #376C5C",
"<. c #424554",
"1. c #454857",
"2. c #434659",
"3. c #46495B",
"4. c #4A4D5D",
"5. c #424452",
"6. c #474B61",
"7. c #4A4E62",
"8. c #4A4F68",
"9. c #4D5164",
"0. c #4E536A",
"q. c #515466",
"w. c #52566B",
"e. c #55596D",
"r. c #585C6F",
"t. c #515671",
"y. c #555A73",
"u. c #5A5E73",
"i. c #595F7A",
"p. c #565C79",
"a. c #4E5470",
"s. c #5D6175",
"d. c #5D627B",
"f. c #61657B",
"g. c #65687E",
"h. c #606377",
"j. c #4A7448",
"k. c #817D04",
"l. c #058706",
"z. c #019202",
"x. c #6A8F14",
"c. c #648616",
"v. c #6B9114",
"b. c #6D9B32",
"n. c #669E49",
"m. c #76C458",
"M. c #8B8601",
"N. c #908B00",
"B. c #85BE38",
"V. c #A3EC3C",
"C. c #A6F13C",
"Z. c #9BE33E",
"A. c #8CD547",
"S. c #99E545",
"D. c #097985",
"F. c #236F81",
"G. c #2E6189",
"H. c #237385",
"J. c #227789",
"K. c #237A8C",
"L. c #2E7687",
"P. c #237E91",
"I. c #2F7292",
"U. c #3278AD",
"Y. c #295D85",
"T. c #5D6483",
"R. c #5F6788",
"E. c #616682",
"W. c #656A83",
"Q. c #696D84",
"!. c #656B8B",
"~. c #696E8B",
"^. c #606788",
"/. c #6C7087",
"(. c #6D728B",
"). c #71758E",
"_. c #676E91",
"`. c #6E7392",
"'. c #6C749A",
"]. c #717694",
"[. c #757994",
"{. c #787D97",
"}. c #757B9B",
"|. c #797E9B",
" X c #717799",
".X c #747BA2",
"XX c #028997",
"oX c #00909E",
"OX c #04818E",
"+X c #228195",
"@X c #23859A",
"#X c #23899D",
"$X c #2E8294",
"%X c #318699",
"&X c #329491",
"*X c #019BA9",
"=X c #238DA3",
"-X c #2390A6",
";X c #2394AB",
":X c #2398AF",
">X c #3496AB",
",X c #3496AB",
"<X c #239DB5",
"1X c #239FB8",
"2X c #338AAC",
"3X c #00A7B5",
"4X c #00A1AF",
"5X c #23A1B9",
"6X c #7D829D",
"7X c #7D83A3",
"8X c #7C83A8",
"9X c #368CCC",
"0X c #3587C4",
"qX c #378FD0",
"wX c #8186A2",
"eX c #8489A6",
"rX c #868BA9",
"tX c #898EAC",
"yX c #8086A9",
"uX c #8B90AF",
"iX c #878EB2",
"pX c #8D93B3",
"aX c #8D94BA",
"sX c #9096B6",
"dX c #959ABB",
"fX c #969CBD",
"gX c #80849F",
"hX c #959CC2",
"jX c #9BA2C7",
"kX c #9EA6D1",
"lX c #A1A9D5",
"zX c #A1A7CA",
/* pixels */
"3 3 3 3 4 3 3 3 4 3 3 3 3 3 4 3 3 3 4 4 4 4 3 3 3 3 3 3 3 3 3 3 3 3 4 3 3 3 4 3 3 3 3 4 3 3 3 3 3 4 3 3 3 3 3 3 3 3 3 3 3 3 3 3 3 3 3 3 3 3 3 4 3 3 3 4 3 4 3 3 3 4 3 3 3 4 3 3 3 3 3 4 3 3 3 3 3 3 3 3 3 3 3 3 3 3 3 3 4 3 3 3 3 3 3 3 3 3 3 3 4 3 3 3 4 3 3 3 4 3 4 3 3 3 4 3 3 3 4 3 3 3 3 4 3 3 3 3 4 3 3 3 3 4 4 3 3 3 4 3 3 3 3 3 3 3 3 3 4 3 3 3 3 3 4 4 4 4 4 3 3 3 4 % 3 3 4 3 3 3 4 3 3 4 3 3 4 3 3 3 4 3 3 3 3 3 3 3 3 3 3 3 3 3 3 4 3 3 3 4 3 3 3 % 4 4 4 3 3 3 4 3 3 3 3 3 3 3 3 4 3 3 3 4 4 3 3 3 4 3 3 3 3 3 3 3 3 3 3 3 3 3 3 3 3 3 3 3 4 3 3 3 4 3 3 3 3 3 3 3 4 4 3 4 % 4 3 3 3 3 3 3 4 3 3 3 4 % 3 3 4 3 3 3 3 3 4 3 3 3 4 4 3 % 4 3 3 3 4 3 3 3 % 4 4 3 3 3 3 3 4 3 3 4 3 3 3 4 3 3 3 4 3 3 3 4 3 4 3 3 3 4 4 0 4 4 4 3 3 3 4 3 3 3 3 3 3 4 3 3 3 3 4 4 0 3 4 4 3 4 3 3 3 3 4 3 3 3 4 3 3 4 % 4 3 3 4 3 3 3 3 4 3 3 3 4 3 3 4 4 4 4 3 4 3 3 3 4 3 3 3 % 4 4 4 3 3 3 4 3 3 3 3 3 3 3 3 3 3 4 4 4 4 4 4 3 4 3 3 3 3 3 3 3 3 3 4 3 3 3 3 4 3 3 3 3 3 4 3 3 3 4 3 3 3 3 3 3 3 3 3 3 3 3 3 3 3 3 3 3 3 3 3 3 3 3 3 3 4 3 3 3 3 3 4 3 3 3 3 3 3 3 3 3 3 3 3 3 3 3 3 3 3 4 3 3 3 3 3 q 3 3 4 3 3 3 4 3 3 3 3 4 4 4 3 3 3 3 3 3 3 3 3 3 3 3 3 3 3 3 3 3 3 3 3 3 3 3 4 3 3 3 3 4 q 3 3 3 3 3 3 3 3 3 3 3 4 3 3 3 4 3 3 3 4 3 3 3 3 3 4 3 3 3 4 3 3 3 3 4 4 3 3 3 4 3 3 3 4 3 3 3 3 3 4 3 3 3 3 3 3 3 3 3 3 3 3 3 3 3 4 3 3 3 4 3 3 3 3 3 4 3 3 3 3 4 3 3 3 3 3 3 3 3 3 3 3 3 3 3 3 3 3 3 3 3 3 3 3 4 3 3 3 3 3 q 3 3 3 3 3 3 3 3 3 3 4 3 3 3 3 3 3 3 3 3 3 4 3 3 3 4 3 3 4 3 3 3 4 3 3 3 4 3 3 3 4 3 3 3 4 3 3 3 4 3 3 3 3 3 4 3 3 3 3 3 4 3 3 3 3 3 3 3 3 3 3 3 3 3 3 3 4 3 3 3 3 4 3 3 3 3 3 4 3 3 3 4 3 3 3 4 3 3 3 3 3 3 3 3 3 3 3 3 3 3 3 4 3 3 3 3 3 4 3 3 3 4 3 3 3 3 3 3 3 4 3 3 3 4 3 3 3 4 3 3 3 3 3 4 3 3 3 3 3 3 3 4 4 3 3 3 3 4 3 3 3 3 3 3 3 3 3 3 3 3 3 3 3 4 3 3 3 3 3 3 3 3 3 3 3 3 3 3 4 3 3 3 4 3 3 3 3 3 3 3 3 3 3 3 3 3 3 3 3 3 4 3 3 3 3 4 3 3 4 3 3 3 3 4 4 3 3 3 4 3 3 3 3 4 3 3 3 3 3 3 3 3 3 3 3 4 3 3 3 3 3 3 3 3 3 3 4 3 3 3 4 3 3 3 4 3 3 3 3 3 3 3 3 4 3 3 3 3 3 3 3 3 0 4 3 3 3 3 3 3 3 4 3 3 3 3 3 4 3 3 3 3 3 3 3 4 3 3 3 3 3 3 3 3 3 3 3 4 3 3 3 3 3 3 3 3 3 3 3 3 3 3 3 3 3 3 3 3 3 3 3 3 3 3 3 3 3 3 3 3 3 3 3 3 3 3 3 3 3 3 3 3 3 3 3 3 3 3 3 3 3 ",
"3 3 3 4 3 3 3 3 3 3 4 3 3 3 3 3 3 3 4 4 3 4 4 3 3 4 3 3 3 3 4 3 4 3 3 3 3 3 3 3 4 3 3 3 3 3 3 4 3 3 3 3 3 3 3 4 3 3 3 3 3 3 3 3 3 3 4 3 4 3 3 3 3 3 3 3 3 3 3 3 3 3 4 3 3 3 3 3 3 4 3 3 3 3 3 4 3 4 3 3 3 3 4 3 4 3 3 3 3 3 4 3 3 4 3 4 3 3 3 3 3 3 3 4 3 3 3 3 3 3 3 3 3 3 3 3 3 3 3 3 3 4 3 3 3 3 3 4 3 3 3 3 3 3 3 3 3 3 3 3 0 4 3 3 3 3 3 3 3 3 3 4 3 3 4 4 4 4 3 3 3 3 4 4 3 3 3 3 3 4 3 3 3 3 3 3 3 3 3 3 3 3 3 4 3 4 3 3 4 4 3 4 3 3 3 3 3 3 3 3 4 3 3 4 3 0 3 3 3 3 3 3 3 3 4 3 4 3 3 3 3 3 3 3 3 3 3 3 3 3 3 4 4 3 4 3 3 4 3 4 3 3 0 4 3 3 3 3 3 3 3 3 3 3 3 4 3 4 3 3 4 4 3 3 4 3 3 3 4 3 4 3 3 3 3 3 4 4 3 3 3 3 3 4 3 3 3 3 3 4 4 4 3 4 4 3 3 3 3 3 3 4 4 3 0 3 3 3 3 3 3 3 3 3 4 3 3 3 3 3 3 3 3 3 3 3 3 4 3 3 3 3 4 % 4 4 3 3 3 3 3 3 3 4 4 3 3 3 3 3 3 3 % 4 3 3 4 4 3 3 3 3 3 3 3 3 3 4 3 3 3 3 0 4 3 3 3 3 3 4 3 3 3 3 4 4 4 % 4 4 3 3 3 3 3 3 3 3 4 3 3 4 4 0 3 3 3 3 3 3 3 4 3 4 3 3 3 4 3 4 4 4 4 3 4 4 3 3 3 3 4 3 4 3 3 3 3 3 4 3 3 3 3 3 3 4 3 3 3 3 3 3 3 3 4 3 3 3 3 3 4 3 4 3 3 3 3 4 3 3 3 3 4 3 3 3 3 3 3 3 4 3 3 3 3 3 4 3 3 3 4 3 3 3 3 3 4 3 4 3 4 3 3 3 3 3 3 4 3 3 3 3 3 3 3 3 3 3 3 3 5 4 3 4 3 3 3 4 3 3 3 3 4 3 3 3 3 4 3 4 3 3 3 3 3 4 3 3 3 3 3 3 3 3 3 3 3 3 5 3 3 3 4 3 3 4 3 3 3 3 3 3 3 3 3 3 4 3 3 3 3 3 3 4 3 3 3 3 3 3 3 3 3 3 3 3 3 3 3 3 4 3 3 3 3 3 4 3 3 3 4 3 3 3 3 3 4 3 4 3 3 3 3 3 3 3 4 3 3 3 3 3 3 4 3 3 3 3 3 4 3 4 3 3 3 4 3 4 3 3 3 3 3 4 3 3 3 4 3 3 3 3 3 4 3 3 3 3 3 3 4 3 4 3 3 3 3 3 4 3 3 3 4 3 4 3 3 3 3 3 3 3 3 3 3 3 3 4 3 3 3 3 3 3 3 3 3 3 3 4 3 3 3 3 3 3 4 3 3 3 3 3 4 3 3 3 3 3 3 3 4 3 4 3 3 3 4 3 4 3 3 3 3 3 3 4 3 3 3 3 3 4 3 3 3 3 3 3 4 3 3 3 3 3 3 3 3 4 3 3 3 3 3 4 3 3 3 3 3 3 3 4 3 3 3 3 3 3 3 3 3 3 4 3 3 3 3 3 3 3 3 3 3 3 3 3 3 4 3 3 3 3 3 3 3 3 3 3 3 3 3 3 3 3 3 3 3 3 3 3 3 3 4 3 4 3 3 3 3 3 3 3 3 3 4 3 4 3 3 3 3 3 3 4 3 3 3 3 3 3 3 4 3 4 3 3 3 3 3 4 3 3 3 3 3 3 3 3 4 3 3 3 3 3 3 3 3 3 3 3 3 3 3 3 3 3 3 3 3 3 3 3 3 3 4 3 4 3 4 3 3 3 3 3 3 3 4 3 4 3 3 3 3 3 3 4 3 3 3 3 3 3 3 3 3 3 3 3 3 3 3 3 3 4 3 3 3 3 3 3 3 4 3 4 3 3 3 3 3 3 3 4 3 3 3 3 3 4 4 3 3 3 3 3 3 3 4 3 4 3 4 3 3 3 3 3 3 3 4 3 4 3 3 3 4 3 3 3 3 3 4 3 4 3 3 3 4 3 4 3 3 3 3 3 3 3 3 3 3 3 4 3 3 3 3 3 3 3 3 3 3 3 3 3 3 3 3 ",
"3 3 3 3 3 3 3 3 3 4 3 3 3 3 3 3 4 3 3 3 3 4 3 3 4 3 4 3 3 4 4 4 3 3 4 3 3 3 3 4 3 3 4 3 3 3 3 3 3 3 3 4 3 4 3 4 4 3 3 q 3 3 3 3 3 4 3 4 3 3 3 3 3 3 3 3 3 3 3 3 3 4 3 3 3 3 3 4 3 3 3 4 3 3 3 3 3 3 3 4 4 3 3 3 3 3 3 3 3 4 3 3 3 3 4 3 4 3 3 3 3 3 3 3 3 3 3 3 3 4 3 3 3 3 3 3 3 3 3 3 3 3 3 3 3 3 3 3 3 3 3 3 3 4 3 3 3 3 3 3 % 4 3 3 4 3 3 3 3 3 3 3 4 3 3 3 3 3 4 3 3 3 4 4 3 4 3 4 3 3 4 3 3 3 3 4 3 3 3 3 3 3 3 3 4 3 4 3 4 4 % 4 4 3 3 3 3 3 3 3 3 3 3 3 3 3 3 3 3 3 3 3 3 4 3 4 3 3 3 3 3 3 3 3 3 3 3 3 3 3 3 3 3 4 3 3 3 3 3 3 4 3 3 4 3 3 3 3 3 3 3 3 3 3 3 3 4 3 4 3 4 4 3 3 4 4 4 4 3 4 3 3 3 3 3 3 0 3 3 3 3 3 3 3 4 3 3 3 3 3 4 4 4 3 4 4 4 3 3 4 3 3 4 3 4 3 3 3 4 3 3 3 3 4 3 3 4 3 4 3 3 3 4 % 3 4 4 4 3 3 3 3 3 4 3 4 3 3 3 3 3 3 3 3 3 3 3 3 3 3 3 3 3 3 3 3 4 4 4 3 3 3 3 4 3 3 3 3 3 3 3 3 3 3 3 3 3 3 3 3 3 3 3 3 4 4 4 4 4 3 4 3 4 3 3 3 3 4 3 3 3 3 4 4 3 3 3 3 3 3 3 3 4 3 4 3 3 3 4 3 4 4 % 3 3 3 3 3 4 3 3 3 3 3 3 3 3 4 3 3 3 3 3 3 3 3 4 3 3 4 3 3 3 4 3 3 4 3 3 3 4 3 3 3 3 4 3 3 4 3 3 4 4 3 4 3 4 3 3 3 3 3 3 3 3 4 3 3 3 4 3 3 4 3 3 3 q 3 3 3 3 3 4 3 3 3 3 3 3 3 3 3 3 3 3 3 3 q 3 3 3 3 3 3 3 4 3 4 4 3 3 4 4 3 4 3 3 3 3 4 3 3 3 4 3 3 4 3 3 3 3 3 3 4 3 3 3 4 4 3 3 4 3 4 3 3 4 3 3 3 3 4 4 3 3 3 3 3 3 3 3 4 3 3 3 3 3 3 3 4 3 3 3 3 3 3 3 3 3 3 3 3 3 3 3 4 3 3 3 4 3 3 4 3 3 3 4 3 3 3 3 3 3 3 3 4 3 3 3 3 3 3 3 3 4 3 3 3 3 3 3 3 3 4 3 3 3 4 3 3 3 4 3 3 4 3 3 3 4 3 3 3 3 3 3 3 3 3 4 3 3 3 3 3 3 3 3 4 3 3 3 3 3 3 3 3 3 3 3 3 3 3 4 3 3 3 3 3 4 3 3 3 3 3 3 3 3 3 3 3 4 3 3 3 3 3 3 3 3 3 3 4 3 3 3 3 3 3 4 3 3 3 3 3 3 3 4 3 3 3 3 3 3 3 3 3 3 3 3 4 3 3 3 3 3 3 3 4 3 3 3 3 3 4 3 4 3 4 4 3 3 4 3 3 4 3 3 3 3 3 3 3 4 3 3 4 3 3 0 3 3 3 3 3 3 3 3 3 3 3 3 3 3 3 3 3 3 3 3 3 3 4 3 3 3 3 3 3 4 3 3 3 3 3 3 3 3 3 0 3 3 3 3 4 3 3 3 3 0 3 3 3 3 4 3 4 3 3 3 3 3 3 3 3 4 3 3 3 3 3 3 3 3 4 3 3 3 4 3 3 4 3 3 0 3 3 3 3 3 3 3 3 3 3 3 3 3 3 3 4 3 3 3 3 3 3 3 3 3 3 3 3 3 4 3 4 3 3 3 3 3 3 3 3 3 4 3 4 3 3 3 3 3 3 3 3 4 3 3 3 3 3 3 3 3 3 3 3 4 3 3 3 3 3 3 3 3 3 3 3 3 3 3 3 3 4 3 3 3 3 3 3 3 3 3 3 3 3 3 3 3 3 3 3 3 4 3 4 3 3 3 3 3 3 3 3 3 4 3 4 3 3 3 4 3 3 4 3 3 3 4 3 3 3 4 3 3 3 3 3 3 3 3 3 3 3 3 3 4 4 3 3 3 3 3 3 3 3 3 3 3 3 3 3 3 3 3 ",
"3 4 3 3 3 3 4 3 3 3 3 3 3 3 3 4 3 3 3 4 3 3 3 3 3 3 3 3 3 3 3 4 3 3 3 3 4 3 3 3 3 3 3 3 3 4 3 3 3 3 3 3 3 3 3 3 3 3 3 3 3 3 3 4 3 3 3 3 3 3 4 3 3 3 4 3 4 3 3 3 3 3 3 3 4 3 3 3 3 3 3 3 4 3 3 3 4 3 3 3 3 3 3 4 3 3 3 4 3 3 3 3 3 3 3 3 3 3 3 4 3 4 3 3 3 3 4 3 3 3 3 3 3 3 4 3 4 3 3 3 3 3 4 3 3 4 3 3 3 3 4 3 3 3 3 3 3 3 4 3 4 3 3 3 3 3 3 4 3 4 3 3 3 3 3 4 3 3 3 3 3 4 4 4 3 3 3 3 3 3 3 3 4 3 3 3 3 3 3 3 3 4 3 3 3 3 3 3 4 4 4 3 3 3 3 4 3 3 4 3 3 3 4 3 3 3 3 3 3 3 3 4 3 3 3 3 3 3 4 3 3 3 4 3 4 3 3 4 3 4 3 3 3 3 3 3 3 3 4 3 3 3 4 % 3 3 3 4 3 4 3 3 3 4 3 3 3 3 3 3 4 4 3 3 4 4 3 3 3 3 3 3 4 3 3 3 3 3 3 3 3 4 3 3 3 3 3 4 3 3 4 4 3 4 4 4 3 3 3 3 3 3 3 3 3 3 3 3 3 3 3 4 3 3 3 3 3 3 3 3 3 0 4 4 3 3 4 4 3 3 4 3 3 3 3 3 4 3 3 4 3 3 4 3 3 3 4 3 4 3 3 4 3 3 3 4 3 4 % 3 4 3 3 3 3 4 3 3 3 4 3 3 3 3 3 3 3 4 3 3 4 3 3 3 4 4 3 3 3 3 3 3 3 3 3 4 3 3 3 3 3 3 4 4 3 4 3 3 3 4 3 3 3 3 3 3 3 3 3 3 4 3 4 3 3 3 3 4 3 3 3 4 3 3 3 4 3 3 3 3 4 3 3 3 3 3 3 3 3 0 3 3 3 3 3 4 3 3 3 4 3 3 3 3 3 3 3 3 3 3 3 3 3 3 3 3 3 3 3 3 3 3 4 3 3 3 3 3 3 3 3 4 3 3 3 4 3 3 3 3 3 3 3 3 3 4 3 3 3 3 3 3 3 3 4 3 3 3 3 3 4 3 3 4 3 3 3 3 3 3 3 3 3 3 3 3 3 3 3 3 4 3 3 3 4 3 3 3 3 3 4 3 3 3 3 3 4 4 4 4 3 3 3 3 3 3 3 3 4 3 3 3 3 3 3 3 3 3 4 3 3 3 3 3 3 4 3 3 3 3 3 3 3 3 4 3 3 3 3 3 3 3 3 4 3 3 3 3 3 3 3 4 3 3 3 4 3 3 3 3 3 3 4 3 3 3 3 3 3 3 3 4 3 3 3 3 4 3 3 3 4 3 3 3 3 3 3 3 4 3 3 3 q 3 3 3 3 3 3 3 3 4 3 3 3 3 3 3 3 3 3 4 3 3 3 4 3 3 3 3 3 3 3 0 3 3 4 3 3 3 4 3 3 3 3 4 3 3 3 3 3 3 3 4 3 3 3 3 3 3 3 3 3 3 3 4 3 3 3 3 3 3 3 3 3 3 3 4 3 3 3 4 3 3 3 4 3 3 3 3 4 3 3 4 3 3 4 3 3 3 3 3 4 3 3 3 3 3 3 3 4 3 3 3 3 3 3 3 3 3 3 3 4 3 3 3 3 3 3 3 3 3 3 3 3 0 3 3 3 3 3 3 3 3 4 3 3 3 4 3 3 3 3 3 3 4 3 3 3 3 3 3 3 3 3 3 3 3 3 3 3 3 4 3 3 3 3 3 3 3 3 3 3 3 3 3 3 3 3 3 4 3 3 3 3 3 3 3 3 3 3 3 3 3 3 3 3 3 3 4 3 3 3 3 4 3 3 3 4 3 3 3 3 3 3 3 3 4 3 3 3 3 3 4 3 3 3 3 3 3 3 3 3 3 4 3 3 3 3 3 4 3 3 3 3 3 3 3 3 3 4 3 4 3 3 3 3 3 3 3 3 3 3 3 3 3 3 3 3 3 4 3 3 3 3 3 3 3 3 3 3 4 3 3 3 3 0 3 4 3 3 3 4 3 3 3 4 3 3 3 3 3 4 3 3 4 3 3 3 3 4 3 4 3 3 3 3 3 3 3 3 3 4 3 4 3 3 3 3 3 3 3 3 3 3 4 3 3 3 4 3 3 3 3 3 3 3 4 3 3 3 q 3 3 4 4 3 3 3 q 4 0 3 0 % 4 4 0 3 3 3 3 q 3 3 3 3 ",
"3 3 3 3 4 3 3 3 3 3 3 3 3 3 3 3 4 3 3 3 3 3 3 3 3 3 3 4 3 3 4 4 3 3 4 3 3 3 3 4 3 3 4 3 3 3 3 3 4 3 3 3 3 3 3 3 3 3 3 3 3 3 3 3 3 4 3 3 3 3 3 3 3 4 3 3 3 3 3 4 3 3 3 3 3 3 3 4 3 4 3 3 3 3 3 3 3 3 3 3 3 3 3 3 3 3 3 3 3 3 4 3 4 4 3 3 3 3 0 0 3 3 3 3 3 3 3 3 3 3 3 3 3 3 3 3 3 3 3 4 3 3 3 4 3 3 3 3 4 3 3 3 3 3 3 4 3 3 3 3 3 3 3 4 3 3 3 3 3 3 4 3 3 3 3 3 3 3 3 3 3 3 3 3 4 4 4 3 3 4 3 3 3 3 3 3 4 3 4 0 3 3 4 3 3 3 4 3 4 4 4 3 4 3 3 3 3 4 3 3 3 3 3 3 3 3 3 3 4 3 3 3 3 4 3 3 3 3 3 3 3 4 4 4 4 4 4 4 3 4 3 3 3 3 3 3 3 3 3 3 3 3 4 3 4 3 3 3 3 3 4 3 3 3 4 4 3 3 4 4 3 3 3 3 3 3 4 3 3 3 4 3 3 3 3 4 4 3 3 3 3 3 3 3 4 3 3 3 3 3 3 3 3 3 3 3 4 3 3 3 3 3 4 3 3 3 4 3 4 4 3 3 3 3 3 3 3 3 3 4 3 3 3 3 3 3 3 3 4 3 3 3 3 4 3 3 4 3 3 4 3 4 3 3 3 3 4 3 4 3 3 4 4 4 4 4 4 4 4 3 3 3 3 4 3 3 3 3 3 3 4 3 4 3 3 3 3 3 3 3 3 3 3 4 3 3 3 3 3 3 3 4 3 3 3 3 3 3 3 3 4 3 3 3 3 3 3 3 3 3 3 3 3 3 3 3 4 3 3 3 3 3 4 3 4 3 3 4 3 3 3 3 3 3 4 3 3 3 3 3 3 4 4 3 3 3 3 3 3 3 3 3 3 3 3 3 4 3 3 3 3 3 3 3 3 4 3 3 3 3 3 3 3 3 3 4 3 3 3 4 3 3 3 4 3 3 3 3 3 3 3 3 4 3 3 3 3 3 3 3 3 3 4 3 3 3 3 3 3 3 3 4 3 3 3 3 3 3 4 3 3 3 3 4 4 3 3 3 3 3 3 3 3 3 3 3 3 3 3 3 3 3 3 3 3 3 3 4 3 3 3 3 3 4 3 3 3 3 3 3 4 3 3 3 3 3 4 3 3 3 3 4 3 3 3 4 3 3 3 4 3 3 3 3 4 3 3 3 3 3 3 4 3 3 3 3 3 3 3 3 3 4 3 3 3 3 3 3 3 q 3 3 3 3 3 3 3 3 4 3 3 3 3 3 3 4 3 3 3 4 4 3 3 3 3 3 3 4 3 3 3 3 3 3 3 4 3 3 3 3 3 3 3 3 4 3 3 3 3 3 3 3 4 3 3 3 3 3 3 3 3 3 3 3 4 3 3 3 3 3 3 3 0 3 3 3 3 3 3 3 3 3 3 3 3 3 3 3 3 3 3 3 3 3 3 3 3 0 3 3 4 3 3 4 4 4 3 3 3 3 3 3 3 3 3 4 3 3 3 3 3 3 3 3 3 3 3 3 4 3 4 3 3 3 3 3 3 3 3 3 3 3 3 3 3 3 3 3 3 3 3 3 3 3 3 4 3 3 3 4 4 4 3 3 3 3 3 3 3 3 3 3 3 3 3 3 3 3 3 3 3 0 3 3 3 3 3 3 3 3 3 3 3 3 3 3 3 3 4 3 3 3 3 3 3 3 3 3 3 3 3 3 3 3 3 3 3 3 3 3 3 3 3 3 3 3 3 3 3 3 3 4 0 4 3 3 4 3 3 3 3 3 3 3 3 3 3 3 3 3 3 3 3 3 3 3 3 4 3 3 3 3 3 3 3 3 3 3 3 3 3 3 3 3 3 3 3 3 3 3 3 3 3 3 3 3 3 3 3 3 3 3 3 3 3 4 3 3 3 3 3 3 3 3 3 3 3 3 4 0 3 3 3 3 3 3 3 4 4 3 3 3 5 3 3 3 3 3 3 4 3 3 3 3 5 4 0 3 4 3 3 3 3 3 3 3 3 3 3 3 3 4 4 4 3 3 3 3 3 3 3 3 3 3 3 3 3 4 3 3 4 4 3 4 3 3 3 3 3 3 4 4 3 3 3 3 3 3 3 3 3 3 4 3 3 3 3 3 3 3 4 3 3 4 7 7 7 7 7 7 7 7 7 7 8 8 7 7 4 3 3 3 3 3 3 4 3 ",
"4 3 3 3 3 3 4 3 0 3 3 4 4 3 4 3 3 3 3 3 3 4 3 3 4 3 3 3 3 3 4 4 3 3 3 3 3 3 3 3 3 3 3 3 3 3 3 3 3 3 4 3 4 3 3 3 4 3 3 4 4 3 4 3 3 3 3 3 3 3 3 3 3 3 4 3 4 3 3 3 3 3 4 3 3 3 3 3 3 3 3 3 3 3 4 3 3 3 3 4 4 3 3 3 3 3 3 3 3 3 3 3 0 0 0 r q r q r r q r q 0 0 4 4 3 3 3 3 4 3 3 3 3 4 3 3 4 3 3 3 4 3 3 3 3 3 4 3 4 3 3 3 4 3 3 3 4 3 3 3 3 4 3 3 3 4 3 3 3 3 3 3 3 3 4 3 4 3 3 4 4 4 3 3 3 3 3 3 3 3 3 3 3 3 4 % 3 3 3 3 3 3 3 3 4 4 4 3 3 3 3 4 3 3 3 4 3 4 4 3 3 4 3 3 3 3 3 4 3 3 3 3 3 3 3 3 3 3 4 3 4 4 4 4 3 3 3 4 3 4 3 3 3 3 4 3 3 3 3 3 3 3 3 4 3 4 3 3 4 3 4 4 3 3 4 4 3 4 3 4 3 3 3 3 3 4 3 3 4 3 3 3 3 3 3 4 3 4 3 3 3 3 3 3 3 4 3 3 3 3 3 3 3 3 3 3 3 3 3 3 3 3 3 3 4 4 3 3 3 4 3 3 3 3 3 3 3 3 3 3 3 3 4 3 3 3 3 4 3 3 3 3 3 3 3 3 3 3 4 3 3 4 3 3 3 3 3 3 4 4 3 3 4 4 4 4 4 3 3 3 3 4 4 3 4 3 3 3 3 3 3 4 3 4 3 3 4 3 3 3 3 3 4 3 4 3 3 3 3 3 3 3 3 3 4 3 3 3 3 4 3 3 3 3 3 3 4 3 3 3 3 3 3 3 3 4 3 3 3 3 3 3 3 3 4 3 3 3 3 3 3 3 3 3 3 3 3 3 3 3 4 3 3 4 4 3 4 3 3 3 3 3 3 3 3 4 3 3 3 3 3 3 3 3 4 3 3 3 3 3 3 3 4 3 3 3 3 3 3 3 3 3 3 3 4 3 3 3 3 3 3 4 3 3 3 3 3 3 3 3 3 4 3 3 3 4 3 3 3 3 3 4 3 3 3 3 3 3 3 3 3 3 3 3 q 3 3 4 3 3 3 3 3 3 3 3 3 3 3 3 3 3 3 3 3 3 4 3 3 3 3 3 3 3 3 3 3 3 3 4 3 3 3 3 3 3 3 3 4 3 3 3 4 3 3 3 4 3 3 3 3 3 4 3 3 3 3 3 4 3 3 3 3 3 q 3 3 3 3 3 3 3 3 3 3 3 3 3 3 q 3 3 3 3 3 3 3 3 4 3 3 3 3 3 3 3 3 3 3 3 3 3 3 3 3 3 3 3 3 4 3 3 3 3 3 3 4 3 3 3 3 3 3 3 3 3 3 3 3 3 3 4 3 3 4 3 3 3 3 3 3 3 4 4 q 3 q 3 4 4 3 3 3 3 4 4 4 4 4 0 4 q 4 4 3 4 q 4 4 4 4 3 3 3 3 3 3 4 4 4 4 3 3 3 3 0 q 3 3 3 3 3 3 4 4 3 3 3 3 3 3 3 3 3 3 4 q 0 4 4 4 3 4 3 3 4 4 4 4 q 4 3 4 3 3 3 4 q q 4 3 4 3 3 3 4 4 4 4 4 3 0 4 q 0 0 q q 3 3 4 3 3 q w 4 4 4 q q 4 3 3 q q 3 3 3 3 3 3 4 3 3 3 3 3 4 0 q q q 4 3 3 3 3 4 3 4 q 4 3 3 3 3 4 4 q q q q 0 w 4 0 3 3 4 0 4 4 4 4 4 4 3 3 3 3 4 4 4 w 4 4 4 3 3 3 4 3 3 0 3 3 4 4 q 4 3 3 3 3 3 3 q q q 3 3 3 3 3 3 4 4 q q 4 3 3 3 3 3 q 4 q 3 3 3 3 3 4 4 0 3 3 3 3 3 3 4 4 4 4 4 3 3 3 4 3 3 3 3 3 3 4 w w w 3 4 3 3 3 q 3 3 3 4 4 q q 3 3 3 4 3 4 0 0 4 4 3 4 4 4 4 4 4 3 3 4 4 3 3 4 4 4 4 3 3 3 3 4 4 q 4 4 3 3 4 3 3 4 4 q 4 4 3 3 3 4 3 3 3 3 3 3 4 3 3 3 3 3 3 3 3 7 k k k k k j k k k k k k k k z 0 3 3 4 3 3 3 4 ",
"3 3 3 3 3 3 3 3 4 3 3 3 4 3 3 3 3 3 3 3 3 3 3 3 3 3 3 3 3 3 3 % 4 3 3 3 3 3 3 3 3 3 3 3 3 3 3 3 3 3 3 3 3 3 3 3 3 3 3 3 4 3 3 3 3 3 3 3 3 3 3 3 3 4 3 3 3 3 3 3 3 4 3 3 3 3 3 3 3 3 3 3 3 3 3 3 3 3 3 3 3 3 3 3 3 3 3 3 4 4 3 3 t ` %.H.P.@XP.P.@X+XJ.;.$.L 0 4 3 3 3 3 4 3 4 3 3 3 4 3 3 3 3 3 3 3 3 3 3 3 3 3 3 3 3 3 4 3 4 3 3 3 3 3 3 3 4 3 3 3 4 3 4 3 3 3 3 4 4 3 3 3 3 3 4 4 3 3 3 3 4 4 4 3 3 3 3 3 3 4 4 4 3 3 3 3 3 3 4 4 3 3 3 3 3 3 3 3 3 3 3 4 3 3 3 3 4 3 3 3 3 3 3 3 3 3 3 3 4 0 3 4 3 3 4 3 4 4 3 3 3 3 4 3 4 3 3 4 3 4 4 3 3 3 3 3 3 3 3 3 4 3 3 3 4 4 4 3 4 4 3 3 4 3 4 3 3 3 3 3 4 3 3 3 3 3 3 3 3 3 4 3 4 3 3 3 3 3 3 3 4 3 4 3 3 3 3 3 3 4 4 3 3 3 3 3 3 3 4 4 3 3 3 3 4 3 4 3 3 3 3 3 3 4 3 4 3 3 3 3 3 3 4 3 3 3 3 3 3 3 3 4 3 3 3 3 4 3 3 3 3 3 3 3 3 4 3 4 3 4 3 3 3 3 3 4 3 3 3 3 4 3 3 3 3 3 4 3 4 3 3 3 3 3 3 4 3 3 3 3 3 3 3 3 3 3 3 4 3 3 3 3 3 3 4 0 3 3 3 4 3 3 4 3 3 3 3 3 3 3 4 3 3 3 3 3 3 3 3 3 3 3 4 3 3 3 4 3 3 3 3 3 4 3 3 3 3 3 4 3 3 3 3 3 3 q 3 3 3 3 4 3 3 4 3 3 q 3 3 3 3 3 3 3 3 3 3 3 4 3 4 3 3 3 q 3 3 3 3 3 3 3 3 3 3 3 3 4 3 3 3 3 3 3 3 3 3 3 3 3 3 3 3 3 3 3 4 3 3 3 3 3 3 3 3 3 3 3 3 3 3 3 3 3 3 3 4 3 3 4 4 3 3 3 3 3 3 3 4 3 3 3 3 3 3 3 3 3 3 3 3 3 3 3 4 3 3 3 3 3 3 3 3 3 4 3 3 3 3 3 3 3 3 3 3 4 3 3 q 3 3 3 4 3 4 3 4 3 3 3 3 3 3 4 4 3 3 3 3 3 3 3 3 3 3 3 3 3 3 3 4 3 3 3 3 3 3 4 3 4 3 3 3 3 3 4 3 3 3 4 3 3 3 3 3 3 3 3 3 3 3 3 3 3 3 3 3 3 3 4 4 3 3 3 3 3 3 4 3 3 3 3 4 3 3 4 U <.3.1.1.[ i 4 3 3 3 3 3 y [ 3.1.1.3.3.<.w 4 P <.( 4 4 3 3 3 3 4 3 3 4 U <.P 4 3 3 e 1.<.e 3 3 3 4 U 1.T q 4 3 3 3 3 3 3 3 4 i ( <.( i q 3 4 3 3 q P [ 1.[ e 4 3 3 3 3 P <.<.U 4 4 4 4 3 0 ( 1.( u 3 4 U 1.1.1.<.T w 3 3 3 4 U <.3.1.1.3.3.U 3 w T 1.I q 3 3 3 q ( [ i 3 3 3 q P <.<.T u 3 3 3 3 3 q U 1.P w 3 3 y <.3.1.<.3.1.1.1.<.P 3 3 0 4 U [ <.T e 3 3 3 3 4 I <.3.2.<.T e 4 3 3 3 3 3 3 3 4 U 1.<.i 3 3 3 3 3 e <.3.Y e 3 3 3 3 q i [ <.T e 4 3 3 3 3 P 1.( e 3 3 3 q i 1.U q 3 3 3 3 q U [ <.T e 0 3 3 3 3 3 3 3 3 3 4 w y w 3 3 3 3 3 3 3 3 3 4 t / K 4 4 3 3 4 r / ^ t 4 3 3 r K / t 4 3 3 3 3 3 4 r Q ^ r 4 4 4 3 q ^ / K q 3 3 3 3 3 t ^ / < 4 4 3 3 3 3 3 3 3 3 3 3 3 3 3 4 3 3 3 3 8 l z 7 7 7 7 s s z 7 ; ; 7 k s 4 4 3 3 3 3 3 3 ",
"3 3 4 3 3 4 3 3 3 3 3 3 3 3 3 3 3 4 3 3 3 4 3 3 3 3 4 3 4 3 3 4 3 3 3 4 3 3 4 3 3 3 3 3 3 3 3 3 3 4 3 3 3 3 3 4 3 3 3 3 3 3 3 3 3 3 3 3 3 3 5 4 3 3 3 3 3 3 4 3 3 3 4 3 3 3 4 3 3 4 3 3 3 4 4 3 3 4 3 3 3 3 4 3 4 3 3 3 3 0 / ;.J.H.;.&.#.~ #.! ` ' $.&.;.F.:.&.t 3 3 3 3 3 3 3 3 3 3 3 3 3 3 3 3 3 4 3 3 4 3 3 3 3 3 3 3 3 3 3 3 4 3 3 3 4 3 3 3 3 3 3 3 3 3 4 3 3 3 3 3 4 3 3 % 4 3 3 3 4 4 4 3 3 3 4 3 4 3 3 4 4 3 4 3 3 3 4 3 3 3 4 3 3 3 3 3 4 3 3 3 3 3 3 3 4 3 3 3 4 3 3 4 3 3 3 4 3 4 % 3 3 3 3 3 3 % 4 4 3 3 3 3 3 3 3 3 3 3 3 3 3 3 4 3 4 3 3 3 3 3 3 3 3 3 4 % 3 4 4 3 3 3 3 3 3 3 4 3 3 3 3 3 3 4 3 3 3 3 3 3 3 3 3 3 4 3 3 3 4 3 3 3 3 3 4 4 3 3 3 3 3 3 4 3 3 3 4 4 % 4 3 3 4 3 3 3 3 4 3 4 3 3 3 3 3 4 3 3 4 3 3 3 3 3 4 3 3 3 3 3 3 3 3 3 3 3 3 3 3 3 3 4 3 3 3 3 3 3 3 3 3 3 3 3 3 3 3 3 3 3 3 3 3 3 3 3 3 3 3 3 3 4 3 3 3 4 3 3 3 4 3 4 3 3 4 3 3 4 3 3 3 4 3 4 % 4 3 3 3 4 3 3 3 3 4 3 4 3 3 3 3 4 3 3 3 4 3 3 3 4 3 3 3 3 3 3 3 3 4 3 3 3 3 3 3 3 3 3 3 3 3 3 3 3 3 3 3 3 3 3 3 3 3 3 3 3 3 3 3 3 3 3 q 3 3 3 3 3 3 3 3 3 3 3 3 3 3 3 3 3 4 3 3 3 3 3 3 3 3 4 3 3 3 4 3 3 3 3 3 4 3 3 4 3 3 3 3 3 4 3 3 4 3 3 3 3 3 3 3 3 3 q 3 3 3 3 3 3 3 3 3 3 3 3 q 3 3 3 3 3 4 3 3 3 3 4 3 3 4 3 4 3 3 3 3 3 4 3 3 3 4 3 3 3 3 3 3 3 3 3 3 3 4 3 3 3 3 3 3 3 3 3 3 3 3 3 3 3 4 3 3 3 3 3 3 3 4 3 3 3 3 3 3 4 3 3 3 4 3 3 3 3 4 3 3 3 3 3 3 3 3 4 3 3 3 3 3 3 3 3 4 3 3 3 4 3 3 3 4 3 3 3 3 3 3 4 3 3 3 3 3 3 3 4 3 3 3 3 3 4 3 3 3 4 q q.W.].].].~.Q.w.T 3 3 3 3 T i.).].].[.[.^.P 4 3.Q.y.4 4 3 3 4 3 3 3 3 P y.~.e.y 3 3 P u.~.<.q 3 3 e d.~.4.0 4 4 4 0 3 3 3 P q.W.(.'.(.~.w.P 3 0 U e.Q.`.`.Q.W.7.i 3 3 3 3.Q.~.y.4 3 4 4 4 y W.'.u.T 3 4 7.~.].]. XQ.f.<.q 3 q q.W.].].].].[.9.q i e.~.d.T 3 3 3 w u.W.<.3 3 U e.Q.`.`.~.E.1.3 3 3 3 U u.Q.q.e 3 3 U ^.].].].).].].].(.<.3 4 T r.~.).`.~.E.4.y 3 4 4 7.W.].].].~.d.<.q 3 3 3 3 3 3 e w.~.Q.4.3 3 4 3 3 ( ~.(.q.i 3 3 4 T y.Q.(.).(.W.7.P 3 3 3 4.W.Q.7.4 3 3 q <.Q.9.i 3 3 q 5.u.~.].`.Q.f.3.e 3 3 3 3 3 4 3 3 3 q i w 3 3 3 3 3 3 3 3 3 4 K >.;.r 3 3 4 0 ^ :.&.t 3 3 3 ^ -.>.` 4 3 3 3 3 3 t &.:.&.t 4 4 4 4 t -.:.;.K 3 3 3 4 4 ~ H.:.` r 3 4 3 4 4 3 3 3 4 3 3 3 4 3 3 3 3 3 0 7 j 7 3 7 s d h h d z z 0 0 k s 3 3 3 3 3 3 3 3 ",
"3 3 3 3 3 3 3 3 3 2 6 3 3 3 3 3 4 3 3 3 4 3 4 0 4 4 4 % 4 4 % 4 3 4 4 0 3 3 3 3 3 3 2 3 3 2 3 3 3 3 % 3 3 3 3 3 3 3 3 3 3 3 3 3 3 3 2 6 3 % 2 2 3 3 % 3 3 3 3 6 3 3 3 2 3 3 3 3 3 4 4 4 4 3 3 3 4 3 3 3 3 3 3 3 3 3 3 0 K &.F.F.O.&.' ) j.A A b.A j.j./ ` *.*.;.;.} H 0 4 4 3 3 3 3 3 3 3 3 3 3 4 3 3 3 3 3 4 3 3 3 3 4 3 3 3 4 3 3 4 3 3 4 3 3 3 4 3 3 3 3 3 3 3 4 3 3 4 3 3 3 4 3 3 3 3 3 4 4 3 3 4 3 4 3 3 4 4 4 3 4 3 3 4 % 3 3 4 3 3 3 4 3 3 3 3 3 3 3 4 3 3 3 4 3 4 3 3 3 4 3 3 3 3 3 3 4 4 % 3 3 3 3 3 3 % 4 3 4 3 3 3 4 4 4 3 4 3 3 3 3 3 3 3 3 3 3 3 4 3 3 3 3 4 3 3 3 4 4 0 3 4 3 3 3 3 4 3 3 3 3 3 3 4 3 3 3 3 3 3 3 4 3 3 3 4 3 3 3 3 3 3 4 3 4 3 3 3 3 3 3 4 4 4 4 3 % 4 3 3 3 3 3 3 3 3 4 4 3 3 3 3 3 4 3 3 3 4 3 3 3 3 3 3 3 3 4 3 4 3 3 3 3 3 3 4 3 3 3 % 4 4 3 3 3 3 3 3 3 3 4 3 4 3 3 3 3 3 3 4 3 3 3 3 3 3 3 3 3 3 4 3 3 3 3 4 3 3 3 3 4 3 3 3 3 3 3 3 4 % 3 4 4 4 4 3 3 4 3 3 3 4 3 4 3 3 3 3 3 3 3 3 4 % 4 3 3 4 3 3 3 3 4 4 3 3 3 3 3 3 3 3 3 3 3 3 3 4 3 3 3 3 3 3 3 3 3 3 3 4 3 3 4 3 3 3 3 3 4 3 3 3 4 3 4 3 3 3 3 3 4 4 3 3 3 3 3 4 3 3 3 3 3 3 3 3 3 3 3 3 4 3 3 3 3 3 3 3 3 3 3 3 3 3 3 3 3 3 4 3 3 4 3 3 3 4 3 4 3 3 4 3 3 3 3 3 4 3 3 3 3 3 3 3 4 3 3 3 3 q 3 3 3 3 3 3 4 3 4 3 3 3 4 3 3 3 3 3 3 3 4 3 3 3 4 4 3 4 3 3 3 3 3 4 3 3 3 3 3 3 3 3 4 3 3 3 3 3 3 4 3 4 3 3 3 3 3 4 3 3 3 4 3 3 3 4 3 3 3 3 4 3 3 3 3 3 3 3 3 4 3 3 3 4 3 3 3 3 3 3 3 3 4 3 3 3 3 3 3 3 3 3 3 4 3 3 3 3 3 3 3 4 3 3 3 3 3 3 4 3 3 3 4 e.|.].u.s.T.].].s.T 3 3 2 <.(.7Xd.y.u.p.q.y 4 9.}.Q.4 3 3 3 3 3 3 3 3 2.].wX`.U 3 3 e q.6Xd.I 3 e <. X/.[ 3 3 3 3 3 3 q P y.[. XE.u.f.~.e.P 0 P i.}.].d.y.E.[. Xq.e 0 3 q. XeX(.i 4 4 3 0 1.6X8X~.( 4 q y.|.`.y.i.Q.|.E.T 3 q u.|.~.y.u.y.y.<.4 P E.7X.Xq.w 3 3 y W.].3.4 4 e. X`.d.s.E.~.4.3 3 3 3 3. X8X(.P 4 3 i q.y.y.~.7X[.p.u.e.T 0 U E.|.~.f.u.E.}.~.6.e 3 4 y.}.].u.u.Q.|.^.T 3 3 3 3 3 3 e d.|.yXi.u 4 3 3 e q.8X8Xs.I 3 4 I s.}.`.d.p.f.}.].9.y 0 4 q.}..X~.P 3 3 4 4.|.y.i 3 q T W.}.~.f.p.W.}.~.3.e 3 3 3 3 3 3 3 3 w e q 3 3 3 3 4 3 3 3 3 2 ^ :.K.^ 4 3 3 r %.K.&.r 3 3 3 $.J.+X-.q 3 3 3 0 / -.K.@X:.t 4 3 3 3 H >.+XP.} 0 4 4 4 t -.@XK.{ r 3 3 3 3 3 3 3 3 3 3 3 3 4 3 3 3 3 4 w 7 j 7 ; k l d l.z.j k l z r k z 4 4 3 3 3 3 3 3 ",
"3 3 3 3 3 3 3 K ` ] _ ] _ _ H 3 3 3 3 3 3 3 4 % 4 4 4 4 4 4 4 4 4 % 4 4 4 r H / / ` _ _ ` ] / ` / ] / _ _ ` / ` ] L r 3 3 3 3 3 3 r _ ] ] ] ` ` / ` / _ _ ] / ] ] / / ] ` / ^ K y 0 3 3 3 3 3 3 3 3 3 3 3 3 3 3 3 3 r ] :.J.:.} A | ) A A.S.S.S.S.A.m.c c A | &.;.:.%.^ 0 3 3 3 3 4 3 3 3 4 3 4 3 3 3 4 3 3 3 3 3 4 3 3 3 3 3 3 3 3 3 3 3 3 4 3 3 3 3 3 3 3 4 3 3 3 3 3 3 3 3 3 3 3 3 4 3 3 4 4 3 3 3 3 3 3 3 3 4 4 3 3 3 3 4 4 3 3 3 3 3 4 3 3 3 3 4 3 3 3 3 3 3 3 3 3 3 3 3 3 3 3 3 4 4 3 3 3 3 4 3 4 3 3 4 3 0 4 3 3 3 3 3 3 4 4 3 3 3 3 3 3 3 3 4 3 4 3 3 3 4 3 3 4 3 3 3 3 % 4 3 3 3 3 3 3 3 3 3 4 3 4 3 3 3 3 3 4 3 4 3 3 3 3 3 3 3 3 3 4 4 3 3 3 3 3 3 4 3 4 3 3 4 4 4 4 3 4 4 3 3 3 4 3 4 3 3 3 3 3 3 4 4 3 3 3 3 3 3 3 3 4 3 4 4 3 3 3 3 3 3 3 3 4 3 3 3 3 3 4 4 3 0 3 3 3 3 3 4 3 3 3 3 3 3 3 3 4 3 3 3 3 3 4 3 4 3 3 4 3 3 3 3 3 3 3 3 3 3 4 3 3 3 3 3 4 3 3 3 3 4 3 4 4 3 3 3 3 3 3 3 3 3 3 3 3 3 4 3 4 4 3 3 3 0 4 3 3 3 3 3 4 3 3 3 3 3 4 3 3 4 3 4 3 3 3 3 3 3 3 3 4 3 3 3 3 4 3 3 3 3 3 3 3 3 3 3 4 3 3 3 3 3 3 3 3 3 3 3 4 3 3 3 3 3 4 3 3 3 3 4 3 4 3 3 3 3 3 3 3 3 3 q 3 3 3 3 4 3 3 3 3 4 3 3 4 4 3 3 3 3 3 3 3 3 3 3 3 3 3 3 3 3 3 3 3 3 3 3 4 3 3 3 3 3 3 3 3 3 4 3 3 3 3 4 3 3 3 3 3 3 4 3 3 4 3 3 4 3 3 3 3 3 3 3 3 3 3 3 3 3 3 3 3 3 3 3 3 3 3 4 3 3 3 3 3 3 4 3 3 3 3 3 3 3 3 3 3 3 3 3 3 3 3 3 3 3 3 4 3 3 3 3 3 3 4 3 3 4 3 3 3 3 4 3 3 3 4 3 3 3 3 3 3 3 3 3 q 3 3 3 3 q 3 3 3 3 3 4 3 3 3 3 3 3 4 4 3 3 3 3 3 4 q e.}.u.4 e P 4.~.|.i.w 3 3 [ ~. Xi 3 4 4 4 4 4 7.}.W.w 4 3 3 3 3 3 4 4 e..X|..X2.0 3 4 i (.].4.3 y d.}.q.e 3 3 3 3 3 3 e 6.}.].7.P e i 1.Y 0 e q.|.~.3.i e I q.[.].1.4 3 q. X7X X1.q 4 3 y y. X8XW.( 4 0 y.}.u.4 e 5.(.}.q.3 q u.|.y.4 4 3 3 3 3 P f.|.7XW.<.3 4 y E.].4.4 e Q.|.w.y e I ( P 3 3 3 q y.7X|.|.<.q 3 3 4 4 3 w.|.^.q 4 3 3 i y..XW.1.y e U y.}.~.<.3 w y.}.u.0 e T ~.|.e.3 3 3 3 3 3 e u.}.7XQ.T 0 3 3 T f.|.7Xp.P * e 0.|.~.3.i e P q.}.].1.4 0 q.].wX Xq.e 3 4 3.|.y.i 2 P u..XW.<.e e U p.|.W.[ 3 3 3 3 4 3 3 4 w e e 3 3 3 3 3 3 3 3 3 3 t $.K.{ t 3 3 t :.J._ 3 3 3 u :.K.P.F.t 3 3 3 t $.J.:.K.:.J 4 3 3 3 H :.K.P.&.t 3 4 4 ` :.+XK.{ q 3 3 3 3 3 3 3 4 3 3 3 3 3 3 3 4 3 3 0 z j 7 k l.j z l.z.d d l.h 7 k s q 3 4 3 4 3 4 3 ",
"3 3 3 3 3 3 3 H.5X<X<X<X<X1X:.3 3 3 3 3 3 3 3 4 4 3 3 3 4 4 4 4 3 3 4 4 y ' H.=X;X<X<X<X<X<X<X<X<X<X<X<X<X<X<X<X<X@X} 3 3 3 3 3 3 L ;X<X<X<X<X<X<X<X<X<X<X<X<X<X<X<X<X<X<X<X;X@X:._ t 3 3 3 3 3 3 3 3 3 3 3 3 3 4 u $.K.H.` c n.A.m.n.A S.C.V.V.C.C.A.| n.A.m.j.c ] H.F._ r 0 3 3 3 4 3 3 3 3 4 3 3 3 3 3 4 3 3 3 3 4 3 3 3 3 3 4 3 3 3 3 4 3 3 3 3 3 4 3 4 3 3 4 3 3 4 3 3 3 3 3 3 3 3 4 3 3 3 4 3 3 3 3 3 3 3 3 3 3 3 3 3 4 4 4 3 3 3 3 3 4 3 3 4 3 3 4 3 3 3 3 3 3 3 3 3 3 3 3 3 3 3 3 3 3 3 4 4 4 4 3 4 3 3 3 3 3 3 3 3 3 3 4 4 4 3 3 3 3 4 3 4 3 3 3 3 3 3 3 3 3 3 3 3 3 3 3 3 3 3 3 3 3 3 3 3 3 3 3 3 3 4 3 3 3 3 4 3 4 3 3 3 3 3 3 3 3 3 3 3 3 3 3 3 3 3 4 3 4 3 3 3 4 3 3 3 4 4 3 4 3 4 3 3 3 3 3 3 3 3 3 3 4 3 4 4 3 4 3 3 4 3 3 3 3 3 3 3 3 4 3 3 4 3 3 3 3 3 3 3 3 3 3 3 3 3 3 3 3 3 3 3 3 4 3 4 4 3 3 3 3 3 4 3 4 3 3 3 3 3 3 3 3 4 3 3 3 3 3 3 3 4 4 3 4 3 4 3 3 3 4 3 4 3 4 3 3 3 4 3 3 3 3 3 3 3 3 3 4 3 3 3 3 3 3 3 3 3 3 3 3 3 3 3 3 3 3 4 3 3 4 3 4 3 3 3 3 3 3 3 3 4 3 4 3 3 4 3 3 3 3 3 4 3 3 3 4 3 3 3 3 3 3 3 3 3 3 3 4 3 3 3 3 3 3 4 3 3 4 3 3 3 3 3 3 3 3 3 3 3 3 3 4 3 3 3 3 4 3 4 4 3 3 4 3 3 4 3 4 3 3 3 3 3 3 4 3 3 3 3 4 3 4 3 3 3 3 3 3 4 3 3 3 3 3 3 3 3 3 3 3 3 3 3 3 3 3 3 4 4 3 4 3 3 4 3 4 3 3 3 3 3 3 3 4 3 3 3 3 4 3 4 3 3 3 3 3 3 3 3 4 3 3 3 3 3 4 3 3 3 3 3 3 4 3 4 3 3 3 4 3 3 3 3 3 3 3 3 4 3 3 3 3 3 3 3 3 3 3 3 3 3 3 4 3 3 3 3 3 3 3 3 3 3 3 3 3 4 3 3 3 3 3 3 3 4 3 3 3 3 3 q 3 3 3 3 3 3 3 3 3 q t.|.p.3 3 3 4 2.].].U 4 3 E (. XP q q w 4 4 3 9. X^.w 3 3 4 3 3 3 3 Y E.}.d.|.u.P 3 3 q 0.}.d.I ( }.!.T 3 3 3 3 3 3 3 i ~.|.7.w 3 3 3 0 3 3 I ~.|.3.4 3 3 0 q u..Xf.w 0 q.(.}.`.p.y 3 4 U /.(.7X~.( 3 4 r.|.y.3 3 4 d..Xy.3 q u.|.e.w q w w 0 3 P d. X~. Xd.w 4 y E.].1.4 i !.].9.0 4 4 4 4 4 3 4 U ~.`.T.|.y.P 3 3 3 3 3 q.}.E.4 3 3 3 T `.}.( 4 0 3 0 e g.|.y.3 4 r.|.y.3 3 0 d.|.p.3 3 0 3 3 3 e d. X}.~.9.q 3 3 6.`.(.7Xs.R * R (.|.1.0 3 3 0 w s..Xi.4 4 0.`.].~.`.T 4 w 3.}.y.i 2 [ [.}.Y 3 3 3 4 y W.|.w.3 3 3 4 3 3 3 4 5 e w 3 3 3 3 3 3 4 3 3 4 4 ^ K.:.H 3 4 ^ J.:.J 3 3 q ^ J.:.:.J.} r 3 3 r ` $.' :.:.J 4 3 3 6 L ;.J.H.;.^ 4 4 4 -.:.H.J.{ w 3 3 3 3 3 4 3 3 4 3 3 3 3 3 3 3 3 3 4 7 j s h l ; ; l.z.s u d l.d k z 4 3 3 3 3 3 4 3 ",
"3 3 3 3 3 3 3 L.5X<X<X<X<X1XF.3 3 4 3 3 3 4 3 3 3 3 3 3 4 4 4 4 3 3 4 L :.;X:X<X<X<X<X<X<X<X<X<X<X<X<X<X<X<X<X<X5X$X{ 3 3 3 3 3 3 / <X<X<X<X<X<X<X1X<X<X<X<X<X<X<X<X<X<X<X<X<X<X<X=X;.t 3 3 3 3 3 3 3 3 3 3 3 3 u -.K.&.| n.A.S.S.S.A.A.S.C.V.V.S.C.V.A.S.C.V.S.m.j./ &.K.$.r 3 4 3 3 3 3 3 3 3 3 3 3 3 3 3 3 4 3 3 3 3 3 4 3 3 3 3 3 4 3 3 3 3 4 3 3 3 3 3 4 3 3 3 3 3 3 4 3 3 3 4 3 3 3 3 3 4 3 3 3 4 3 3 3 3 3 3 4 3 3 4 4 4 3 3 3 4 3 3 3 3 3 3 4 3 3 3 3 4 3 3 3 4 3 4 3 4 3 3 4 3 3 3 4 3 4 4 4 4 4 4 4 3 3 3 3 3 3 3 4 3 3 4 % 3 4 3 3 3 3 3 4 3 3 3 3 3 3 4 3 3 3 4 3 3 3 3 3 3 3 4 3 3 4 3 3 3 3 4 3 3 3 4 3 3 3 3 3 3 3 4 3 3 3 4 3 3 3 3 3 3 4 3 3 3 3 3 3 3 3 3 3 3 4 4 4 4 3 3 3 3 3 3 3 3 4 3 3 3 3 3 3 3 4 4 4 % 3 3 3 3 3 3 4 3 4 3 3 3 3 4 3 3 3 3 4 3 3 3 4 3 4 3 3 4 3 3 4 3 4 3 3 3 3 3 3 3 3 4 3 3 3 3 3 3 3 3 4 3 4 3 3 3 3 3 3 3 3 4 3 3 3 3 3 3 3 3 3 4 3 3 3 3 3 3 3 4 3 3 3 4 3 3 3 3 3 3 3 3 3 3 3 3 4 3 3 3 3 3 4 3 3 3 3 3 3 3 3 4 3 3 3 3 4 3 3 3 4 3 3 3 3 3 3 4 3 3 3 3 4 3 3 3 3 3 3 3 3 4 3 3 4 3 3 3 3 3 3 3 3 3 3 3 3 3 3 4 3 3 3 3 q 3 3 3 3 3 4 3 3 3 3 3 3 4 3 3 3 3 3 3 3 3 3 3 3 3 3 3 3 3 4 3 3 3 3 3 4 3 3 3 3 3 3 3 4 3 3 3 3 3 3 q 3 4 3 3 3 3 4 3 3 3 3 3 4 3 4 4 3 3 3 3 % 3 3 3 3 4 3 3 3 3 3 3 3 3 3 3 3 3 3 4 3 3 4 3 3 3 3 3 3 4 3 3 3 3 3 3 3 3 3 3 3 3 3 3 3 3 3 3 3 3 4 3 3 3 3 3 3 4 3 3 3 4 4 3 3 3 3 3 3 3 3 3 3 q 3 3 3 3 3 4 3 3 3 3 3 3 3 4 3 3 3 3 3 3 4 3 3 3 3 3 3 3 4 3 4 3 3 4 t.|.y.3 3 3 4 U i.}.4.e 3 <.~.}.9.1.1.1.( 4 3 9.[.W.4 3 3 3 3 3 3 4 7.[.W.( ].].[ 3 3 4 i !.].u.p.|.4.e 3 3 4 3 3 3 3 U }.].[ 3 3 3 3 3 3 3 T |.`.T 3 3 3 3 3 9.}.Q.e 0 9.'.(.d./.P 3 q 3.}.y.].~.( 3 e t.|.y.q 4 e W..Xe.3 e e.|.W.3.3.1.1.i 3 P f.[.q.i.].4.w e g.`.1.4 w s..XQ.<.e 0 4 4 3 3 q 9. Xf.[  X(.( 3 3 3 3 3 w.}.f.q 3 3 3 1..XQ.P 3 0 3 3 3 e.}.W.w q y.|.u.0 3 w d.6Xu.3 3 3 3 3 3 e u. XW.W.E.0 3 e e.].p.}.s.P 3 T |.`.Y 3 3 3 3 3 8.|.Q.y 4 q.].f.6.|.u.P 4 3.|.e.i 3 4..XW.i 3 3 4 4 q y.|.d.w 4 3 3 3 3 3 3 w e e 3 3 3 3 3 3 3 3 3 3 3 H :.K./ 3 u $.K.$.u 3 3 r %.K.{ ` K.:.t 3 4 4 q q ^ :.:.H 4 3 3 3 J :.K.;.:.} 3 4 t :.>.;.J.{ u 3 3 4 3 3 3 4 3 3 3 4 3 3 3 3 3 4 3 3 7 l j h d 3 ; l.z.s 0 7 l.k j s 3 3 3 3 3 3 3 4 ",
"4 3 3 3 3 3 3 H.5X<X<X<X<X5XF.3 3 3 3 4 3 3 3 3 3 3 3 3 4 4 % 4 3 4 K H.;X<X<X<X<X<X<X<X<X<X<X<X<X<X<X<X<X<X<X<X<X@X' 2 3 3 3 4 3 K ;X<X<X1X<X<X<X<X<X1X<X<X5X<X<X<X<X5X<X<X<X5X<X<X;X;.H 3 3 4 4 3 3 3 3 3 3 H %.J.' j.n.S.V.V.V.V.A.m.n.A A Z A A n.A.S.V.V.V.Z.A.n.| { J.$.e 3 3 4 3 3 3 3 3 3 3 3 3 3 3 3 3 3 3 4 3 3 3 3 3 4 4 3 3 3 3 3 3 4 4 4 4 3 4 3 3 3 3 3 4 3 3 3 3 3 3 4 3 3 3 3 3 3 4 4 0 3 3 3 4 3 3 3 3 3 3 3 3 4 3 3 3 3 3 3 3 3 % 4 4 4 3 3 3 4 3 3 3 3 3 4 4 3 4 3 3 3 3 4 3 4 3 3 4 3 4 3 3 3 4 3 3 3 3 3 3 4 4 4 3 3 3 3 4 3 4 3 3 3 3 3 4 3 3 3 3 3 3 4 3 4 3 3 3 3 3 4 3 3 3 3 4 3 3 3 3 3 3 4 4 3 3 4 4 3 3 3 3 3 3 3 3 4 3 3 3 3 3 3 3 3 3 3 3 4 3 3 3 3 3 3 3 4 3 3 3 3 4 4 0 3 3 3 3 3 3 3 3 4 3 3 3 3 3 3 3 3 3 4 3 3 3 3 4 3 3 3 3 3 4 3 3 3 3 4 3 3 3 3 3 3 4 3 3 3 3 4 3 3 3 4 3 3 3 4 4 3 3 4 4 3 3 3 3 0 4 4 3 4 3 3 4 3 3 3 3 3 3 3 4 3 3 3 3 3 3 3 4 3 3 3 3 3 3 3 3 3 3 3 3 3 3 4 3 3 3 4 3 3 3 3 4 3 3 3 4 3 3 3 3 4 3 3 3 3 3 3 3 3 3 3 4 3 3 3 3 3 3 3 3 3 4 3 3 3 3 4 3 3 3 q 3 3 3 3 3 3 3 3 3 3 3 3 3 3 3 3 3 3 3 3 3 3 3 3 3 3 4 4 3 3 3 3 4 3 3 3 3 3 3 4 % 3 3 4 3 3 3 3 4 3 3 4 3 3 3 3 3 3 4 3 3 3 3 3 3 3 3 3 4 3 3 3 3 3 3 3 3 3 3 3 3 4 3 3 3 4 3 3 3 3 3 3 4 3 3 4 3 4 3 3 3 3 3 3 3 4 3 3 3 4 3 3 3 3 3 3 3 3 3 3 4 3 3 3 3 3 3 3 3 3 3 3 4 4 3 3 3 3 3 3 3 3 3 3 4 3 3 3 3 3 3 4 3 3 3 3 3 3 3 4 3 3 3 3 3 3 3 3 3 4 3 3 3 3 4 4 3 3 3 3 3 3 3 3 3 3 3 3 3 3 4 3 3 3 3 3 3 3 3 3 3 3 4 4 q e.|.p.3 4 3 3 i y.|.q.e 3 E ~.7X}. X[.}.f.4 3 7.}.W.w 3 3 3 3 3 4 4 d.}.w.y i.|.9.e 3 3 0 0.`.|.].~.I 3 3 4 3 3 3 3 4 <.|.W.U 2 3 3 3 3 3 0 <..XW.I 3 3 3 3 3 3.].`.P q 0.].W.4.}.<.4 i y.].2.`.W.( 3 4 e.|.T.( 1.y.}.~.1.0 q u.}..X[.[. X].<.% P d.}.[ 3.].W.P e E.].3.4 0 T E.|.'.W.9.i 3 4 4 w W.}.q.y d.|.6.q 3 3 3 3 q.}.W.q 3 3 4 7.|.f.P 3 3 3 3 3 7.}.!.y w y.}.W.( <.e.}.~.1.3 3 3 3 3 3 e s.}.y.y.(.I 4 T f.~.3.}.s.P 3 <.6XW.I 3 3 3 3 3 3.].~.P w 9. Xi.P W.].3.w 3.|.y.i q q..Xd.y 3 3 3 3 0 w.}.E.y 3 3 3 3 3 3 4 w e e 3 3 5 3 3 3 4 3 3 3 3 r } K.$.e J :.K.K 4 3 3 t H.H.^ / :.J.^ 4 3 3 3 3 ^ :.:.J 4 4 3 3 H >.J.' :.-.u q _ :.&.$.K.{ q 4 3 3 4 3 3 3 3 3 3 3 3 3 4 3 3 3 4 3 7 l l h z 0 4 d k ; 3 ; h j h z 3 3 3 3 3 3 3 3 ",
"3 3 3 4 3 3 3 J.5X<X<X<X<X5XF.3 4 3 3 3 3 4 3 3 4 3 4 3 4 4 4 4 3 e :.;X5X<X1X<X<X<X<X<X<X<X<X<X<X<X<X<X<X<X1X<X<X@X} 3 3 3 3 3 3 K <X<X<X<X<X<X<X<X<X<X<X<X<X<X<X<X<X<X<X<X<X<X<X<X1X-X%.e 4 4 3 3 3 4 3 3 r &.J.#.q A A.C.V.C.A.n.A A i q 0 3 0 u c A b.b.A.C.V.Z.n.| r $.H.} 0 3 3 3 3 3 3 3 4 3 4 3 4 3 3 3 3 3 3 3 3 4 3 3 4 4 3 3 3 4 3 3 4 4 4 3 3 3 3 3 3 3 3 3 3 3 3 3 3 4 3 3 3 3 3 3 4 % 3 3 4 3 3 3 3 4 3 3 4 3 4 3 3 3 3 3 3 4 3 3 3 4 3 0 3 3 3 3 3 3 4 4 3 4 4 4 3 3 3 4 3 4 3 3 4 3 3 3 3 3 3 3 3 3 3 3 4 3 4 3 4 4 4 4 4 3 3 3 3 3 3 3 4 3 3 3 3 4 4 3 4 3 3 3 3 3 3 4 3 4 3 3 3 3 3 3 3 3 4 3 3 4 4 4 3 3 4 4 3 3 3 4 3 3 4 3 3 3 3 4 3 4 3 4 3 3 3 3 3 3 3 4 3 3 3 3 3 3 3 3 4 % 3 3 4 3 3 4 3 3 4 3 4 3 3 4 3 3 4 3 4 3 3 3 3 3 3 3 3 3 4 3 3 3 4 3 3 4 3 3 3 3 3 3 3 3 4 3 3 3 3 3 3 3 3 3 4 3 4 4 3 3 4 4 3 3 4 3 3 4 % 3 3 3 3 3 3 4 4 3 4 3 3 3 3 3 3 3 3 3 3 3 3 3 3 3 3 4 3 3 3 4 3 4 3 3 3 3 3 3 3 3 3 4 3 3 4 3 3 3 4 3 4 3 3 3 3 3 3 3 3 3 3 4 3 3 3 3 3 4 4 3 3 3 3 3 3 3 3 3 3 3 3 3 3 3 3 4 3 3 3 4 3 4 4 3 3 4 4 3 4 3 4 3 3 3 3 3 3 3 3 3 3 3 3 4 3 3 3 3 3 4 3 3 4 4 3 3 3 3 4 3 3 3 3 3 3 3 3 3 4 3 3 3 3 3 3 3 3 4 3 4 3 3 3 3 3 4 4 3 3 3 4 3 3 3 3 3 4 3 3 3 3 4 3 4 3 4 3 3 3 3 4 0 3 3 3 3 3 4 3 3 3 4 3 3 4 3 4 3 3 3 3 4 3 3 3 3 3 4 q 3 3 3 3 4 3 3 3 3 4 3 3 3 3 3 3 3 3 3 4 3 3 3 3 3 3 3 3 4 3 3 3 3 3 3 3 3 4 3 4 3 3 3 3 3 4 3 3 3 3 3 3 3 3 3 3 3 3 4 3 3 4 3 3 3 3 3 3 3 3 3 3 3 4 3 4 4 4 q w.7Xy.3 3 3 3 y y.}.q.e 2 <.~.|.y.w.w.e.3.4 3 9.].W.4 3 3 3 3 3 4 T ~. Xy.( y.|.d.I 3 3 4 I d.8X}.9.e 3 3 3 3 3 3 3 q <..XW.U 3 3 3 3 3 3 q <.|.E.I 3 3 3 3 3 3.`.(.I q 9. Xd.T ].w.y ( W.d.( (.~.( 4 q r.}.}.(.).{.Q.7.e 3 w y.|.~.w.w.w.w.U % P d.}.E y e.}.q.I f.`.3.4 0 4 T w.W.[.].p.U 3 0 T (.].w.( s..Xs.I 3 3 3 3 q.}.E.q 3 3 4 6.7Xd.P 2 3 3 0 0 7.[.W.P 4 e.}.}.!.~.}.(.7.e 3 3 3 3 3 3 q p.}.6.4.].9.q 9.~.r.<.}.s.i 0 <..XE.I 2 3 3 3 3 3.`.).P 0 0.[.s.4 <.}.f.E 1.|.y.y 0 9.|.d.y 3 3 3 3 4 w.[.E.i 3 3 3 3 4 3 3 5 y w 3 3 3 3 3 3 3 3 3 3 3 4 ^ K.;.J ^ J.:.u 3 3 r / J.:.` ^ >.K.{ r 3 3 3 4 L :.>.J 4 3 3 3 J ;.J.L -.:./ r %.:.} } K.} r 3 4 3 3 3 3 3 3 3 4 3 4 3 3 4 3 3 3 3 7 l j h d 0 4 7 7 3 3 ; h j l z 3 4 3 3 3 3 3 3 ",
"3 3 3 3 3 4 3 J.5X1X<X1X<X5XF.3 3 3 3 3 3 3 4 3 3 3 3 3 % w 4 0 q ` =X5X<X<X<X<X<X<X<X<X1X<X<X<X<X<X1X<X<X<X<X<X<X@X} 3 3 3 3 3 3 K <X<X<X<X<X<X<X<X<X<X<X<X<X<X<X<X<X<X<X<X<X<X<X<X<X5X+X^ 0 4 3 4 3 3 4 w $.F.-.Z c n.A.V.S.n.j.c $ 3 3 3 3 3 3 3 3 % 0 c b.B.Z.C.n.} J t ;.:.` 4 4 4 4 3 3 4 4 3 3 3 3 3 3 3 4 3 3 3 3 3 3 4 4 4 3 3 3 3 4 3 3 3 3 3 3 3 3 3 4 3 3 3 3 4 4 3 3 3 4 3 4 3 3 3 3 3 3 3 3 3 3 3 3 3 4 3 3 4 3 3 3 3 3 3 3 3 4 3 3 3 3 3 3 3 3 3 3 4 4 4 3 3 4 4 3 4 3 3 3 3 4 3 3 3 3 3 3 3 3 3 3 3 3 4 3 4 3 3 3 4 3 4 3 3 3 3 3 3 3 4 3 3 3 3 3 3 4 3 3 3 3 3 3 3 3 3 3 3 4 3 3 3 3 3 3 4 3 4 4 3 3 4 3 3 4 4 3 3 3 0 3 4 3 3 3 3 3 3 3 3 4 4 4 3 3 3 3 3 3 3 3 3 3 3 3 3 3 4 3 3 3 3 3 3 3 3 3 4 4 3 3 3 3 3 3 4 3 4 3 3 3 3 3 3 3 3 3 4 3 4 3 4 3 3 3 3 4 3 3 3 3 4 3 4 3 3 3 3 3 3 3 4 3 4 3 3 4 4 4 3 4 4 3 4 3 3 3 3 3 3 3 3 3 3 3 3 4 4 3 3 3 3 3 3 3 3 4 3 3 3 3 3 3 4 4 3 4 3 3 3 4 3 4 3 3 3 3 3 3 3 3 3 4 3 3 3 3 3 4 3 3 3 3 3 3 3 3 3 3 4 3 3 4 3 3 3 3 3 3 3 3 3 3 3 3 4 3 3 3 3 3 3 3 3 3 3 3 4 3 3 3 4 3 3 3 3 4 3 3 3 3 3 3 3 4 3 3 4 3 3 4 3 3 3 4 3 3 3 3 3 3 3 0 3 4 3 3 3 3 3 3 3 3 3 3 3 4 3 3 3 3 3 3 4 3 3 3 3 3 3 4 3 3 3 3 3 3 3 3 3 3 3 3 3 3 3 3 3 3 3 3 3 3 3 4 3 4 3 3 3 3 3 3 3 3 4 3 4 3 3 3 3 3 4 3 3 3 3 3 3 3 3 4 3 3 3 3 3 3 3 3 3 3 3 3 3 3 4 3 3 3 3 3 3 w 3 3 3 3 3 4 3 3 3 3 3 3 3 4 3 3 3 3 3 3 4 3 3 3 3 3 3 3 4 3 3 3 4 3 3 4 3 3 4 3 4 3 3 4 3 3 3 3 3 3 4 3 3 3 3 3 4 3 4 3 3 4 0 e.|.p.3 3 3 3 T E.}.4.e 2 E ~. XP 4 q q w 3 3 7.}.W.w 3 3 3 3 3 w w.}.|.~.E.~..X`.4.3 3 4 4 w.7X`.P 3 3 3 3 3 3 3 3 3 T |.`.Y 3 3 3 3 3 3 3 T }.~.Y % 0 3 3 3 4.[.~.y 0 9.].i.i W.~.( 6.(.9.T (./.( 3 0 y.}.].d.d.y.1.y 3 3 w y..Xy.q q w 4 4 3 P d.}.T 3 ( ~.`.2.W.).3.3 3 3 3 q ( w.`.|.w.0 e w. X|.~.E.(.7X`.1.3 3 3 3 q.}.E.q 3 3 5 3.|.Q.P 3 3 3 3 3 w.|.W.w w w.}.[.W.~..XW.Y 3 3 3 4 3 3 3 e s.[.3.T (.d.i d.W.1.<.}.d.I 3 [ |.(.Y 3 3 3 3 3 7.}.~.i 4 0. Xs.3 e s.].y.7.}.y.i 3 6.7XW.e 2 3 3 3 4 e.|.f.w 3 3 4 3 3 4 4 w e w 3 3 3 3 3 3 3 3 4 3 3 3 r :.J.} $.K.&.r 3 6 t &.+XJ.:.:.:.+X:.t 3 3 3 4 ^ :.:.J 4 3 4 3 J ;.J.y { :.&.t :.%./ $.J.{ r 3 3 3 3 3 4 3 3 3 3 3 3 4 3 3 3 3 3 q 7 l d h j 4 0 4 4 3 4 s l.f j s 4 4 3 4 3 3 4 3 ",
"3 4 3 3 3 3 3 L.5X<X<X<X<X5X:.3 3 3 4 3 3 4 3 3 3 4 3 3 4 4 4 5 t F.;X<X<X<X<X<X<X<X1X1X1X<X1X1X<X5X<X1X1X<X5X<X<X#X' 3 3 3 4 3 3 K :X1X<X<X1X<X<X<X1X1X<X5X<X5X5X<X5X<X5X<X<X<X<X<X<X1X-X;.q 4 3 3 3 3 4 K :.;.c m.n.m.A.Z.n.c 0 3 3 3 3 3 3 3 3 3 3 3 0 $ 0 c b.A.n.:.H.} J :.:.y 4 4 3 3 3 3 3 3 3 3 3 3 4 3 3 3 3 3 4 3 3 3 4 % 4 3 3 4 3 3 3 4 3 3 4 3 3 3 3 3 3 4 4 % 0 3 3 3 3 3 3 3 3 4 3 3 3 3 3 4 3 3 3 4 3 3 3 3 3 3 3 4 3 3 3 4 3 3 3 3 3 3 4 3 3 3 3 4 4 4 3 3 % 4 3 3 3 3 3 3 3 3 3 3 4 3 4 3 3 3 4 3 3 3 3 3 3 3 3 3 3 3 3 3 3 3 4 3 3 3 3 3 3 3 3 3 3 3 3 3 4 3 3 4 3 3 3 3 3 3 3 3 4 3 3 3 3 3 3 3 4 % 4 3 4 4 3 3 3 4 4 % 4 3 3 4 3 3 4 4 4 4 3 3 3 4 3 4 3 3 4 3 3 4 3 4 3 3 3 4 3 3 3 3 4 3 3 3 3 3 3 4 3 3 3 3 3 3 3 3 3 4 3 3 3 4 3 3 3 3 3 3 3 3 3 3 3 3 4 3 3 3 3 3 3 3 3 3 3 4 3 3 3 3 3 3 3 4 % 3 4 4 3 3 3 3 3 3 4 3 3 3 4 3 3 4 4 4 3 3 4 3 4 3 3 4 3 3 4 3 4 3 3 3 4 3 3 3 3 3 3 3 3 3 3 4 3 3 3 4 3 3 3 3 3 3 3 3 3 3 3 3 3 3 4 3 4 3 3 3 3 3 3 3 3 4 3 3 3 3 4 3 3 3 3 3 4 3 3 3 3 3 3 3 4 3 3 3 3 3 3 3 3 3 3 3 3 3 3 3 3 3 4 3 3 3 3 3 3 3 3 3 3 3 3 3 4 3 3 3 4 3 3 3 3 3 3 4 3 3 3 3 4 3 3 4 3 3 3 4 3 3 3 3 3 4 3 3 3 3 3 3 3 4 3 3 3 3 4 3 3 3 4 3 3 4 3 3 3 4 3 3 3 3 3 3 3 3 3 4 3 3 3 4 3 3 3 3 3 3 3 3 3 3 3 3 3 3 4 3 3 3 3 3 4 3 3 3 3 3 3 3 3 3 4 3 3 3 3 3 3 3 3 3 3 3 3 3 4 3 3 3 4 3 3 3 4 3 3 3 3 3 4 3 3 3 3 4 3 3 3 4 3 3 3 3 3 3 3 3 3 3 3 3 3 3 3 3 3 3 3 4 3 3 3 3 3 4 3 3 3 3 3 3 3 3 4 0 e.}.u.3 3 3 4 3.].].T 4 3 <.(.}.i 3 3 3 3 3 3 7. XW.4 3 3 3 3 3 e W.}.[.].].].|.6Xy.4 3 3 3 4. X/.0 3 3 3 4 3 3 3 3 3 P ].}.3.4 3 3 3 3 3 3 U ].}.2.3 3 3 3 q u..XE.w 3 q. Xu.e 9.'.w.s./.R T (.!.( 4 q t.|.s.e q 3 3 3 3 3 q y.|.y.3 3 3 3 3 3 P f.}.<.% y 7.}.s.`.].4.3 3 3 3 3 4 0 w.|.f.i y ~.|.}.`.].`. X7Xe.0 3 3 3 q.}.^.q 3 3 3 T }. XT 3 3 3 3 e i.|.i.0 4 y.|.u.y [ [.].3.3 3 3 3 3 3 3 e u.}.4.i p.].4.~.p.i <.|.p.P 2 I '.[.<.0 3 3 3 w y.|.W.4 3 q. Xi.3 4 [ ~.~.d.|.e.i 2 <.}.].U 3 3 3 3 e E..Xe.3 3 3 3 3 3 3 3 w y 5 3 3 3 3 3 4 3 3 3 3 3 3 e &.J.:.;.H.^ 0 3 3 / :.+XJ.:.H.:.J.K._ 4 3 3 4 K :.:.J 4 3 3 3 t :.J.H L ;.:.` K.' t $.J.{ q 3 4 3 3 3 3 3 4 3 3 3 3 3 3 3 3 3 4 q 7 j z l l.d 8 8 4 ; z h h z k z 4 4 3 3 3 3 3 3 ",
"3 3 4 3 3 3 3 J.5X1X<X<X1X5XF.3 3 3 3 4 3 3 3 4 3 3 3 3 3 3 4 % t @X:X<X<X<X<X<X<X<X;X;X;X;X;X;X;X;X;X;X;X;X;X;X;XP.` 3 3 3 3 3 3 L :X<X<X<X<X<X<X;X;X;X;X;X;X;X;X;X;X;X;X<X<X<X<X<X<X5X<XK.q 3 3 3 3 3 r :.;.| n.Z.V.V.A.n.q 0 3 3 3 3 0 3 3 3 3 3 3 3 3 3 3 4 9 ,.&X<X<X@X^ ] ;.&.0 3 3 3 3 3 3 3 4 3 3 3 3 4 3 3 3 3 3 3 3 3 3 4 3 3 3 4 3 3 3 3 3 3 3 3 3 4 3 3 3 3 4 3 3 3 3 3 3 3 3 3 3 3 3 4 3 3 3 4 3 3 3 4 3 3 3 4 3 3 3 3 4 4 4 3 3 4 3 3 3 3 3 3 3 4 3 4 3 3 3 3 3 3 4 3 3 3 3 3 3 3 3 3 3 3 4 3 3 4 % 4 3 4 3 3 3 4 3 3 3 4 3 3 3 3 4 3 3 3 % 4 4 3 3 3 3 3 3 3 3 3 3 3 3 4 3 3 3 3 4 % 3 3 3 3 3 3 3 3 3 4 3 3 3 3 3 4 3 3 3 4 3 3 3 4 3 3 3 4 3 3 3 3 3 4 4 4 4 4 3 3 3 3 3 3 4 3 3 3 3 3 3 3 3 3 3 3 4 3 3 3 4 3 3 3 3 3 3 3 3 3 3 3 3 3 3 4 3 3 3 3 4 3 3 4 3 3 3 4 3 3 3 3 3 4 4 3 4 3 3 4 3 3 3 3 3 3 3 3 3 3 4 3 3 3 3 3 3 3 3 4 3 3 3 4 3 4 3 3 3 3 3 3 3 3 3 3 3 3 4 3 3 3 4 4 4 4 3 3 3 3 3 3 4 3 3 4 % 4 4 3 3 3 3 4 4 3 3 3 3 4 3 3 3 3 3 4 3 3 3 3 3 3 3 3 3 4 3 4 3 3 q 3 3 4 3 3 3 3 3 3 3 3 3 3 3 3 3 3 3 4 3 3 3 3 3 3 3 4 3 3 3 3 3 3 4 3 3 4 3 3 3 3 3 3 4 3 3 3 3 3 3 4 3 3 3 3 3 3 4 3 3 3 4 % 3 3 3 4 3 3 3 3 3 4 3 3 3 4 3 3 3 3 4 3 3 4 3 3 3 3 3 3 4 3 3 3 3 4 4 4 3 3 4 3 3 4 3 3 3 3 3 4 3 3 3 3 3 3 3 3 3 3 3 4 3 3 3 3 3 3 4 3 3 4 3 3 3 3 3 3 4 3 3 3 3 3 5 4 3 3 4 3 3 4 3 3 3 3 3 3 3 3 3 3 3 3 3 3 3 3 3 3 4 3 3 3 3 3 3 4 3 4 3 3 3 3 4 3 4 3 3 3 3 3 3 3 3 3 3 3 3 3 3 3 3 3 3 3 3 4 4 3 3 3 3 q w.|.d.0 q e Y E.7XE.e 3 3 [ (.].P 0 q 0 0 3 3 9.}.W.e w w q q w T  X(.6.I I U w.].!.Y 4 4 3 4. X(.e 3 3 3 3 3 3 3 3 3 i i.|.E.E q q w q q 3 y s.|.i.U q q e 5.Q.].9.q 4 9.].d.4 T `.`.(.d.e U (.~.( 3 4 r.|.y.4 3 4 3 3 3 3 q u.|.y.q e q e 4 3 P E.}.T 2 3 i !.[.7X(.4.0 0 e e e 0 e 0.].d.P [  X(.6.I I U w.].E.U 4 3 3 w.|.E.4 3 3 3 I d..Xt.P q w e 1.`.].3.3 q e.|.p.3 e e.}.f.U 4 3 3 3 3 3 e u.}.4.0 3.|.Q.`.9.q <.}.i.P 3 i p.7Xs.U 0 e w [ ~.[.9.4 4 q. Xi.3 3 4 w. X|..Xy.i 2 I g.7X0.P q e e 3.'.(.3.3 3 3 3 3 3 3 3 w e q 3 3 4 3 3 3 3 3 3 3 3 3 4 ^ H.P.K.:.r 3 3 4 ' K.:./ t t / %.K.&.t 3 4 0 / :.>.J 0 3 3 3 H ;.J.t w &.K.:.H.J q $.K.{ r 3 3 3 3 3 3 3 3 3 3 4 3 3 3 3 4 4 3 3 7 j 7 z h l.j d s k h l.d 4 k s 3 3 3 3 3 4 3 3 ",
"3 4 3 3 3 3 3 H.5X<X<X<X<X5X:.3 3 3 3 3 3 3 3 3 3 3 4 3 4 3 w % J -X5X<X<X<X<X<X<XK.} / L H H H J H L H H H H J H H w 3 3 3 3 3 3 K <X<X<X<X<X<X<X' t H H L L t H H H K { P.<X<X<X<X<X<X5X@Xq 3 4 3 0 q _ :.' A A.V.V.A.j.0 0 3 3 3 3 3 4 3 3 3 3 3 3 3 3 3 3 3 w u -.-X<X<X:.K &.H.t 0 3 4 3 3 3 3 3 3 3 4 3 3 3 3 3 4 3 4 3 3 3 3 3 3 3 3 3 4 3 4 3 3 4 3 3 3 3 3 4 3 3 3 3 4 3 3 3 q 3 3 4 3 3 3 4 3 3 3 3 3 3 3 3 3 3 3 4 3 4 3 4 4 3 3 3 3 3 4 3 4 3 3 3 3 3 3 3 4 3 4 3 3 4 3 3 4 3 4 3 3 4 3 3 4 3 3 3 3 0 4 3 3 3 3 3 3 4 3 3 3 3 3 3 3 3 3 3 4 4 3 0 3 3 4 3 3 4 3 3 3 4 3 3 3 3 4 3 3 4 4 3 3 4 3 4 3 4 3 3 3 3 3 3 3 3 3 4 3 3 3 3 3 3 3 3 3 4 4 4 % 3 3 4 4 % 4 4 4 3 4 3 3 3 3 3 3 3 4 3 3 3 3 4 3 4 3 3 3 3 3 3 3 3 3 3 4 3 3 3 3 3 4 3 3 3 3 3 3 3 3 3 3 3 3 3 3 3 3 3 3 3 3 3 3 3 3 4 4 3 3 3 3 3 4 3 4 3 3 3 3 3 3 3 4 3 4 3 3 3 3 3 3 4 4 4 % 4 3 3 4 3 3 4 3 3 3 4 3 3 3 3 4 4 4 3 3 3 3 4 3 3 4 3 3 3 3 0 4 3 3 3 3 3 3 3 3 3 3 3 3 3 3 4 3 3 3 3 3 3 3 4 3 4 3 3 3 3 3 3 3 3 3 3 3 3 3 3 4 3 4 3 4 3 3 3 3 3 4 3 3 3 3 3 4 4 3 3 3 3 3 3 4 3 3 3 3 3 3 3 3 3 3 4 3 3 3 3 3 3 3 3 3 3 3 4 3 3 4 3 3 3 3 4 4 4 3 3 3 3 3 3 4 3 3 3 3 3 3 3 3 3 3 3 3 3 3 3 3 3 4 3 3 3 3 3 4 3 3 4 4 3 3 3 3 3 3 3 3 3 4 3 3 3 3 3 4 3 4 3 3 3 4 3 3 3 3 3 4 3 3 3 3 3 3 3 3 3 3 4 3 3 3 3 4 3 3 3 4 3 3 3 3 3 3 4 3 3 4 3 3 3 3 3 4 3 3 3 3 3 4 3 3 3 3 3 3 4 3 3 3 3 3 3 3 3 3 3 3 3 3 3 4 3 3 3 3 4 3 4 3 3 3 4 3 3 3 3 3 3 3 3 3 3 3 3 q t.}.!.9.9.s.(.6X!.( 4 3 3 [ (.|.w.4.9.9.2.e 3 9.].].e.w.e.e.1.I w.}.y.P 0 0 0 P W. X9.0 3 3 6.].(.e 3 3 3 3 4 3 3 3 3 0 Y (.|.Q.u.q.w.i.3.u q U (.|.~.y.w.u.`.|.d.y 0 4 w.].s.3 e W.7X`.6.q Y (.~.[ 3 4 t.|.r.3 3 3 3 4 3 3 w r.|.Q.4.6.4.6.U 4 i d.}.<.3 3 w <. XyX(.3.e T d.d.w.9.e.].|.q.y e.|.w.P 4 4 0 I ~.].6.4 3 3 0.|.T.4 3 3 3 q ( ].|.W.e.q.u.'.|.e.y 3 q e.|.u.3 4 i !.}.e.0 4 3 3 3 3 e s. X3.3 I `.7XW.5.q <.}.s.I 3 q U (.|.~.e.9.y.].|.i.i 4 4 q.[.i.3 0 3 U i.yX|.r.i 3 q [ ].|.E.w.0.s. X|.w.y 3 4 3 3 4 3 3 4 5 e w 3 3 3 3 3 3 3 3 3 4 3 4 4 r :.+XJ.&.q 3 3 J -.K.' r 3 4 q K H.:.^ 3 3 0 K :.:.J 3 3 3 3 H >.J.H 2 ` K.K.%.t r } K.{ r 3 3 3 3 3 3 3 3 3 3 3 3 3 3 3 3 3 3 3 ; j 7 4 z j l.l.l.l.h s 8 4 k s 3 3 3 3 3 3 3 3 ",
"3 3 4 3 3 3 3 L.5X<X<X<X<X5XH.3 3 3 3 3 3 3 3 3 3 4 3 4 3 3 3 5 J ;X5X<X<X<X<X<XJ.` q 4 3 3 3 2 2 3 3 3 3 6 2 3 3 3 3 3 3 3 3 3 3 K <X<X<X<X<X<X:XL 3 3 3 % 3 5 3 3 3 3 u ` K.<X<X<X<X<X5X+Xq 4 3 3 3 u :.#.| n.C.V.S.n.c 0 0 3 3 3 3 3 4 3 4 3 3 3 3 3 3 3 0 3 4 3 H :.<X<X-X} _ >.$.r 3 3 3 3 3 3 3 3 3 3 4 3 3 3 3 3 3 3 3 4 4 3 3 3 3 4 3 3 4 3 4 3 3 3 3 3 3 3 3 3 3 3 3 3 3 3 3 3 3 4 3 3 3 4 3 3 3 3 3 4 3 3 3 3 3 4 3 3 3 3 3 4 4 4 3 3 3 3 4 4 4 3 3 3 3 3 3 3 3 3 4 3 4 4 3 3 3 3 4 3 3 3 3 3 3 3 3 3 3 3 3 3 3 3 3 3 3 3 4 4 3 3 3 3 3 3 3 3 3 3 3 3 3 3 4 3 3 3 3 3 3 3 3 3 3 3 3 3 0 3 3 3 3 4 3 3 3 3 3 3 3 3 3 4 3 4 3 3 3 3 3 4 3 3 3 3 4 4 4 4 3 4 4 4 4 3 4 4 3 3 4 3 4 3 3 3 4 3 4 3 3 4 4 3 3 3 3 3 0 4 3 3 3 3 3 3 3 3 3 4 3 3 4 3 4 3 3 3 4 3 3 3 3 3 4 3 3 3 4 3 4 3 3 3 3 4 4 4 3 3 3 4 3 3 4 3 4 3 3 3 3 3 3 3 4 3 4 3 3 3 3 3 4 4 4 4 3 3 3 3 3 3 3 3 3 3 3 3 3 3 3 3 4 4 4 % 3 4 3 4 3 3 4 3 3 3 3 3 3 3 3 3 3 3 4 3 3 3 3 3 4 3 3 3 3 3 3 4 3 4 3 3 3 3 3 3 3 3 3 4 3 3 3 3 3 3 3 3 3 3 3 4 3 3 3 4 3 3 3 3 3 3 3 3 3 3 4 3 3 3 3 3 4 3 3 3 3 3 4 3 3 4 3 3 3 3 3 4 3 3 3 3 3 4 3 4 3 3 4 3 3 3 0 3 3 3 4 3 3 3 3 3 3 3 3 4 3 3 3 3 3 4 3 3 3 3 3 4 3 3 3 3 3 3 3 3 3 4 % 4 3 3 3 3 3 3 3 3 3 3 4 3 3 3 3 3 3 3 3 4 3 3 4 3 3 3 3 3 3 4 3 3 3 3 3 4 3 3 3 3 3 3 3 3 3 3 3 3 4 3 3 3 3 4 3 3 4 3 4 3 3 4 3 4 3 3 3 4 3 3 4 3 3 3 3 3 3 3 3 3 3 3 3 4 4 3 3 3 3 3 3 3 4 3 3 3 4 3 3 3 3 4 3 3 4 3 3 3 3 4 3 3 3 3 3 q e.|.7X].}.].(.p.( q 4 3 * [ (.8X}.].{.}.~.i 4 9.}.8X|.}.}..Xi.1.(.|.2.3 3 3 4 4 e.6XE.e 3 3 3.}.(.q 3 3 3 4 3 3 3 3 3 4 w <.d.`.}.[. X).7.e 3 0 [ d.`.].]. X~.w.I 4 3 3 w.}.d.3 4 w.|.W.U q Y `./.[ 4 0 y.7Xy.4 3 3 3 3 3 3 q p..X7X X[.}.}.9.w P E.}.[ 2 3 4 y d.7X`.3.q U d.].]. X].!.0.i U `.}.[ 4 3 3 3 4 y.6Xd.e 3 2 w.6XW.q 4 3 3 4 e <.f.]. X X X~.q.P 3 3 q r..Xp.3 3 4 4. X].3.0 3 4 3 3 e d.|.4.& y d.7Xy.i q 1..Xu.P 3 3 q [ d.`.].}.}.~.w.Y 4 3 0 q.}.s.0 3 3 3 4. X7Xu.y 3 4 e 1.d.].}.].].Q.9.i 3 3 3 4 3 3 3 3 3 e e e 3 3 3 3 4 3 3 3 4 3 4 4 3 0 &.P.:.^ 4 4 3 ` J.H.t 4 3 4 4 u :.K.} 3 3 4 K F.:.J 0 3 3 3 L :.K.H 3 K :.P.` q u $.K.} r 3 3 3 3 3 3 3 3 3 3 3 3 3 3 3 4 3 3 4 7 l z 7 z s d k k k s z ; 7 l s 3 4 3 4 3 3 3 4 ",
"3 3 3 3 3 3 3 J.5X<X1X<X<X5XF.3 3 3 3 3 3 3 4 3 3 3 3 3 3 3 4 % J ;X<X5X<X<X<X<X$.0 3 3 3 3 3 3 4 3 3 3 3 4 4 3 3 3 3 3 3 3 3 3 3 ^ ;X<X<X<X<X5X:X/ 2 3 3 3 3 3 3 3 3 3 3 w >.5X5X<X<X5X5X@Xq 3 3 3 4 L K.L n.A.C.C.n.) * 0 0 3 3 3 3 3 3 3 3 3 3 3 3 3 K &.{ q 4 3 3 ` @X<X1X:._ $.J.u 3 3 3 3 3 3 4 3 3 3 3 3 4 3 3 3 4 3 3 3 3 3 3 4 3 3 3 3 3 3 3 3 3 3 4 3 3 4 4 3 3 3 3 3 3 3 3 3 3 3 3 4 3 3 3 3 4 3 3 3 4 3 3 3 3 3 3 3 3 3 4 4 4 % 4 3 3 3 4 4 3 3 4 3 4 3 3 3 3 4 3 3 4 4 3 3 3 4 3 3 3 4 3 3 3 4 3 3 3 3 3 3 3 3 4 3 4 4 4 4 4 3 3 4 3 3 4 3 3 3 4 3 4 3 3 3 3 3 3 3 3 3 3 3 3 4 3 3 3 3 3 3 3 3 3 3 3 3 4 3 4 3 3 3 3 3 3 3 4 3 3 3 4 3 3 3 4 4 3 3 3 3 4 4 3 3 3 3 3 4 3 3 3 3 3 4 3 3 3 3 3 3 3 3 3 3 4 3 3 4 % 4 3 3 3 3 4 3 3 3 4 3 3 3 3 3 3 4 3 3 3 3 4 3 3 3 4 3 3 3 3 3 3 3 4 % 0 4 4 3 3 3 3 3 3 3 3 3 3 4 3 4 3 3 3 3 3 3 4 3 3 3 4 4 3 3 3 3 3 3 3 4 3 3 3 4 4 3 3 3 3 3 4 3 3 4 3 3 3 3 3 3 3 3 3 3 3 3 3 4 3 3 3 3 3 3 3 3 4 3 3 3 3 4 4 3 3 3 3 3 4 3 3 3 3 3 4 3 3 3 3 3 3 3 3 4 3 3 3 3 3 3 4 3 3 3 3 3 4 3 3 4 3 3 3 3 3 3 3 4 3 3 3 3 3 3 4 3 3 3 3 3 3 4 3 3 3 3 3 3 4 3 3 3 3 3 3 3 3 3 3 3 3 3 3 3 3 3 3 4 3 3 3 3 3 3 4 3 3 3 3 3 3 4 3 3 3 3 3 4 4 3 3 3 3 3 3 3 4 4 4 3 3 4 4 3 3 3 3 3 3 3 4 3 3 3 4 3 3 3 3 3 3 3 3 4 3 3 3 3 3 4 3 3 3 3 3 4 4 3 3 3 3 3 3 3 4 3 3 3 3 4 3 3 3 3 3 3 3 3 3 3 3 3 4 3 3 3 4 3 3 3 3 3 4 3 3 3 3 3 4 3 3 3 3 3 3 4 3 3 3 3 3 3 3 4 3 3 3 3 3 3 3 4 3 3 3 4 3 3 3 3 3 4 3 4 [ 9.w.q.w.9.2.P q 4 4 4 4 P 3.w.w.w.w.w.9.y 4 I 7.w.w.w.w.e.1.I 9.9.P 3 3 3 4 3 U 9.4.0 3 3 I 9.4.4 3 3 3 3 3 4 3 3 3 3 3 0 U 3.q.w.w.7.U q 3 3 0 Y 3.9.w.7.<.P 4 3 3 4 T 6.<.4 4 I 6.1.q 0 y 4.3.i 3 3 [ 9.[ 4 3 4 3 3 3 3 0 [ 9.w.w.e.w.w.( 0 e 1.7.i 3 3 3 0 T 9.4.I 4 q ( 9.9.w.9.<.y 3 i 9.9.y 3 3 3 4 4 T 9.4.0 4 3 T 9.<.4 4 3 4 3 4 0 T 3.q.q.7.<.i 3 3 4 0 ( 9.5.3 3 3 i 3.9.T q 3 3 3 4 0 <.6.U 3 e ( 9.Y q 0 P q.<.u 3 3 q 0 I 3.9.9.7.<.y 3 3 3 3 T 7.<.3 3 3 3 i 3.9.( q 3 4 4 0 ( 4.9.0.9.( e 4 3 3 3 3 3 3 3 3 4 w e e 3 3 3 3 3 4 3 3 3 3 3 3 3 3 J } _ t 4 3 3 J } ` q 3 3 4 4 q ^ { L 4 3 3 u ` ` u 4 3 3 3 u _ ' r 3 u _ ' u 0 q K { L q 3 3 3 3 3 3 3 3 3 4 3 4 3 3 3 3 3 3 4 7 k d s s s s s s z s s s s k z 0 3 3 3 3 3 4 3 ",
"3 3 3 3 3 3 3 H.5X1X<X<X<X5X:.3 3 4 3 3 3 3 3 3 3 4 3 3 3 4 3 3 J ;X5X<X<X<X<X<X' 4 4 4 3 3 3 3 3 4 4 3 3 3 3 3 3 3 3 3 3 3 4 3 2 / ;X<X<X<X<X<X:X/ 2 3 3 3 4 3 3 3 3 3 3 2 &.5X<X<X<X<X5X@Xr 3 4 3 r } H.L A n.B.A.j.u 3 3 3 3 3 3 3 3 3 3 3 4 3 3 3 K H.@X;.4 3 3 3 u ;.<X;XJ._ ^ P.K 4 3 3 3 3 4 4 3 3 3 3 3 3 4 3 3 3 3 3 3 4 3 3 3 3 4 3 3 3 3 3 4 3 3 3 3 3 3 4 3 3 3 3 3 3 4 3 3 4 3 3 3 3 3 3 3 3 3 3 4 3 3 3 4 3 3 3 3 3 4 3 3 4 4 3 3 3 4 % 4 4 4 3 3 3 3 3 4 3 3 3 3 4 3 4 % 3 3 4 3 3 3 3 3 3 3 4 3 3 4 3 3 3 3 3 3 4 3 3 3 4 3 3 3 3 4 3 3 3 3 4 3 3 3 3 4 3 3 q 3 3 3 3 3 3 3 3 3 3 3 3 4 3 4 3 3 3 3 3 3 0 4 4 3 3 3 4 4 3 3 3 4 3 3 3 4 3 3 3 3 3 4 3 3 3 3 4 3 3 3 4 3 4 3 3 3 3 3 3 3 3 4 3 3 3 3 3 3 3 3 3 3 3 3 3 q 3 3 3 3 3 3 4 4 4 4 3 3 3 4 3 3 3 3 4 3 3 3 3 3 3 3 3 4 3 3 3 4 3 3 4 3 3 3 4 3 0 4 4 3 3 3 4 4 3 3 4 4 3 3 3 4 3 3 3 3 3 3 3 3 3 3 3 3 3 3 4 3 3 3 3 3 4 4 3 3 4 3 3 3 3 3 4 3 3 3 3 4 3 3 3 3 4 3 3 4 3 3 3 3 3 4 3 3 3 3 3 4 3 4 3 3 3 3 3 3 3 3 3 3 4 5 3 3 3 4 3 3 3 4 3 3 3 3 3 3 3 3 4 3 3 4 3 3 3 3 4 3 3 3 3 3 3 4 3 3 3 3 4 3 3 3 4 3 3 3 3 3 3 4 4 4 4 4 3 3 3 3 4 3 3 3 3 4 3 3 4 3 3 3 3 3 4 3 3 4 3 3 4 3 3 4 3 3 3 3 4 3 3 3 3 4 3 3 3 3 3 3 3 4 3 3 3 4 3 3 3 3 3 3 3 3 3 4 3 3 3 3 3 3 3 4 3 3 3 3 3 3 3 4 3 3 3 3 4 3 3 3 4 3 3 3 3 3 3 4 4 3 3 3 3 3 3 4 3 3 3 3 4 3 4 3 3 3 3 4 3 3 3 3 4 3 3 3 3 3 3 3 3 3 3 3 3 3 3 3 3 3 3 3 3 3 3 3 3 3 3 3 4 3 4 3 3 3 3 3 4 3 3 3 3 4 3 3 3 3 3 3 2 3 3 2 3 3 4 3 3 3 4 3 3 & 4 3 * 3 3 3 3 3 3 % 3 3 2 2 3 3 3 3 3 3 3 3 4 3 3 2 3 3 3 3 3 3 3 3 3 3 3 4 3 3 3 3 3 3 3 3 3 3 2 3 2 3 3 3 3 3 3 3 2 3 3 2 3 3 3 3 3 3 3 3 3 3 3 3 3 3 4 4 3 3 3 3 3 3 3 3 3 3 3 3 4 3 3 3 3 3 3 2 3 2 3 2 3 3 3 3 2 3 3 3 3 3 3 2 3 3 4 3 3 3 3 * 3 2 3 3 3 3 3 3 3 3 4 3 3 3 3 3 3 3 3 3 2 3 4 3 3 4 3 3 3 3 3 3 2 3 2 3 3 3 3 3 3 3 3 3 3 4 3 2 3 3 4 3 3 3 3 3 3 3 3 3 3 3 3 3 3 3 3 2 3 3 3 3 3 3 3 3 2 3 3 3 3 3 3 3 3 3 3 3 3 3 3 3 3 3 2 3 4 4 3 3 3 3 3 * 3 * 3 3 3 3 3 3 3 3 3 3 3 3 4 w 5 4 3 3 4 3 3 3 3 3 3 4 3 3 3 3 3 3 3 3 3 4 3 2 3 3 3 3 3 3 3 3 3 3 3 3 3 3 3 3 3 3 3 3 3 3 3 3 3 3 3 3 2 3 4 3 3 3 3 3 3 3 3 3 3 3 4 3 3 3 3 3 3 3 3 3 4 3 4 5 s z z z z s z z z z z z z s 7 3 3 3 4 3 3 3 3 ",
"3 4 3 3 3 3 3 J.5X<X<X<X<X1XF.3 3 3 3 3 4 3 4 3 3 3 3 3 3 3 3 3 J ;X<X<X5X<X<X<X;.H 4 4 3 3 3 3 3 3 3 3 3 3 3 3 3 4 3 3 3 3 3 3 3 K <X<X5X<X<X<X:XK 3 3 3 3 3 3 3 3 3 3 3 3 &.5X<X<X<X<X5X@Xu 3 3 4 t :.J.$.L u | j.> * 3 3 3 3 3 4 3 3 3 3 3 3 3 0 J J.#X:.H 4 3 3 3 q / -X=X;.H J :.$.t 3 3 3 3 3 3 3 3 3 3 3 3 3 3 3 3 3 3 4 3 3 3 3 3 3 3 3 4 3 3 3 3 3 3 3 3 3 3 3 3 3 4 3 3 3 3 3 3 3 3 3 3 3 4 3 3 3 3 3 4 3 3 3 3 3 4 3 3 3 3 3 4 4 3 3 3 3 4 4 4 3 3 3 3 3 3 3 3 3 4 3 4 3 3 4 3 3 3 3 3 4 4 3 4 3 3 3 3 3 3 3 4 3 4 3 3 3 3 3 % 3 3 4 3 3 4 3 3 4 3 3 3 3 3 3 3 3 3 3 3 4 3 3 3 q 3 3 4 3 3 3 3 3 3 3 3 3 4 3 3 4 % 3 4 4 4 4 3 3 3 3 4 3 3 3 3 3 4 3 3 3 3 3 3 3 3 3 3 3 3 3 3 3 3 3 3 3 3 3 3 3 3 4 3 3 4 3 3 3 3 3 3 4 3 3 4 3 3 4 3 3 4 5 3 3 3 3 3 3 3 3 3 3 3 3 3 3 3 q 3 4 3 3 4 3 3 3 3 3 3 3 3 3 3 3 3 4 % 3 3 4 4 4 3 3 4 4 4 3 3 3 3 3 4 3 4 3 3 3 3 q 3 3 3 3 3 3 3 3 4 3 3 4 3 3 3 3 3 3 3 3 3 3 3 3 3 3 3 3 4 3 3 3 3 4 3 4 3 3 3 3 3 3 3 3 3 3 3 3 3 3 4 3 4 3 3 3 4 3 4 3 3 3 3 3 3 3 3 3 3 3 3 4 3 3 3 3 3 3 3 3 3 3 3 3 3 3 3 4 3 3 3 3 3 3 3 3 3 3 3 3 3 3 3 3 4 3 3 3 3 3 4 4 3 3 3 3 3 3 3 3 3 3 3 3 3 3 3 4 3 3 3 3 3 3 3 3 3 3 3 3 3 3 3 3 3 3 3 3 3 3 3 3 4 3 4 3 3 3 3 3 3 3 3 4 3 4 3 3 4 4 3 3 3 3 3 3 3 4 3 3 3 3 3 4 3 3 3 3 3 3 3 3 3 3 3 3 3 3 3 3 4 3 3 3 3 3 3 3 3 3 3 3 3 3 3 3 3 3 3 3 3 3 3 3 3 4 3 3 3 3 3 3 4 3 3 4 3 3 3 3 4 3 3 4 3 3 3 4 3 4 3 3 3 3 3 3 3 3 3 3 3 3 3 3 3 3 3 3 3 3 3 4 3 3 3 3 3 3 3 3 3 3 4 4 3 3 3 3 3 3 4 4 3 3 3 3 3 3 3 0 3 3 3 3 3 3 3 3 3 3 3 3 3 3 3 3 3 3 3 3 3 3 3 3 3 3 3 3 3 3 4 3 3 3 3 3 3 3 0 3 3 3 3 4 3 3 3 3 3 4 3 3 3 3 3 3 3 3 3 3 3 3 3 3 3 3 4 4 3 3 3 3 3 3 3 3 3 3 3 3 3 3 4 3 3 3 3 3 3 3 3 3 3 3 3 3 3 3 3 3 3 3 3 3 3 3 4 4 3 3 3 3 3 3 3 3 3 3 3 3 3 3 3 3 3 3 3 3 3 3 4 3 4 3 3 3 3 3 3 3 3 3 3 3 0 3 3 3 3 3 3 3 3 3 3 3 3 3 3 3 3 3 3 4 3 3 3 4 3 3 3 3 3 3 3 3 3 3 3 4 4 3 3 3 3 3 3 3 3 3 3 3 3 3 3 3 3 3 3 3 3 3 3 3 3 3 4 3 3 3 3 3 3 3 3 4 3 4 3 3 3 3 3 3 3 4 3 3 4 3 4 3 3 4 3 3 3 3 3 3 4 3 3 3 3 3 3 3 3 3 3 3 3 3 3 3 3 4 3 3 3 3 3 3 3 3 3 3 3 3 3 3 3 3 3 3 4 3 3 3 3 3 3 4 3 4 4 3 3 4 3 3 3 3 3 3 4 3 3 3 3 4 3 3 4 3 3 3 3 3 4 3 3 3 3 3 4 3 q q 4 4 3 4 4 4 3 3 3 3 3 3 3 3 3 ",
"3 3 3 3 3 3 3 H.5X1X<X<X<X5XF.3 3 3 3 4 3 4 3 3 3 3 3 3 3 3 4 % L =X<X<X<X<X<X<X-X:./ r 0 r r q 4 q q 4 4 4 4 4 3 3 3 3 3 3 3 3 3 K <X5X<X<X<X5X:XK 3 3 3 3 3 3 3 3 3 3 3 2 &.5X<X<X<X<X5X@Xq 3 3 3 H :.;X;X-X+X:.} L r 0 0 4 3 3 3 4 3 3 3 3 3 3 u H.=X;.t 4 3 3 3 3 3 H P.@X;./ / &.;.y 3 3 3 3 3 4 3 3 3 3 4 3 3 3 4 3 3 3 3 3 3 3 3 3 3 4 4 3 3 3 3 4 4 0 3 3 3 3 3 3 4 3 3 3 3 3 3 3 3 3 3 3 4 3 3 3 3 3 3 3 3 3 3 3 4 3 3 3 3 3 4 4 3 4 3 4 3 3 3 4 4 3 4 3 3 3 3 3 4 3 4 3 4 4 4 4 3 3 3 3 4 3 3 3 3 3 3 3 3 3 4 3 4 3 3 3 3 3 3 4 4 3 3 3 4 3 3 3 3 4 3 3 3 3 3 3 3 3 3 3 3 4 3 3 3 3 4 3 3 3 3 3 3 3 4 3 4 3 3 3 3 3 3 % 4 4 4 3 3 3 3 3 3 3 3 3 4 3 3 4 3 4 3 4 3 3 3 3 3 3 3 3 3 3 3 4 4 4 4 3 3 3 3 3 4 3 3 3 3 3 3 3 3 4 3 3 3 3 3 3 3 3 3 3 3 3 3 3 3 3 4 3 3 3 3 3 3 3 3 3 3 4 3 3 3 3 3 3 3 3 3 4 3 3 3 3 3 3 3 4 3 3 4 3 3 4 4 3 3 3 3 3 4 3 3 4 3 4 3 3 3 3 4 3 3 3 3 3 4 3 3 3 3 3 3 3 3 3 4 4 3 3 3 3 3 3 3 3 4 3 3 3 3 4 4 3 3 3 3 3 3 3 3 4 3 3 3 3 3 3 3 3 3 3 3 3 4 3 4 3 4 3 3 3 3 3 3 3 3 3 3 3 3 3 3 4 3 3 3 3 3 3 4 3 3 4 3 3 3 3 3 3 3 3 4 3 3 4 3 4 3 3 3 3 3 3 3 3 3 3 3 3 3 4 3 4 3 3 3 3 3 3 3 3 3 4 3 3 3 3 3 3 3 3 3 3 3 3 3 3 3 3 3 3 3 3 3 4 3 3 3 3 4 3 3 3 3 3 3 3 3 3 3 3 3 3 3 3 4 4 4 3 3 3 4 3 3 3 3 3 3 4 3 3 3 3 3 3 3 3 3 3 3 4 3 4 3 3 3 3 4 4 4 3 3 3 3 4 4 4 3 3 3 3 4 3 3 3 4 3 3 3 3 3 3 4 4 3 3 3 3 4 3 4 3 3 3 4 3 3 4 3 3 3 3 4 3 3 3 4 4 3 3 3 3 3 3 3 3 3 3 3 3 3 4 3 3 4 3 3 3 3 3 4 3 3 3 3 3 3 3 3 3 3 3 4 3 3 3 3 3 4 3 3 3 3 3 4 4 3 3 3 3 3 3 3 3 3 3 3 3 4 3 3 3 3 3 3 3 3 3 3 4 3 3 3 3 3 3 3 3 3 3 4 3 3 3 3 3 3 3 3 3 3 3 3 4 3 3 3 3 3 3 3 3 3 3 3 3 3 3 3 4 3 3 3 3 3 3 3 3 3 3 3 3 3 3 3 4 4 3 3 3 3 3 3 3 3 3 3 0 3 3 3 3 3 3 3 3 3 3 3 3 3 3 3 3 3 3 3 3 3 3 3 3 3 3 3 3 3 3 3 3 3 3 3 3 3 3 3 3 3 3 3 3 3 3 3 3 0 3 3 3 3 3 3 3 3 3 3 3 4 3 4 3 3 3 3 3 3 3 3 3 3 3 3 4 3 3 3 3 3 3 3 3 3 3 3 3 3 3 3 3 3 3 3 3 3 3 4 4 3 3 3 3 3 3 3 3 3 3 3 3 3 3 3 3 3 3 3 3 3 3 4 3 3 3 4 3 3 3 3 3 3 3 3 3 3 3 3 3 3 3 3 3 3 3 3 3 3 4 3 3 3 3 3 3 3 3 4 3 3 3 3 3 3 3 3 3 3 3 3 4 3 3 3 3 3 3 3 3 3 3 3 3 3 4 3 3 3 3 3 3 3 3 3 3 3 3 3 3 3 3 3 3 3 4 3 3 4 3 3 3 3 4 3 3 4 3 4 3 3 3 3 3 3 3 3 3 3 3 4 3 3 3 3 3 3 3 3 3 3 3 4 3 3 ",
"3 4 3 3 3 3 3 J.5X<X<X<X1X5XF.3 4 3 3 3 3 3 3 3 4 3 3 3 4 3 4 4 u K.:X5X<X<X<X<X<X;X#X+X@X+X@X$X@X@X@X+XK.>.' r q 3 4 3 3 3 4 3 3 / ;X<X<X<X<X<X:X/ 2 3 3 3 3 3 3 3 4 3 3 3 -.5X<X<X5X<X5X@Xq 3 3 3 r / K.:X5X<X-X-X#XP.:.&.^ r 4 3 3 3 3 3 4 3 3 u ] } J q 3 3 3 3 3 3 t ;.-X-XH.] ] H.H 3 3 3 3 3 3 3 4 3 3 3 3 3 3 3 3 4 3 3 3 4 3 3 4 3 4 4 3 3 4 3 % 4 3 3 3 3 q 3 3 3 3 4 3 3 3 4 3 3 4 3 3 3 4 3 3 3 4 3 3 3 4 3 3 3 4 3 4 3 3 3 3 3 3 3 3 3 3 4 4 4 3 3 3 3 3 4 3 3 3 3 3 4 4 4 3 3 3 4 3 3 3 3 3 3 4 3 4 3 3 3 3 3 3 3 3 4 3 3 3 0 3 3 3 3 3 3 3 3 3 3 3 4 3 3 4 3 3 3 4 3 3 3 3 3 3 3 3 3 3 3 4 3 3 3 3 3 3 3 3 3 4 3 3 3 4 3 3 3 4 3 3 3 4 3 3 3 4 3 3 3 3 3 3 3 3 4 3 3 3 4 3 4 3 3 4 4 4 3 3 4 3 3 3 3 4 3 3 3 4 3 3 3 3 3 3 3 3 3 4 3 3 3 4 3 3 4 3 3 3 3 4 3 3 3 3 3 3 3 3 3 3 3 3 3 3 4 3 3 3 4 3 3 3 3 3 3 3 4 3 3 4 % 4 3 4 4 3 3 4 3 3 3 4 3 3 3 3 3 3 3 3 3 3 3 4 3 3 3 3 4 4 3 3 4 3 4 3 3 3 3 3 4 3 3 3 4 3 3 4 3 3 4 4 4 3 4 3 4 4 3 4 3 3 3 3 4 4 3 4 3 4 3 4 3 3 3 4 4 3 3 4 3 3 3 3 q 3 4 3 4 3 4 4 4 3 3 3 4 3 4 3 3 4 3 3 3 3 4 3 3 3 4 3 3 4 3 3 3 3 3 3 4 4 3 4 3 4 3 4 3 4 3 3 4 4 3 3 4 3 4 3 4 4 3 3 3 3 4 4 3 4 3 4 3 4 3 4 3 3 4 3 4 4 3 4 3 3 3 3 4 3 3 4 4 3 4 3 4 3 4 3 4 3 4 3 4 3 3 4 4 3 4 3 3 4 3 3 4 4 3 3 3 3 4 4 4 3 4 3 4 4 3 3 3 3 3 3 4 3 3 4 4 4 3 4 3 3 4 4 4 3 4 3 3 4 4 3 3 3 4 3 4 3 4 4 4 4 3 4 3 3 3 3 3 3 4 3 3 3 3 4 3 4 3 4 3 3 4 3 4 3 4 3 3 3 3 3 w 3 4 3 4 3 3 4 4 4 3 3 4 3 4 3 3 4 3 3 3 3 3 3 3 3 4 3 3 3 4 3 4 3 3 3 3 4 4 4 4 0 3 3 3 0 3 3 4 3 3 4 3 3 3 3 4 4 3 3 3 3 3 3 4 3 4 3 4 4 3 3 4 4 3 4 3 3 3 0 3 3 3 3 3 3 3 4 4 4 3 3 4 0 3 3 3 3 3 3 3 3 3 3 4 3 3 3 3 3 3 3 3 3 3 3 3 3 3 4 0 3 3 3 4 3 3 4 3 4 3 3 3 3 3 3 3 3 3 3 3 4 3 4 3 3 3 3 3 3 3 3 3 3 3 3 3 3 3 3 3 3 3 3 3 3 4 3 4 3 3 3 3 3 4 3 3 4 3 3 4 3 3 3 3 3 3 3 3 3 0 3 3 3 3 3 3 3 3 3 3 3 3 4 3 3 4 3 3 3 3 4 3 3 3 3 4 3 3 3 3 3 3 3 3 3 3 3 3 3 4 3 4 3 3 3 3 3 3 3 3 3 3 3 3 3 3 3 3 3 4 3 4 3 3 4 4 4 3 3 3 3 3 3 3 4 3 3 4 4 3 4 3 4 3 3 4 4 3 4 3 3 3 3 4 3 4 3 4 4 3 3 3 3 4 3 4 4 3 3 3 4 3 4 3 4 3 4 3 3 4 3 3 3 3 3 3 3 3 4 3 3 3 3 3 3 3 4 4 3 4 3 3 3 3 3 3 4 3 4 3 3 3 3 4 3 3 4 3 4 3 4 4 3 4 3 4 3 3 4 3 3 4 3 4 3 3 4 3 4 3 4 3 3 4 3 4 4 ",
"3 3 4 3 3 3 3 L.5X<X<X<X<X5XF.3 3 3 3 4 3 4 3 3 3 3 3 3 3 3 4 4 u $.-X<X<X<X<X<X<X1X1X1X5X5X1X5X5X5X5X5X<X-X$X:./ 0 3 3 3 3 3 3 3 L :X<X<X<X<X<X<XK 3 0 4 4 4 4 3 4 3 3 3 u :.1X<X<X<X<X5X@Xr 3 3 3 3 4 / %.H.+X-X5X5X<X;X#XJ.J 0 4 4 3 3 3 3 3 3 0 r q 4 3 3 3 3 3 3 3 e &.-X5X@X} K P.K 3 3 3 3 3 3 3 4 3 3 3 4 3 3 3 3 3 3 3 4 3 3 3 4 3 4 4 3 3 3 4 4 3 3 3 3 3 4 3 4 3 3 4 3 3 3 4 3 3 3 3 3 4 3 3 3 3 3 3 3 3 4 3 3 3 3 3 3 3 4 3 3 3 3 3 3 3 3 3 3 3 3 3 4 3 4 4 0 3 3 3 3 3 3 3 3 3 3 3 3 4 3 3 3 3 3 3 3 3 3 3 3 3 3 3 3 3 3 3 3 3 3 4 3 4 3 3 3 3 3 3 3 3 3 4 3 3 3 3 3 3 3 3 3 3 3 3 3 3 3 3 3 4 % 4 4 4 4 3 3 4 3 3 4 4 4 4 3 4 3 3 3 3 3 3 3 4 3 3 3 3 3 4 3 3 3 4 3 3 4 3 3 3 4 3 3 3 3 3 3 4 4 4 3 3 3 4 3 3 3 4 4 3 3 3 3 4 4 3 3 3 3 3 4 3 3 3 q 3 3 4 3 3 3 3 3 3 3 3 3 3 3 3 3 3 3 3 3 4 3 3 3 3 3 3 4 3 3 3 3 3 3 3 3 4 3 3 4 3 3 3 3 4 3 3 3 3 3 3 3 3 3 3 3 3 3 3 3 3 3 3 3 3 3 4 3 3 3 3 3 3 4 3 3 4 3 4 * & & & & & & & & & & & & & & & & & & & & & & & * & & * & & & & % % % 2 2 % 2 2 $ & & & 2 2 2 & 2 $ # & 2 2 2 2 & & & & 2 2 2 2 2 2 % & & $ $ & 2 2 2 & & & & & & & 2 2 2 2 2 2 % % % % 2 2 $ & 2 2 2 & & & & & & & 2 2 2 2 2 2 2 & 2 $ & & & & 2 2 2 2 & & & & % % % % 2 2 & & & $ & & & & & & & & & & 2 2 & & & & & & 2 2 2 & & & & & & $ & & & * & & & & & 2 & & & & & & 2 2 % % $ $ # $ & & & & * & & & & & & & & & & & & & & & & & & & & & & & & * & & & & 2 % % 2 2 2 2 & & & & & 2 2 & & 2 2 % 2 2 2 2 & & & & & 2 2 2 & & 2 & & & & & & & & & & & & & & & & & & & 2 2 2 # & & & & & & & 2 2 & & & & & & & & & & & & 2 2 & & & & & & & & & & & & & & & & & $ $ & 2 & & & & & & & & & & & # 2 2 2 2 3 2 2 3 * 2 2 2 2 3 2 2 3 2 2 3 2 2 3 2 2 3 2 3 * 2 3 3 2 2 2 2 3 2 2 2 3 2 2 3 2 2 3 2 2 3 2 2 3 2 3 2 2 3 2 2 2 3 2 2 3 * 2 2 2 3 2 2 3 2 2 3 * 2 3 2 2 3 2 2 2 3 2 2 2 3 2 2 2 3 2 2 2 3 2 2 3 2 2 2 2 3 2 2 2 3 2 2 2 $ & & & & & 2 2 & & & & & & & 2 2 2 & & 2 2 % 2 $ % & # & & & & & & & & * & & & & & & & & 2 2 2 % 2 % $ $ & 2 2 & & & & & & 2 2 % 2 2 2 2 2 & & & & 2 2 2 2 2 & & & 2 2 2 2 & & & & 2 2 2 2 2 % 2 2 % % $ & 2 & & & & & & & & & & 2 & & 2 2 2 2 2 2 2 & & & & & * & & & 2 & & & & & & & & 2 2 2 2 2 & # $ & 2 & & & & & & & 3 ",
"3 3 3 3 3 3 3 H.5X1X<X<X<X5XF.3 3 3 3 3 3 3 3 3 4 3 4 3 3 3 3 3 0 y J.:X5X<X<X<X<X1X<X<X<X<X1X<X<X<X<X<X<X5X5X:XJ.` q 3 3 3 3 3 3 K :X<X<X<X<X5X;XL % 3 3 % 3 % 2 3 3 3 e $.P.1X5X<X<X<X5X@Xq 3 3 3 4 3 3 r L ' :.:X<X<X5X5X-XJ 0 4 4 3 3 3 3 3 3 3 3 4 3 3 4 3 3 3 3 3 q ' -X5X@X$.L @X/ 3 3 3 3 3 4 3 3 3 3 3 3 3 3 3 3 4 3 3 3 3 3 3 3 3 3 3 4 3 3 3 3 3 3 4 3 3 4 4 3 3 3 3 3 3 3 3 3 3 4 3 3 3 3 3 4 3 3 4 3 3 3 3 3 3 3 3 3 3 3 3 3 3 3 3 4 3 4 3 3 3 4 3 3 3 % 4 3 3 3 3 3 4 3 4 3 3 3 3 3 3 3 3 3 4 3 3 3 3 3 3 4 3 4 3 3 4 3 4 4 3 3 3 3 3 3 3 3 4 3 3 3 4 3 3 3 3 3 q 3 3 3 4 3 3 3 3 4 3 4 3 3 4 4 3 4 4 3 3 3 3 3 3 4 4 3 3 3 3 3 3 4 3 4 3 3 3 3 3 3 3 3 3 3 3 3 3 3 3 3 3 3 4 3 3 3 3 4 3 4 4 4 4 4 3 3 3 3 3 3 3 3 3 3 3 3 3 3 3 3 3 4 3 3 3 3 3 3 3 3 3 3 3 3 4 3 4 3 4 3 3 3 3 4 3 4 3 3 4 3 3 4 3 4 3 3 3 3 3 3 4 4 3 3 3 3 3 3 3 % 4 3 3 3 3 3 3 3 q 3 3 3 3 3 3 4 3 4 3 3 3 4 3 3 3 3 4 3 3 3 4 3 3 3 3 4 % & X # X # # X X # X # X # X # # X # # X # X # # X # # X X # # X % # # # # X X # X # X # X # # X # # X # X # # X # X # # X # # X # # X # # # # X # X X # X # # X # X # X X # X # % % # X # X X # # X X # X # # X # X # X X # X # # # X X # X # # X # # X # # X # % o # $ X # # X # # # X # X # X # X # # # X # X # X # # X # # X # # X # # # # X X # # X # # X # # X # X # X # X # % # # X # X # X & # X # # X # X # # X # X # # X # # X # X # # # X # . X # # X % % # X # X X # # X # # # X X # # X X # # X X # X # X # # X X # X # # X # X # # # X # X # # X # # # X # X # X # # X # X # X # # X X # # X # # X # X # X # X # X X # # X # X # # # . # . # # # X # # # X X # # # # X # # # X # X X # # $ & & $ $ $ $ $ * & $ $ $ & % & $ $ $ $ $ & & $ $ $ $ $ & $ * $ * $ $ 2 * & # & $ $ $ $ $ * & $ $ $ $ & $ * $ $ % * $ $ & $ $ * & $ * $ $ $ & $ $ $ $ & $ $ $ & $ * & $ $ * $ $ $ $ * $ $ 2 & $ $ & % $ * $ * $ $ $ $ $ $ $ $ # X X # X # # X X # # # X # # X # X X # X # # # X # # # X # # X # X # # X X # # # X # X # X # # X # # # # X X # # X # # X X X # X # X # # X # X # # X # # X X # X # # X X # # X # # # X X # # # X X # # X # X & # # X # # X # X # # # # X X # X X # # X # # X # X # X # X # # X # # # # X # # X X # # # # X X # # # X # # X X ",
"3 3 3 3 3 3 0 J.5X<X1X<X<X5X:.3 3 3 3 3 3 3 3 3 3 4 3 3 3 4 3 4 0 4 _ K.<X<X<X<X<X<X<X<X<X<X<X<X<X<X<X<X<X<X<X<X<XH./ 3 3 3 3 3 3 K <X<X<X5X<X<X<X$.K / K / K _ / / _ _ &.@X<X1X<X<X<X<X5X+Xq 3 3 3 3 3 3 3 3 2 / :X<X<X<X<X=Xy 3 3 3 3 3 3 3 3 3 3 4 3 3 3 3 3 3 3 3 3 e ` -X5X#X$.t @X^ 3 3 3 3 4 3 3 3 3 3 4 3 0 4 4 3 3 4 3 3 3 3 3 3 4 4 3 3 3 3 3 3 3 3 3 3 3 5 3 3 3 3 3 3 3 3 3 3 3 3 3 4 4 3 4 3 3 3 3 3 3 3 3 0 3 4 3 3 3 3 3 0 3 4 3 3 4 3 3 3 4 3 4 3 3 3 3 3 3 3 3 3 3 4 3 4 3 3 3 3 3 3 4 3 3 4 3 3 3 3 4 4 4 3 3 3 3 4 3 3 3 3 3 3 3 3 4 3 3 4 3 3 3 3 3 3 3 3 3 3 4 3 4 4 3 3 4 3 4 3 3 4 4 4 4 3 4 4 3 3 3 3 3 4 3 4 3 4 3 3 3 % 4 3 3 3 3 3 3 4 3 3 3 3 3 3 3 3 3 3 3 3 3 4 3 4 3 3 3 3 3 3 3 3 3 3 3 3 3 3 3 3 3 3 3 3 4 3 3 3 4 3 3 3 3 3 4 3 3 3 3 3 4 3 3 3 3 3 4 3 3 3 4 3 3 3 3 4 4 3 4 3 4 3 3 3 3 3 3 3 4 3 3 3 3 3 3 3 3 4 4 3 3 3 3 3 3 3 3 3 3 3 3 4 3 3 3 3 3 3 3 3 3 3 3 3 3 3 3 3 3 4 3 3 3 % % X # X # # X # # # X # # # X & X # X # # # X X # # X # . # # X # X # # o X # # X X # # # & X # X X # # X 2 X # X # X X # # X X # X X # X # X X # X # X # # # X # # X X # # X # X # # X # X # # # X # X # # # X # # X X # # X # X # X # # # X # X # X X & X # X X X # # X # X X # # X # X X # X # # X X # X # X # # X # X # X X # X # # X # X # X & X & X X # # X # X # # # X X # o # o o X # # X # X # # X # # X # # X # # X # X # # X # # X # X X # # X # # X # # X # X X # # X # X X # X # # X X # # # # # # X X # # # # # & X # X # # # X X # X & X # X X # X X # # X # # # X # X # # # # X # # # # X # # X # # X # # # X X # # # X # # X # X & # & X # # X # # X X # # X # # # # X # # # # X # # # 2 $ & * & & $ * $ & * * % & 2 $ $ * & & & $ $ & $ & * $ & $ $ & & $ $ & & & & * $ & & & & & & * & $ & * & $ * & * $ * * % & $ $ & * & $ * 2 $ * & & * $ & & & & & * % % * $ * * $ * % % * $ * * $ % * * % * & $ * & 2 & & # X # # X # # # X # X # X # X X # X X # # # # X X X # X X # # # X & X # . X # # X # X # # # X # X X # X # X X # # X X # # X # # X # # X # X # X # X # X # X X # # # # # X # # X # # X # X # X # # X # # # X # X # X # # # X # # # X # X X # # # X # # X # X X # & X # # # # X X # X # X X # & X X X # X # X # X # X X # # X # # # ",
"3 3 3 4 3 3 3 H.5X<X<X<X<X1XF.3 3 3 4 3 4 3 3 3 3 3 3 3 3 3 3 3 4 4 4 ' K.<X<X<X<X<X<X1X1X<X<X<X<X<X<X<X<X<X<X<X<X<X;.q 3 3 3 3 3 ^ ;X<X<X<X<X<X<X:X:X:X<X:X<X:X<X;X:X<X<X<X<X<X<X<X<X<X:XJ.q 4 3 3 3 4 4 4 e u ' <X<X<X<X5X-XJ 4 3 3 3 0 3 3 3 3 3 4 3 3 3 4 3 3 3 3 3 q ' =X5X#X&.H @X^ 3 3 3 3 3 3 4 3 3 3 3 3 3 3 3 4 3 3 3 3 4 3 3 4 % 0 3 3 3 3 4 3 3 3 3 3 3 4 4 3 3 4 3 3 3 3 q 3 4 3 3 4 4 4 4 3 3 4 3 4 3 3 4 4 4 % 3 3 3 3 4 4 4 % 3 3 3 3 3 3 3 3 3 3 4 3 3 3 4 3 3 3 3 3 3 3 3 3 4 4 3 3 3 3 4 3 3 4 3 3 3 4 3 3 3 3 3 3 3 3 3 4 3 4 3 3 3 3 4 3 3 3 3 4 3 3 3 3 3 3 3 3 3 3 3 3 3 3 3 3 3 4 4 4 3 3 3 3 3 4 3 3 4 3 3 3 3 3 3 3 4 4 3 3 3 4 3 3 3 3 3 4 3 3 3 4 3 3 3 3 3 3 3 3 3 3 3 4 3 3 3 3 4 3 3 4 3 3 3 4 3 3 3 3 3 3 3 3 3 3 3 3 4 3 3 3 3 3 3 3 3 3 3 3 3 3 3 3 3 4 3 3 3 3 4 3 3 4 4 4 % 3 3 3 3 4 3 3 3 3 3 3 3 4 3 3 3 3 3 3 0 4 3 3 3 4 3 3 3 3 3 4 3 3 3 3 4 3 3 3 4 3 3 3 3 3 4 4 3 3 3 3 3 3 % # % # X & X X # X # # # X # X # X # X # # X X # X # X & X # X # # X # X # # # X # # # X # X X # X # # # X # X # X # X # X # # X # X # # X # X # X # # X 2 X # X # X X # # X # # X # # X # X # X # X # X 2 X # X # X X # # X # # X # X # X # # # X # X # # X # X # # # X # # X # # X # # X # & X # X X # X # & X # X # # X # # X & X # X X # # # X # X # X # # X X # # # X # X # # # # # # # # # X # X # X X # X X # # X # # X # X & # X # X # # X # # X # & # X # X # # X # # X # & X # # X # X # & # X # X X # X # # X # X X # X # X # # X X # # X # X & X # # X # X # # X # X X # X # X # X X # X X & X # X # # X # # X # X # # # X # # X X # X # . & . # . # # X X # # X X # X X X X # X X # X # # $ & & $ 2 $ & & $ 2 & % * % * & & & * $ & $ * * & & 2 & & $ & & $ & $ $ * & $ & & % * & $ $ * $ $ 2 % $ & $ & 2 $ & & $ $ % * & * & & $ & $ $ & $ $ & & & & & * $ $ * % * & % $ & & $ & % * % & & & $ * & % * % & $ $ & 2 # # # # X # # X # X & X # X # X # # X # # X # X # X # # X # # X # X # X # # # # X # # X # X # X & X # # X # X # X # X # # X X # X # # X # # X & X # # # X # X # # X X X # X # X # # X X # X # X # # X # X # # # X # X # X X X # # X X # X # X # X # # X X # X # X # X # X X # X # # X # X # X # X # # # X # # # X # X # # X X # # X X ",
"4 3 3 3 3 3 3 H.5X1X<X<X<X5XF.3 3 4 3 3 3 3 3 4 3 3 3 4 3 3 3 3 3 3 3 0 ` K.:X<X<X<X1X<X<X<X<X<X<X<X<X<X<X<X<X<X<X5XP.] 3 3 3 4 % / :X<X<X<X<X<X<X<X<X<X1X<X<X<X<X<X<X<X1X<X<X<X<X<X<X5X-X-.0 3 4 3 4 4 r { :.+X-X<X<X<X5X5X=X` q 4 3 3 3 3 3 3 3 3 3 4 3 3 3 3 3 3 3 3 r $.-X5X@X$.L @XK 3 3 3 3 3 4 3 3 3 3 3 3 4 3 3 3 3 3 4 3 3 3 4 3 3 3 3 3 3 3 3 3 3 3 4 3 3 3 3 3 3 3 3 3 3 3 3 3 3 4 3 4 3 4 4 4 4 3 3 3 3 3 3 3 4 3 3 4 3 3 3 3 4 3 3 3 3 3 4 3 3 3 3 4 3 3 3 3 3 3 3 3 3 4 3 3 3 4 3 3 3 4 3 3 3 4 3 3 3 4 4 4 4 4 3 3 3 4 3 3 3 4 3 3 3 4 3 3 3 4 3 3 3 4 3 3 4 4 3 4 3 3 3 3 3 3 3 3 3 3 4 3 3 3 3 3 3 4 3 3 3 3 3 3 3 3 4 3 3 3 3 4 0 3 3 3 3 3 4 3 4 3 3 4 4 4 4 4 % 4 3 3 4 3 3 3 3 3 3 4 4 4 % 3 4 3 3 3 3 3 3 3 q 3 3 3 3 3 3 3 3 4 3 3 3 3 3 3 3 3 3 3 4 3 3 4 3 3 3 3 3 3 3 3 3 3 3 3 3 3 4 3 3 4 3 3 3 3 4 3 3 4 3 3 3 3 4 3 3 3 3 3 3 3 4 3 3 3 4 3 3 3 3 3 3 3 3 3 3 3 4 3 3 3 3 3 3 3 3 3 3 3 3 % # X # X # X & X # X # X # X # X # # X # X X # # # X # X # X # # X . # # X # X # X # X # X # X # X X # X # X # X # X # # # # X # # # # X & X & # # X # # X # # # X # # # # X # X # X # X # X # # X # X # X # # # X # # # # X # X # X # # X # X X # X # # # X # X # # X X # X # X # X # X # X # X # # # # # # X # # # # X # X # X # X # # X # # X # X # X # # X & X # X X # X # # X # X X # # X X # # X X # X # # # X & X # # X # X & X # X # # X # X # X # # X # # . & X # # # X # # X # X # X # X # X # X # X # X X # # X # X # X # X # X X # # # X # X # X & X # X # # X # X X & X X # # X # # X # # X # X X # X # # X # X # & X # X # X # # # # X # # X # X # . X & # X # X # # X & # X # X # X # # % & % & * % $ $ * $ % * % & % & % * * & $ & * $ * % * $ % * % * & $ & & & & * $ * % * & * & * $ * % & * * & $ $ $ & & * $ & & & & * & & & * % * % * $ & $ $ $ * $ $ & * % * & * 2 $ $ & & $ & * & 2 $ & & & * % & * 2 $ & $ & # X # # X # X # X & X # # # X # # # # X # # # X # X # # X X X # X # X # X X # & X # X # X # # X # X & X # # # X # # X # # # X # # X # X # # X X # X # X # X # X # # X # X # X # X # X # X # X # X & X # X X # X # X # X # # # X # # # X # X # # X # X X # # # X # # # X # # # X # # # X # X # # X & X # X X # X # X # X & X # X # # ",
"3 3 3 4 3 4 3 J.5X<X<X1X1X5XF.3 3 3 4 3 4 3 3 3 4 3 3 3 3 3 3 3 3 3 3 3 r / %.K.-X<X1X1X5X5X5X5X5X5X5X5X<X<X<X5X<X<X-X-.3 3 3 3 3 / <X<X<X<X1X<X<X<X<X<X<X<X<X1X<X1X<X<X<X<X<X<X<X<X<X5XK.L 0 3 3 3 4 J :.#X-X;X<X<X<X<X<X<X;X;.u 3 3 3 3 3 3 3 3 4 3 3 3 3 3 4 3 3 3 3 t :.-X<XK.` / K.K 3 4 3 3 3 3 3 3 3 4 3 3 3 3 3 3 3 3 3 4 3 3 3 3 4 3 3 4 3 4 3 4 3 3 3 3 4 3 3 4 3 4 3 4 3 3 3 3 3 3 3 3 3 4 % 4 4 4 3 3 3 3 3 3 3 3 4 3 3 3 3 3 3 3 4 4 3 3 3 3 3 3 3 3 3 3 4 3 4 3 3 3 3 3 3 4 3 3 3 3 3 3 3 3 3 3 3 4 3 4 4 4 4 3 3 3 3 3 3 4 3 3 3 3 3 3 3 3 3 3 3 4 3 3 3 3 5 3 3 3 3 3 3 3 3 3 3 4 3 3 3 3 3 3 3 4 3 3 3 3 3 3 3 4 3 3 3 3 3 3 3 3 3 4 3 4 3 3 3 3 3 3 3 % 4 4 4 3 3 4 0 3 3 3 3 3 4 3 3 4 4 3 4 3 3 3 3 4 3 4 3 3 3 3 3 3 3 4 3 3 3 3 3 3 3 3 3 3 3 4 3 3 3 3 3 3 3 3 3 3 3 4 3 3 4 4 3 4 3 3 3 3 4 3 3 4 3 3 3 4 3 3 3 3 3 3 3 3 3 4 3 4 3 3 3 3 3 3 3 3 4 3 3 4 3 3 3 3 3 3 3 3 4 3 3 3 3 3 3 3 3 3 2 $ # # X # # # X & X & X # X X # & X X # X # # X # X # X # X & X X # # # X # # X X # X # X # # X X # & X # X # X X # # X # X X # # X X # # X # X # X # X X # # X X # X X # X # X 2 X # X # X # # X # # # X # # X X # X X # X # X # # # X # # X # # X X # X # # X # # X # # X # # # X # X # X # # # X X # # X X # # X X # # X # # # X # # X # X X # X X # & X X # X # X # # X X # X # X & # # X # # X X # & X & X X X # X # X X # X # X # X # X X # X X # & . . # . X & X # X X % # X X & # # X # # # X # X # # X X # % X X # # X X # X # X # # X X # # X # # # X & X # # X # # # # X # # X X # X X # # X & X # # X # X X # X X # X # X & X # X X # X # X X # X & X # # X # # X # # X # X X # X # X & $ & & & * % % * 2 * & & * & % * * % * & % & & & & $ & % % * & % * & & * % * & & $ 2 % * % % $ & & $ % * * % % & & * $ & & $ * & * % & & & & & & * % * & 2 $ & * & $ & & % * & % % * & & * & 2 & % * $ $ * $ % * & % * % & & $ # X # # X # # X # # # X # X # X # X X # X # X X & # X # X # # # # X # X # X & # # X # X # X # X & # X # X # X # X # X X # # X X # X X X # # X X # # X # X # # # X # # X # X # # # X # X # X # # # X # X # X # # X X # & X & X X X # X X # # X & X X # X # # X # X # X X & # X X X # X # X # X & X X # X # X # # X X # # # # X # X # # # ",
"3 3 3 3 3 3 3 L.5X<X<X<X<X5XF.3 3 4 3 3 3 3 3 3 3 3 3 3 3 3 3 4 3 3 3 3 3 3 u _ } &.-.*.-.-.&.-.-.%.;.J.-X<X<X<X<X<X<XF.4 3 3 3 3 K :X1X<X<X<X<X<X<X1X<X<X<X<X<X<X1X<X1X<X<X<X1X<X<X5X@X&.4 4 3 3 3 t ;.;X5X<X5X<X<X<X<X<X<X<X+XK 3 3 3 3 3 0 3 3 3 3 3 3 3 3 3 3 3 3 3 H P.#X:.` / $.F.H 3 3 3 3 3 3 3 4 3 3 3 3 3 3 4 3 3 3 3 3 3 3 3 3 4 4 3 3 3 3 3 3 3 3 3 3 4 4 3 3 3 3 3 3 3 3 3 4 3 3 3 3 3 3 4 3 4 3 3 3 3 3 4 3 3 3 3 3 3 3 4 3 4 3 3 3 3 3 3 3 3 3 4 3 3 3 3 4 3 4 3 3 3 3 3 % 4 3 3 3 3 3 3 3 4 3 4 3 3 4 4 4 3 3 4 3 4 3 4 3 3 3 3 3 3 3 3 3 4 3 4 3 3 3 3 3 3 4 4 3 3 3 3 3 4 3 3 3 3 3 3 3 3 3 4 3 3 3 3 4 3 3 3 3 3 3 3 3 3 3 3 3 3 3 3 3 3 3 3 3 3 3 4 3 4 4 3 3 3 3 3 3 3 3 4 4 3 4 3 4 4 3 3 3 3 3 4 3 4 3 3 3 3 3 3 3 3 3 3 3 3 3 3 3 3 3 3 3 4 3 3 3 3 3 3 3 3 3 3 3 4 3 3 3 3 4 3 3 3 3 3 3 3 4 3 3 3 3 3 3 3 4 3 4 3 3 3 3 4 3 3 3 3 3 3 4 3 3 3 3 3 4 3 3 3 4 3 4 3 3 3 3 3 4 3 3 3 3 3 3 3 2 # # X # X # X # X X # X & X # # X X # X # # X X # # X # X X & # X # X & X # # X # # # X # # # X # # # X # # X # # # X # # X # # X X # # X X # X # # X # X # X X # # # X # # X # X X # # X # X # X # # X # # X X # # # X # # X # X # X # # X # X # X # # X & X # X X # # X # # # X # X # # X X # X # X # X X # # X X # # X X X # X # X # X & X X # X # # X X # # X # X X # X # # X X # X # X # # X X # # X X # # X # X X # X # # X # X X # # # X # X # # X X & X # # X X # X X # X X X # X X # X # X # X X # # X # # # X # # # X # # # X # # X X # # X X # # X # X X # # X # # X # X # # X # X # # # X X # X # X # & X X # X # # X # X X # # # X # # X # X X # & . & X X # X # X X X & X & # # X X & # & & * $ & * & * % & & $ & & * * % * % % * $ 2 & & & & * 2 * * % * % % * & * $ $ & & & * % * & % & & * % % * * % 2 $ $ * & 2 & $ & * $ $ $ # # $ % % & & * & & & * $ & & * % * $ & % & $ & & $ & & % & & & $ * * % * % & * $ # # X # X & # X X # X # # X X # # # X # # X # X # X # X X # # X X # # # X # X # X # # X X # # # # X # X X # # # # X # X # X X # # # X # # X # # # # X % X X # X # X # X # # X # X # X # # # X # X # X X # X X # X # # X X # # X # X # # # X X # X # X # # X X # # X X # # X # X # X # # # X X # X # X # # X X # X # # X & X & X # X # X X ",
"3 4 3 3 3 3 3 H.5X1X<X<X<X5XF.3 3 3 3 3 3 3 4 3 3 3 4 3 4 3 3 3 3 3 3 3 3 3 3 3 3 % 5 5 % 5 3 2 3 3 q K :.;X5X<X<X<X1XJ.4 3 4 3 3 / :X<X<X1X<X<X1X<X<X<X<X<X1X<X<X<X<X<X<X1X<X<X5X5X#X-.t 3 3 3 3 3 t H.<X5X<X<X<X5X<X<X<X<X<X:X%.u 3 3 3 3 3 3 3 3 4 3 3 4 3 3 3 3 3 4 _ =X@X} 0 H >.%.u 3 4 3 3 3 3 4 3 3 3 4 3 3 3 3 3 4 3 3 3 3 4 3 3 3 3 3 3 4 3 3 3 3 4 3 3 3 3 3 3 4 3 3 3 3 4 3 3 3 3 3 4 3 3 3 3 3 3 3 4 3 3 3 3 4 3 3 3 4 3 3 3 3 3 3 3 3 4 3 4 3 3 3 3 3 3 3 3 3 3 3 3 3 3 3 0 4 3 4 3 3 3 4 3 3 3 3 3 3 3 4 % 3 3 3 3 3 3 3 3 3 3 4 3 3 3 4 3 3 3 3 3 3 3 4 3 3 4 4 3 4 3 3 3 3 3 3 3 3 4 3 4 3 3 3 3 3 4 3 3 3 3 4 3 3 4 3 4 3 3 4 3 3 3 3 3 3 4 3 3 4 3 3 3 3 3 3 3 4 3 3 4 3 3 3 3 3 3 3 4 3 3 3 4 3 3 3 3 3 3 3 3 4 3 3 3 4 4 3 3 3 3 4 3 q 3 3 3 3 3 4 3 3 3 4 3 4 3 3 3 3 3 4 3 3 3 3 3 3 4 3 3 3 3 3 3 3 4 3 3 3 3 3 3 3 3 4 3 3 3 3 3 3 4 3 3 3 3 3 4 3 3 3 3 3 3 3 3 3 3 3 4 3 3 3 3 3 3 3 3 % # # X # X # X & X # X # # X # # X # # X # # X & # # X # X # # X # # X & . & X # # X # X # X X # # X # X # X X # X # X # # X # X X # # X X # X # # X # # X # X # # X # X # X # # X # # X # # X # X # X X # X # X # X # X # X # # X # X # X X # X # X # # X # X # X # # X # X o X X # X # X # # # X # X # X & # X X # # X X # # # X # X # X # # # # X # # X # # X # # X & # X # # X # # X & X & X # X # X # # # X # & X # & X # X # # # X & X # X # X # # X # # X # # X & & X # # X # # # X # # X # X # X # # X # # X X # # X X # # X # X # X # # # # X # X # X & X # X # X # X X # X # # X & X # X # X # # X & X # X # # # X # # X # X # # X # X # X # # X # # . # & X # # X # X # # # X # X # X # # # & & & 2 $ & & * % * % 2 $ * $ % & - - * * & $ $ & $ * & $ $ & % * % * & % * % 2 $ * $ $ 2 * % * * % * & % * % * & & & & & $ $ & $ * & * > > < > , = * % $ $ & $ * $ * * % % * 2 $ & * * $ 2 $ * $ & * * $ & 2 % & * % * % $ # # X # X # X X # # X # X X # # X # X # X # # X # X & X # X # X # # X # X # X & X & X X # # X # X X & X # X # X & X # X # # X # X # X # # X # # X X # # X # # X # X # X # # X # X # X # X # X # X # X # # X & # X # # X # # X # & X # X # X # X # & X # X # # # # X # X # X & X & X # X & X # X # # X # # X & # X # # X # X # X # X # X # # ",
"3 3 3 3 3 3 3 J.5X<X<X<X5X5X:.3 3 3 4 4 3 3 3 3 3 3 3 3 3 3 3 3 3 3 3 3 3 3 3 3 3 3 3 3 3 3 4 4 3 4 3 3 / J.1X<X<X<X5XK.w 0 3 3 2 K :X1X<X<X<X<X<X<X<X<X5X<X<X<X<X<X<X<X<X<X<X:X;X@X$.u 0 4 3 3 3 3 t %.;X<X<X<X:X-X:X<X<X<X<X<X=X$.u 3 3 3 3 4 3 3 3 3 3 3 3 3 3 3 3 t ;.:X;XF.K / K.` r 3 3 3 3 3 3 4 3 3 3 3 3 4 3 3 3 3 3 3 3 3 4 3 3 3 3 3 3 3 3 3 3 3 3 3 3 3 3 4 3 3 3 3 3 3 3 3 3 3 3 4 3 3 3 3 3 3 3 3 3 3 3 3 4 3 3 3 3 3 3 4 3 3 3 3 3 3 3 3 3 3 3 3 4 3 3 3 3 3 3 3 4 4 4 4 4 4 4 3 3 3 3 3 3 4 3 3 3 4 4 4 0 3 3 3 3 3 3 4 3 3 3 3 4 3 3 3 3 4 3 3 3 4 4 3 3 3 3 4 4 3 3 3 3 4 q 3 3 3 3 3 4 3 3 3 q 3 3 3 3 3 4 3 3 3 3 3 3 3 3 3 3 3 3 3 4 3 3 3 3 3 4 3 4 0 3 3 3 3 4 3 3 3 4 4 3 4 3 3 3 3 3 4 3 3 3 3 4 3 3 3 4 3 3 3 3 q 3 3 3 3 3 3 3 3 3 3 3 3 3 3 3 3 3 3 3 3 3 3 4 3 3 3 3 3 3 3 3 3 3 3 4 3 3 3 3 3 3 3 3 3 3 3 3 3 3 3 3 3 3 4 3 3 3 3 3 3 3 4 3 3 3 3 4 3 3 3 3 4 4 3 3 3 4 3 3 3 3 3 $ # X # # X # X # X # X # # # X # X # X # X # X # # X # # X # X # X & . & # # X # X & X . # & . # X # # # X # X # # X # # X # X # X # X X # X % # X & X X # X # X & X # X & X # # X # X & X # X # X # X # # X # X & X # X # X # # X X # # X # X X X # # # X X # X X # X # X # q e & # X X # # X # X # X X # # X X # # X # X # X # X # X X # # X X # # X & X # X # X # # X # # X # X # # X # X X # X X # X X # X # X # # X # X # X X # X # X & X # # # X # X & X X # X & X # X # # X # X # X # X X & . # # # X # X # # X X # & . # X # X # X # X X # X # # X # X & X X # X X # X # . # # X # & . & # . # # # X # X # X & o # # # X # # X # X # # . & # X # # # X & . & X # . # # # X # # X # # X # # # $ $ * * % * & & & * & % * * & & & # - s f p * $ & * % & * $ $ & * $ 2 & * $ * % & & * # * $ * $ $ & * $ & & * $ * $ $ % & * % & * & * % % < ! o.o.o.o.! < , * * & & * * # & $ * % * % % * $ 2 * & * % % * * & * & & $ & & & & # & # X # X # X # X # # # # # . # # # #   # # # . . # X X X # X # # # X # # X # X # # X X X # X # X # X # X # # X X # X # X # # X X # # o . X X X X & X # X X # X # & X # X # # # # # # . # # # # #   # #   # # # X # X # X # X # # # X # X # # # X X # # # X # # X # X # X % # X X # X # # X X # # X # X X # X # X X # o # X # X # # X # X % ",
"3 3 3 3 3 3 3 H.5X<X<X<X<X5X:.3 3 4 4 4 3 3 3 3 3 3 3 3 3 3 3 3 3 3 3 3 3 3 3 3 3 3 3 3 3 3 4 4 3 3 3 3 H :.1X<X<X<X5XK.0 3 3 3 3 K :X<X<X<X<X<X<X:X;X;X-X;X-X;X;X;X;X-X;X=X#XK.%.H q 4 3 4 4 3 3 3 r / =X<X;X=XH.&.J.-X5X<X<X<X<X#X%.r 4 4 4 4 4 4 4 3 3 3 3 3 3 3 3 ] #X<X<XJ.` ` +XH 3 3 3 3 4 3 3 3 3 3 3 4 3 3 3 3 3 3 4 3 3 3 3 3 3 4 3 4 3 3 3 4 3 4 3 3 3 4 3 3 3 3 3 4 3 4 3 3 4 3 3 3 4 3 3 4 3 3 4 3 3 3 4 3 3 3 3 4 3 3 3 3 3 4 3 3 4 3 3 4 3 3 4 3 3 3 3 4 3 4 3 3 3 3 4 4 3 3 4 4 3 4 3 3 3 3 3 3 3 3 % 4 3 3 3 3 3 3 3 0 4 3 3 3 3 3 3 4 3 3 3 3 3 3 3 3 3 3 3 3 3 3 3 3 3 3 3 3 3 3 4 3 3 3 3 3 3 3 3 3 3 3 3 3 3 4 3 3 4 3 3 4 3 3 4 3 3 3 3 3 3 3 3 3 4 % 3 3 4 3 3 3 3 3 4 4 3 3 3 3 3 4 3 3 3 3 3 4 3 3 3 3 3 3 4 3 3 3 3 3 3 3 3 3 4 3 4 3 3 3 4 3 3 3 3 3 0 4 3 4 3 3 3 3 3 4 3 3 4 3 3 4 3 3 3 4 3 3 4 3 4 3 3 4 3 3 4 3 4 3 3 3 3 4 3 3 3 4 3 3 3 3 3 q 3 3 3 3 3 3 3 3 3 3 3 3 3 3 3 % # X # X X # # # X # X & # X X & X & . & # X X # # X # X X # # # X # . & # . X & # & . # # # X & X # X X X & X # X X & X X & X # X & X # & X & X X # # # # X & X # X # # # X # X # X X # X # X # X & . & . # # X # X X # # X & X X # # . X # & & 2 3 2 2 # # # X # # X % X #   s.6X( & # # # X # X # X # # # X # # X # # & & X & X & X # # # X # # X X # X # X & X # X # # X # X X # # X # X # # X # # X # # X # X # # X # # % % # # X # X # X # # X # X X # X # # # # X & X # X X # X # X & X # # X # # X X & . & X # # # . # & X # X # X & X # # X X # # X X # X # & X # # X # & . X # # X X # X # & X X # # X & X & . # # . # X # # X X # # X & X . # # X X # . & # # & . X # X # X X # # X # X X # & 2 & % * % % * $ % % * & $ & & & # s h z.l - % $ % * * % 2 * & & $ $ $ $ & & % * & & * # $ $ * & & & * & & & & & & & * % % * * % % * * % Q D.XXXXoXXXXXOXo., & & & & # * & $ 2 * % * & % $ & $ & % * & % % % $ & & * & & & & X X X # X # X # X & # # # # # # # & # # # # & . # # # # & & * 2 & X X # # X & 2 2 # X & 2 3 & 3 2 2 # # $ 2 % % # # # # % 2 # X % 2 $ # # # # # 3 & # # X # # X # # X # X #   # # # # # & # # # # # # # # # # X X # X & # & 2 2 # X X # # 2 % 2 2 2 2 % # X % X X % 2 2 2 2 % % # # # # % 2 # # # X # & 2 $ # & 3 2 2 3 * $ 3 2 # X X # # X o ",
"3 3 3 3 3 3 3 J.5X5X5X<X<X5XH.3 4 3 5 4 3 3 3 3 3 3 3 3 3 0 3 3 3 3 3 3 3 3 3 3 3 3 3 3 3 3 3 5 3 3 3 % / K.<X<X1X<X1XK.4 4 3 3 3 K <X<X<X1X<X1X<X} H K J L L L L J K L L H H H u 3 3 3 3 3 3 3 3 3 3 e J _ / K t u / +X5X<X<X<X<X<X-XJ.$.^ e 4 u r 4 4 4 3 3 3 3 3 H :.<X<X<X&._ -.>.r 3 3 3 3 3 3 4 3 3 3 3 3 3 3 3 4 3 4 3 3 3 3 3 3 3 3 3 4 3 3 3 3 3 3 3 4 3 3 4 3 3 3 3 3 3 3 3 4 3 3 4 3 3 3 3 3 3 3 3 3 3 3 3 3 3 3 3 3 4 3 3 3 3 3 4 3 3 3 3 3 3 3 3 3 3 3 3 3 4 3 4 3 3 3 3 3 3 4 3 4 4 3 4 3 4 3 3 3 3 4 3 3 3 4 3 3 3 4 3 4 3 3 3 3 3 4 3 3 3 3 3 3 3 3 4 3 3 3 3 3 3 3 3 3 3 4 3 3 3 4 3 3 3 3 3 4 3 3 3 4 3 4 3 3 3 3 3 3 3 3 3 3 3 4 3 3 3 3 3 4 3 3 3 3 3 4 4 3 3 3 3 3 3 3 4 4 3 3 3 3 3 3 4 3 3 3 3 3 3 3 3 3 3 4 3 3 3 3 3 3 3 3 3 3 4 3 3 3 3 4 3 3 4 3 3 3 3 3 3 3 3 3 3 3 3 3 3 3 3 3 3 3 3 3 3 3 3 4 3 3 3 3 3 3 3 3 3 3 3 3 3 3 3 3 3 3 3 3 3 3 3 3 3 3 3 3 3 3 3 4 3 3 3 3 3 3 3 3 2 # # # X # # # X # X # & . X # # X X # & # # # # # X X # # # # X # # X X # X X # X . # # X X & # X & X . # # X X # # X X # & X # X # # # X X # X # X & X # # # & X X & # X & X # X X # X # & # . # X # & . . & X # # X # X # # # & # . & # # X 4 9.|.tXrX{.4.3 # # X # # X X # X g.wX( # X X # # X # # X # X # # X X X 3 1.9.e X X & X & X X # # X X & X & & X # # X # X # X # X # # # X # # # # # # # X # & X # # # # X % 2 3.q.e X X # # # X X # X # X & X # & X # X . & . # # # & X . # & . # X X # & X # X # # X # & X # X # X & X . # & . # X # X # X X # X # & # X # # X & X . & X & X # # X # X X # & X # X . # # . # . X # # X # # # X X # X # . # X & X # # # . # . & X & # # X # X # # X # # $ & $ & * % * % 2 $ * % * % $ & $ $ $ f z.z.l.: # % & $ % & * % % * & * $ 2 % * * % & & # * * * $ & $ 2 % * $ $ $ * & $ & * $ 2 % * * % & % Q D.XXQ D Q =.OXD.F & & * & & & & * % & * % & * & & $ & & * % * * 2 $ & * $ & & # # X # & X . # X & # X , =.X... ... .@.....o.X.:.< . . X # # e.rX).i & # X X 3 <.wX[.T   5 /.tXpXpXsXtXs.4 4.6X).4 # % o q 7.).e   1.).3.2 # o X q (.r.e . # X # X & X # X X #   < F.X. ...X... . ... .=.;.* # X & X # X & X e h.wXP X # X 3 f.eXsXpXrX{.r.e X X # X q q.{.rXtX{.w.w # X 2 g.f.U X X # X 4.(.3.3 Q.tXsXpXuXpXpXsXQ.# X # # X # # ",
"3 3 3 3 3 3 3 J.5X<X<X<X<X5X:.2 3 % % 3 % 3 3 3 % 3 3 % 3 3 3 3 3 3 3 3 % 3 2 3 2 3 2 3 3 2 3 % 2 3 w L F.;X<X1X<X<X1XJ.3 3 3 3 3 ^ ;X<X<X<X<X<X;XH 3 3 3 2 3 3 6 3 3 3 3 3 3 4 3 3 3 3 3 4 3 3 3 3 3 3 3 3 3 3 3 0 ' @X5X<X<X<X<X<X5X:X#XK.J.H.H.;.q 3 3 3 3 3 3 q -.-X1X<XK./ $.H./ q 3 3 3 3 3 3 3 3 3 4 3 3 3 3 3 3 3 3 3 4 3 3 3 4 3 3 3 3 4 3 3 3 4 3 3 3 3 3 3 3 4 3 3 3 4 3 3 3 3 3 3 3 3 3 3 3 3 4 3 3 3 4 4 3 3 3 3 3 3 3 3 3 4 3 3 3 3 3 3 3 3 4 4 3 3 4 3 3 3 3 3 3 3 4 3 3 4 % 4 4 3 3 3 3 3 3 3 4 3 3 3 3 3 3 3 3 3 3 3 3 3 3 4 3 3 3 3 3 3 4 3 3 3 3 3 3 3 3 4 3 3 4 3 3 3 3 3 3 3 3 3 4 3 3 3 3 3 3 3 3 3 3 3 4 3 4 4 3 3 3 3 3 3 3 3 4 3 3 3 3 4 3 3 4 3 3 3 3 3 3 4 3 3 4 3 3 4 3 3 3 3 3 3 3 3 4 3 3 3 3 4 3 3 3 3 3 3 4 3 3 3 3 3 4 3 3 3 3 3 3 3 4 3 3 3 4 3 4 3 3 3 3 4 3 3 4 4 3 3 3 3 3 3 3 3 3 3 3 3 4 3 3 3 3 3 4 4 3 3 3 3 3 3 4 4 3 3 3 4 3 3 3 3 3 3 4 3 3 3 3 3 3 3 3 3 4 3 2 # # X # # X X X # X # . # & # X X # # # X . = Q X.D # # # X X X # X # X & X # # X # & X X # # X X # X # # & . & # X X # # # X # # X # X # X & X # X # X # X X # X # & . . # X # X # & . & X . & # X # . # & & . & X X & X # X # . . X & . & X & r.6X).u.h./.9.3 # X X   o X X # o g.wX( # # X o o X X X # # X o o o o X 4 g.h.i   X # # X # X   X o o . . X X # .   # o o X # X X o   X X X X X o o   o X # X X     o o X o 3 W.s.e o X # X # X & X & X # X # # X # . # & X & X . # # # # & . & # X X # . & X # X & # X X # X # X & # # # & . & # X X & X # & X # X X # # X # & X # & X # X & X X # X # X # X # X # # # . & =  ...< o # # . X # # X & X # # # X # X X X & X & X # X # X # X 2 X X # # # $ * & & & % * & * & % * % * & & $ # : h z.l.l.s - # & * $ 2 % * & % & & & & * % * & & # * & $ & $ & & * $ % * & & & * $ & & $ * & % & & & % Q D.OX, # # Q D.XXQ = # # & & & 2 $ * % * & & & $ * $ 2 * % * & $ $ $ * & & & # # . # X # # # & # X # X = F.X.....X...X...X.X.X.:.< X & # X # f.fXpX9.& X # X e Q.jXsX3.o y gXeXW.r.r.e.T 2 e.fXfXq.3 X X w u.eXi   q.tXe.2 . # X i rXW.i X # X X # X # X & # X . F :.D D < ! H.:.G < F ! :.*   # X # X # X o ( uXjXq.3 X X 3 {.rX).e.u.Q.tXr.q X 2 e W.|.Q.u.u.W.gXg.P X % {.{.5.X # X X e.eXw.2 1.e.e./.zX|.s.r.1.X & X # # X # ",
"3 3 3 4 3 3 3 J.5X<X<X5X<X5X+X&.&.&.&.&.&.&.%.&.&.&.&.&.` u 0 3 3 3 0 / &.&.&.&.%.%.&.&.%.&.&.%.&.&.-.L.;X1X<X<X<X<X<XH.0 3 4 3 3 K :X<X<X<X<X1X:XK 3 3 3 3 3 3 3 3 4 3 3 3 4 3 3 3 3 3 3 3 4 3 3 3 3 3 3 3 3 3 q ` J.;X5X<X<X<X<X<X<X<X5X5X5X5X5X#XH 4 3 4 3 3 q } +X<X<X=X{ _ ;.:.e 4 3 3 3 3 3 4 3 3 3 3 3 3 4 3 3 3 3 3 3 3 3 4 4 3 3 3 3 3 3 4 3 3 3 3 3 3 3 4 3 3 3 3 3 4 3 3 3 3 3 3 3 3 3 3 3 3 3 3 3 3 3 3 4 3 3 3 3 3 3 3 3 3 3 4 3 3 3 3 3 3 4 3 3 3 4 4 % 4 3 3 4 3 3 3 3 3 3 3 4 3 3 3 3 4 3 3 3 3 3 3 3 4 3 4 3 3 4 3 3 3 3 3 3 3 3 3 3 3 4 3 4 3 3 3 3 4 3 3 3 3 3 3 3 3 4 3 3 3 3 3 4 3 3 3 3 3 3 3 3 3 3 3 3 3 3 3 3 0 3 3 3 3 3 3 4 3 3 3 3 3 3 3 3 3 3 4 3 3 3 4 3 3 3 3 3 3 3 3 3 3 3 3 4 3 3 3 3 3 4 3 3 3 3 3 3 3 3 4 4 3 3 3 3 3 3 3 4 3 4 3 3 3 3 3 4 3 3 3 3 3 4 3 3 3 3 3 3 4 3 3 3 3 3 3 3 3 4 3 3 3 3 3 3 3 4 3 3 3 3 3 3 3 3 4 3 3 3 4 3 3 3 3 3 4 3 3 3 3 3 3 3 3 4 3 3 2 2 $ # X # X # X # X # # & X # . # X # . X # . * Q J.=.D & # X # # X # # # # X # X # # . X # # X X & X X & X # # X # X & & X & . X # X & X # X # # X # # X & # # X # # X . # & . # . & # & X # # X # # X # X X # X & X & # # # . # X . & # X # # & 4 6XeX( 2 3 U i % X % T q.r.q.i # o g.eX<.$ X I q.e.q.U & X # 3 <.w.u.9.5.q.uXrX/.9.i X # # X i 4.e 1.e.e.( 3 # X U 1.q 4.r.T % 3 1.e.e.1.e X # i 4.u.e.7.i 2 X q 4.r.r.( 3 4 q.tXwXQ.9.i # # X # X # X # X # X & X # X & X # X # & . X # X & & . & # # X & X # X # . X & # . X # # X X # X & & . & # & X # X # X # # # X # X X # X & # # X # X # # X & . . & . & X # # X . & * ..J.=.< X X # # # X # & X # X X # & X # X X & X # X # X & X # X # # # 2 $ 2 $ * % & * % * % & & * % % * & & & s l.h f z.l : $ * $ * % * % * * * & % * % & * & & # & & # # # # * D D = # # * $ & % * % & & * % & * & % Q D.OXQ < < o.=.D.D * & * & % * $ & & * * % * $ & % * % % & * % & * $ & & & # # # # X # # X & . X # X X 4 -.=.J.K.D.J.J.J.K.H.:.X., # . # # & g.uXuX[.2 X # X T tXwXwX1.o i 6Xg.i X X # # X e.tXuXeXI % o q u.eXi   9.tXq.2 . # X y wXg.i X # # # X # X & X # # . < X.# X o D +XF.=     < @.* # X # # X # # & 9.fXwXQ.I X X 3 [.).T X 3 I tX[.U o 3 e.tX/.i 3 % y Q.eXs.# O {.[.T X X # o e.wXq.$ # X   T fXq.3 # X & X X # X # # ",
"3 3 3 3 3 3 3 H.5X<X<X<X<X<X5X5X<X1X1X1X5X5X5X5X1X5X5X<XJ.K 3 3 3 3 3 H.5X5X5X5X5X5X5X5X5X5X5X5X5X5X1X5X<X<X<X<X<X<X;X;.4 3 3 3 3 / :X<X<X<X<X<X;X/ 2 3 3 3 3 3 3 3 3 3 3 3 3 3 3 4 3 4 3 3 3 3 3 3 3 3 3 3 3 q _ @X<X1X<X<X<X5X<X<X<X<X<X<X<X<X5X-X' q 3 4 3 r ' @X+XJ.@X:.J %.:._ 3 3 3 3 3 3 3 3 3 3 3 4 3 3 3 3 4 3 4 3 3 3 3 3 3 3 3 3 3 3 3 3 3 3 3 3 3 4 3 3 3 3 3 3 3 3 3 3 3 3 3 3 3 4 3 4 3 3 3 q 3 3 3 3 3 3 3 3 4 3 3 4 3 3 3 3 3 3 4 3 3 3 3 3 3 3 4 3 4 3 3 3 3 3 3 4 3 4 3 3 3 3 4 3 3 3 3 3 3 3 4 3 3 3 3 3 3 3 3 3 3 3 3 3 4 3 4 3 3 3 3 3 3 3 3 3 3 3 3 4 3 3 3 3 4 3 3 3 3 3 3 3 3 3 3 3 4 3 3 3 3 3 4 3 3 3 3 3 3 4 3 3 3 4 3 3 3 3 3 3 4 3 3 3 3 3 3 3 3 4 3 3 3 3 3 4 4 3 3 4 3 4 3 3 3 3 4 3 3 3 3 3 4 3 3 3 3 3 3 3 3 3 3 4 3 3 3 3 3 3 3 3 3 3 3 3 3 3 4 3 3 3 3 3 4 3 3 3 3 3 3 3 3 4 4 3 4 3 3 3 3 3 4 3 3 3 3 3 3 3 3 4 3 3 3 3 3 3 3 3 3 3 3 3 3 3 3 3 4 3 3 3 3 3 3 3 3 $ # # X # X & X # X # # X X # X & X & X # # X & ! H.H.< # X X # X X # # X . # # X # # X # # X X # # . # # . & # . # # # X X # . & # # # X & X & X X # X # # X X & # X # X # & . & X & # . X # X # # X # # X # & X & . # X # X & . # # & X X # X X # q 6X6Xe X X X X X 2 U ).eXtXwXQ.e X g.wX( & i g.wXtXwX).U # 3 3.|.eXtX6Xf./.jXfXsX[.<.& X X   1.dXs.[.wXtX{.1.*   g.eXw.[.eXq.y 4.|.eXtX6Xq.3 4 f.gXeXtX[.1.2 q e.6XtXrX6X1.I /.jXjXsX[.1.# X # X # # & X # # # X & X # X # X # . # & # X # X X # # . X # # # X # X & & . X # & X . # # X # X X # # . X # # X X # X & # & X & # X # X X # # X # # X & X & & X . # & X X # # # # & ~ J.-.< & X X # # X X # X & # # X # X # # X & X # X % X & X # X # # 2 $ & & % * * % * % % * & & & * $ $ & * l l.f p h l.p & % & * & % * % & % % * % % * * * = > * , = , = - , o.=.Q = # $ & * * % * % * % * * % & % Q D.XX=.o.=.D.XX=.> # # % % * % $ & & $ & % 2 $ & * * & * & % * & & 2 & & & # X X # # X X & . & X # # X - -.H.P.P.P.P.P.P.P.P.H.;.> . & X . # g.).6XtXe # X 2 4.dX).|.4.o e 6Xg.i o X X X X r.{.).sXu.q X e r.wXi   4.tXq.3 # o X y wXW.i X # X X & X & X # # X # < X.* X X ^ @XK., .   < X.- # # X # # X X i W.rXe.wX4.X o 3 [.).U o X 3 |.).5.o w wX{.( o # X # y [.rX4 2 {.).( X # X   e.wXq.2 X # o T fXq.3 X X X # & X # # o ",
"3 3 3 3 4 3 4 L.5X<X<X<X<X<X<X<X<X1X1X1X<X<X<X<X<X1X1X:XL.J 3 3 3 3 3 F.5X<X5X1X<X<X<X<X<X<X<X<X<X<X<X<X<X<X<X<X<X1X@X' 4 3 3 3 2 K <X1X<X<X<X1X<XK 3 3 3 3 3 3 4 3 3 3 3 3 3 3 3 3 4 3 4 3 3 3 3 3 3 3 3 3 3 J F.<X<X<X<X<X:X;X;X<X<X<X5X<X<X<X5X;X;.t 3 0 y { #X:X;.J / t ` L.&.q 3 3 3 3 3 3 3 3 3 3 3 3 3 3 3 3 3 3 3 3 3 3 3 4 3 3 4 3 3 4 3 3 3 4 3 3 3 3 3 3 3 3 q 3 3 3 3 3 3 3 3 3 3 3 3 3 4 3 3 3 3 4 3 3 3 3 3 4 3 3 3 3 3 4 3 3 3 3 4 3 4 3 3 3 3 3 4 4 3 3 4 4 3 3 3 3 4 3 4 3 3 3 3 3 3 3 4 3 3 3 3 3 3 3 3 3 3 4 3 3 3 3 3 4 3 3 3 3 3 3 3 4 3 3 4 3 3 3 3 3 4 3 3 4 3 3 3 3 3 4 3 3 3 3 4 3 3 3 3 3 3 4 3 3 3 3 3 3 3 3 3 4 3 4 3 3 3 3 4 3 3 3 3 3 3 4 3 3 3 3 3 3 3 4 3 4 3 3 3 3 3 3 4 3 3 3 3 3 3 3 3 3 3 3 4 3 3 3 3 4 3 3 3 3 4 3 3 3 3 3 3 3 3 3 3 4 3 3 3 3 3 3 3 3 3 3 3 3 3 3 3 3 3 3 q 3 3 3 3 3 3 3 4 3 4 3 3 3 3 3 3 3 4 3 3 3 3 3 3 3 4 3 3 3 3 3 3 4 3 3 3 3 3 3 3 3 2 # X # X # & X # X X # X # # X X # & . X # X & Q J.F., # # # X # # # X X # . & X # X # . & X # # X # # & X & X # X # X . & # # & # # X # X # X X # X # X # X X # X X # X # X # # X # X X # # X X & X & & X # X # # # X # # X & X & X # X # # # X # # 2 /.tXe.q 2 # # X e [.{.3.i w.pXe.3 f.eX( 4 /.6Xw.y 1.uXf.e ( eX{.( e I i i gX/.( 2 & & X #   1.fXtX9.y 4.6XuXy . s.jXgX4.y % 4.gX/.I i ).wX1.5.sXh.y i <.i $ e.6Xg.i U gX[.( i eXQ.( 2 & X # X X # X X # # X # X X # # # & X # X # X # X X # & X # # . & X # X # . # X # # # X # # X # & X & & X # X & # X # & X & X . # # X & X X # # . X # X # # X # # X # # # X # # X # X . # * ! P.X., # # X X # # X # X X # & X # # X # . . # # & X X # # # & % % $ & & * % $ $ & & * 2 $ $ 2 & $ % * : l.l.s : l z.d & 2 & % * & & 2 * * % & * 2 * < Q o.! ! ! o.Q ! ! o.=.XX=.Q = * % % * % & & * % % % $ $ % Q D.oXOXOXOXXXOXo.= $ 2 * % & * $ * 2 $ % * & % * % % * $ & & & & & $ $ # X X # # X X # # X # # # X & # = X.G < F F F F < F < F -.> X X # X & g././.wX9.3 X i s.{.g.{.1.  e 6X).5.4 w q 2 X r.).e.Q.rX1.X e s.wXi   4.eXe.3 o # X y eXW.i X X # X # # X & X & X   < X.* X X Q @XJ.> X X < X.*   X & & X & X 9.6Xs.I pXs.2 X 3 [.).3.4 e <.tXh.q # P fXh.q # # X # o f.sX<.3 [.[.T X # # X e.wXq.$ X #   ( dXq.3 X # # X X # # X # ",
"3 4 3 3 3 3 3 J.5X<X<X<X<X<X<X<X<X<X<X<X1X<X<X<X<X<X1X:XJ.H 3 3 0 3 3 L.5X<X1X<X<X<X<X<X<X<X<X<X<X<X1X<X<X<X1X<X1X<X:.u 3 3 3 4 3 ^ :X<X<X1X<X<X;X/ 3 3 3 3 3 3 3 3 3 4 3 3 3 4 3 3 3 3 3 3 3 4 3 3 3 3 3 3 3 ] =X<X<X<X<X=X:._ :.;X5X<X<X<X<X<X<X:XK.t 0 ` H.;X<X<XJ./ r K K.-.t 4 3 3 3 3 3 3 4 3 3 3 3 4 4 3 3 4 3 3 3 3 3 4 3 3 3 3 3 3 3 3 3 3 3 3 3 4 3 3 3 3 3 3 3 3 3 3 3 q 3 3 4 3 3 3 4 3 3 3 3 3 3 3 3 3 4 3 3 3 3 4 4 3 3 3 4 3 3 3 3 3 3 3 3 4 3 3 3 4 4 4 4 4 4 4 3 3 3 3 3 3 3 4 3 3 4 3 3 3 3 4 3 3 3 3 4 3 3 3 3 4 3 3 3 3 3 4 3 3 3 4 3 3 3 3 3 3 3 3 4 3 3 3 3 3 3 4 3 3 3 3 3 3 q 3 3 3 3 4 3 3 3 3 3 3 4 3 3 3 3 4 3 3 3 3 3 3 3 4 3 3 3 4 4 3 3 3 3 4 3 3 3 4 3 3 3 3 3 3 3 4 0 3 3 3 3 3 3 3 4 3 3 4 3 3 3 3 3 4 3 3 3 3 4 3 3 3 3 3 4 3 3 3 4 3 3 3 3 4 3 3 4 3 3 4 3 3 3 3 4 3 3 3 3 3 3 3 3 3 3 3 4 3 3 3 3 3 3 4 3 4 0 3 3 3 3 4 3 3 4 3 3 3 3 4 3 3 3 3 3 3 3 3 3 3 3 2 $ # # X # X # # # X # X 2 X X # # . # & & X & Q K.:.< # #   X # X # X # # X & . & X & X & X # # X & X & . # X # X # . # & . X X # . X & X & X # X # # X # # # # X # & X & X X # X & X # X # X # # X # X X # X & # . . # # X # X # X # X & X # X # X # X T ].dX{.q.w % X T dX4.3 X I ).[.e f.wX( y uXh.q # e Q.{.1.e.sX<.2 # & & w wXW.i X # X & X   1.sXg.e X 3 q.fX1.& h.sXf.3 # % f.tXI 3 & 9.{.Q.<.sXe.3 % 2 2 2 ).6Xi 2 % r.{.r.e wXW.i X # # X # # X # & X X & X # X # X # X # X # X & X # X # X # . X & X # X & X # # & X # X # X # # . . & . X # X # X # # X X # X # & X X # X # X # & . & X & X X # # . & X # X # X X & X & # . # * ! +X-.1 X # X # X & X # # X X # # X & X & # X # X # X # $ $ * * & * & & & & & 2 * & $ $ * & $ $ $ # - d l.l.f f l z.l : $ % * % & $ $ % * & % * $ = o.D.OXXXXXOXXXXXXXOXXXoXoXoX=.< * * & % * & * % & * * 2 & % Q D.OXQ Q Q o.OXOXQ = % * & % * & & & $ * % * * % * & % $ * & $ & & $ $ & X # # X # X # X # X X X # X X = X.:.F.J.J.H.H.H.J.J.=.;.> X # X # & g./.r././.q o 3.).e.g.gX1.  e gXfXdXpXsXeX<.2 r.[.4.I tX/.i q r.wXi   9.tXq.6 # # X y eXg.y . & X # # X & X # X # # < X.* # X Q @XJ.> # X < X.* # # X X # X X g.wX( 4 {.).U X 3 [.fXdXsXdXdXg.i % % T fXq.3 X X # # o u.tX9.3 [.[.5.X # X   e.wXq.2 # # o T fXq.3 X & X # X # X & # ",
"3 3 3 4 3 3 3 L.5X<X<X<X5X<X<X<X<X<X<X<X<X<X<X<X<X<X<X:XK.L 3 3 3 4 3 H.5X<X<X<X5X<X<X<X<X<X<X<X<X<X<X<X<X<X<X5X1XK._ 3 3 3 3 3 2 / :X<X<X<X<X<X;XK 3 3 3 3 4 3 3 3 3 3 3 3 3 3 3 3 4 3 4 3 3 3 3 3 3 3 3 3 3 ` =X<X<X<X;XF.y r ` +X1X<X<X1X1X1X5X<X=XK / H.;X5X5X:X:.H L J.;.L q 3 3 4 3 3 3 4 3 3 3 3 3 3 3 3 3 3 4 3 3 4 3 3 4 3 3 3 3 3 3 3 4 3 3 3 3 4 3 3 3 4 3 3 3 4 3 4 3 3 3 3 4 3 3 3 3 3 3 3 3 3 3 3 3 3 3 3 3 3 3 3 3 3 3 3 3 0 4 3 3 3 3 3 4 3 3 3 3 3 3 3 3 4 3 3 3 3 3 3 4 3 3 3 4 3 3 4 3 4 3 3 3 4 3 3 3 4 3 3 3 3 3 3 3 3 3 3 3 3 3 4 3 3 3 3 3 3 3 3 3 3 3 4 3 3 3 3 3 3 3 3 3 3 3 3 3 3 3 3 3 3 3 4 3 3 3 3 4 3 3 3 3 3 4 3 3 3 4 3 3 3 3 3 3 3 3 3 3 3 3 4 3 3 3 4 3 3 3 4 3 3 4 3 3 3 3 4 3 3 3 3 3 3 3 3 3 3 3 4 3 3 q 3 3 3 3 3 3 3 3 3 3 3 4 3 3 3 3 3 3 3 3 3 3 3 3 3 3 3 3 3 3 3 3 3 3 3 3 3 3 3 3 3 3 3 3 3 3 3 3 3 4 3 3 3 3 4 4 3 3 3 3 3 3 3 4 3 3 3 3 3 3 3 3 3 & & X & # X # # X # # X & X & X X # X & # . X # # ~ +X:.* # X # # # X # X # X # # X # X X # X # X # # X & # . # & # . # # X X & # X X # X & . & X # # X # X # X & . & X X # & . # X X # X & . & & X # # X # # X X # # X X # # X # X X & X # # X X # # # X # 2 i w.[.tX|.<.3 4.zXtXgX6XeXfXtXP f.wX1.( dXsXwX6XwXdXsXw.g.sX3 # o X X w gXg.i X # & . &   1.pXq.4 X   5.dXw.2 f.rX3.# X q Q.zXeXgXgXpXdX[.y (.tX).3.3 # e |.jXwXgXwXsXdXf.e gXg.i X # X # # X X # X X # X & . & # X X # X X # # X & X # X # X # X & . & # . # & X X # X # X & X # X # X & # . X # # X # & X # # X X # X # X & X # # X # X # X # X # X & X X & X # # X # # o # # # D @X:.< # # #   & X # X # # & X X & X # X # X # # X # # & & & & * % * % & * % * $ 2 & * $ * % & & $ : l z.z.l.l.z.z.l.s $ $ $ * $ & * $ % * % % * = F =.=.=.=.=.=.=.=.=.=.OXoXOXo.= $ & & * & & & & $ 2 * & $ % Q D.OX< & * < =.XXo.< & % * % % & * % * % % * % $ $ & * % * & * & $ # X # # X # & # . # # X . # # X # # = ;.H.+XP.+X@X@X+X@XP.H.;.> . # . # & g.).4.q.uXI X s.6XI h.6X1.o e 6X6Xs.4.9.4.e # e.[.3.3 u.eXe.w r.eXe   9.tXq.3 X # . y eXW.i X # X # X # X # # # X . < X.* # . Q @XK., . . < X.# # X # # X & i [.6X& # e.6Xw.o 4 [.wXh.9.e.Q.eXr.q * <.hXe.2 % # X #   e.tXq.3 [.[.( X X # X e.wXq.& # X   5.dXq.3 X # # X # X & X o ",
"3 4 3 3 3 3 3 J.5X5X<X<X<X<X<X<X<X<X<X<X<X<X<X<X<X5X<X:XK.J 6 3 3 3 3 F.5X5X<X<X<X<X<X<X<X<X<X<X<X<X<X<X<X<X5X<XP.' e 3 3 3 3 3 3 / <X<X<X<X<X<X<XK 2 3 3 3 3 3 3 4 3 3 3 4 3 4 3 3 3 3 3 3 3 3 3 3 4 3 3 3 3 y -.=X;X#X;.K 3 3 } @X1X<X<X;XF.%.H.<X:X` ^ J.5X<X@X>.] ` :.:./ q 3 3 3 3 3 3 3 3 3 3 3 4 3 3 3 3 3 3 3 3 3 3 3 3 3 3 3 4 3 3 4 3 3 3 4 3 3 3 3 3 3 3 3 3 3 3 3 3 3 3 4 3 3 3 3 4 3 3 3 q 3 3 3 3 3 3 4 3 4 3 3 3 3 3 3 4 3 3 3 3 4 3 3 3 3 3 4 3 3 4 4 3 3 3 3 3 4 3 3 4 3 3 3 3 3 3 3 3 3 3 3 4 3 3 4 3 3 3 3 3 3 3 4 3 4 3 3 3 3 3 3 3 3 4 3 3 3 4 3 3 4 3 3 3 3 3 3 4 3 3 4 3 3 3 3 3 4 3 4 3 4 3 3 3 3 3 3 4 3 3 4 3 3 3 3 3 3 3 3 3 3 4 3 3 3 3 4 3 4 3 3 3 3 3 3 3 3 3 3 3 3 3 3 3 3 4 3 3 4 3 3 4 3 3 4 3 3 3 3 3 3 3 3 3 3 3 3 q 3 3 3 3 3 3 3 3 4 3 3 3 4 3 3 4 3 3 4 3 3 q 3 3 4 3 3 3 3 3 4 3 3 3 3 3 3 3 3 3 3 4 3 3 3 3 3 3 3 3 3 3 3 3 3 4 3 3 3 3 3 4 3 3 3 3 3 % & X # X X # X X # X X # X # # # & X & . X # # X # < X.H. .& # . # X & X # # # X X # X & # X & X & X X & . & # X . & # X X # # X X # & X & . . # # X X # # # X # # & . # # . # & X # & X & . . # X # X # # X X # # X # # # # X # X # # X # X # # # X X # # X # X 2 T u.tX).( q.zX[.g.W.W.g.e.q f.7X1.1.fXwXg.g.W.g.u.1.Q.uX2 # # # X e 6Xg.i X # . & #   1.pX9.4 #   T sXe.3 f.eX<.# X i [.hXW.W.g.W.f.4.2 U u.).{.W.P U wXsXg.Q.W.W.h.5.e gXg.i X X # # X # # X # # X # X # # . # # X # & X . # X # X # X & . & X # X # X # . & & X # X # X X # & X & . X # # X # # . . # X # & X # # # # X & X X # X & X & # X # # X # # X # X # # . . # . # F :.F.Q *   # # # X # X & # X X # # X # X # X # # X & $ & & & $ * & % % * * % * & $ $ & $ & & % * & & p l.l.l j f j h z.f - & & & & & & $ * % & * * # , F D < D D < F D < Q =.D.o.< % $ & & $ $ $ & & $ $ % & % % Q D.OX> X   > o.XXo.< & * % & * * % * % & * * & * $ & & & % & & & # # X X # # X . & # X X # # & X # X X * X.! ! ~ ! ! ! ! ~ ! ! X., . & . # & g.).<.U uX4.I g.).4 r.6X1.  u 6X/.I $ 2 2 # X r.[.3.2 e gX[.4.r.wXi   9.eXq.3 X X X y eXg.i . # # # X X # # X X # . < X.* #   D J.:.> # . < X.# # & X X # X q.pXdX/./.wXfX/.% 4 [.).5.% 3 i [.gX3.# U fXu.3 o # # # o s.pX3.3 [.[.( X # X X e.wXq.& # #   T dXq.3 # X X # X % X # # ",
"3 3 3 3 3 3 3 J.5X5X5X5X5X5X5X5X1X1X1X1X1X1X1X1X5X5X5X<XK.L 3 3 3 3 3 H.5X5X5X5X5X5X5X5X5X5X5X5X5X5X5X5X<X:X#XJ.] r 3 3 3 3 3 3 2 / <X5X1X<X5X5X<XK 3 3 4 3 3 3 4 3 4 3 3 3 4 3 3 3 3 3 3 3 3 3 3 3 3 3 3 3 4 3 u %.;.{ H 3 3 q :.;X<X<X<X@X/ % ' -X:X-.K %.=XJ.} ^ ' :.:./ q 3 3 3 4 3 3 3 3 3 3 4 3 4 4 3 3 4 3 4 3 3 3 3 3 4 3 3 3 3 3 4 3 3 3 3 3 3 3 3 3 3 3 3 3 3 3 3 4 3 3 3 3 3 3 3 3 3 3 3 3 3 3 3 3 3 4 3 3 3 3 3 3 3 3 3 3 3 4 3 4 3 3 3 3 3 3 4 3 3 3 4 3 3 3 3 3 3 4 % 3 3 3 3 3 3 3 3 3 3 3 3 3 3 3 4 3 3 3 3 3 4 4 3 3 3 3 3 3 3 4 3 3 3 3 3 3 3 3 3 3 4 3 3 4 3 3 3 3 3 4 3 3 3 3 3 3 3 4 3 3 3 3 3 4 3 3 3 3 3 3 4 3 3 3 3 3 3 3 3 3 3 3 3 3 3 4 3 3 3 3 3 3 3 4 3 3 3 3 3 3 3 3 3 3 3 3 3 3 3 3 3 3 3 3 3 3 3 4 3 3 3 3 3 3 3 3 3 3 3 3 3 3 3 4 3 3 3 3 3 3 3 3 3 3 3 3 3 3 3 3 3 3 3 4 3 4 3 3 4 3 3 q 3 3 3 3 3 3 4 3 3 3 4 3 3 3 3 3 4 3 3 3 3 3 3 3 3 3 3 3 3 3 4 3 3 2 # # . X # & X X # X # X X X & X # X # X # # # X & #   < X.J.! = # X # X # & X & X & X # X # # & X . # # X & X # X & . & X # X # # & # X # X # # X X # # X X # X X . # & X # X # X & # X # X # # X # X X & X # X # X # # X X # # X # X X # X & # X # X # X # X X # o X # ).gXq.4.hX3.3 % 3 2 2 . f.wX1.( dXu.3 3 2 3 % q W.sX4 # o X X e wXg.i X # & . & o 1.pXr.4 X X <.fX9.2 f.eX5.# # q ).tXy 2 3 2 2 $ #   $ U Q.uXr.U gX6Xq 3 2 2 2 # e gXg.i . # & X # X X & # X & X & X # # & . & X X # # X & # . # # # & . & X # X # X & X . & # # # X # X . # & . # # X & X # . & X & # X # X & X # . . & X # X # # . & # X # # X X & # # X # # # # # F ;.J.Q * # . #   # & X # X X # # X X & # # # X # X & # & & $ $ $ & % * & $ % % * % & * $ $ % * * % # & d z.l p - - : s l.h p & * & * % & * & * * & # * # # # # % % # # # # * Q ! < % * % * & $ $ * * $ & * & * * % Q D.XXD < < o.=.XXo., & & * & $ % % * * $ $ % * & 2 $ * * % & $ # X # # # X X # & . & X # X # . # X # . , X.~ ! ~  .~ @.~ ~ ~ ~ -.> X # # # & g./.( e [.g.f./.q.3 h.6X1.  e 6Xg.i X X X X X r.[.4.# # q.gX{.h.eXi o 4.wXs.3 X #   i uXh.e X X # X # # X X # X # o < X.* # . F :.X., # o < X.& # X # # X & ).sXrXtXwXwXjX6XI 4 ).).U X X % e.tXs.  e sXQ.i X X X X 3 (.uXU 2 (.[.1.X X # . u.rX3.2 X X X ( dXq.3 X # # X # X X # # ",
"3 3 4 3 3 3 3 ;.#X#X#X#X#X#X@X#X%X=X#X#X=X@X#X=X#X#X@X@X:.t 3 3 3 3 3 -.=X#X@X#X#X@X#X@X#X#X#X#X@X#X#X@X+XH.%.t q 4 3 3 3 3 3 4 3 L @X@X#X#X#X#X@XH 3 3 3 3 3 3 3 3 3 3 3 3 3 3 3 3 3 4 3 4 3 3 3 4 3 3 3 3 3 3 3 3 3 3 3 3 3 q P.1X<X1X<XJ.L 3 / $X:XJ.K / %.K J $.J.:.J 4 3 3 3 3 3 3 3 4 3 3 3 3 3 3 3 3 3 3 3 3 3 4 3 3 3 3 3 3 3 3 3 3 3 4 3 4 3 3 3 3 3 4 3 4 3 3 3 3 3 3 3 4 4 3 3 3 3 3 4 3 3 3 3 3 4 3 3 3 3 4 3 3 3 4 3 4 3 3 3 3 3 3 3 3 4 3 3 3 3 3 3 3 3 3 4 3 3 3 4 4 3 3 3 4 3 3 3 3 3 3 4 3 3 3 3 3 3 3 4 3 3 3 3 3 3 4 3 3 3 4 3 3 3 3 4 3 4 3 4 3 3 3 3 3 3 3 3 4 3 3 3 3 3 3 3 3 3 4 3 3 3 3 3 3 3 3 3 4 3 3 3 3 3 3 3 3 3 4 4 3 3 3 3 3 4 3 3 3 4 3 3 3 3 4 3 3 3 4 3 3 4 3 4 3 3 3 3 3 4 3 3 3 3 3 3 4 4 3 3 3 3 3 3 3 3 3 4 3 3 3 3 3 4 3 3 3 3 3 3 3 4 3 3 3 3 3 3 4 4 3 3 3 3 3 3 3 3 3 3 3 3 4 3 3 3 3 4 3 3 3 4 3 3 3 3 4 3 3 3 3 3 3 3 4 3 3 3 3 3 3 4 3 3 3 3 2 # # # # # X # # & X & X # # # X # X & X # X # X # X # #   < X.+X! > & X & X X # X # X # X & X # X # & X . # X # X # X # X # X & # X X # # X # X # # # # X # # X # # X # X # X # X & X # # X # X # # X # # X & X & X # X X # # X # X X & & X # X X # X # X & # & 3 2 # # 3 Q.[.4.T dXu.e # $ 3 2 # g.wX<.y uX/.P # $ % 2 3 e.sX3.3 # 2 & q 6XQ.I X # X # X   1.dX(.y # 4 e.fX( # f.eX5.% # % f.uX4.3 $ % 2 2 % 3 $ X P ).[.I (.eX<.% $ 2 2 # w gXQ.I X # X # X & # X X & X # X # . X . & X # # X # # . & # X . . # & X # X # X # X # & . . # X & X # # # X & # X # X # X & X # X X # X # X # X # & . & X # X X & # . & X X # # X X # # X . # # < =.J.Q # # # # # . # X # X # # X X # # X X # X # X # # & & & & * & & * & & * & * % * & & & 2 * & % * # p h l.s - # $ X : h l.d % $ & % * & % % * % & & # * # * - % * * # * # * , - & & % * & & * & & 2 & & $ $ 2 & % Q D.XX=.=.=.D.oX=.< & & % * & * & * % & & 2 * % & & $ & % * & $ # # X # X # X # X # X # X & X & # # # . = =.P.-X-X-X-X-X-X-X=XP.;.> X # # . # f.).5.3 q.6XpX/.i 3 r.6X4.o e 6X/.i X # # & o r.{.4.& X 4 g.dX[.eXi   T ).[.y & & 3 1.dX9.4 X # X # X # # # X & X X < X.& o . F ;.X.* . . < X.* # # X # & y tX[.I e e e g.wXr.5 [.).( X % 4 g.wXe.  3 Q.eXq.2 % % 3 4.wX[.2 % y.6Xu.3 $ % q ).eXP $ X #   T dXq.3 X X # # X # # X # ",
"4 3 3 3 3 4 3 q q r q q u q r q q r 0 r w q q r q r q q r 0 3 3 3 3 3 q e r q q e q q u q r q q r q r q q q q 4 4 3 3 3 4 3 3 3 3 4 r q u q r q e 4 3 3 3 3 3 4 3 3 3 3 4 3 3 3 4 3 3 3 3 3 4 3 3 4 3 3 3 3 3 3 3 3 3 3 4 3 4 q +X<X<X<X;X;.H 3 J H.:X#X' q H ' K.J.{ r q 3 3 3 3 3 4 3 3 3 3 3 4 3 3 3 3 3 3 3 3 4 3 3 3 3 4 3 3 3 3 3 4 3 3 3 3 3 3 3 4 3 3 3 3 3 3 3 4 3 3 3 3 3 4 3 3 3 3 3 3 3 3 4 3 3 3 3 3 3 3 3 3 3 4 3 3 3 3 3 3 3 3 4 3 3 4 3 3 3 3 3 3 3 4 3 3 3 3 4 0 3 3 3 3 3 4 3 4 3 3 3 4 3 3 3 4 4 3 3 3 3 3 4 3 3 3 3 3 3 4 3 3 3 3 3 3 4 3 3 3 3 3 3 3 3 3 3 3 3 3 3 4 3 3 3 3 3 3 3 3 3 4 3 3 3 4 3 3 3 3 3 3 3 3 3 3 3 3 3 3 3 3 4 3 3 3 4 3 3 3 3 4 3 3 3 3 4 3 3 3 3 3 3 3 3 3 4 3 3 3 4 3 3 3 3 4 3 3 3 3 3 3 3 3 3 3 4 3 3 3 4 3 3 3 3 3 3 3 4 3 3 3 4 3 3 3 3 3 3 0 3 3 3 3 3 3 3 3 4 4 3 3 3 3 3 4 3 3 4 3 3 3 3 3 3 3 3 3 3 4 3 3 3 3 3 3 3 4 3 3 3 3 3 3 3 % # # X X # X # X # X # # # X & X X # X # X # # # X # X   . # # > X.P.Q & X & X # # & X # # # . # # # X X # X # # . & . X # # X . & X & # & X # X # X # X # # X X # # # # X # X X # # X & X # X X # # X X # X # X & X & # X # X # # X # # # X # X # X # X # # X # e 1.1.i i 1.rX).i e ).tXu.i I <.( & f.wX( 3 g.tXW.I i <.( 3 <.wX6X<.i T P 4 (.wXq.q 3 # X #   1.fXsXq.i 9.6X6Xq X f.wX5.# X X 1.gXwX1.i T <.U I 4.T i 4.gXW.w 9.eX6X( i T <.i q ).wX9.q 3 X # & X # # # # # X & X X & & # # # X # # . X # # . # X # X & # . # X & X # X # X # & . & # # X # X # X X & X # # X . # # X # # . # # # X # & X # # X # # X X # X & # X # X X X # # = :.F.! & X X # # . # # X & X # # X X & X X # X # X # # $ * & $ & $ & 2 & & 2 & * & % * % * & & % % * % 2 s l.h : % * % # & f l.j $ $ & & * & * 2 $ * $ & * # * % * % % $ * * $ * * * # * 2 $ & * & $ $ $ & * $ $ $ & % Q D.XXXXXXOXD.o.Q - $ $ * $ $ & & & 2 * & % * % $ $ & $ 2 & # # X & X & # # X # X # # X & X # X X # X X * -.X.@.X.X.X.X...X.X.@.-., # . X # # W./.5.# i uXzXg.# 3 r.6X1.  e 6X).5.q w q 3 X r.{.4.# X X <.6XjXrXi o 4 q.dXs.U i 9.6XeXP X # X # X # # X X # # X X < X.> # # D J.:.> # # F X.& # X & X 3 q.rXr.X X 2 X 5.{.{.w [.[.4.4 i 4.tX{.T X $ U eXwXq.i i 3.wX6X1.X # i {.eXq.i U g.rXQ.$ # X #   ( dXq.3 X # # # X # X # o ",
"3 3 3 3 3 3 4 3 3 3 4 3 3 3 3 3 4 3 3 3 3 3 3 3 3 3 4 3 3 3 3 3 3 3 3 3 3 3 3 3 3 4 3 3 3 3 3 3 3 3 3 3 3 3 4 4 3 3 3 4 3 3 4 3 3 3 3 3 3 3 3 3 3 3 3 3 4 3 3 3 3 3 3 3 3 3 3 4 3 3 3 4 3 4 3 3 3 3 3 3 3 3 3 4 3 3 4 3 3 4 4 0 J.<X<X<X=X/ 3 3 r ' -X<XF.;.K.H.} ^ u 3 3 3 3 3 3 3 3 3 3 4 3 3 3 3 3 3 3 3 4 3 3 3 3 3 3 3 3 3 4 3 3 3 3 3 3 3 3 3 3 q 3 3 4 3 3 3 3 4 3 3 3 3 3 3 3 3 3 3 4 3 3 3 3 3 3 4 3 3 4 3 3 3 3 3 3 3 3 4 3 3 3 3 3 3 4 0 3 3 4 3 3 4 4 3 3 3 3 3 3 3 3 3 3 4 3 4 3 3 3 3 3 4 4 4 3 4 4 4 4 3 3 3 3 3 4 3 3 3 3 3 3 3 3 4 3 3 3 3 3 3 3 3 3 4 q 3 3 3 4 3 3 3 3 3 3 3 3 4 3 3 3 3 3 3 3 3 3 3 3 4 3 3 4 3 3 4 4 3 4 3 3 4 3 3 4 3 3 3 3 4 3 3 3 3 3 3 3 3 3 3 4 3 % 4 3 4 3 3 4 3 3 3 4 3 3 3 3 3 3 3 3 4 3 3 4 3 3 3 3 3 3 3 3 4 3 3 4 3 3 3 4 3 3 3 4 3 3 3 3 3 4 3 3 4 3 3 3 3 3 3 3 3 3 3 3 3 3 3 3 3 3 3 3 3 3 4 3 3 4 3 3 3 3 3 4 3 3 3 3 3 3 q 3 3 3 2 # # X # # X # X # X & X X X # X # # X # X # X # # # X # # # # . & = < * # # X # # X X # # . & . # X X # & X # # X & # & & X X # & X # X . . & X & X X # # X X # # # . o X # X & & X . # X # X # & X X # & X & X # X # X X # X % X # # X X # # X # X & X # X # # # y g.tXsXsXeXQ.U # # i Q.rXsXsX6X3.2 g.wX( $ e h.eXsXsXeXq.q 3 1.|.uXsXwXq.2 <.wXdX{.1.& X X   1.sXQ.|.uXsX{.( & X g.eX5.# # X 3 1.|.tXpXuXQ.( T {.uXsXtX).I $ 3 4.gXuXsXtXf.i 2 5.wXdX6X<.& X X # # X # X X # X # # X # . X & # X & . # # X # X & # # . & # X # X # X & X & . . & # . # X X # X # # X & X X # # & X # X X # & # X & X X # X # # X # # # X # X X # X & # # # X & > , - X # # X . # # X # X # X X # # X # # X & X # # % % & & $ & * $ $ $ * $ $ 2 % * & * % * & & * % * & * : : * * % * & & - : - $ $ * * % % * & $ & & & & & # * % & * & $ $ $ * # # * % * $ & % & & * $ & & & 2 & & & - < < < < < < > * # * $ & & & & & $ $ % & * * & * & & 2 & & X & # X # X # X # X & X X # X # X # # X X # > K.:.X.;.-.-.-.;.X.-.:.J.< . # # X # g.).5.o 3 6XrX9.o 3 h.gX4.  y 6XfXfXsXdXuXs.4 r.[.4.& # X 2 e.jXuXi X # e e.6XuXpXrX(.( 2 X # # X # X X # # X # # X F P.X.....X.:.:.X.....;.H.- X # X X 3 6X].( X # X X 3 g.uX<.{.fXfXsXsXtX[.<.2 # # 2 ( g.eXtXpXeXQ.<.2 # # $ T g.eXpXuXwXr.i # X # X   T fXq.3 X # X # # X # # # ",
"3 3 3 4 3 4 3 3 3 3 3 3 3 3 3 3 4 3 3 3 3 3 3 3 3 3 3 3 3 3 4 3 3 3 3 3 3 3 3 3 4 3 3 3 3 3 3 3 4 3 4 3 3 4 3 3 3 3 3 3 3 4 3 3 3 3 3 3 3 3 3 3 3 3 3 3 3 3 4 3 4 3 3 3 3 3 3 3 3 3 3 3 3 3 4 3 3 3 3 4 3 3 3 3 3 4 3 3 3 3 3 3 } :.+X+X&.e 3 3 4 t ;.+XH.%.$./ r 3 3 3 3 3 3 3 4 3 3 3 3 3 3 4 3 3 3 3 3 4 3 3 3 3 3 3 4 3 3 3 3 3 q 3 3 3 3 3 3 3 3 3 3 4 3 3 3 4 3 4 3 3 3 3 3 3 3 3 3 4 3 3 4 3 3 3 3 3 4 3 3 3 3 3 4 3 3 3 3 3 4 3 3 3 3 3 3 3 3 4 3 3 3 3 3 3 3 3 4 3 3 3 3 3 3 3 3 3 4 3 3 3 3 3 4 4 % 4 4 4 3 3 3 3 3 3 3 3 3 3 4 3 3 3 3 3 3 4 3 3 3 3 3 3 3 3 3 3 3 3 3 3 3 3 3 q 3 3 3 3 3 3 3 3 3 3 3 3 3 3 3 3 3 3 3 3 3 3 4 3 3 3 3 3 4 3 3 3 3 3 % 4 4 3 3 3 3 3 3 3 3 4 4 4 4 4 3 3 4 3 3 3 3 3 4 3 4 3 3 3 3 3 3 3 3 4 3 3 4 3 4 3 3 3 3 3 4 3 3 3 4 3 3 3 3 3 4 3 4 3 3 3 3 3 3 3 4 3 3 3 3 3 3 3 3 3 3 4 3 3 3 3 3 4 3 3 3 3 3 4 3 3 3 3 3 4 3 3 3 3 3 3 3 3 q 3 % % X # X # & X # X # # # X # X X # # X & X X # X & X # X # X # . # X X X X X # # X X # # X X # X & X # X # X # & X # X . # X # X # . & X # # X X # # X # X X # # X X # # # X # # # X # X # # X X # & . # X X # # X # X X # X # & X # X X # X & X & # # # X X # # X # 3 I 3.4.7.1.i 2 # # # i 1.4.4.<.e $ P 5.0 X # e <.4.4.1.y % X 3 T 4.7.1.y # 2 ( 6.1.e X # # . 3.pXq.1.4.4.U 3 # X P ( 3 # X # X 2 Y 4.4.4.T q 4 ( 4.4.3.I $ X # 0 ( 4.9.3.P 3 # 3 ( 4.1.e # X & X # X X & X X & X # # X X # X X # X & X # . & X & X # # X & X X # # # . & # # # X X # X & # X # X . # X # # X & . # X # X & . & X X # & X # X X & & X & X # X X # X & # X X # # X X X # # X # # X X # X # & X # X X # X # # X # # $ * & * $ * * & & & & & 2 $ $ $ * % % & $ $ * & & * % $ % % 2 & * % & & * $ $ & & & % & * % & & & $ $ # & & & * * & * $ # * & & * # * % % * * % 2 $ % * * % * $ $ $ # # # $ # $ # # * # & * * & & $ * $ & * * % % * 2 & 2 # # X # X # X X # # X # X X # # X # X X # X # # X # D D < F < < D < < < F ^ & # X # X # P U q # # U ( w X 2 i U e X 2 ( 4.9.9.9.9.U 2 i U q & X # X w 1.<.3 X X & q 5.4.9.1.I 2 # # X # X X # # X X # # . # * D F F < F F < D D < F F & . # X # & ( U 3 # X & X # i <.w ( 4.9.q.9.1.I 2 X X # # 2 i <.4.7.1.i 2 X X # # & i 1.4.4.<.u # # # # X X 4 1.y & X # # X X X # X # ",
"3 3 3 3 3 3 3 3 3 3 3 3 3 3 3 4 3 3 3 3 3 3 3 3 3 3 3 3 3 3 3 3 3 3 3 3 3 3 3 3 3 3 3 4 3 3 3 3 3 3 3 3 3 3 3 4 3 3 3 3 3 3 3 3 3 3 3 3 3 3 3 4 3 3 3 3 3 3 3 3 3 3 3 4 3 4 3 3 3 4 3 3 3 3 3 3 3 3 3 3 3 4 3 3 3 3 3 4 3 3 3 3 e J ' ` r 3 3 3 4 0 t } ] L 0 3 3 3 3 3 3 3 4 3 3 3 3 3 4 3 3 3 3 4 3 3 3 3 3 4 3 3 3 4 3 3 3 3 3 3 3 3 3 3 4 3 3 3 3 3 3 3 3 3 3 3 3 3 3 3 3 3 3 3 q 3 3 3 3 4 3 3 3 3 4 3 3 3 3 3 4 3 3 3 3 3 4 3 3 3 3 3 4 3 3 3 3 3 3 3 3 3 3 3 4 3 3 3 3 4 3 3 3 3 3 3 3 3 3 4 3 3 4 3 4 3 3 4 4 3 3 3 4 3 3 3 4 3 3 3 3 3 4 3 3 3 3 4 3 3 3 4 3 3 3 3 3 3 3 3 3 4 3 3 3 3 3 4 4 3 3 3 4 3 4 3 3 3 4 3 4 3 3 3 3 3 3 3 3 3 3 3 3 3 3 3 4 0 4 3 3 3 3 4 3 3 4 3 3 3 3 4 4 4 3 3 3 3 3 3 3 3 3 3 3 3 3 4 3 3 4 3 3 3 3 3 3 3 3 3 3 3 4 3 3 3 3 3 3 3 3 3 3 3 3 3 3 3 4 3 3 3 4 3 3 3 3 3 4 3 3 3 4 3 3 3 3 4 3 3 3 3 3 4 3 3 3 3 3 4 3 3 3 3 3 3 4 3 3 4 3 3 3 2 % % # X # X X # X # X & X # X & # X # & X # & X # X # X # X # # . # & X % # # X X # # X X # & X & . # X & X # X X # X # X # # X # # . # # X # # & . # & X # # # X # X # . # & X # X # X & X # # # . # & . & # X # # X # & X # X # # X # # X # X # X X # X # X # X # X X X o     . o X # X # X . o o X X X X X X # # X o . o   X # # # o . . o o # # X o o o # # X o 1.pX4.& o   X X # X X X X # # X # X X o . . o # X X X   o X # X # o o o   . X X # X .   o X X # X # X # # X # # X # # X # # X # & X & . & X & X # X # X X # X # X # X # . # X & X # X # # . # & . & # # & X # # . & X & X # X # X # . # X # X # # X X # X # X # & X # X X # # X X # & X # X # # X # X # # # X # X & # X # # X & # $ 2 & * % 2 & % & $ * & $ $ * & & % * % * 2 * % % * % * $ $ * & & & % & & & * $ & & & * % % * * $ 2 $ & * & & & & $ & & $ * # * & & & & % * & % * & % * & % * & & & 2 # * # $ # * $ $ * # * # $ $ & * $ 2 % * % * & % % 2 # # # # X # X # # X # # X # # X # # X & & X # X # # # X o # . . X . # . # . o # X # X # # X o X # X X X X & # X o X # X o   o o     X # X o X # # X & X     X # # X X o   o . . X X # # X # # # X # X # # . # # o X o # o . X X . # . # # X X # X #     X X # X # X X   X X o     o   . # # # X X # X   o X   X # # X # X # X . o X   X X X # X # # X o X # # X X # # # X # # ",
"4 3 3 3 3 3 4 3 3 3 4 3 3 3 4 3 3 3 3 3 3 3 3 3 3 4 3 3 3 3 3 3 3 3 3 3 3 3 3 3 3 4 3 3 3 3 3 3 3 3 4 3 3 3 3 3 3 3 3 3 3 3 3 3 3 3 3 3 3 3 3 4 3 3 3 4 3 3 4 3 3 3 4 3 3 3 3 3 3 3 3 3 3 3 3 3 4 3 3 3 3 3 3 3 3 3 3 3 3 3 3 3 3 3 3 3 3 3 3 3 3 3 3 3 3 3 3 3 3 3 3 3 3 3 3 3 3 3 3 3 4 3 3 3 3 3 3 3 3 3 3 3 3 4 3 3 3 3 3 4 3 3 4 3 3 3 4 3 3 3 3 3 3 3 3 3 q 3 3 4 3 3 3 3 3 3 3 3 3 3 3 3 3 3 3 3 3 3 4 3 3 3 3 4 3 3 3 3 3 3 3 3 3 3 3 3 4 3 3 3 3 3 3 3 3 3 3 3 3 3 3 3 3 3 3 3 3 3 3 3 3 3 3 3 3 4 3 3 3 4 4 3 3 3 3 4 3 3 3 3 3 4 4 3 3 3 4 3 3 3 3 3 3 3 4 3 3 3 3 3 3 3 3 3 0 3 3 3 3 3 3 q 3 4 3 3 3 3 3 4 3 3 3 4 3 3 0 3 3 3 3 3 3 3 4 3 3 3 3 3 4 0 3 4 3 3 3 4 3 3 3 3 3 3 3 3 3 4 4 3 3 3 3 4 3 3 3 3 4 3 3 3 3 3 3 3 3 4 3 3 3 3 4 3 3 3 3 4 3 3 3 3 3 4 3 3 3 3 3 3 3 3 3 4 3 3 3 4 3 3 3 3 3 3 3 3 3 3 3 3 3 3 4 3 3 3 3 3 4 3 3 3 3 3 4 3 4 3 3 3 3 3 3 3 2 # X # . # # # # # X # # X & X # # # X # # X # # X # # X # X # X # # X # X & X & X & X X # # X # X # X . # # # # X & . # X # X # # # . # # X # X # # # o # # o #   # # # . # # . & X # X & X # o # # # o # X # X # X # X X # X # o # . # # X # # X X # X # X & o # # # X # X # X # X # # X # X # X # X # # # X # # X # X # X & X # # X # # X # # X # # X # X # X X #   3.pX9.3 # X # X # X # X # # # . # . . # # # # X # X # # X # # X # # X # # X # # X # X # X X # X X & X # X # X # & X & X & X & X X # X # X & . & X # # X # X X & . & # . # X # X & X X & X X # X # X & X X # # # X # X & # X # X & X X # X # # X & # X # X # # X # X X # # X # X # # X # # # X # X 2 & X # X X # # X # X X # # # & 2 * % % % * 2 & & * & & * % & * 2 $ $ * % * * % * 2 $ $ * $ 2 * % & * % * * % & $ & & & $ $ $ & & & & * $ * $ & 2 $ * $ & % & * % * % * % * * % * 2 $ $ $ & & * % & * 2 $ & $ & % * % % * & % % * & % $ & * $ % & * % * $ # # X # X # # X # # X # # X # X # X # # X # X # X # # X # X X & X & X # X & X # # X # # X # # X # # X # # X X # X # X X # X X % X # # X # # X # & X # X # X # # X # X 2 & X # # X # X # X X # X X # X # X & X & X & X # X # X & X # & X # # & X # X X # X # # # X # # # X # X X # X & X # # X # & X # # X # X # X # # X # X # X # # # # X & X & X & & X # X X # # X # X # X o ",
"3 3 4 3 3 3 3 3 3 4 3 3 3 3 3 3 3 3 3 3 3 3 3 3 3 3 3 3 3 3 3 3 3 3 4 3 3 3 3 3 3 3 3 3 3 3 4 3 3 3 3 3 3 4 3 4 3 3 3 4 3 4 3 3 3 3 4 3 4 3 3 3 3 3 3 3 3 3 3 3 3 3 3 3 3 3 3 3 3 3 4 3 4 3 3 3 3 3 4 3 3 3 4 3 3 3 3 3 0 4 3 4 3 3 3 3 3 3 3 3 3 3 3 3 3 3 3 3 3 3 3 3 4 3 4 3 3 3 3 3 3 3 4 3 3 3 3 3 4 3 4 3 3 3 3 3 3 4 3 3 3 3 3 3 3 3 3 3 3 3 3 3 4 3 3 3 3 3 3 3 3 3 3 4 3 3 4 3 4 3 3 3 3 4 3 3 3 3 3 3 3 4 3 3 3 3 3 4 3 3 3 4 3 3 3 3 3 3 3 4 3 3 4 3 3 4 3 3 4 3 3 4 3 3 4 3 4 3 3 3 4 3 4 3 3 3 3 3 3 3 3 3 3 3 3 3 0 3 3 3 3 3 3 3 3 3 3 3 3 3 3 4 3 3 3 3 3 3 3 3 3 3 0 3 3 3 3 3 3 3 3 3 3 3 3 3 3 4 3 3 3 3 3 3 3 3 3 3 3 3 4 3 3 3 3 3 4 3 3 3 3 3 3 3 3 3 3 3 3 3 3 4 3 3 3 3 3 3 3 3 3 3 3 3 4 3 3 3 3 3 4 3 3 3 3 4 3 3 3 3 3 3 3 3 3 4 3 3 3 3 3 4 3 3 3 3 3 3 3 3 3 4 3 3 3 3 3 3 3 3 3 3 3 3 3 3 3 3 3 3 3 3 3 3 3 4 3 3 3 3 3 4 3 3 3 3 3 3 3 3 3 3 3 2 # X # X # # . o # X & X X # . & # . . # # X & X X # X # # X # # # X X # X # X # X # X % # X # # X # X # # # o . X # . & X # X & # . & . # X # X # X X # . # # # # # # o # . o # # X # X & . . # # # . # . # # # # X # X # # X # . # # # # . # # X # # X & X # X # # . # # X # X X # # X X # # # # X X # # X X # # X # X # # # X X # X & # X & X X # # X # X # X # # X   3.pX9.2 X # X # X # X # X . # # o # # # # X X # X # # X & X X & # X & X X # # X # X # X # # X # # X # X # X & X X # X # X # X # # X # # # X & . # X X # X & # X & . X # # X X # X # # X # # X # X & . & # X X # # X # X # X X # X # # X & X X & X # # X # X X # X & # X # # X # X # # X X # # X # X X # X & # X X # X & # X # # & $ % * & * $ $ & $ $ $ & % * % % * & & & & % & * % * & & & $ $ % * * % * & % * & $ * $ & 2 & * & $ * & # * * $ & $ $ & & & * % % * * & & % % & * % & & & * % * % * * % $ * & $ * * % * * % * * * % * * & & & & * & % * $ # # X # X X # X # # X % X X # X & # # X # # X X # # X X # # # % X # X X # # X & X X # # X & X X # X # % X X # # X # X # # X # # X & X X # X # # X X # X & # # X # # X # X X # # X X # & X # # X # # X & X # X # X # X # X # # # X & X X # # X X # X # & X & X X X # X X X # X X & X & X # # X & X X # X # # X # # # X X # # X X # # X X # # X # X # X X # X # # # X # # # X # # ",
"3 4 3 3 4 3 3 3 3 3 4 3 3 3 3 3 3 3 3 3 3 3 3 3 3 3 3 4 0 3 3 3 3 3 3 3 3 3 3 3 3 3 3 4 3 4 3 3 3 3 3 3 3 3 3 3 3 3 3 3 3 3 3 4 3 3 3 3 3 3 3 3 3 3 3 3 3 3 3 3 4 3 3 3 3 3 3 3 3 4 3 3 3 3 3 3 3 4 3 3 3 4 3 3 4 3 3 3 3 3 3 3 3 3 3 3 3 3 3 3 3 3 3 3 3 3 3 3 3 3 3 4 3 4 3 3 3 3 3 3 3 4 3 3 4 3 3 3 4 3 3 3 3 3 3 3 3 3 4 3 3 4 3 3 3 3 3 3 3 3 3 3 3 3 3 3 3 3 3 3 3 3 3 3 4 3 3 3 3 3 3 3 3 3 3 4 3 3 3 3 3 3 3 3 3 3 3 3 3 3 3 3 4 3 3 3 3 3 3 3 3 4 3 3 3 3 3 3 3 3 3 3 3 4 3 3 3 3 3 3 3 4 3 3 3 3 3 3 3 3 4 3 3 3 3 3 3 3 3 3 3 4 3 3 3 3 3 3 3 4 3 3 3 4 3 3 3 3 3 3 3 3 3 3 3 3 3 3 3 3 3 3 3 3 3 3 3 3 4 3 3 3 3 3 3 3 3 3 3 3 3 3 3 3 3 3 3 3 3 3 3 3 3 3 3 3 3 3 3 4 4 4 4 3 3 4 3 3 4 3 3 3 3 3 3 3 4 4 3 4 3 3 3 3 3 3 3 3 3 4 3 3 4 4 3 3 3 3 3 3 3 3 3 3 3 4 3 0 3 3 3 3 4 3 3 3 3 3 3 3 3 3 3 3 3 3 4 3 4 3 3 3 3 4 3 3 3 3 3 4 3 3 4 3 3 3 3 3 3 3 3 3 % # # X # # # X # # X # X # # X X # X # X & . & X # X # # . X X # X X # # X # X X # # X # X X # # X # # X # # . # # X # & . X # & . X # X & # X X & # # # # # o # o   # # # # # . # # X & # # X # X # . # . # # # X # X # # X # # X . # o # X X # X # X # # & X # X # X . # # X # # # X # # X # X # # # o # X # # X # X # X # X # X # X & X # X X # # X . # # X # # X # # o 1.uX4.3 X # X # # # X # # X o # # # o # X # # X 2 X # X X X # X # # X # # X X # # X # # X # # X X # & X # X X & # # # X # # # X # X & X X # # . X & X # # # X & X # # # X & X # & X # # # X & X # X # # X & . . # . X & X # # X & X & # X X # X # # X & X # % X # X # # X # X # # X X # # X X & X # # X # X # # X # # X # # & & & * % % % * & & * $ & & * % & * % * & * $ & & & % % * % & $ & & * % & & 2 $ % & & * & * * $ & & * $ & & & & $ & & * 2 & * % & * * % % * % * & & 2 & & $ * & & * * % & & $ & * 2 % * & & % & & & % & & & & $ 2 $ & & 2 % # # X # & X # X # X X # X # X # X & X # & X & X # X # # X # X # X # # X # X # # X & X X X # X # X # X # X # X X # X # # X # # # X # # X # X # X X # # X X # X # # X X & X # # X X # # X X # # X & X & # # X X # X # & X # X # X # X X # # X X # # # X # X # X & # X X # # X # # # X # X # X X # X # # X # # X & # X # # # # X # X & X # & X # X # X X # # X X # X # # X X # X # # ",
"3 3 3 3 3 3 3 3 3 3 3 3 3 3 3 4 3 3 3 3 3 3 3 3 3 3 3 3 3 3 3 3 3 4 4 3 3 3 3 3 4 3 3 3 3 3 3 3 3 3 3 4 3 3 3 3 4 3 3 3 4 3 3 3 3 3 3 0 3 3 4 3 3 3 4 3 4 3 3 3 3 3 3 4 0 3 3 3 3 3 4 3 3 3 3 3 3 3 3 3 3 3 3 3 3 3 3 4 3 4 3 3 3 3 3 3 3 3 3 3 3 3 3 3 3 3 4 3 3 3 3 3 3 3 3 3 3 3 3 3 3 3 3 3 3 3 3 4 3 3 3 3 3 3 3 3 3 3 3 3 3 3 3 3 3 3 4 3 3 3 3 3 3 3 4 3 3 3 3 3 3 4 3 3 3 3 3 3 3 3 3 4 4 3 3 3 4 3 3 3 3 3 4 3 3 4 3 3 3 3 3 3 3 3 3 4 3 4 3 3 3 3 3 3 3 4 4 3 3 3 3 0 3 3 4 3 3 3 3 3 3 3 3 3 3 3 3 3 3 3 3 3 3 3 4 3 3 3 3 3 3 3 3 3 3 3 4 3 3 4 0 3 3 3 3 4 3 3 3 3 3 4 3 3 3 3 3 3 3 3 3 3 4 3 3 4 3 3 3 3 3 4 3 3 3 3 3 3 3 3 0 3 3 3 4 3 3 3 4 3 3 3 4 3 3 3 4 3 3 3 4 0 3 3 3 3 3 3 3 3 3 3 4 3 3 3 4 0 3 3 3 3 3 4 3 3 3 3 3 3 4 3 3 0 3 3 4 3 3 4 3 3 3 3 3 3 3 3 3 3 3 3 3 3 3 q 3 3 3 3 3 3 3 3 3 3 3 3 3 3 4 3 3 0 3 3 4 3 3 3 3 3 3 0 3 3 3 3 3 3 3 % # # # # X # X # . # # X & X # X & X & X & . & . & X # X # # # # X # # X # # # X # X X & X # X # X # # X # X # # o # # . # & # . # & & X & . X # # X X # X X # # # # # # #   # o # # . # X # # # X & # # o # # X . # X # X # # X # # # # # . # # X # X & X # X # X # . # # # X # X # X # # X # X # X . # # # # X X # # # X # X & X & X # X # X # X # # X # # X # X # # X # X 4 I 4 & & X # X # X # X X # # # . # # . # X # # X # X # # # X # X X & X # X # X X # X # # X # # # # X # X # # X # X X # # X X & X # X # # X # # # X # # # X # X & X # X # X # X X # # X X & X # X # X X & . & # X # & . # X # & X # X # # # X # X X # X # # X # X & X # # X # X X # X # X # # X # X X # X & # X # # X & $ & & $ & & & * & % * & & & * & % * * % & % * % $ 2 * % & * % * 2 * & & & % * & & $ * % * % & & & $ & $ 2 $ & $ & $ $ * & $ $ & % * * % % * & % * % * & $ $ & * % % * % & % * & & & % * & % & & % * $ $ 2 * & & & * & $ & 2 # # # X # X X % X # # X % X & X & X # X # X X # X # X # # X & X % X # X # # X # # X # X # # & X & X # X # # & X # # X # X # # X # X # # X # X & X & & X X # # X & X X # # X # X X # # # X # # X # & X # X # X # X # # # X # X # X & X # # X X # # . # X # X & X % X X # # # X # X # X & X # X # # X # X X # X X # X X # X X X # # X # X % X X # X # X # # X # # & X % X # X # X # X . ",
"4 3 0 3 3 3 0 3 4 0 3 3 4 3 3 3 3 3 3 3 3 3 3 3 4 4 3 3 4 3 3 3 4 0 4 4 4 4 3 3 3 3 3 3 4 4 3 3 4 4 3 3 4 3 3 4 4 0 4 3 3 3 3 3 3 3 3 q 3 3 4 3 4 4 3 3 0 4 3 3 4 0 0 4 4 4 3 3 4 4 4 4 3 3 4 3 4 3 3 3 3 3 3 3 0 0 4 4 4 0 0 4 3 3 0 3 4 0 3 3 3 3 3 3 3 3 3 0 0 0 3 3 4 4 4 4 3 3 3 3 3 3 3 3 0 0 3 3 4 4 4 4 3 3 3 3 3 3 3 3 3 3 3 3 q 3 3 3 4 3 4 3 3 3 3 3 0 0 3 3 4 3 3 3 4 4 4 q 3 3 3 3 3 q 3 3 3 3 3 3 3 3 3 3 4 3 3 3 3 3 3 q 3 3 3 3 4 3 0 4 3 4 3 3 3 3 3 3 4 4 3 q 4 4 4 4 3 3 4 3 4 4 0 0 3 3 3 0 3 3 3 3 0 3 3 3 3 3 3 3 3 3 3 3 0 4 4 3 4 3 0 3 4 0 4 4 3 4 3 3 4 0 0 0 3 3 3 3 4 3 3 3 3 3 3 0 0 0 3 3 4 0 q 4 3 3 3 3 0 0 0 0 4 4 3 3 3 0 4 3 0 0 3 3 4 4 3 4 3 3 3 0 3 3 3 0 0 0 4 4 4 0 0 4 0 3 4 0 0 0 3 0 3 3 3 3 q 3 3 3 3 3 3 0 0 0 3 3 3 3 3 3 4 3 3 3 0 3 3 3 3 3 3 3 3 3 3 3 3 3 3 3 3 3 3 3 4 3 3 3 3 0 3 0 3 3 3 3 4 3 0 3 3 0 3 3 4 0 4 3 2 # X # X # X # # . # # # X X & X # X # X & X # # X # # # . # # # . # o X # X # X # X 2 # # X # X # X # X # # X # . # # # X X & X # & . X # # X # X # X # . # # X # $ X # o o # # # o # X # & . X # X & o # # # o # # # X # # X X X # X # # o # #   # o & . # X # # X # # # . # # # # o X # X # # X # X # # . . . # # # X # X # X & # X # X # # & X & X # o # . # . o # # X X & X X X X X & X # # X # # # # X # # # o # X # X # # X X # # # X # # X & X # X # # # # # # X # X # X # & X # X # # X & X # X & X # # X # X X # # X # # # X # . . & X X # X # X & # X # X # # # # X & X X # X & X # # # X # # X & X X # # X # X # # # X & X X # # X X # # X X # X # # # X # # # X # X # # X X # # X X & # # 2 % 2 & 2 2 % % * % & & & 2 & & & & & 2 * $ & & 2 2 $ 2 2 2 % 2 $ & & & & & & & & & & & & & & & 2 $ & & 2 2 2 $ * $ & 2 $ & 2 & & & & & 2 & & & 2 2 2 % & $ 2 2 2 $ & & & & & & * % & & 2 2 $ & * 2 $ & 2 $ & & 2 $ & & & $ # # X # # X # # X # # X # # # X # # X & # # X # # X X # X # X & X # X # # X X # X # # # X # X X # X # X # X # X # # # X X & # X # X X % X X # # X # # X X # # X # X # # X # X # X # X # X # X & # X # X # X & # X # # X # X & X & X # X X & X # & # X & X # # X # # # # X # X # # X # # X & X # X & X # # X # X & X # # X # # X # X X & & X # X X # # X # X X # X # X # X & # X # # # ",
"2 3 2 2 2 3 2 2 2 2 2 $ 3 2 3 2 3 2 2 3 2 3 2 3 2 3 2 2 2 3 2 * 2 2 & 3 2 3 2 3 2 3 3 2 2 3 2 3 3 2 3 2 3 2 3 2 3 2 2 & 2 3 2 2 2 2 2 2 2 3 2 2 2 3 2 % 2 2 2 & 2 2 2 3 2 2 2 3 2 2 3 2 3 2 2 3 3 2 3 2 2 2 2 * 3 2 2 2 2 2 2 3 2 2 2 3 2 2 2 $ 2 3 2 2 2 3 2 % 3 2 2 2 2 2 3 2 3 2 2 3 2 3 2 3 3 2 2 2 2 2 2 2 3 2 2 3 2 3 2 3 2 3 2 3 3 2 % 3 2 2 2 3 2 3 2 3 2 2 2 2 3 2 2 3 2 2 2 2 2 3 2 3 2 3 3 2 3 % % 3 2 2 3 2 3 2 2 3 3 2 2 2 2 2 3 2 2 3 2 % 2 2 2 & 3 2 3 2 2 2 2 2 2 2 3 2 3 2 2 3 % % 2 2 3 2 2 & 2 3 2 2 3 2 3 2 2 $ 2 3 % 3 % $ 3 2 2 & 3 2 2 2 2 2 * 3 2 3 2 3 2 2 2 3 $ $ 2 3 3 3 3 2 2 2 2 % 3 2 2 2 2 2 2 2 $ $ 2 3 % 0 % % 2 2 2 & 3 2 2 & 2 2 2 2 % 3 % 3 2 $ 2 2 $ 3 2 $ 3 2 2 2 2 2 2 3 2 2 2 2 2 2 2 $ 3 2 2 3 3 2 % 3 2 $ 2 2 2 2 2 $ 2 3 2 2 2 3 2 2 2 $ 2 3 % 3 % # 3 3 3 2 3 2 3 2 3 2 2 3 3 3 3 % 2 $ 2 2 2 3 % $ 3 2 2 2 3 2 2 2 2 2 2 2 # # # X # X X # # . o # X # # X & X # # # X # # . # # X # # # o # # # # X # # X X # # X # X & X # # # X # X X # # # # . X # # X # X X # # X # # X & # # # X # X # # X # # # # # #   # # # . # & # X # X # # # . # # o   # X # # # # X # . # # # # # # # . & X & X # & X # o # o o   # # 2 X # # X # # # o # # # # # . # # X # # # X X # X # X X X # X # . # # # # # # # X # # X # X # # # X X # X # # X # X # X . # # # X # # X X # # X X X & X X # X # X # X # . # o . X # # # # X X # X & # X # X # X # X # X X # X % & X X & # X . # X # & X # # X # X & X # & X # # # X X # X # # X # X # X # X & X X & X # % X # # X # X X X # X # # X X # # X # # & X # # # X & X X # # X # X # # # X # & # X X # # # $ $ # # $ % $ $ # # $ $ $ & $ $ # # $ $ # $ # # # # $ # # 2 $ $ # # $ $ # # $ $ $ $ # & & $ $ $ # $ % % $ $ # $ # # # $ # # & # $ $ $ $ # $ # # $ # # $ # % $ $ # # $ $ # # $ # $ $ # & $ # $ # # $ 2 2 # $ $ $ # # # # # X # # X # # X & X X # # X X # X X # X X # & X X # & X & X # X # X # X X # # X # # X X & X # # X # X # X % X # X X X # # X X # X # # X # # X X # X X # # X X # X & X # # X # X # # # X # X # X X & # & X # X # # X X # X & X # X # X & # X # X . & # X & X X # # X # X # X # X X # # X # X # X # X # # X & X # # # X # # X # # X # # X X # # # & X X & # # # X & X & X # X X # # X # ",
"# # X X # X # X # # . # o # # # X # X # # X # X # # X # # o # # # X # # # X # X X # X # # X & X X # X # X # X # # X X # # X # # X # # X # # X # # # # # $ X # # X # # # X # X # # X # X X # X # # X # X # # . X # X # X X # # # X # X # # # # # # # X # # o # # # X X # # X # X X # # X # X # X # X X # X # $ # X # # X # X # X # X # X X # # # X # X # # X # X $ # X # # o # # X # # X # X # X # # X # X X # X # # X # X # # X # X # X # # X # # o # # $ X # # # o # # X # X # # X # X X # X # % o # o # o # # # # # X # # # # X # # # # #   # # # X # # # # X # X # X # X # X X # # # o # # # X # X % # o # # # X X # # X $ # o # o # # # # . $ X # # # # X # $ # o # o # % # . # # # # # # o # X # X # X # # # . # o # # # o # X % X # X # # # # # # # # . # # # # X # X # # # . # . # #   # X X # # X # X # # X # X # X X # . # # # # # #   # X # X # # X # # X # # # X X # X # # X # # # . & X # # . & # X X # # X # # X # # o . # . #   # # X # # # X # # # X X # # X # # X # # X # o . # # X # # # X # X X & # . . & X # # # . # X # $ X # # o   # # . . # X & . & X # X # . #   # # # # X % # X X # # # o # # #   #   # & # # X # # . & # # o # # # # # X # # X # # X # . # # # o # # o X X # X X & X X & X X & X # & X # # . # o # # . # X # # # X # X X # # X # X X # # X # X . # # # # X # # # X # # # X X & X # # # X # # . # o # # # X % X # X # X X # X # X # & X & X # X X # X # X X # X X & . & # # X # . # & . # X # # X # # X X # X X & X & # X & # # X & X # # X # # X & # X & X X # # X & X X # # X X # # X X # # X # # X # # X # X X # # X X & # X & X # X X # X # # X X # # X # # X X # X X # X # # X X # # # # X X # X # # X # # # X # # # X X # X # X # # X # X # X # X # X # # # X # # # # # X # # # # X # X # # X X # # X # # # X # # X # # X # X X # X # # X # X # X # X # # # # X # X # # X X # X # # X X # # X X # # X # X X # X # X # X # & X # X X % # X # X % X # X X & X # & X X # X # # X X # # X X # X # 2 X X # # X # X # # # X X # & X # X # X # X X # # X # X # # X X # X X # # X X & X & X # X # # # # X # # X & # X & . # X X # # X X # # X # X # # o # X X # # # X # # X # # X # # X # # X # # X # X # X # # X X # X # X # X # # # & X # X X & # X X # o ",
"# X # # # # X # # # # # # # o # # X # # X # X # # X # X # # # o X # # X X # X # # X # X X # X # # X # X # X # X X # # X # # X # # # X # X # # X # X o # # # # X # X # X # X # X # # X # # X & X X # X # # # # # X # X # # X # X # X # X # # o # X # # X # # # X X # # X # # X # # X # # X # X # X # # X # # X # # X # # X # X & X # X # # X # X # X # # X # X # X # # X # # # X # X # # X # X # X # # X # # X # o # # X # X # # X # X # # X # # # # # X # # X # # # # X # X # X # # X # # X # # % # # # # # # X # # X # X X # X # . # o # # # # # X # X # X . # # # X # X # X # # X # X # #     # X # X # # # X X # # X # # X # # # # # # # # . # # # X # X # X X # # # # # o # # # . # o # #   X # X # X # # X # . # # # # # . X # X # X # # X X # X o # # # # # # X # X # # # # o # # # # # # % X # X # X # X # # X # X # X # # . # o # # # # # # X # # X # X # # X # X # # X # # X # # o # # X # # X & . . # & X X # X X & X . # # # # o # # X # X # X # # X X # # X X # X X # X # # . # # # X & X # X # X & # X & . & . & X . # # # . # X X   # # # o # # # X # X # X # X # # o # # #     # & X X # # X # X # #   # o # # # # . X # X X # X . # # #   #   # # X X # X X # X # # o . # # #   # # X # # X # # X # # X # X # # o # # . # # #   X # # X X # X & # # X # # X # X # # X # # # o   X # # X X # # X X # # X & X # X # . # # # # . # X # X & X # X & & X & X # # X # X # X # # X # # # # X # & . & . # X & X # # X & X # X X & X X & & X # # X # X # & . . # # . & X X # X X # X X # X # # X # & X # # # X # X # X # & X X # X X & X X 2 X # X # X # # X X # X # X & # X # X # # # # X # # X # # X # X # # # X # X # X # X # X # # # X # # X X # X # X # X # # X # # X # X # X # X # X # # X X # # X # X X # X X # X # X # # X # # X X # # X X # X # # # X # X # # X # # X # X % X # X # X # X # # X & X # X & X & X # X # X # # # X X # X & # X & X # X # # X # X # # X # # X # X # X # # X # # X # # X # X # % # X # # # X # # X # # X # # X % X # X & # # X # X & X 2 X # X # X # X # X # # # X # # X # X # X # X # X & X # X X & # X # X X # . & X # # X # X # X # # X # . # # # # # X # X # # X & X X # X X # X X # X X # X # # & X X # # X & X # X & X X # X # X # # X # X # X # ",
"X % # % # # o % X # # # X # X # # X # % X # % X # # % % X # X % # X # # X X # # X % X X # X % X # # # % # X % o # # # # X # X # X & X X & X # # # % # % # X o % # X # X % # # X % X # # # X X % # # # # % X % % # X # X # # # X # o # # # o X # o # # # # # % o # # # X X % X # X # X # # X # % # # # X # X % # # # X # X # X X # # # X # # o # # # X # # X % # # # # X X % X # X # X # # X # % # # % % X % # % # # # # X # X # X # X X % # # X X # % X # X X % X # # X # X # # % X # % X # % X X # X # # # # . . # # . # # . # # # # # # o #   # # # # # # # # X # o # # # . # # # # #   # # #   # # #   # # # # X # # o . # # $ X X X $ X # # X $ X X X X   $ # X # X # # # # . # # o # # # # # X # # # #   # # o # # # # # # # # X # o # # # . # # X # # # . . # # # # # # # . # # o # # # # o # # # # # # # X # o # # # o # # # # # # # # o # # # #   # # # X # o # # # . # # #   # # # # # # . # #   # # # X # # # X # X # # # # # #   #   o # # # #   # # # X X # X # X # # # # # #   # . . # # # #   # # X # X # X # X # $ X X X $ X X % X X $   $   $   # X & X # . # # . # # . # # # # X # X & # # # . # # # o # # #   X # # X # # . # # # . # # #   # X # X & . # # o # # # o # # # # #   # #   # # # & X X # # # # X # # # # #   # # . # # # # # # # X # # X # # X # # # # # o # # # # # # # # # # # & X X # # # # X # # # . # # # # # X # # # X X # X # X # # # X & # X % # # X % X X # X % X # # # X # # X # & X & X % X # X # % X # # # # X # # % X # # X # # X X # X # X o % # # & X # X # X # # # # X # # # X # X # # X X % X # X X & X # X # % X # X & % X # # # # # X % # X X X # X % # # % X # X # X # X # X % X # % # X % X # X X % # # % X # # X # X # X # # # X # X # % X # X X # X 2 X % X # # X # X # X X % X # X # # # & X X % X # % X X # # X # # # X % X # # # X # X # X % o X # X # X # & X & & X # # # o o # # # # o # # # o # % % # # # X % X # # # # # X % X # X & # # X % X # X # # # X % # X # X X & X # X # % # # X # % X # # # & X & X % X X & # # X % X # % X # % X # # % X X & # # X # X # X % X # X # % X # X X # X # X # # X X # X # X # X # X # # X # X X # # X # # # # X # X # # X # X X # # X # X # o # X # # X # # X X & # X # # X # # # o . # # # # # ",
"# X X o X X # o # . X # X # X X % o X X # X X % X X X o X # X % # X X # X # X X % o X # X # X X X X X o X # X % X . X # # X X X o % X # # X X # X X X o X # # o # X X # X X X # % o X X # X % o X X X # X X X o X # X % X X # X # % # o o # # # # # o % o o # % X X # X % o # X # X X X % o X X X X X # % o X X X X # X o % X & X X X # o % # X o # # o % o X X X X # X % o # X X # X X % o X X X X X o # X X o # o X # X # X X X % X # X X X # X X X % X % X o X X X # X # X X X % X X X X X X X X # # . # o # # X # # o # . # # # o #   # # #     # #   # # # # X # # . # # X # # o # # o # # # # # # # # # # X # . # # # # . X $ $ X X # . # X X $ $ $ $ X $ X # X # # # . # # . # # # #   # X # X X # # # . . # # . # #   # X # # X # # . # # X # X # #   # # o # . # #   # # . # # # # #   # #   # # o # # # X # # . # . # # % # o #   # #   # # # # # # # # X # # . # # X # # #   #   # $ # # . # # # # # & . X X # X # X # # o # o # # # # # . # # # # # X # # X # X # X # # #   o # # # # #   # # # # # # X # X # X # X X $ X $ X X % % $ $ o $   $   $ X # . # # # . # # o o # # #   # # X # X # # o # # . . # # #   # # X # X # # # . o # . # # # #   # X # X # # . # # . # # # #   # # # # # # # # # X # # # X X X # # # #   o # # # # #   #     # # # X X # X # X X # # o #   # # #   # # #   # # # X # # # X X X # # # . # # . # # X # . X X # # X # X # X X X X X X % X X # X % o X X # o # X X # X X # X X X X X % o # X X X X X X X X # # X X X # . # X X # X # X # X # % o X X . # . # # X X X X X # X X X # X # X # X % o X # X # X # % o X X # X X X X # X X X X # X X % X # X X # X X X X % # X X X X # X # X % X X # X X X X # X X X X X % X X # X # X X X o % # X X X X % X # X # # X X X X X X # X # X # X % # X X X X # X # X X # X X % X X # X X X # X X % X X X # % o X # X % X # X # X X X X X X X X o % # # # o X # # # o # # # o o X X # X X % X X X X # X X % X # X X # X X # X # X X X # X % X # X # X # % o X X X X # X X % X X X X # . # X X & X X # X X % X X # X X % X X X # X . X & X # X X % o # X X X X X X # X X # X # # X & # # # X # X # # # X X # # # # # X # . o # # # X # X X # X # # # X # X # # # X # X # # # X # # X X # X # # X # # # # # . X # . ",
"q w q w q q 4 w 3 q q q w q q q w w q 5 4 q q q q q w q q q 5 5 0 q q q q q q w w w w 5 w w 4 w q q q w q q 5 w q q q q q w q q 4 w w 4 q q w 5 q w q w q q 5 w q q q q q q q q w 4 q 4 q q q w q q 5 q q w 5 w q q q q q 4 q w w 4 4 4 q w w q 4 4 w 4 0 4 9 5 w q q q q w q 4 q 5 w w q w q q q q q q q w q 4 4 w 4 w 4 w w 4 w q q q 5 w w 4 q q 0 q q w q q q q 0 q q w q q q 5 w w q w q q w 4 q q q q 4 w 0 q w q q q q q 4 w 4 5 w 5 q w w w q q w q 4 w 0 q q w q q q q w 4 q 4 w w 4 w q q q 3 # # . # # 2 3 3 3 3 2 3 $ 0 0 $ % 0 % 0 % 3 0 $ $ % 0 * 2 2 3 3 * 3 2 3 $ 0 0 $ % 0 % 0 $ % 0 % $ $ 0 * 3 2 2 3 3 3 2 2 0 $ $ 0 0 $ 0 0 0 $ 0 $ $ 0 0 $ 2 3 2 3 0 % % 0 3 3 $ 2 0 $ % 0 3 2 3 3 0 3 % 3 % 3 % 3 0 $ % 0 % # X # # $ 3 3 * 3 2 3 0 $ $ 0 3 3 * 2 0 $ $ 0 3 3 $ * 0 % 0 * $ % 0 0 $ % $ 0 2 3 2 3 3 0 2 3 0 % 0 $ % % 0 0 $ % 0 % $ % 0 * 2 2 3 3 3 3 * 2 0 0 0 * $ % 0 % $ 2 0 3 $ % 0 % * * 3 3 3 2 3 2 0 % 0 $ % 0 % 0 $ 3 0 3 $ % 0 % 3 3 3 3 3 2 3 2 0 % 0 0 % 0 % 0 % % 3 3 $ % 0 % 3 3 * * 3 2 3 2 0 $ $ 0 0 0 $ $ $ 0 0 $ 0 $ $ 0 3 * 3 3 0 3 3 3 3 3 3 * 0 * * 0 2 3 3 2 3 % 3 0 3 3 2 3 0 0 0 * 3 3 3 * 3 % 3 3 3 3 2 3 0 0 * 0 3 3 3 3 0 3 % 3 3 3 $ 2 0 $ % 0 $ % 0 % $ % 0 * 3 3 3 2 3 2 2 3 0 * 0 * % 0 $ 0 $ % 0 3 % 3 0 $ 3 3 3 2 2 3 3 3 $ 0 0 $ % 0 % 0 $ 3 0 % % % 0 % 3 3 3 2 2 3 2 3 0 $ % 0 % 3 3 % 3 2 2 3 & # X # # 4 q q w w q q 5 w e 5 q q q q w w q w q q 5 q q q q w q w q q 4 w w 4 w w 4 w q q 5 q w 4 w 4 q q q q q w q 5 w q q q w w 5 w w q q q q w q 5 4 w q q 3 # # X # 2 q w q w q 4 q 5 q w q w q q q w q q q w q 5 w q q q w 5 w 5 w w w 4 w 4 4 q q q w w w q w 5 5 q 4 5 q w 4 w w w 4 w q w q q q q q w q 5 w w w 5 q 4 q q q w q q q w 5 q 4 w 0 q q w 4 w q w w q 5 w w w 5 q q w 4 w q w e 5 q q w q 4 w w 4 q q q q q q q w w 5 q q q w 5 q q q w w w q q w 4 w 4 4 0 q w q 4 4 4 w 4 4 0 e 5 w q q q q q q w q q q w 5 w 5 q q q q q q w 5 w q q q w 5 w 5 q 5 q w q w q q q q q q w 5 5 e q q q q w 4 4 w 5 w q q q q q q w 4 4 q q w q q q q q q 5 w q w q w q q w w 4 w q w w 3 X # # X & & & & & & & * 2 * 2 2 2 2 2 2 % 2 * * $ & 2 2 - 2 2 2 2 2 2 2 * 2 2 2 2 2 * 2 & & & 2 & & & 2 & & * & * & & & 2 2 * 2 $ & & * $ ",
"I I U U U U U U U U U U U U U U U U U U U U U U U U U U U U U U U U U U U U U U U U U U I U U U U U U U U U U U U U U U U U U U U U U U U U U U I I U U U U U U I U U U U U U U U U U U U U U U U U U U U U U U U U U U U U U U U U U I I I I I U U U U U U I I U I U U U U U U U U U U U U U U U U U U U U U U U U U I U U U U U U U U I U U U U U U U U U U I U U U U U U U U U U I U U U U U U U U U U U U U I I U U U U U U U U U 5.U U U U U U U U U U U U U U U U U U U U U U U I I U U U U U U y # X # # $ w w w q w w w w e w w w w e e w w e w w e w w e w w w w w w w e w w H w w e w w w e w w w w e w e e e q w e w e w w e w w w w w H w w w w w w w w w e e w e e r w w w w e e e w e w w w w e w w w w w w w e e 2 X X # # 0 w w w w w w e w w e w w w w w e w w w w w w w w w e w w w w w w w w w w e w w w w q w w e w w w w w e w w w e w w e w e w w w w w w w w w e w w w w w w w e w w w e e e q e w w w e e w w H w w e e w q w w w w e w e q q e w w w e w w w w w w e e e w e w w w e w q e e e w q e e e w w w w w H w w w e w e w e w e e e q w w q w w w w w e w w w e q e e w w r w w w w w w w w w 0 e q e w w w w q w w w w w w w q q e q e w w e r w w w w e e e w w e w w w w e r q q e w e w w w w w e w e w w w w w w w w e w w w q e w w w w e w w H w w e w w q w w e e w e e q q e w e w w e w e w w w w w w e e e & X # # # i U U U U U U U U U U U U U U U U U U U U U U U U U U U U U U U U U U I U U U U U U U U U I I U U U U U U U U U U U U U U U U U U U U U U U U U U U U e # X # X 4 U U U U U U U U U U U U U U U U U U U U U U U U U U U U U U U U U U U U U U U U I I U U U U U U U 5.I U U U U U U U U I U U U U U U U U U U U U U U U U U U U U U U U U U U U U U U U U U I U U U U U U U U U U U U U I U U U U U U U U U U U U U I U U U U U U U U U U U U U U U U U U U U U U T I I I U U U U U U U U I I U U U U U U U U U U U U U U U U U U U U U U U U U U U U U U U U U U U U U U U U U U U U U U U U U U U U U U U U U U U U U U U U U U U U U U U I U U U U U U U U U U U U U U U U U U U q X # X # 3 3 4 4 4 4 4 4 4 0 3 4 3 3 3 3 3 3 3 4 3 4 3 4 3 3 4 4 3 4 4 4 4 3 0 4 3 3 3 3 4 4 3 4 3 4 4 4 4 4 4 4 4 4 4 4 4 3 3 3 3 3 3 4 3 ",
"I I I I I I I I I I I I U I I I U U U U I I I I U I I I U U i U U i U U U i U U U U U U U U I I U U I I U U U U I I I I U I I I I I I I I I I I I I I I i U U U i U U i U U I I I I I I I I I I U I I I U i U U U i U U U U i U I I I I I I I I U P U U I I I I I I I I I I I I U I I I I I I I U I I I I I I I U I I I I I I I I I I I I I I I U I I I I I I I I I I I U I I I U U I I I I I I I I I I I I I I I I I I U I I I i U U i I I I I I I I I I I I I I I I I U I I I I I I I I I I I U I U i . # o . $ w w w w w w w w w w w w w w w w w w w w w w w w w e w w w w w w w w w w w w w w e w w w w w w e w w w w w w w w e w w w w w w w w w w w w e e w w e w w w w w w w w w e w w w w w w w w w e r w e w w w w w w 2 # # . # 3 e w w w w w w e w w w w e w w w w e w w w e w w w w w w w w w w w w w w w w w w w w w w w w w w w w w w e w w w w w w w e w w w w w w w w w w e w w w w w w w e w w e w w w w w w w w w w w e w w w w w w w w w w e w w w w w w w w w w w w w w e w w w w w w w w w w w w w w w w w w e r w w w w e w w w w 0 e e e 0 e w w w w w w w w w w w w w w w w w w e w w w w w w w w w e w e e e w e q e w w w w e w w w e w w w w w w w w w w w w w e w w w w w e w w w w w w w w w w w w w w w w e w w e w e w w w w w w w w w w w w w w w w w w w w w w w w w w w w w w w w e w w w w w e w w e w w e w w w w w & # # X % i U I I I I I U U U U U U U U I I I I I I I I I I I I U I I I I I I I I I I I U I I I I I I I U I I I I I I I U U i U U U U i U U I I I I I I U U U U y % # X X q U I I I I I U U I I I I I I U I I I I I I I U U U U U U U U I I I I I I I I I I I I I I I I i U U i i U U i i U U I I I I I I I I I U I I I I I I I I I I I U U I I I I I I I I I I I I I I I I I U I I I I I I I I i U U i I I I I U I I I I I I I I I I I U I I I I I I I I I I I I I I I I I I I I I I I U I I I I I I I U I I I I I I I U U U U U i U U U I I I I I I I U U U U U U U U U U I I I I I I U U i U U U i U I I I I I I I I U I I I I I I I I I I I I I I I I I I I U I I I I I I I I I I I I I U w X # # X & 4 3 3 4 3 4 3 4 3 3 3 3 3 3 3 3 4 3 3 3 3 3 3 3 4 3 3 3 3 3 4 4 3 3 3 3 3 3 3 3 4 3 3 4 3 3 3 3 3 3 3 4 3 3 3 3 3 3 3 4 3 3 3 3 ",
"I I I I I I I I I I I I I I I I U U i U I I I I U I I I U U U U U U U U U U U U U i i U U i U I U U I I U U i U I I I I U U I I I U I I I I I I I I I I U U U U U U U U U U I I I I I I I I I I U I I I U U U U U U U i U U U U I I I I I I I I U U P U I I I I I I I I I I I I I I I I I I I I I I I I I I I I I I I I I I I I I I I I I I I I I I I I I I I I I I I I I I I I I I I I I I I I I I I I I I I I I I I I U U I I U U U U I I I I I I I I I I I I I I I I U U I I I I I I I I I I I I I i # # # # $ w w e w w w w w w w H e w w w w w w e w w e w w w w w w w w w w w w w e w w e w w w w w w w w w w w e w w w w w w w w w w w w w w w w w w r 0 w w w w w w w w w w w w w w w w w w w e w w w w w w r e w w w e % # # o # 0 w w w w w w w w w e w w w w e w w w w w w w w w w w e w w e w w w H e w w w w w w w w w H w w w e w w w w w w e w w w w w w w w w w e w w w w w w e w w w w w w w w r w w w w w w e w w w w w w w e w w w w w w w w w e w w w w w e w w w e w w r w w w w e r e w w w e w w w e w w w w w w e w w w w w w w e e 0 e e q w w w e e w w w e w w e w e w w w w w w w e w w w e e w w w e 0 q e e w w w w w w w w w w w w w e w e w w w w w w w w w w w w w w w w w w w w w e w w w w w w w w w w w w w w w w w e w w e w w e w w e w w w w w w e w w w w w w w w e w w w w w w w w w w w w w w w w w w w w w w 2 X X # X i U I I I I I U i i U U i U U I I I I I I I I I I I I I I I I I I I I I I I I I I I I I I I I I I I I I I I I U I U U U U U U I I I I I I I I U U i U e % # X # 4 U U I I I I I I I I I I I I I I I I I I I I U i i U U i i U I I I I I I I I I I I I I I I I i 5.U U U U U U U U I I I I I I I I I I U I I I I I I I I I I I U U I I I I I I I I I I I I I I I I I i I I I I I I I I U U U U I I I I I I I I I I I I I I I I U I I I I I I I I I I I I I I I I I I I I I I I U I I I I I I I I I I I I I I I U i U i U U i U I I I I I I I I i U i U U i i U I I I I I I I I U U U U U U U U I I I I I I I I I I I I I I I I I I I I I I I I I I I I I I I I I I I I I I I I I I U 5 X # X # 3 4 3 3 4 4 3 3 3 3 3 3 3 3 4 3 3 3 3 3 3 3 4 3 3 3 3 3 3 3 3 3 3 3 3 3 3 3 4 3 3 3 3 3 3 3 3 3 3 4 3 3 4 3 3 4 3 3 3 4 3 3 3 4 3 ",
"I I I I I I I I I I I I I I I I U U I I I I I I I I I I U U U U U U U i i U U i U U i U U i I I I I I I I i I I I I I I I I I I I I I I I I I I I I I I U U U U U U I I I I I I I I I I I I I I I I I I U U U U U U U U U U U U I I I I I I I I I I U U I I I I I I I I I I I I I I I I I I I I I I I I I I I I I I I I I I I U I I I I I I I I I I I I I I I I I I I I I I I I I I I I I I I I I I I I I I I I I I I I I I I I U U U U I I I I I I I I I I I I I I I I I I I I I I I I I I I I I I U i # . # # $ e w w w w w e e w w w w w w w w w w w w w w e e w w w w w w w w e w w w w w w e w w e w w w w w w w w w w w e w w w w w w w w w w w w e w w e w e w w e w w w w w w w w e w w w w w w w w e w w e w w w w e w 2 # # # # 0 w w w w w e w w w w w w w w w w w w w w w w w w w w w w w w e w w w w w w w w w w w w w e w w w w w w w w w w w w w w e w w w w w w w w w w w w w w e w w e e w w w w w w w w w w w w w w w w w w w w w w e w w w w w e e w w w w w w w e w w w w w w w w w w w w w w e w w e w w w e w w w w w w w w w w w e 0 w e e w w w w w w w w w w w w w w w w w w w w w w w w w w w w w w w e e 0 q w w w w w w w w w w w w w w e w w w e w w w w w w e w w w w w w w e e w e w w w w w w w w e w w w w w w w w w w w w w w w w w w w w w w e w w w w w w e e w e w w w w w e r w w w w w w w w w w w w w w w w w w 2 # X X 2 i I I I I I I U U U U U i U i U U I I I I I I I I I I I I I I I I I I I I I I I I I I I I I I I I I I I I I I i U U U i U U U I I I I I I I I U U U U e O # # X 4 U U I I I I I I I I I I I I I I I I I I I I U i U U U i U U I I I I I I I I I I I I I I I I i i U U U U U U U U I I I I I I I I I I I I I I I I I I I I I I I I I I I I I I I I I I I I I I I I I I I I I I I I I I U U U U I I I I I U I I I I I I I I I I I I I I I I I I I I I I I I I I I I I I I I I I P U I I I I Z I I I I I I I I I U i U U U i U U I I I I I I I I U U i U U i U U I I I I I I I I i U U U i U U U I I I I I I I I I I I I I I I I I I I I I I I I I I I I I I I I I I I I I I I I I I U q X # X # & 4 3 3 3 3 3 3 3 3 3 3 3 4 3 3 3 3 3 3 4 3 3 3 3 3 4 3 3 3 3 3 3 3 3 3 3 4 3 3 3 3 3 3 3 3 3 3 3 3 4 3 3 3 3 3 3 4 3 4 3 3 3 3 3 ",
"I I I I I I I I I I I I I I I I i i I I I I I I I I U I i U U U i U U U U U U U U U U U i U I I I I I I I I I I I I I I I I I I I I I I I I I I I I I I U i U U i U I I I I I I I I I I I I I I I I I I U i U U U i U U i U U i I I I I I I I I I I I I I I I I I I I I I U I I I I I I I I I I I I I I U I I I I I I I I I I I I I I I I I I I I I I I I I I I I I I I I I I I I I I I I I I I I I I I I I I I I I I I I I I I i U U U i I I I I I I I I U I I I I I I I I I I I I I I I I I I I I I i # # # # $ e w w e w w w w w w w w w e w w w e w w w w w w w w e w w e w w w w w w w w w w w w w w w w w w w w w e w w w e w w e w w w 0 P w w w w w w w w w w w r w w w w w w w w w w w w w w w w w w w w w w w w w w w 2 # X # # 3 w w w w w w w e w w w w w w w w w w w w w w e w w e w e w w w w w w w w e w w e w w w w w w w w w w w r w e w w w w w w e w w w e w w w w w e w w w w w w w w w w w w w e w w w w w e w w w w w w w e w w w w r e w w w w w w w w w w w w w w w e w w w e w w w e w w w w w w w w w w w w e w w w e w w w w w w w e q e w w w w w w w w w w w w w w e w w w w w w w w w w w w w w w 0 e e e w w w w w w w e e w w w w w w w w w w w w w w w w w w w w w w e w w w w w w e w w w e w w w w e w w w w e w w e w w e w w e w w w e w w w w w w w w w w w w w w w w w w w w e w w w e w w w w w r e w w w w e w 2 X & & X i U I I I I I U U i U U U U U U i i I I I I I I I I I I I I I I I I I I I I I I I I I I I I I I I I I I I I I U U i U U U i U I I I I I I I I i U U U e o # X X q U U I I I I I I I I I I I I I I I I I I I I U U U U U U U U I I I I U U i I I I I I I I I I 5.i U U i U U i U U U i I i I I I I I I I I I I I I I I I I I I I I I I I I I I I I U I I I I I I I I I I I I I I I I I i U U U i I I I I I I I I I I I I I I I I I I I I I I I I I I I I I I I I I I I I I I U U U U P I I I I I I I I I I I I U U U U U U U U I I I I I I I I U U U U U U U U I I I I I I I I U U i U U U i U I I I I I I I I I I I I I I I I I I I I I I I I I I I I I I I I I I I I I I I I I I I e . # # # 2 3 4 3 3 3 4 3 3 4 3 3 3 3 3 4 3 3 3 4 3 3 3 4 3 3 3 3 3 4 3 3 3 4 3 3 3 3 3 4 3 3 3 4 3 4 3 3 3 4 3 3 3 4 3 3 3 3 3 3 3 3 3 3 3 ",
"I I I I I I I I U P P i i I I 5.e.T I I I I I I I I I I I I I I I I I I I I I I I I I ( i.5.P I I I I I I I I I U U U i U U I I I I I I I I I I I I I I I I I I I I I I I I I I I I I I I I I I I I I I I I I I I I I I I I I I I I I I I I I I I I I I I I I I I I I I I I I I I I I I I I I I I I I I I I I I I I I I I I I I I I I I I I I I I I I I I I I I I I I I I I I I I I I I U U i U I I I I I I I I I I U U i U U i I I I I I I I I I I I I I I I I I I I I I I I I I I I I I I I I I I I 9 # X # X 2 e w w w w w w w w 0 w w 0 w w w w w w w w e w w w w w w w w w w H 0 w w w w e w w w w w R 2.P 0 w w w w w w w 0 w w w w w w w w w w w w e w w e w w e w e e e e e e 0 0 e e e e w w w w w w w w w w w w 0 w w % # # X $ 0 w w w w w w w w w 0 0 0 w w w w E R w e w w w w w w w w w w w w w w w w w w w w w w w w e w e w w e w w w w w e w w w w e w w w e w w w w w 0 e e w w e w e 0 0 e e e 0 e w w w w w e 0 e e 0 w w w e 0 e e e w w w w e e 0 w w w 0 e e 0 e e e w w w w w w w e w w e w w e e e 0 w w w e 0 e e e 0 e e w w e 0 e 0 e 0 w w e w w e e e w w 0 e w w w w w w w w w w w w w w w w w w 0 e e w w w w e e 0 0 e e e w w w w w w w w w e w w w w w w w w e w w e w e w w w w w w w w w w e w w w e w w w w w e w w w e e 0 e 0 e e w w e 0 e e e w w w w w 0 e e w w w e e 0 e 0 e w w w w w P w w w w w e w w w % # # # # e I I I I I I i I i i i U i I ( r.[ I I I I I I I I I I I I I I I I I I I I I I I I I I I I I U I I I I I I I I I I I I I I I I I I I I I I I U i I U i X & X % 0 I I I I I I I I P I I I I I I P P Y I I I I I I I I I I I I I I U U U i e.1.I I I I I I I I I I I I I I I I I I I I U 9.9.I I I I I I I I I I I I I I I I I I I I I I I I I I I I I I I I I I I I I I I I I I I I I I I I I I I I I I I I I I I I I I I I I I I I I I I I I I I I I I I I I I I I I I I I I I I I I I I I I I I I I I I I I I I I I I I I I I I I I I I I I I I I I I I I I I I I I I I I I I I I I I I I I I I I I I I I I I I U U U U U i I I I I U U i U U i U U U i i 5.I I I I I I I I I I U 5 X # # X 2 3 3 0 3 3 3 4 3 3 3 3 3 4 4 3 3 3 4 3 3 3 4 3 3 3 3 4 3 3 3 3 3 3 3 3 3 3 3 3 4 3 3 3 4 3 3 3 4 3 3 3 3 3 3 3 3 3 3 3 4 3 3 3 3 ",
"I I I I I U U i Y 1.9.9.9.1.U 3.].<.P I I I I I I I I I I I I I I I I I I I I I I I I 9.hX4.P I I I I I I I I I U i U U U U I I I I I I I I I I I I I I I I I I I I I I I I I I I I I I I I I I I I I I I I I I I I I I I I I I I I I I I I I I I I I I I I I I I I I I I I I I I I I I I I I I I I I I I I I I I I I I I I I I I I I I I I I I I I I I I I I I I I I I I I I I I I I I U U U U I I I I I I I I I I U U U U U U I I I I I I I I I I I I I I I I I I I I I I I I I I I I I I I I I I U i % X X # 2 e e w w w w w w P R Y E Y P w w w w w w w w w w e w e w w e w w w w w w w w w w w w w w 2._.R w w w w w w w w P w w w w w 0 P w w w w w w w w 0 w w e w e 0 0 w 0 e e e e 0 0 w w w e w w e w w w w w w P w w % . # # # 0 w w w w w w P Y E Y E R P 0 w P 8.2.w w w w w w w w P e w w w w w w w w H w w w w w w w w w w w w w w w w w w w w w w w w w w e w w w w w w e e w w e 0 w w e e w w e 0 e w e w w w e e 0 e e e w w w w e 0 w w w e e 0 e e e e w e e 0 e w 0 e w w w w w w w w w w w w w w 0 e e e e w w w e 0 e e 0 e w w e e e 0 e e w w 0 w w e 0 0 e w e w w e w w w w w w e w w w w w w w w w e e 0 w e w w e e e e w 0 0 e w w w w w e w w w w w w w H w w w w w w r w w w w w w w w P 0 w w w w w w w w w w w w w w w w 0 e w e e e w w e 0 e w 0 e w w e e w e e 0 w e e 0 e e e 0 e w 0 e w w 0 w w w w w w w e w % . # # # P I I I I I I 5.9.9.9.9.q.9.3.1.(.3.I I I I I I I I I I I I I I I I I I I I I I I I I I I I I i I I I I I I I I I I I I I I I I I I I I I I I U I I U e # X % # 5 I I I I I I T 4.6.T I I I I ( 4.4.U I I I I I I I I I I I I I I i U U 5./.e.P U ( I I I I I I I I I I I I I I I I I U E.s.I I I I I I I I I I I I I I I I I I I I I I I I I I I I I I I I I I I I I I I I I I I I I I I I I I I I I I I I I I I I I I I I I I I I I I I I I I I I I I I I I I I I I I I I I I I I I I I I I I I I I I I I I I I I I I I I I I I I I I I I I I I I I I I I I I I I I I I I I I I I I I I I I I I I I I I I I I I I U U U U U I I I I U U U U U U U i i 5.U i I I I I I I I I I I U 5 X # X # 2 4 3 3 3 3 3 3 3 3 3 3 3 3 3 3 3 3 3 3 3 3 3 3 3 4 3 3 3 3 3 4 3 3 3 4 3 3 3 3 3 3 3 4 3 3 3 3 3 3 3 4 3 4 3 3 4 3 3 3 3 3 q 3 3 ",
"I I I I U U U U 4.(.iXaXtXQ.1.U U I I I I I I I I I I I I I I I I I I U I I I I I I I 7.hX4.P P I I I I I I I I U U i U U U U I I I I I I I I I I I I I I I I I I I I I I I I I I I I I I I I I I I I I I I I I I I I I I I I I I I I I I I I I I I I I I I I I I I I I I I I I I I I I I I I I U I I I I I I I I I I I I I I I I I I I I I I I I I I I I I I I I I I I I I I I I I I I I I U U I I I I I I I I I I I i U U U U I I I I I I I I I I I I I I I I I I I I I I I I I I I I I I I I I I U i # X # X 2 w w w w w w e w [ p._._.^.2.P w w w w w w w w w w w w w w w w w w P w w w w w w w w w w E _.P 0 w w w e w w w w w w w w w w w e w e w e w w w e e e 0 w w w e w w 0 e e w w e w w w w w w w w w H P 0 w w w w $ $ # X # 0 0 w w w e w 6.'._._.^.T.2.P w w w w w w w w w w w w E R w w w w w e w w w w w w w w e w w w w w w w w w w w w w w w w e w e w w w w w w w e e 0 w w e e 0 w 0 e w w w e e e 0 0 e w 0 w w w w w w e w w e e w 0 e e w w 0 e e 0 w w e e w w e e e 0 w w w w w w w w w w w w 0 e w w 0 0 e w e 0 w w 0 e e w 0 w w e 0 e e e e e e 0 e e e w e 0 0 e w w w e w e e w w w w w w H P 0 e 0 w w 0 e e 0 0 e w w e e e w e w w w w w w w w w w w w w w w w w w w w w w w w 0 w w w w w w w w w w w w e w w e w w e e 0 e w e 0 0 e e e 0 w w 0 e e e 0 0 0 e e w 0 e e w w w e e w w e e w w 0 P w 0 w w e w w w $ # # # # P P I I I I P d.iXaXdXjXaXpX}.5.( I I I I I I I I I I I I I I I I I I I I I I I I I I I I I I U U I I I I I I I I I I I I I I I I I I I I I I U U I U e X # X o 0 I I I I I I 3.pXaXe.P I I U f.aXwX1.U I I I I I I I I I U I I i U U I I U U I [ r.[ I I I I I I I I I I I I I I I I U U U I U U U U I I I I I I I I I I U U I I I I I I I I I I I I I I I I I I I I I I I I I I I I I I I I I I I I I I I I I I I I I I I I I I I I I I I I I I I I I I I I I I I I I I I I I I I I I I I I I I I I I I I I I I I I I I I I I I I I I I I I I I I I I I I I I I I I I I I I I I I I I I I I I I I I I I I I I I i U i U U U I I I I U i i U U i U U i U i U U I i U I I I I I I U w X # # X 2 3 3 3 3 3 3 3 3 3 3 3 3 4 3 3 3 3 3 3 3 3 3 3 3 3 3 3 3 3 3 3 3 3 3 3 4 3 3 3 3 3 3 3 3 3 3 3 3 3 3 3 3 3 4 3 3 3 3 3 3 3 3 3 3 ",
"I I I I i U i 5.(.7Xq.3.w.9.T U I I I I I I U U I I I I I U I I I U I U I I I U U U P q.hX4.P U I I I I I I I I U U U U i U U I I I I I I I I I I I I I I I I I I I I I I I I I I I I I I I I I I I I I I I I I I I I I I I I I I I I I I I I I I I I I I I I I I I I I I I I I I I I I I I I I I I I I I I I I I I I I I I I I I I I I I I I I I I I I I I I I I I I I I I I I I I I I I I U i I I I I I I I I I I I U U U i U I I I I I I I I I I I I I I I I I I I I I I I I I I I I I I I I U U U i # % X # 2 w w w w w w w P T.a.R R [ R e w w w w w w w w w e w w e w w w w w 0 w e w w e w w w e w E _.R w H w w w w w w w w w 0 w w w w w w w w w w w e e 0 e 0 e w w w e w e w w w w w w w w w e w w w w 0 w w w w w w % # # X # 0 P w w e w 0 6.^.E R R 8.T.a.w w w w w w w w w H 0 P T.E e w w w w w w w w w w w e w w w w w w w w 0 e w w e w e w w w w w w w w w w e w w w e 0 e w 0 e e e e e 0 e w w w 0 e e e w e e w w w w w w e e 0 0 w e e 0 e w w e e 0 e w 0 e w w w 0 e e e w w w w w w e w w e w e w w e e e e w e e w w e e 0 w e e w w w e 0 e e 0 e 0 e 0 e 0 e e e e w e w w w w w w e w w w w w w w e e e e 0 e e 0 w e w e e 0 e 0 w w w e w w w e e w w w w w 0 P w w w w w w w w w P w w w 0 P w w w w e w w w w w w w w 0 e e e w w e e w 0 e e w e e e 0 e e e e w w w e e 0 w w w 0 e w e e 0 w w w w w H w w w w w w $ # X X # y R I I I I I ( 1.4./.7Xs.[ 1.I I I I I I I I I I I I I I I I I I I I I U I I I I I I I I I I U U I I I I I I I I I I I I I I P U I I I I I U i U U U e & X # % 0 I I I I I P 3.aXdXf.T I I U }.hX|.1.U I U U I I I I I I U U U I U U I I I I P 4.7X6.U I I I I I I I I I I U U I I I I I I I P U I U I I I I I I I I I U I U I I I I I I I I I I I I I I I I I I I I I I I I I I I I I I I I I I I I I I I I I I I I I I I I I I I I I I I I I I I I I I I I I I I I I I I I I I I I I I I I I I I I I I I I I I I I I I I I I I I I I I I I I I I I I I I I I I I I I I I I I I I I I I I I I I I I I I I I I I U U U U U U I I I I U U U U U U U U U U U U U U U U I I I I I U U w X # X # 3 3 3 3 3 4 3 3 3 3 3 3 3 3 3 3 3 3 4 3 3 3 3 3 3 3 4 3 3 4 3 3 3 3 3 3 3 3 3 4 3 4 3 3 3 4 3 3 3 4 3 3 4 3 3 3 3 3 4 3 3 4 3 3 3 ",
"U U U U U U i 4. X|.U P T T U 6.|.<.I 5.e.|.|.d.Q.d.I E (.g.Q.wX}.q.Y P 1.E..X7X).7.i 9.hX4.P U I I I I I I I I U U i U U U i U I I I I I I I I I I I I I I I I I I I I I I I I I I I I I I I I I I I I I I I I I I I I I I I I I I I I I I I I I I I I I I I I I I I I I I I I I I I I I I I I I I I I I I I I I I I I I I I I I I I I I I I I I I I I I I I I I I I I I I I I I I I I I I I I I I I I I I I I i U U U i U U i I I I I I I I I I I I I I I I I I I I I I I I I I I I I I I I I I I U y % o # X % w w w e w w e E ^.6.w 0 P e w R 6.T.T.8.R 0 R t.2.a.T.a.R 8.T.p.2.P w P 6.8.8.T.T.E e w E _.R 0 e [ t.T.8.R 0 R 8.T.T.a.R w w w w w w w w w w e e w w e e 0 w 0 0 e e e e 0 w w w w e w w e w w w w w w w w 0 % # # # % 0 0 w w w e 0 6.^.R w P R a.^.R P 8.6.w P 8.T.T.a.2.a._.^.T.6.H E p.T.T.E w w 8.8.6.T.T.E P 0 e R a.T.T.2.e R a.T.a.2.w w w w w w e w w w w e 0 e e w 0 e e w e e w w w w e e w e e e w w w w w w e w e w w e 0 e e w 0 e 0 e e w e w w w w w w e w w w w w w w w w w e 0 e e 0 e 0 e e 0 0 e 0 0 e e e 0 e w w w e w w e 0 e e w w e e w w e w w w 0 w w w w w w w w w w w e e w w w w w e 0 w w e e w e 0 e 0 e e e w w w w e w w w w w w w w w w w w e w w w w H w w w e w w w w w w w w w w w w w w w w w w w e 0 e w w w w e 0 e w e 0 0 e w w e e 0 e e w w w w e 0 w w w e e 0 w w w w e w w w w w w w $ % X # % i I I I I I I i i ( d.6X9.i P 1.}.4.i w.].d.6X7Xs.9.(.7X6X9.U I U 1.Q.7X}.d.Y I I I I I I I I I I I I i U U I I I I I I I I I U U U I Z Y Y U U U i ( e X 2 X o 0 U U I I I P 1.aXyXQ.7.P U 1.}.aX|.1.U <.g..X|.Q.<.U I q.`.i.}.7XW.1.I ( ].q.3.{.hXrX}.w.I 9.].7X{.y.( i Y W.d.d.6Xr.( /.d.I <.].s.~..X].9.T P ( u.|..Xh.Q.f.P I I I I I I I I I I I I I I I I I I I I I I I I I I I I I I I I I I I I I I I I I I I I I I I I I I I I I I I I I I I I I I I I I I I I I I I I I I I I I I I I I I I I I I I I I I I I I I I I I I I I I I I I I I I I I I I I I I I I I I I I I I I I I I I I I I I I I I I I I I I U U U i I I I I I I U U I I I I U U I I U U i U U U U U I I U w o % # X 2 3 4 3 3 3 3 3 3 3 3 3 2 3 2 3 3 3 3 3 3 3 3 3 3 3 3 3 3 3 3 3 3 3 3 3 4 3 3 3 3 3 3 3 3 3 4 3 3 3 3 3 3 4 3 4 3 3 4 3 3 3 4 3 3 ",
"U i U U U U U 5.].rXq.Y P P I w.hX3.i y.|. XQ.(.aX}.P 1.aX.X~.~.|.|.1.P 3.g.Q.Q.yXQ.<.9.hX4.P I I I I I I I I I U U U U i U U U I I I I I I I I I I I I I I I I I I I I I I I I I I I I I I I I I I I I I I I I I I I I I I I I I I I I I I I I I I I I I I I I I I I I I I I I I I I I I I I I I I I I I I I I I I I I I I I I I I I I I I I I I I I I I I I I I I I U I I I I I I I I I I I I I I I I I I I I U U U U U U U U I U I I I I I I I I I I I I I I I I I I I I I I I I I I I I I I I I I i % % X # % w w w w w w e R T.t.R w w w 0 R 6.8.a.^.8.P E '.p.8.t.T.t.a.8.T.t.R w w T.^.8.a.a.T.[ w [ _.R w E T.a.a.T.6.Y [ T.8.8.8.E w w e w w w w w w w 0 e w w 0 e e e e e w w 0 e e e w w w w w w w w w w e w w w w P 0 #   # % 0 w w w w w w 8.T.R w 0 0 2.^.2.P ^.a.w [ T.8.a.8.2.6.'.T.6.E P 2.8.8.a.T.R R T.^.8.8.a.T.E 0 R T.p.a.8.2.R t.T.8.T.a.R w w w w w w w w w w w w e e 0 e e 0 w 0 e w w w w 0 e w e 0 0 w w e w w w w w e 0 w w e e 0 w 0 e e e w w e 0 w w w e w w e 0 w e e w w w w e e e 0 e w e e e e e e w e e w w e 0 e w e w w w w w 0 e e 0 w w w w e 0 e e w e w w w w w e w w w w w w w w w w w w e e w w 0 e w w 0 e e w 0 e w w e w w w w w w w w w w e w w w w w w w w w w e w w w w w 0 H w w w w w e w w w e e w e w w w 0 w w e w w 0 e w w e e w w w w e e 0 e w w e e e e w w e 0 e e w w w w w w w w w w w w $ % # X % i U I I I I I I I ( d.6Xq.i I 3.jXw.P d.dX(.~.6X8X].~.~.8X(.4.P ( (.[.(. X|.q.T P I I I I I I I I I I I I U I I I I I I I I I U P I I i i Y U U U U i e % X # # 3 U P I I I I 4.aX~.].s.P T s.~.rX.X1.( ~.[.).].}.~.( I E.hX~.~.].6X~.I 5.aXg.( /.jX XW.4.4.].]./.}.].s.U ( 8XiX(.d.9.( 8X}.P 3.aX|.~.).|.}.[ i u..X].Q.(.aX}.P I I I I I I I I I I I I I I I I I I I I I I I I I I I I I I I I I I I I I I I I I I I I I I I I I I I I I I I I I I I I I I I I I I I I I I I I I I I I I I I I I I I I I I I I I I I I I I I I I I I I I I I I I I I I I I I I I I I I I I I I I I I I I I I I I I I I I I I I I I I U i U U I I I I I I U i I I I I U U I I U U U U U i U U I I I w o % # X 3 4 3 3 3 4 3 3 4 3 3 I q.g.W.h.1.e 3 3 3 3 3 3 3 4 3 4 3 e i 4 3 3 3 3 3 3 3 3 3 4 3 3 3 3 3 4 3 3 3 e i q 3 3 3 3 3 3 3 3 3 3 3 ",
"U i U i U i i U u.eX}.d.4.( P q.hX3.T ).eX1.I y.aX}.P 1.hX[.1.U e.aX9.I T <.U P `.[.7.9.hX3.P I I I I I I I I I i U U i U U U U I I I I I I I I I I I I I I I I I I I I I I I I I I I I I I I I I I I I I I I I I I I I I I I I I I I I I I I I I I I I I I I I I I I I I I I I I I I I I I I I I I I I I I I I I I I I I I I I I I I I I I I I I I I I I I I I I I I I I I I I I I I I I I I I I I I I I I I I U U U i U i U U U U U U I I I U I I I I I I I I I I I I I I I I I I I I I I I I I I U y % % # X 0 w r w w w w w w a.T.t.2.R w w P P w 0 a.t.E E '.8.H R p._.E w 2.p.8.w w ^.^.R w R ^.6.w [ _.R P a.T.P w 6.p.6.8.T.R 0 P P w w w w w e w w w w e e e 0 0 e w w 0 e w w 0 e w w w w w w w w e w w w w w w w w w $ # # # % 0 e w e w w w 8.^.R e w w E p.8.R T.a.P 6.T.R w w w P _.E w w w P w 0 E T.E P ^.T.R P R _.2.w 2.^.E w w e 2.^.E 0 R p.8.w w e w w w w e w w w w w e e e w w w e e e 0 e e 0 e w w w e w e w w w w w w e e 0 e e w w w e w w 0 w e e e w w w w w w e w w w w w w w w w 0 w w w w e 0 0 w w w w 0 e w w w e w e 0 e w w w w e e e e 0 e w w e 0 e 0 e 0 w w w e w w w w w e w w w w w w w w 0 e e e 0 e e w e e w w 0 e w e w w w w w w w w w w w w w w w w w w w w w w w w w w w w w w w w w w w e e w w w e w 0 0 e w e e 0 e e w e e e w e 0 w w w w w w w e e e 0 0 0 e e e w w 0 e P 0 w w w w w w w w w w $ X $ # % i U I I I I I I I ( d.7X9.P I 3.dX0.i W.hXs.U 9.rXiX1.( T.}.s.I 4.iXd.U 3. X(.<.I I I I I I I I I I I I I I I I I I I I I I I I I I I i 5.i 5.i ( U U e X X # # 4 U U I I I P 3.pXr.|.(.I (  Xs.}..X1.1.iXW.T T s.pX9.I E.hXi.U ( }.8XI [ pXE.y 9.aX4.I I d.pX9.I 3.}.7XT ( rXiXe.i I ( eX].i 3.hX].<.U u.hX3.( ).wX<.U e.pX|.P U I I I I I I I I I I I I I I I I I I I I I I I I I I I I I I I I I I I I I I I I I I I I I I I I I I I I I I I I I I I I I I I I I I I I I I I I I I I I I I I I I I I I I I I I I I I I I I I I I I I I I I I I I I I I I I I I I I I I I I I I I I I I I I I I I I I I I I I I I I U U U U I I I I I I I I I I I I I I I I U U U U U U U i I I U w # # X # 2 3 3 3 3 3 3 4 4 4 I h.6X6XgX6X).9.w 3 3 3 3 3 3 3 2 4 2 ( u.e 3 3 3 3 3 2 2 3 3 4 3 3 3 3 3 4 6 3 2 5.r.e 3 3 3 3 3 3 4 3 3 3 5 ",
"U U U U U U U U T e..XpX|.q.U q.hX3.3.[. XP I T 7X|.P 1.aXu.U P 3.dXq.U U <.1.3.(. Xw.q.hX3.P I I I I I I I I I U U U U U U i U I I I I I I I I I I I I I I I I I I I I I I I I I I I I I I I I I I I I I I I I I I I I I I I I I I I I I I I I I I I I I I I I I I I I I I I I I I I I I I I I I I I I I I I I I I I I I I I I I I I I I I I I I I I I I I I I I I I I I I I I I I I I I I I I I I I I I U I I U U U U U i 5.i U i U U U i I I I I I I I I I I I I I I I I I I I I I I I I I I I I U i o o X # $ w e w w e w w w P 6.T.^.a.R w w P R R a.t.E E '.Y 0 P 8.T.P w R a.a.w P T.a.w w w T.a.R E '.R R t.T.R R 2.T.a.2.T.6.R P 0 0 P w w w w w e w w w 0 e e e w w e e e 0 e e w w e w w w w w w w w w e w w w e w w $ o #   % 0 w w w w w 0 6.T.R w w w E t.8.R T.a.w E ^.6.R P w P _.6.w w w P R R 2.T.6.R ^.a.w w R ^.6.R 6.T.R 0 0 R 6.^.[ R E a.T.P w w w w w w w w w e w w 0 e w w e e 0 0 e e 0 e e e 0 e w w w w r w w w e w 0 e e w w w e e e w w e e 0 0 e e w w w w w e w w w w w e w w w e e w w w w e e w w w e e e 0 e w w w e 0 e w e w e e 0 0 e e w w w e e e 0 e e e w w w w w w w w w w w w w w w e w w e 0 e e e 0 w w w w e e e w w w w w e w w w w w e w w w w w w w e w e w w w w w e w w w w e w w w w w w w w w w w e e e w e 0 e e 0 w w w e 0 e e w w w w w w e 0 0 e e e 0 e 0 e w w w e w w w w w w w w w w e w $ X # X # i I I I I I I I I ( d.7X9.P I 3.hX9.P W.aX( R 2.}.6Xi I e.].s.T u.iXs.<.q.~.wX3.P I I I I I I I I I I I I I I I I I I I I I I I I I I i 5.i i U i U U i X # X o 0 U I I I I P 3.aX8.).].<.1.rX9.(.gX9.y.wXw.P U 2.aXu.U E.pX<.I i (.yX( ( aXg.i 9.aX9.I 1.!.6X( P i W.tX1.( iX(.( I I I 8X}.i 3.hXe.U i 9.dX9.4.].].U U ( 7X.XP U I I I I I I I I I I I I I I I I I I I I I I I I I I I I I I I I I I I I I I I I I I I I I I I I I I I I I I I I I I I I I I I I I I I I I I I I I I I I I I I I Z I I I I I I I I I I I I I I I I I I I I I I I I I I I I I I I I I I I I I I I I I I I I I I I I I I I I I I I I I U U i U I I I I I I U I I I I I I I I I i U U U i U U U I I U 5 o # # X 2 0 3 3 4 3 3 3 4 q f.wXh.e q U {.{.1.3 5 I e 3 4 4 I e q r.tX1.I u e i i U U i 4 4 4 I w 3 3 4 U w w h.wX1.U q 3 3 4 3 3 3 3 3 4 ",
"U i U U I I I I I U 5.q.yX}.7.q.hX3.9.].(.I I U .X|.P 1.aXu.i I 3.aXe.U q.[.uXaXhX7Xw.9.hX4.i I I I I I I I I I I I I I U U i U I I I I I I I I I I I I I I I I I I I I I I I I I I Z I I I I I I I I I I I I I I I I I I I I I I I I I I I I I I I I I I I I I I I I I I I I I I I I I I I I I I I I I I I I I I I I I I I I I I I I I I I I I I I I I I I I I I I I I I I I I I I I I I I I I I I I I I I I I i U I I I I I I I I I I I I I I I I I I I I I I I I I I I I I I I I I I I I I I I U U y # # o # * w w w w w w e w w w R 2.^.8.R R p.^._.'.T.E E _.R w P 6.^.R 0 Y a.a.e w T.a.0 w w T.a.R [ _.R E T._.^._._._.8.P 2.T.T.6.P w w w w w w w e w w w w w w e e 0 e w w e e 0 e 0 e e w w w w w w w w w w w w w w w $ # . # # 0 w w w w w w 8.T.R w w 0 E T.6.P T.a.q P E p.T.8.P H _.2.w w R 8.T._._.^.6.R ^.8.0 w P ^.6.R 8.a.P w 0 R a.'._._._._.p.P 0 w w w w e w w w w w w w w w e e 0 e 0 e e e w w e e 0 e w w w w w w w w e e e w w w e 0 0 e 0 w w w w w w w w e w w e w w w w w w e w w w w w e w e w w w w e e 0 w w w 0 e e e w w e w w w e e e 0 w w w e 0 e w w w w w w w w w e e w w w w w w w w w w 0 e 0 e e e 0 e e e w w e 0 e 0 w w e w w e 0 e w w w w w w w w e e e 0 0 e w w w e w w w e w w w w w w w w w w w w w w w w w w e w w e e 0 e w w w e 0 e w w e w w w w w w w e e e w w w e e 0 w w w w w w H w w w w w & X # X # i P I I I I I I i 5.f.6X9.P I 3.hXe.i W.iX( P 1.].}.I I e.[.d.( f.hXhXiXaXaXyX1.i I I U U U U I I I I I I I I I I I I I I I I I I I I I I I I I I I U e # # # # 3 U I I I I i 3.pXq.s.(.d.t.}.4.~.|.7.h.7Xq.P I <.iXs.T W.pXY I i (.yX5.( pXE.i 9.aX9.I 4./.}.( I P d.rX7.[ iXQ.P I I ( 8X[.i 3.hX0.P P 9.dX0.9.].).U U U .X|.P I I I I I I I I I I I I I I I I I I I I I I I I I I I I I I I I I I I I I I I I I I I I I I I I I I I I I I I I I I I I I I I I I I I I I I I I I I I I I I I I I I I I I I I I I I I I I I I I I I I I I I I U U I I I I I I I I I I I I I I I I I I I I I I I I I I I I I I U U U U U U U U I I I I I I I I I I I I I I I I U U U U U U U U I I U 5 # X & X 2 3 3 3 3 3 3 3 3 i tXW.i 3 3 5 4.{./.4 I tXq.3 3 i pX4.4.tXzXdXeX1.r.wXg.uXuXg.U 4 U tX4.2 3 U sX1.9.tXzXsXwX( 2 3 3 3 3 3 3 4 3 ",
"U U U U I I I I I I U U W.[.u.q.fX3.4.].].I I T 7X|.P 2.aXy.i P 4.aXw.4.)..Xw.7.].}.e.9.dX4.I I I I I I I I I I I I I I U U U U I I I I I I I I I I I I I I I I I I I I I I I I I I I I I I I I I I I I I I I I I I I I I I I I I I I I I I I I I I I I I I I I I I I I I I I I I I I I I I I I I I I I I I I I I I I I I I I I I I I I I I I I I I I I I I I I I I I I I I I I I I I I I I I I I I I I I I I I U U I I I I I I I I I I I I I I I I I I I I I I I I I I I I I I I I I I I I I I I U U i o # #   % w w w w w w w w 0 w w R a.p.2.a.T.E Y a.p.[ E '.R 0 P 6.T.H 0 E a.a.e P T.a.P w w T.a.R [ _.R R T.T.R R R R P 0 P R 6.T.6.w w w w w e w w w e e w w w 0 e w e w w 0 e 0 e e e w w w e w e e w w w w w w e w w # # # # o 0 e w w e w w 8.T.R w w w 6.^.E P T.a.0 w P R 6.p.8.P _.2.0 R 6.T.6.R 6.T.6.R ^.8.w w P ^.6.R 8.T.P 0 0 P 6.^.2.R R R R w w w w w w w e w w w w e w w e 0 e e e 0 e 0 w w e 0 e 0 e w w e w w w e e 0 0 e w w w w e e e e w w w e w w w w w w w w w w w w w w w w w w w w w w w w w w e 0 e e w w w e e 0 w w w w w w e 0 0 e e e w w e 0 e w 0 e w w w w w w 0 e w w e w w w w w w w 0 e e w 0 e w e 0 e w w e e w w e w w w w w 0 e w w w w w e w w w 0 e e e w w e w w w w w w w w w w P 0 w w w w w w w w w w w w w w e 0 e 0 e w w w e e w w w w w w w w w w e e w w w e e 0 e e e w w w w w w w w w w w & # X # # i I I I I I I I I ( f.7X9.P I 4.fXq.i W.pXU I 1.].}.I I w.}.f.( u.rXi.4.7.4.3.U I I I U i U U I I I I I I I I I I I I I I I I I I I I I I I I I I I U e # X # # 4 U I I I U P 3.aX9.3.Q.8XQ.E.( ~.7X7.u.yXq.P P <.aXu.U W.pXT I i (.yX( <.aXd.i 9.dX9.I 3.~.7X( I P W.rX[ ( rXQ.i I I U 8X}.i 3.hX9.P P 4.aX9.7.].].U I T gX.XP I I I I I I I I I I I I I I I I I I I I I I I I I I I I I I I I I I I I I I I I I I I I I I I I I I I I I I I I I I I I I I I I I I I I I I I I I I I I I I I I I I I I I I I I I I I I I I I I I I I I I I I U U I I I I I I I I I I I I I I I I I I I I I I I I I I I I I I U i U i i U i U I I I I I I I I I I I I I I I I U i U i i U i U I U U w X # X # 3 3 0 3 3 3 3 3 q <.pXr.3 3 3 3 i {.6Xq I sXq.2 3 I jX4.5 g.dX4.U w g.fXh.1.e.gXg.4 ( dXq.2 3 U hX1.w Q.sX4.( w 3 3 3 3 4 3 3 3 4 ",
"U U U i I I i 5.5.U i U Q.}.y.q.hX3.T ].8X<.P w.iX}.I 1.dXr.i I 3.aXw.w.}.[.U Y [..Xw.9.hX4.I I I I I I I I I I I I I I i U I I I I I I I I I I I I I I I I I I I I I I I I I I I I I I I I I I I I I I I U U I I I I I I I I I I I I I I I I I I I I I I I I I I I I I I I I I I I I I I I I I I I I I I I I I I I I I I I I I I I I I I I I I I I I I I I I I I I I I I I I I I I I I I I I I I I I I I I I I U I I I I I I I I I I I I I I I I I I I I I I I I I I I I I I I I I I I I I I I I I U y # # # # 3 w w w w w w e P P w 0 P t.t.8.p.t.w e t.T.E E _.R 0 P 6.T.P w Y a.a.e w T.^.Y w R ^.6.w [ _.R w a.T.P 0 0 w P P w 0 R p.a.w w w w w w w w w w 0 0 e w 0 e w w e w e 0 e w w 0 w e w w w w 0 e w e w w w w w w $ # # # # 0 w w w w w 0 8.T.R 0 P [ T.T.P w ^.a.w P e 0 R t.T.P ^.2.H P 8.T.R 0 2.T.6.R ^.a.w w w ^.8.P 6.^.R P w P 2.^.E w 0 w P 0 w w w w w w w w w w w w e w w w 0 e w e e e w w e 0 w e e e 0 e e w 0 e e w e e e 0 w w e e w w w w w e e w w w e w e w w e H 0 w w w w w e w w w w w w w w e 0 w w e e 0 e 0 e w w w w w w e e w w e e e 0 e e w w e e e e w w w w e e e 0 w w w w e w w H e e e w e e w w 0 e e w 0 0 e w w w e w w w e e w e w w w w H w w w w w e 0 0 e w w e w e w w w w w w w w w H w w e w e w w e r e e e 0 w e e e w w 0 e w w w w e w e w 0 e e 0 w 0 e e w w 0 e w w w e w w w w w e w w 2 # # X % i U I I I I I I I ( f.6Xq.i I 3.hXq.i W.iXU I 1.'.}.P I w.[.d.I 4.tXf.U y P T U U U I U U U U I I I I I I I I I I I I I I I I I I I I I I I I I I I U e X # X # 4 U I I I I P 4.pXq.T W.hXyX9.U (.7X3.4.iXW.T T s.iXq.P W.pXT P P (.rX( [ aXf.i 9.pXw.I U f.iX4.I 3.].8X( ( rX~.i U I ( 8X[.i 4.dXe.i I 4.dX0.( ].yX5.I q.pX}.I I I I I I I I I I I I I I I I I I I I I I I I I I I I I I I I I I I I I I I I I I I I I I I I U I i U I I I I I i U U I I I I I I I I I I I I I I I I I I I I I I I I I I I I I I I I I I I I I I I I I I I I i U U U I I I I I I I I I I I I I I I I I I I I I I I I I I I I I I I I U U i U I I I I I I I I I I I I I I I I I I I I U U i U I I U w X & # X 2 0 3 3 3 3 3 3 q 4.tXq.2 4 3 3 3 ).eXi U sXq.2 2 I fX9.% e.pXi 3 3 /.pX5.3 e {.6Xi U sX9.2 2 U jX1.% s.uXi 3 3 3 3 3 3 3 3 4 3 4 ",
"U U U U I I I 1.s./.g.g.}.W.1.w.hX3.i u.7X).W.Q.aX|.P 1.hXu.i i 3.hXw.4.Q.yXW.E.gX}.e.9.hX6.i I I I I I I I I I I I I I I I I I I I I I I I I I I I I I I I I I I I I I I I I I I I I I I I I I I I I I U i U U I I I I I I I I I I I I I I I I I I I I I I I I I I I I I I I I I I I I I I I I I I I I I I I I I I I I I I I I I I I I I I I I I I I I I I I I I I I I I I I I I I I I I I I I I I I I I I I I U I I I I I I I I I I I I I I I I I I I I I I I I I I I I I I I I I I I I I I I I I U e # .   # $ w e r w w w e Y 8.8.6.8.p.2.E 8.T.8.6.T.t.E E '.R 0 P 6.T.P w E t.t.e P T.^.8.8.p.T.E 0 2._.R 0 2.T.8.8.8.2.R E 8.8.8.a.6.w w e w w w e w w w e e e w e w w w e 0 e e e w w e w w w w w w w e w w w w w w H w % # # o # 0 e w w w w w 8._.a.8.8.p.a.2.w P ^.a.w E 8.8.8.t.8.P T.T.6.2.2.T.a.2.a.T.6.P ^.a.0 w P _.6.w R T.a.8.8.E R a.a.8.8.6.Y H w w w w w e w w w e w w w w w w w e w w w 0 w w e e w w w 0 e w w w e e 0 w 0 0 e e e e 0 0 w w w e e 0 w w w w w w , w w w w w w w e w w w w H w w w w e w e e w w 0 e e w e e 0 e e w w w 0 e w w w 0 e e 0 e w w e 0 0 e e w w e w 0 e e w w w w w w w w e 0 w w 0 0 e w e e 0 w e e e w w w w w w e e 0 w w w w w w w w e w w w e e e w w w w w w w w w w 0 P w w w 0 w w w w w w e w w w 0 e e w w w 0 w w w e w w r w w w e e 0 e e 0 w e e 0 e w w e w w w w e w w w w w w w $ # X # % i U I I I I I I I T f.7Xq.P I 4.hXq.L W.aX( I 1.].{.I ( e.}.g.I T `.[.~.g.f.q.5.U U U U i i U I I I I I I I I I I I I I I I I I I I I I I I I I I I U e # X # o 0 U U I I I P 1.aXq.P r.iXiX<.P ).7X1.T ). XQ.~.[.~.<.P W.aXY I P `.rX[ [ aXg.i 3.7X XW.3.9.|.).W.`.].s.P ( iX~.i I U ( eX}.i 4.hXq.i i 9.hX9.U u..X).W.~.aX|.i I I I I I I I I I I I I I I I I I I I I I I I I I I I I I I I I I I I I I I I I I I I I I I I U U U U I I I I U U U U i I I I I I I I I I I I I I I I I I I I I I I I I I I I I I I I I I I I I I I I I I I I U U U i I I I I I I I I I I I I I I I I I I I I I I I I I I I I I I I I U U U U I I I I I I I I I I I I I I I I I I I I U U U U I I U q X # X # 2 3 3 3 3 3 3 3 w 4.uXq.2 3 3 3 3 ).eXi U uXe.2 3 i fX9.2 r.sXi 4 3 /.tX4 3 2 g.6X5.( sX9.2 3 U fX1.% s.uXi 3 3 3 3 3 3 3 3 3 3 4 ",
"i U U U U U I 1.g.eXrXwX~.3.i 4.7X<.P <.s.7XeXW.iX[.i <..Xq.P I <.|.7.U w.|.yX[.f.u.9.4.gX3.P I I I I I I I I I I I I I I I I I I I I I I I I I I I I I I I I I I I I I I I I I I I I I I I I I I I I I I I I I I I I I I I I I I I I I I I I I I I I I I I I I I I I I I I I I I I I I I I I I I I I I I I I I I I I I I I I I I I I I I I I I I I I I I I I I I I I I I I I I I I I I I I I I I I I I I I I I I I I I I I I I I I I I I I I I I I I I I I I I I I I I I I I I I I I I I I I I I I U y #   # # * w w w w w w e R t.^.^.T.6.P w E p.T.p.6.6.Y Y T.P w P E a.P 0 R 6.6.e e T.T.8.T.T.E P w E T.R 0 P E T.T.T.6.R E T.^.T.6.P w w w w w w w w w w w e w w e w w w e e w w e e e 0 0 e w w e e 0 e w w e w w w w w $ X # X # 0 w w w w w w 2.^.^.^.T.a.E w w H a.6.e E T.T.T.8.R e R p.T.2.R a.T.T.8.2.2.R a.2.0 w w T.E w P E t.T.T.6.P Y a.T.T.t.E P 0 w w w w w w w H w w w e w e 0 e 0 e e e e e 0 e 0 e e e e e 0 e e w w w w e e w w w e w e w e r w w w w w w w w w w w w e w P 0 w w w P w w w w w w w e w 0 e 0 e e w w w e w w w w w w r w w e e w w e 0 0 e e e w w e e w w 0 e w e 0 e w w w w w w w w e e e 0 e w w w e 0 e w 0 e w w w w 0 e w e e 0 w e w w w w w e 0 0 e e w e w w w w w w w w w e w w w w w w w w w w w w w w e w w w e 0 e e e e w e w w w w e w w w w w w w e w 0 e e w 0 0 e e w w e w e w w e w w w w * # # X # i I I I I I I I I T e.Q.4.P I 2.7X4.P s.}.U I [ g.W.I i 9.g.r.i U 1./.wXrX{.r.U i U U U i U U I I I I I I I I I I I I I I I I I I I I I I I I I I I U e # X # % 4 I I I I I I <.|.4.I 4.W.W.T P f.~.1.U 1.Q.8XgX~.<.U I u.{.U I P d.].( ( }.u.i ( u.6X7Xe.U 9.}.8X6Xs.( I ( ].s.i I I I (.g.i <..X4.I P 3.|.4.I ( u.7XyXW.iX}.I I I I I I I I I I I I I I U U I I I I I I I I I I I I I I I I I I I I I I I I I I I I I I I I U U i U U U U U U i U U I I I I I I I I I I I I I I I I I I I I I I I I I I I I I I I I I I I I I I I I I I I I i U U U U U U U I I I I I I I I I I I I I I I I I I I I I I I I I I I I I I I I I I I I I I I I I I I I I I I I I I I I I I I I I I U q X # # X 3 3 3 3 3 0 3 3 5 5.pXr.3 3 3 3 i {.gX5 U sXe.2 3 I fX4.2 e.pXi 4 3 /.eX4 4 2 g.{.1.( pX9.2 3 T jX1.% h.tXP 3 3 3 3 3 3 3 3 3 3 4 ",
"U U U i I I I I U U U U U U I U Y I I U T U Y <.6X[.I I U U I I U U U U U U Y U Y U U U U I I U I I I I I I I I I I I I I I I I I I I I I I I I I I I I I I I I I I I I I I I I I I I I I I I I I I I I I I I I I I I I I I I I I I I I I I I I I I I I I I I I I I I I I I I I I I I I I I I I I I I I I I I I I I I I I I I I I I I I I I I I I I I I I I I I I I I I I I I I I I I I I I I I I I I I I I I I I I I I I I I I I I I I I I I I I I I I I I I I I I I I I I I I I I I I I I I I I I U i # # # o 0 w w w w e w w 0 P e w 0 w w H H e w w e e w w e w w w e e w w w w e w e T.a.w w w w 0 w w , w w w 0 P w P 0 P w P w H w w w w w w w w w w w e w w w e w w w w 0 e w w 0 0 e e e w w e 0 e w e w w w w e w w w 2 # X # # 3 w w w w w w w w w e w e w w w w w w w e w e w e w w w w P w w w 0 P w w H w w w e w w w w w w w w P w w 0 w e e e e w 0 w w w w w w w w w w w w w w e e e 0 e 0 0 e e e w w e 0 0 e e e 0 e w w e e w w w e e 0 w w w w w w w w e w e w w w w w w w w w w w w w 0 w w w w w w w w w 0 e e e w w w w w w w w w e w w w w w 0 w w e e e w 0 e e w w 0 w e e e w w 0 e w e w e w e w w 0 0 e e e w 0 e e 0 e w e w w w w e e e e 0 e e w w w w e w w w e e e 0 w w w w e w w w w w w w 0 P w w w w w w w w w w w w w w e w w w e 0 0 e e 0 e w w w w w w w e w w e w w e e 0 w e e w w w w w w r w w w w w w w & X X # % i I I I I I I I I I I U U I I I Y I I U U I I U U U I I U U U I I U U U U U U U I I U U U U U I I I I I I I I I I I I I I I I I I I I I I I I I I I U e X # # X 3 I I I I I I I U U I U U U I I U I I I I U U U U U U I U T I I I I I I I U I I I U U U I I I U U U R I I i ( ( I I I i ( U I U U U U U U U U I U U T U ( |.].i I I I I I I I I I I I I I U U I I I I I I I I I I I I I I I I I I I I I I I I I I I I I I I I U U U U U i U U U U U U I I I I I I I I I I I I I I I I I I I I I I I I I I I I I I I I I I I I I I I I I I I I U U U U U U i U I I I I I I I I I I I I I I I I I I I I I I I I I I I I I I I I I I I I I I I I I I I I I I I I I I I I I I I I I I U q X # X # 2 3 3 3 3 3 4 3 3 i tXQ.i 3 3 4 4.{.Q.3 i sXe.2 4 1.jXq.2 e.sXU 4 3 /.uXi 4 4 ).6XU U sXq.2 4 4.jX1.% s.tXI 3 3 3 3 3 3 3 3 3 4 3 ",
"U U U U I I I I I I I I U I I I I I I <.4.U T d.7XW.i I I I I I I I I I U U I I I I U U I I I I I I I I I I I I I I I I I I I I I I I I I I I I I I I I I I I I I I I I I I I I I I I I I I I I I I I U I I I I I I I I I I I I I I I I I I I I I I I I I I I I I I I I I I I I I I I I I I I I I I I I I I I I I I I I I I I I I I I I I I I I I I I I I I I I I I I I I I I I I I I I I I I I I I I I I I I I I I I I I I I I I I I I I I I I I I I I I I I I I I I I I I I I I I I I I I I I I I I y #   # # $ w w w w w w w w w w w w w w w w w w w w w w w w w w w w w w w w w w e P T.a.0 w w w w w w w w w w w w w w w w w w w w w w w w w w w w w w w w w w w w w w w e 0 e e w e e w w e 0 0 e e e w w w e w e w w w e 2 # X # # 0 w w w w w w w w w w w w w w w w w w w w w w w w w w w w w w w w w w w w w w w w w w w w w w w w w w w w w w w w w w w P w w P 0 w w w w w w e w w w 0 w w e e w w e 0 0 e w e e w w w w w e e e 0 0 w 0 e e e e 0 w w w w w e w w w w w w w w w w w w w w 0 w w w w w w w w w w w w e w w 0 w e e e w e w w w w w w w e e e w w 0 e w w 0 e 0 e e e w e e 0 w w e e w w w w w e w w e e w w e 0 e e w e e e e 0 e e w e e 0 w w 0 e e w w w w w w w 0 e e w e w w w w w w w w w w w w w w w w w w w w w w e w e w w 0 0 e w e e w w e w w w w w e w w w w w 0 e w e e w w w 0 e w w e w w w w w w w w w w w & # X # X i I I I I I I I I I I U I I I I I I I I I I I I I I I I I I I I I I I U U I I I I I I U U U U I I I I I I I I I I I I I I I I I I I I I I I I I I I I e O & X # 3 I I I I I I I I I I I I I I I I I I I I I I I I I I I I I I I I I I I I I I I I I I I I I I I I I I I I I I i I I I I I I I I I I I U U I I U <.4.U T s.7XW.I I I I I I I I I I I I I I I i I I I I I I I I I I I I I I I I I I I I I I I I I I I I I I I I U U U U U U i U U i i U I I I I I I I I I I I I I I I I I I I I I I I I I I I I I I I I I I I I I I I I I I I I U U U U U i i U I I I I I I I I I I I I I I I I I I I I I I I I I I I I I I I I I I I I I I I I I I I I I I I I I I I I I I I I I U U q X # # X 3 3 3 3 3 3 3 3 3 4 f.wXg.e q ( 6X[.1.3 e pXg.i I Q.jX4.O q.uX1.w 3 /.fXs.e <.wX).5 i sXf.i U /.zX1.2 r.tX1.q 3 3 3 3 3 3 3 3 3 4 ",
"U i U U I I I I I I I I U I I I I U i e..X7XeXyXW.3.I I I I I I I I I I I I I I I I I I I I I I I I I I I I I I I I I I I I I I I I I I I I I I I I I I I I I I I I I I I I I I I I I I I I I I I I I I I I I I I I I I I I I I I I I I I I I I I I I I I I I I I I I I I I I I I I I I I I I I I I I I I I I I I I I I I I I I I I I I I I I I I I I I I I I I I I I I I I I I I I I I I I I I I I I I I I I I I I I I I I I I I I I I I I I I I I I I I I I I I I I I I I I I I I I I I I I I I I U i # # # # $ w w e w w w w w w w w w w w w w w w w w w w w w w w w w w w w w w w w w ^.a.w w w w w w w w w w w w w w w w w w w w w w w H w w w w e w w e w r w w w w w w w e e 0 w w w w w e e e e 0 0 e w w w w w w w w w $ # # # # 0 e w w w w w w w w w w w w e w w w w w w w w w w e w w w P 0 w w w w w w w w w w w w w w w w w w w w w w w w e w w w w w w w w w e w w w w w w w w w e e w w w w e 0 e e e w 0 e w w w w e 0 0 e e e w e e 0 0 e e e w w w w w w w w w w w e w w w e w w w P w w w w w w e w e w w w e w w e e 0 0 e w w w w w w e w e 0 0 e w w w e w e e e 0 e 0 e e 0 w w w e e 0 w w e w w w w w w w w w e e e 0 w w w 0 e e 0 e e 0 e 0 e w w e w w w e w w w e e w w w w w w e w w e w w w w w w w w w w e w H w w w w w w w w e e e w 0 e w w w w w w w w w w e w w w e e 0 w w w w e e e 0 e w w w w w w w w w w e w $ X # X % i I I I I I I I I I I U I I I I I I I I I I I I I I I I I I I I I I I I I I I I I I I U i U U I I I I I I I I I I I I I I I I I I I I I I I I I I I I e # X # % 4 I I I I I I I I I I I I I I I I I I I I I I I I I I I I I I I I I I I I I I I I I I I I I I I I I I I I I I I I I I I I I I I I I I I I U U P e.|.yXyXyXW.4.I I I I I I I I I I I I I I I U I I I I I I I I I I I I I I I I I I I I I I I I I I I I I I I I i U U U i U U U U U U U I I I I I I I I I I I I I I I I I I I I I I I I I I I I I I I I I I I I I I I I I I I I U U i U U U U U I I I I I I I I I I I I I I I I I I I I I I I I I I I I I I I I I I I I I I I I I I I I I I I I I I I I I I I I I U U e X % X # 2 0 3 3 3 4 3 3 3 3 i h.6XwXwXwX).4.q 3 w h.wXwX[.).fX4.% 5.[.tX{.( g.dX/.wXrX).3.3 w g.wXwX[.).dX5.6 <.{.rX[.( 3 3 3 3 3 3 3 3 3 ",
"I I I I I I I I I I I I I I I U I I I 3.f.Q.W.f.4.U U U U I I I U I I I I I U U U i U U I I I I I I I I I I I I I I U U I I I U I I I I I I U U I I I I I I I I I I I I I I I I I I U U I I I I I I I I I I I I I I I I I I I I U i U U I I U U U U U U U U U U I I I I I I I I I I I I I I I I U I I I I I I I I I I I I I I I I I I I I I I I I I I I I I I I I I I I I I U U U i U U I I I I I I I I I I I I I I I I I I U U U I U U U i U U I I I I I I I I I I I I I I I U I I I I I I I U I I U i # X # X 2 e w w w w w w w w w w w w w w e w e r w w w w w w w w w w w w w w w w w 2.E w w w w w w H w w w w e w w w w w w w w w w w w w w w w w e w w w w w e w w w w w w w w w w e w w w w w w w w w w w w w w w w w w * # o # # 0 w w e w w w w w w w e w w w w e w w e w w e w w w w w w w w w w w w w w w w w w w w e w e w w w w w w w w e w e w w w w w w e w w w w w w w w w w w w w w w e w w w w w w w w w w w w w w w w w w w e w w w w w w w w w w w w w w 0 w w w w w w w w w w w w w e w w w w w w w w w w w w w w w w w w w w w w w w w q e w w w w r w w w w w w w w w w w w w w e w w w w w w w w w w w w e e 0 w w w w w w w w w w w e w w w w w w w w w w w e w w w w e 0 w w w w w e e w w w w w w w w w w w w w w w w w w w w w w w w w w w w w w r w w w w w w w w w w e w w w w w w H w w w w w w w w w w w w w e w w e w & # # # % i U U I I I U I I I I I I I I I I U I I I I I I I I I I I I I I I U U U I I I U U i U U U i U I I I I I I I I I I I I I I I I I I I I I I I I I I I U e X % X o 4 U U I I I I I I I I I I I I U I I I I I U U i U U U I I I I I I I U I I I U U i U U I I I I I I I I I I I I I I U U I I I I I I I I I I I I I 1.h.W.Q.h.1.U I I I I I I I I I I I I I I I I i U U U I I I I I I I I I I U U I I I I I I I I I I I I I I I I I I I I I I U U U I I I U I I I I I I I I I I I I I U U I I I I I I I I U U I I I I I I I I I I I I I I I I I I I I I I U U i U I I I I U U U I I I I I I I I I I I I I I I I I I I I I U I I I I I I I I I I I I I I I I I I I I I I I I I I I I I U e X % # X 2 4 3 3 3 3 3 4 3 3 3 P q.h.f.u.<.w 3 3 4 i e.f.r.1.e.I 3 w 1.h.u.I W.uX4.h.s.<.e 3 3 I e.h.e.1.e.i 3 e 1.s.r.i 3 3 4 3 3 4 3 3 3 ",
"I U I I U I U I I I U U I U U U I I I I U i i i I I U U U U U I U U I U U I U U U U U U U U U I U I U U I U I U U I U U U I U U I I I I U U U U U I I I I I I I I I U I U I I U U I U U I U U I U U I U I I I U I U I I U U U I U U U U U I U U U U i U I U U U I I I I U U U I U I I U I U I I U U I U U I I I I I U I U U I U I I I I U U U I I U I I U I I U U I I U U I U U U U U U U U U I I I I I U I U I U U U U I I U U U U U U U U U U U U U I U I U U U I I I I I U U I I I I I I U U I I I i % X X # 2 e w e e w e w w w w e w e w w w w w w w w w e e w w w w w w r w w e e w q w r P w e w w w w w w w w w w e w w w e w e w e e w w w w w w w w w w w w w w w w w w w w r w w e w w w w w w w w e w e w w w w e w 2 # . # # 0 e q w w w e w e w w w w w w w w w w w w w w w w w w e w w w w w w r w e w e w w w r w w w w w w e w w e w w w w e w w w w w w w w w e w w e w w e w e w w e w w w w w w r w w w w w e w w e e w w r w w w w w w w r e w e w w H w P w w w w P 0 w w w w w w w w e w w e w e w w e w w e w e w w w r e w w w e w w r w w w e w w w w w e e w w e e w w w w w w w w w w e w w w w w e e 0 e e r w w w e w w w e w w w w w w e e w w w w w w w w w w w e e w w e w w w w w w e w w w w w w w w e w e w w w w w e w e w w w e w w w w w e w w w w w w r w w e w w w w w w w w w w e w w w w w e w e w w w w w w $ . # X % i U U I U U U I I U I I U I U I I U U I U U I U U U I U I I I I I U U U I I U U U U U i U U T I I I I U U I I I U I I I I I I U U U I I U I I U I U U e # X & # 3 U U I U U I U I I I I U U I U U U I I U U T U U U U U U U I I U I U U I U U U U I U I U I U I I I I I U I U U I U U U I I U U U I U U I I I I I I P I i I I I I I I I I I I I I I I I I I I U U U U I U I U I U I U U U U U I I I I U U U U I I U I I U I I U U U U U I U U U U U I U U I U I U I I U I I U U I U U U I U U I I I I U U I U U I I I I I I U I I I I I U I U U I U I U U U U I I I I U U I U U I I I I I I I I I I I I U U I I U I I U U U I I I U I I U I I U U U I I U I I I I I I I I U I U U U q # X # X 3 4 3 3 3 3 3 3 3 3 3 3 2 2 2 3 3 3 3 3 3 3 2 2 3 2 2 3 3 3 2 2 % 3 /.wX3 2 2 3 3 3 3 3 2 3 2 3 2 3 3 3 3 2 3 3 3 3 3 3 3 3 3 3 3 ",
"i I I I i i i I i I I P i i I i I i i i I i i i i I i i U i i i I i I i i i I i i I i i I P i i i I I i i I I P i i I i i i I i P I I P i i i i i i i I i I i I i I i I I i P i i I i i i I i i I P i I i I i I i I i I I i P I i i i I i i I i i i i U i i i i P P I I I i i I i i i I I i i I i i I i i I P P i P I i I i i i i I P 9 I i i I i I i I i i i I i I i P i i I i U i i i i I i I i i i I i I i I I i i I i i I i i i I i i i i i I i i I i i i I i i i I i I i i i I i I i I P i i i i i X # % X & 0 w q q q q q r q r q w q w q q q w q q r r q w q q q w w r q r w q q w q r 0 0 0 0 0 w 0 w w q r q , w q q q w q q q w q q r r q 0 r w q r q 0 w w 0 w r , , w w 0 w w q q w r w q , w q w q q q r w q r 0 r $ # # # # 0 q q q q q q q q w q w q r , w w r 0 w w w q q r q r w q q q w w q r q w q q w w r 0 0 w w 0 r q r , w q q q w q q w r q q , w q r q q q w q q r 0 r q w q q w q r q w q r 0 w w , r q w 0 q q r q q w q q q w q q r w w 0 w 0 0 , , w 0 0 w 0 w w 0 q r q r w q q q q r w q r q q r r w q q q w r q q w 0 w r w r q 0 0 0 0 r 0 r , w q q q w w w 0 r q q , w q r q q q w w q r r q w w 0 0 r 0 r , q q w q w q w q r q 0 r q q r q r q w q r q 0 r 0 w 0 w w r w 0 , q r , w w w r w w q w q r w 0 r w q , w q q q w q q q w w r q r w q q w q q r w , 0 w 0 w , , w 0 w 0 w w w w r q 0 r w q q q q 0 r w # # # . X i U i i i I i i I i I i I I i P I i i i i i I P i P i i I i I i I i i i I i i i U i i i U i i I i i I I i i i i I P P i I I i P i P P i I i I i i i I e X X # # 3 P i i P I i i I i I i I i i i I i I i i i i I i i i I i i I i I I P i i I i i i i U i i i I i i i I I i i i i I i i i P i i I i i i i I i I P P i P I i P I i I i I i I i I i I i I i I i I i i I i i i i I i I I i i i i i P P 9 U i i I i i I P i P P I i P i i i i i I i i i i i i I i I i i i I i I I i i i i i i I i i P P i P I i i i i P P P P P I i i I i i i I i I i I i i i U i i P P Z i i i I i i I i I I i I i i I i i i I i I i I i i i I i I i i i I i I i I P i P P i I i I i I i I i i i i P i P q X # X # 2 3 4 3 4 3 3 3 3 3 3 3 3 3 3 3 3 3 3 3 3 3 3 3 3 3 3 3 4 3 4 4 3 3 /.eX3 3 3 3 3 3 3 3 3 3 4 3 3 3 3 3 3 3 3 3 3 3 3 3 3 3 4 3 3 ",
"4 4 4 4 4 5 3 w 3 3 4 4 4 5 3 q 4 4 q 4 4 4 4 4 4 4 4 4 4 4 4 4 4 4 3 q 3 4 3 4 3 4 4 5 4 4 5 w 3 3 3 3 3 3 4 5 4 4 4 4 4 4 4 q 4 4 5 0 0 5 4 4 4 w 4 4 4 4 4 4 5 w % 5 4 4 4 4 4 4 4 4 5 0 0 5 5 3 3 q 3 4 3 4 3 3 3 3 4 3 3 4 q 5 4 4 4 4 4 4 4 5 4 4 4 4 4 4 5 5 5 O 4 4 4 4 3 w 5 0 4 4 4 4 4 4 4 4 3 5 4 4 0 4 4 4 0 0 5 4 0 5 w 5 4 4 4 4 5 0 0 3 w 4 4 4 q 4 4 q 4 4 4 4 4 4 4 4 q 3 3 q 9 5 3 4 3 3 3 3 4 4 3 q 4 4 3 4 3 4 3 4 5 3 w 5 4 4 4 4 3 w 5 4 4 w 4 4 4 4 4 4 4 4 4 4 4 4 0 4 q 3 3 3 # # X # # & & & * $ $ $ # # # * $ # $ $ $ $ $ $ $ # # * $ $ # $ $ $ * # $ # $ $ $ $ # * $ $ $ $ $ $ $ % * # # * $ $ $ $ $ $ $ $ $ $ $ $ # * # * $ $ $ $ 0 $ $ $ $ $ $ $ $ $ $ # $ # $ $ # * # * $ $ $ $ $ $ $ # * # # * # X # X # # * & $ $ * $ * $ $ $ $ # # * $ # # $ # # $ $ * # # # $ $ $ $ # $ * # $ $ # $ $ $ # * $ $ $ $ # $ # * $ $ $ $ $ # $ $ # * $ * $ $ $ $ $ $ $ $ * # # * $ $ $ $ $ $ # * $ $ $ $ $ $ # * $ $ $ $ $ $ * $ $ $ $ $ $ $ * # $ $ $ $ $ $ $ $ $ $ $ $ $ $ $ $ * # # # $ $ $ $ $ $ # $ * # # # $ # # $ $ $ $ * $ $ $ $ $ # # * $ $ $ 0 # $ $ $ $ $ $ $ # # $ $ $ # * $ $ $ $ $ $ $ $ $ $ # # * $ $ $ $ $ $ # $ $ $ $ $ # $ $ $ & & # # $ $ $ $ $ $ $ $ & $ # * $ $ $ $ $ $ $ $ $ $ $ * $ # # $ # $ $ # $ $ $ $ # * # * $ $ $ $ $ $ # $ $ $ # * $ # $ $ $ $ * # $ $ $ $ $ $ $ $ $ $ $ $ # # $ $ # * # # $ $ $ $ $ $ $ $ # . # # X 3 4 4 4 4 4 4 4 3 4 4 4 3 3 q 0 4 4 4 5 4 4 4 4 4 4 4 4 4 4 4 4 4 4 4 4 4 q 5 4 q 4 4 4 4 4 4 4 4 5 5 0 0 5 4 5 0 4 4 4 4 4 4 4 4 4 4 4 4 4 4 4 4 4 4 3 X % X # 2 q 3 4 4 4 4 4 4 4 4 4 4 4 4 4 4 4 4 3 4 4 q 3 4 4 5 4 4 4 5 3 3 4 4 4 5 3 q q 5 q 4 4 4 q 4 5 4 4 4 4 4 4 4 4 4 4 4 4 q q 5 0 0 5 4 5 0 4 0 5 0 0 5 4 4 4 4 4 4 4 4 4 4 4 4 4 4 4 4 4 4 4 4 q 5 4 4 4 4 4 4 4 4 4 4 q 5 4 4 5 w 5 5 4 4 4 4 5 0 4 4 0 5 4 4 q q 5 4 4 4 4 4 w 4 4 4 4 4 4 4 4 q 4 4 4 3 4 4 q 5 4 4 4 4 4 4 5 0 0 5 0 0 5 4 5 4 4 4 5 0 0 5 q q 5 4 4 4 4 4 4 4 4 4 q 4 4 4 0 5 4 4 4 4 4 w 3 5 4 4 4 4 4 4 q 4 4 4 4 4 4 4 4 q q 5 4 4 4 4 9 5 3 3 3 3 3 3 4 4 4 4 4 4 4 4 4 4 4 4 5 4 4 w 3 q q 2 # X # X 2 3 3 3 3 3 3 3 3 4 3 3 3 3 3 3 3 3 3 3 3 4 3 3 3 3 3 3 3 3 3 3 3 3 Q.gX3 3 3 3 3 3 3 3 3 3 3 3 3 3 3 3 3 3 3 3 3 3 3 4 3 3 3 3 3 ",
"3 3 3 3 3 3 3 3 3 3 3 3 3 3 3 3 4 4 3 3 3 3 3 3 3 3 3 3 3 3 3 3 3 3 3 3 3 3 3 3 3 3 3 3 3 3 3 3 3 3 3 3 3 3 3 3 3 3 3 3 3 3 3 3 % 4 4 % 3 3 3 3 3 3 3 3 3 3 3 3 0 4 4 % 4 4 3 3 3 3 3 3 0 % w 4 3 3 3 3 3 3 3 3 3 3 3 3 3 3 3 3 3 3 3 3 3 3 3 3 4 3 3 3 3 3 3 3 % w 0 4 4 4 % 4 3 3 3 3 4 3 3 3 3 3 3 3 3 4 4 0 4 4 3 3 3 3 3 3 5 % 4 4 4 4 3 3 3 3 3 3 3 3 3 3 3 3 3 3 3 3 3 3 5 3 3 3 3 3 3 3 3 3 3 3 3 3 3 3 3 3 3 3 3 3 3 3 3 3 3 3 4 3 3 3 3 3 3 3 3 3 3 3 3 3 3 3 3 3 3 3 4 3 3 3 3 3 3 3 3 3 3 2 % X # X # * # * $ # $ # # $ # # # # # # $ $ & $ # * # # $ $ # # # * # # $ # # $ # $ # # # # # $ $ # # # * # # # # # # # # $ * # # # # $ $ # * # # $ * # $ $ . $ # # # # $ & # # # $ # # # # * $ # # # $ $ $ # # * # # # # X X # X $ & # # # # # $ $ # # # # * $ * # # # # # * # # # # * $ # # # # # $ * # # & # * # # # $ $ # $ $ $ $ # # $ * # # $ # # $ # * # # # # # $ $ # * # # $ # # # # & # $ # # # # $ # # $ # # # # # & # # $ # $ # # & * # # * $ $ $ $ $ $ $ $ # # # $ $ $ # # * # # # # * # * $ # & # & # # * $ # $ # $ # * # # # # * # * # # $ $ # $ $ $ # # * $ * # # # $ # * # # # * # * # # $ # # $ & $ # $ $ $ $ $ $ # $ & $ * # # # $ # # * # * * # # * $ $ & # & # # # $ # $ # $ X $ $ * # # # # * # $ # # # $ # # $ # # $ # # $ # # # $ # & # # $ * # # $ # # # * # * $ $ $ $ $   # $ # # # # # # $ # # * # * * # * $ $ # * # # # . # % 3 3 3 3 3 3 3 3 3 3 3 3 3 3 3 3 3 3 3 0 4 3 3 3 3 3 3 3 3 3 3 3 3 3 3 3 3 3 3 3 3 3 3 3 3 3 3 3 3 3 3 3 3 3 3 3 % 3 3 4 w 4 4 3 3 3 3 3 3 3 3 4 4 3 3 3 X X # o % 3 3 3 3 3 3 3 3 3 3 4 4 3 3 3 3 3 3 3 3 3 3 3 3 3 3 3 3 3 3 3 3 3 3 3 3 3 3 3 3 3 3 3 3 3 3 q 4 3 3 3 3 3 3 3 3 3 3 4 3 3 3 3 3 3 3 3 3 3 3 0 % 4 4 4 % % 4 4 3 3 3 3 3 3 3 4 4 4 4 3 3 3 3 4 3 3 3 3 3 3 3 3 3 3 3 3 3 3 3 5 % % 4 0 0 4 4 3 3 3 3 4 4 4 4 3 3 3 3 3 3 3 3 5 3 3 3 3 3 3 3 4 3 3 3 3 3 3 3 4 3 3 3 3 3 3 3 0 % 4 3 3 3 3 3 3 3 3 3 % 4 4 4 3 3 3 3 3 3 3 3 4 4 3 3 3 3 3 3 % 0 0 4 4 4 % 3 4 % 4 4 4 3 3 3 3 3 3 3 3 3 3 3 3 3 3 3 3 3 3 3 3 3 3 3 3 3 3 3 3 3 3 3 3 3 3 3 3 3 3 3 q 3 3 3 3 3 4 2 X # X # 2 3 3 3 3 3 3 4 3 3 4 3 3 3 3 4 3 3 3 3 3 3 4 3 3 3 4 3 3 3 4 3 3 3 i I 3 3 3 3 3 3 3 3 3 3 3 3 3 3 4 3 3 3 3 4 3 3 3 4 3 3 4 3 4 ",
"3 4 3 3 3 3 3 3 3 3 3 3 3 3 3 4 3 3 3 3 3 3 3 3 3 3 3 3 3 3 3 3 3 4 3 3 4 3 3 3 3 3 3 3 3 3 3 3 3 3 3 3 4 3 3 3 3 3 3 4 3 3 3 3 w 4 3 4 3 4 3 3 3 3 3 4 3 3 3 3 4 % 4 4 4 4 3 4 4 3 3 3 4 4 4 4 3 3 4 3 3 3 3 4 3 3 3 3 5 3 3 3 3 3 3 3 4 3 3 3 4 3 3 4 3 3 4 3 % 0 w % 4 % 4 4 3 3 3 3 3 3 4 3 4 3 3 3 3 4 4 4 4 4 3 3 3 3 3 3 0 w 4 0 3 4 3 4 3 3 4 3 3 3 3 3 3 3 3 4 3 3 3 4 3 3 3 3 3 3 3 3 3 3 3 3 3 3 3 3 3 4 3 3 3 3 3 3 3 3 3 3 4 3 4 3 4 3 3 3 3 3 3 3 3 3 4 3 3 4 3 3 3 4 3 3 3 3 4 3 3 3 3 3 # % X # # # # # $ # & & # * * # * # * # # # # & # # * # # # # * $ # # * $ # # # # * * # * # * # # $ # $ # $ # * $ * # * * # # & $ # # # # # # # * # # # $ $ $ $ $ $ $ # * # $ * # # # $ # # # # * # * # # # & # * # # * # # # X # # # & # * $ * $ # # & * # # # # # * $ # $ # $ # * $ # # $ & $ * # & # # $ # & # $ # * $ $ # $ # $ # # * # # # # # # $ # # # # * # * # # # & # # $ # # # $ * # # * * # $ # # # # * * # # $ # & * # # * # $ & # # # $ # $ $ $   $   $ $ * # * # $ $ # $ # # $ * # # # # # $ # # $ & # # $ # $ # # # # # $ # # # # # # $ $ $ $ # $ $ $ # # # # # # $ # $ # # # * # # # # & # # * * # # # $ $ # # # $ $ # # # # $ # $ # $ $ # # $ # $ # # # $ # & # & # * # $ # $ $ $ $ $ # # $ # # # # # * # * # # # $ # # * * # # # * # # $ # & # * # # $ $ $ # $ # # # $ $ $ $ $ $ $ $ # * $ * # $ # $ $ # # # # # # # # $ # & # # # # X 3 3 3 3 4 3 3 3 3 3 3 4 3 3 3 3 3 4 3 4 4 3 3 3 3 4 3 3 3 3 4 4 3 3 3 4 3 3 3 3 4 3 3 4 3 3 3 3 4 4 3 3 3 4 3 4 4 3 3 4 % 3 4 3 3 3 4 3 3 4 3 4 4 3 4 2 % # # # 2 3 3 3 3 3 3 3 4 3 3 4 4 3 3 3 3 3 3 3 4 3 3 3 3 3 3 3 3 3 3 3 3 3 3 3 3 3 4 3 3 3 3 3 3 3 3 4 4 3 3 3 3 3 3 3 3 3 3 4 4 3 4 4 3 3 3 3 3 3 3 4 0 4 4 3 4 4 4 3 3 4 3 3 3 3 3 4 % 4 4 3 3 3 4 4 3 3 3 3 3 3 3 4 3 3 3 3 3 3 3 0 0 4 4 3 3 4 4 3 3 3 3 % w % 4 3 4 3 3 3 3 3 3 3 3 4 3 3 3 4 3 4 3 3 3 3 3 3 4 4 3 3 3 3 3 3 4 0 0 w % 3 3 3 3 3 4 3 3 w 0 4 % 3 3 3 4 3 3 3 3 3 3 3 4 3 3 4 3 0 0 0 4 4 4 4 3 3 4 4 4 4 % 3 4 3 3 3 4 3 3 4 3 3 3 3 3 4 3 3 3 4 3 3 3 3 3 3 3 3 3 3 3 3 4 3 3 3 3 4 3 4 3 3 3 3 3 3 2 # X # X 3 3 0 3 3 4 3 3 3 3 3 3 3 4 3 3 3 3 3 3 3 4 3 3 3 3 3 3 3 3 3 3 3 3 3 3 3 3 3 3 3 3 3 3 3 3 3 3 3 3 3 3 4 3 3 3 3 3 3 3 3 3 3 3 3 ",
"3 3 3 3 4 3 3 3 3 3 3 3 3 3 3 3 3 3 3 4 3 3 3 4 3 3 3 3 3 3 3 3 3 3 4 3 3 3 4 3 3 3 3 q 3 3 3 3 3 3 3 3 3 3 4 3 3 3 3 3 4 3 3 3 4 3 4 3 3 3 4 3 3 3 3 3 3 4 3 4 4 4 4 4 4 4 3 3 3 3 4 3 4 4 4 3 3 3 3 3 3 3 3 3 3 3 3 3 4 3 3 3 3 3 3 3 3 3 4 3 3 3 3 3 3 3 3 3 0 0 5 0 4 4 4 4 3 4 3 4 3 4 3 3 3 3 3 3 3 4 % 4 4 3 3 3 4 3 3 3 4 4 4 4 3 % 4 3 3 3 3 3 3 3 3 4 3 3 3 3 3 3 3 3 3 3 3 3 3 3 3 3 3 4 3 4 3 3 3 3 3 3 3 3 3 3 3 3 3 4 3 4 3 4 3 3 3 3 3 3 3 4 3 4 3 4 3 3 3 3 3 4 3 3 3 3 3 3 3 3 3 3 4 3 X # X X # # # # # & # & # # # # # # $ * $ $ & # # # * $ & # # $ * # & # & # * # # # # * # # * # $ # # $ # # # * # * # # # # & # & & * # # * # # # # * # $ $   $ $ $ # $ # # $ # # # $ # $ * # # # # * # $ # & & # # * $ # X # # X # & # * # $ # # & & & * # # # # * # # $ # $ # # # # # # * # & # # # # # * * # # # # * $ # # # $ $ # $ # # * # * $ $ & # * # # # # $ * $ & # & * # * * # * # # $ # # # # # $ # # # # * # # & # # # # * $ # # & * # * $ $ $ $ $ $ $ $   # # * # $ # $ # * # # * $ # # $ # # # $ & # # * # & # & # * # * # & $ & $ * # # $ $ # # # $ # $ # # * # # # $ # * # * # $ # * # # & # # # # * * $ $ # # $ # $ $ * # # # # * $ # * # * # # $ $ & # # & # * $ # # $ # # # # $ # # # * # $ * # * # # # * # # # # # # # # # * # # * # # * # & # & # & $ # # * # * $ $ $   $ $ $ $ $ * # # # $ # $ # * # * $ # # * # & # & # # #     X 3 3 3 3 3 3 4 3 3 3 3 3 3 4 3 3 3 3 3 4 3 4 3 3 3 3 3 3 3 3 3 3 3 3 3 3 3 3 3 3 3 4 3 3 3 3 3 3 4 3 3 3 4 3 3 3 3 3 3 3 3 3 3 3 3 3 3 3 3 3 3 3 3 3 3 3 X # X # $ 3 3 3 3 3 3 3 3 3 3 3 3 3 3 3 4 3 3 3 3 3 3 3 3 3 3 4 3 3 3 3 3 3 3 3 3 3 3 3 3 3 3 3 4 3 4 4 3 3 4 3 3 3 4 3 4 3 4 3 4 3 3 3 3 3 3 3 3 3 4 0 3 3 4 3 4 4 4 3 4 3 3 4 3 4 4 4 4 4 4 3 3 3 3 3 3 3 3 3 4 3 3 3 3 3 3 3 4 3 4 0 0 % 4 3 3 3 0 4 3 4 3 4 4 4 4 3 3 4 3 4 3 4 3 3 3 3 3 3 4 3 3 3 3 3 3 3 3 3 3 4 3 4 3 3 3 3 3 w 4 3 4 3 3 3 4 3 3 3 3 3 3 4 0 3 3 3 3 3 3 3 3 3 3 3 3 3 3 3 3 5 4 4 4 4 4 3 3 3 4 4 4 3 3 3 3 3 3 3 3 3 3 3 3 3 3 3 3 3 3 3 3 3 3 3 3 3 3 3 3 3 4 3 3 3 3 3 3 3 3 3 3 4 3 4 3 3 3 4 2 X # X # 2 0 3 3 3 3 4 3 3 3 3 3 3 3 4 3 3 3 3 3 3 3 4 3 4 3 3 3 3 3 3 3 3 3 3 3 3 3 3 3 3 3 3 3 3 3 3 4 3 3 3 3 3 3 4 3 3 3 3 3 4 3 3 3 3 ",
"3 3 3 4 3 3 3 3 3 3 3 3 3 4 3 3 4 3 3 3 4 3 3 3 3 3 3 3 3 3 3 5 3 3 3 3 3 3 3 3 3 3 3 3 3 3 3 3 3 3 3 3 3 3 3 3 3 4 3 3 3 3 3 4 4 3 3 3 3 3 3 3 3 4 3 3 3 3 3 3 0 0 4 4 4 3 3 3 3 3 4 4 4 4 % 4 3 4 3 3 3 4 3 3 3 3 3 3 4 0 3 3 3 3 3 3 3 3 3 3 3 4 3 3 3 4 3 3 0 0 0 5 0 4 4 4 3 3 3 3 3 3 3 3 3 3 4 3 3 3 4 3 3 3 3 4 3 3 3 4 4 4 % 4 3 4 3 3 4 3 3 3 4 3 3 3 3 4 3 3 3 4 3 3 3 3 3 3 3 3 3 3 3 3 3 3 3 3 3 3 3 3 3 3 3 3 3 3 3 3 3 3 3 3 3 3 3 3 4 3 3 3 3 3 3 3 3 3 3 3 3 3 3 3 4 3 3 4 3 3 3 3 3 3 # X # # # # * $ & # & # # * $ * # $ # # # # # & * # # # $ & # & # & # & # & $ # * # # # # $ # $ # $ # # * # # $ # # # * * $ # & # # $ # # # * # * $ # # $ $ $ $ $ $ $ # * # # # * * # $ # # * # * $ # # # & # & # $ # # X # X # # # # & # # # # * # & # # # $ * # # * # # $ # $ $ * # * # # & # * # $ * # # $ # * # # $ $ $ $ # # # # # # * # # # & # $ # # * * # $ # # # & & # # # # # # # & $ # # * * # * # $ * # # # $ * # & * $ # # & # * # # # # # $ $ $ $ $ $   , * $ # $ # $ # $ # $ # # # * # * $ # * # # * $ # & # & # & $ # # & # & # # # * # $ $ # $ $ # $ # # * # $ & # * $ $ # # # # * # $ & # * # # $ # # $ # # $ # $ # # $ # * # # # # * # # # # * # # # # $ # & # # * # # $ $ # $ $ # $ * # # # * # # * & $ # & $ * # $ # * # * $ # # # * # * # # & # & # # # * # # # # $ $ $ $ $   $ $ $ # # * # $ # $ # # # # # * # # # & # & # # # # # 3 3 3 3 3 3 3 3 3 4 3 3 3 3 3 4 3 3 3 3 3 3 3 3 4 3 3 3 4 3 3 3 3 4 3 3 3 3 4 3 3 3 3 3 3 4 3 3 3 3 3 3 3 3 3 3 3 3 4 3 3 3 4 4 3 3 3 3 4 3 3 3 4 3 4 2 # X # # $ 3 3 3 3 3 3 3 3 3 4 3 3 3 4 3 3 3 4 3 3 3 4 3 3 3 4 3 3 3 4 3 3 3 3 4 3 3 3 4 3 3 3 3 3 3 3 4 4 3 3 4 3 3 3 3 3 3 3 3 3 3 3 3 4 3 3 3 4 3 3 0 3 4 4 3 4 4 4 3 3 3 3 3 3 4 4 4 % 4 4 4 3 3 3 3 3 3 4 3 3 3 4 3 3 3 4 3 3 3 3 5 0 w 4 3 3 5 0 3 3 3 4 4 4 4 0 3 3 3 3 3 3 3 3 3 3 3 3 3 3 3 3 3 3 3 4 4 3 3 3 3 3 3 3 4 3 3 3 4 4 3 3 4 3 3 3 3 3 3 3 3 3 3 0 3 3 3 3 3 3 3 3 3 4 3 3 3 4 3 3 0 4 4 % 3 3 3 3 4 4 4 3 3 3 4 3 4 3 3 3 4 3 3 3 3 3 4 3 3 3 4 3 3 3 3 4 3 3 3 4 3 3 3 4 3 3 3 3 4 3 3 3 3 3 3 3 3 4 4 2 X # # # 2 3 3 3 3 3 3 3 3 3 4 3 3 3 3 3 3 3 3 3 3 3 3 3 3 3 3 4 3 3 3 4 3 3 3 3 3 3 3 3 3 3 3 3 4 3 3 3 3 3 3 4 3 3 3 3 3 4 3 3 3 3 3 4 3 ",
"4 3 3 3 3 3 3 3 3 3 3 3 3 3 3 3 3 3 3 3 3 3 3 3 3 3 4 3 3 3 4 3 3 3 3 3 3 3 3 3 3 3 3 3 3 3 4 3 3 3 3 3 3 5 4 3 3 3 4 3 3 3 3 3 4 4 4 4 4 3 3 3 4 3 3 3 4 3 3 3 3 3 4 3 4 3 3 3 3 4 3 3 3 3 3 3 4 3 3 3 4 3 3 3 3 4 3 3 3 3 3 3 4 3 4 3 3 3 4 3 3 3 4 3 3 3 4 3 3 4 3 3 3 3 3 3 3 3 3 4 3 3 3 4 4 3 3 3 4 3 3 3 3 3 4 3 4 3 3 3 3 3 3 3 3 3 4 3 3 3 3 3 3 3 3 3 4 3 3 3 4 3 3 3 4 3 3 3 3 3 3 3 3 4 3 3 3 3 3 3 3 3 3 3 3 3 3 3 3 4 3 3 3 3 3 3 3 3 3 3 3 3 3 3 3 3 3 4 3 3 3 4 4 3 3 3 3 4 4 3 3 3 3 3 . # # # # # # $ * # * # # * # * # # # * * # # * * # # # # * # # $ # # * # # * $ * # # $ * * # # # # # # $ # # * # # * $ # * # # & & # * # # * # * # # * * $ * # * # # * # # $ * # * # # # # $ # # $ * # & # * $ * # # * #     # # # * $ * # # # * # * # * # # # * # * # # * # # # # # # $ & # # * $ * # # * # # # # # # # * # # # & # & # # # * # * # # * # # # # $ # * # $ * # * # * $ $ & # # * # * # # # * * # # # $ # * # # # # # * * # # # # * * # # # $ & # & # & # # # # * # * # # # * $ # * # # # $ # * & $ * # # & * # # # # # * # # * # # # * * # * $ # # $ & # $ # * # # # $ # # $ # # * # # # * # * # * # * $ # # $ # $ * # # * # # $ # # * # $ # # * # # * $ # # # * # * & * $ # # # * # # * * # # * # $ # # # $ # # # * $ # # * # # * # * # # & # * $ # * * # # # # # * # # * # * # * # * # * # # * $ # * # # $ # # * * # # & # & # & X # X 3 4 3 3 3 3 4 3 3 4 3 3 3 3 3 3 3 3 4 3 3 3 3 3 3 3 4 3 3 3 3 3 3 3 3 3 3 3 3 3 3 3 3 3 4 3 3 4 3 3 3 4 4 3 3 3 4 3 3 3 4 3 3 4 3 3 3 3 4 4 3 3 3 3 3 2 X # # % 2 4 3 3 3 3 4 4 3 3 3 3 3 4 3 3 3 4 3 3 3 3 3 3 3 3 3 3 3 3 3 3 3 3 4 3 3 3 4 3 3 3 3 3 3 3 3 3 3 3 4 3 3 3 3 3 3 3 3 3 3 3 3 3 4 3 3 3 4 3 3 3 4 3 3 3 3 3 3 3 3 3 4 3 3 3 4 3 3 3 3 3 3 3 4 4 3 3 3 3 3 4 3 3 3 3 4 3 3 3 3 3 3 3 4 3 3 3 3 3 4 3 3 3 3 3 3 3 3 3 3 3 3 3 3 3 3 3 3 3 3 3 3 4 3 3 3 3 3 4 3 3 3 3 3 3 3 3 3 3 3 3 3 3 3 3 3 4 3 3 3 3 3 3 3 3 3 3 3 3 3 3 3 3 3 3 3 3 3 3 3 4 3 3 4 3 4 3 3 4 4 4 3 3 3 3 4 3 3 3 3 3 3 3 3 3 3 3 3 3 3 3 3 3 4 3 3 3 3 3 3 3 3 4 3 3 3 3 3 3 3 3 3 3 3 3 3 3 3 3 2 # X # X 3 3 3 3 3 3 3 3 3 3 3 3 3 3 3 3 3 3 3 3 3 3 3 3 3 3 3 3 3 3 3 3 3 3 3 3 3 3 3 3 3 3 3 3 3 3 3 4 4 3 3 3 3 3 3 3 3 3 3 3 3 3 3 3 3 ",
"3 3 3 4 4 3 4 3 3 4 3 4 3 3 3 3 q 3 3 4 3 3 4 3 3 3 3 3 3 3 3 3 3 3 3 3 3 3 3 3 3 3 4 3 3 3 3 3 3 3 3 3 3 3 4 4 3 3 3 3 4 3 3 3 4 4 4 3 4 4 3 4 3 3 3 3 3 3 3 3 3 3 3 3 3 3 3 4 3 3 3 4 3 4 4 3 3 3 3 3 3 3 4 3 3 3 3 3 3 3 3 3 3 3 3 3 3 3 3 3 3 3 3 3 3 4 3 3 3 3 3 3 3 3 4 3 4 3 3 3 3 3 3 3 3 3 3 3 3 3 3 3 4 3 3 3 3 3 3 4 3 3 4 3 4 3 3 3 3 3 3 3 4 3 4 3 3 3 3 3 3 3 4 3 3 3 3 4 3 4 3 3 3 3 3 3 3 3 3 3 3 3 3 3 3 3 3 3 3 3 3 3 3 3 3 3 3 3 3 3 3 3 4 3 4 3 3 3 3 3 3 3 3 3 3 3 3 3 3 3 3 3 3 2 # # . . # # # * # # # # # # # $ * # # # # $ # # # # * # # # * # * # # # # * # # # # # * # # # $ * $ * # * # # # # * # # # # * $ # & & # # $ * # # # $ # # # # # # $ # # * # # # # # * # * # # * # * $ # $ # # # # $ # # # # # # # # # # $ # * # # # $ # # # $ # * # # # # # $ * # * # * * # # * # # # # & # # * # * * # # # $ * & # & # # * $ # # $ * # $ # # * * # # # * # # # # # # # * # # * # # $ # # * # # # $ # * # # * $ * # # # # $ * # # # # $ * # * # & # & # * # # * # # $ # # * # # # # * # * & # # # # # # * $ $ # # * # * # # $ # # * # # # # # # # * # # * # $ # # * * # * # * # # # * # # # # # # $ # # * # * # * # # # # # * # * # # # # * * # $ # # # * # * # # # # # # # # * # * # $ # # # $ # # # # * # # * # * # # * # # # $ # # $ # $ $ # # # # # # $ $ * # * # # # # # $ # $ # # # # * # # # # # * # * # # # # $ & # & # # X # X X 3 3 3 3 3 3 3 3 3 3 3 q 3 3 3 3 3 3 3 3 4 3 4 3 3 3 3 3 3 4 3 4 3 3 3 3 3 3 3 3 3 3 3 3 3 3 3 3 3 3 4 4 % 4 3 3 3 4 3 3 3 3 3 3 3 3 3 3 3 3 3 0 3 3 3 2 # X X X 2 3 3 4 3 3 3 3 3 4 3 3 3 3 3 3 3 3 3 4 3 3 3 4 3 3 4 3 3 4 3 3 3 3 3 3 3 3 3 3 3 4 3 3 3 3 3 3 3 3 3 3 4 3 3 4 3 3 3 4 3 4 3 3 3 3 3 3 3 4 3 3 3 3 3 3 3 4 3 4 3 3 3 3 3 3 3 3 4 3 4 3 3 3 3 3 3 4 3 3 3 3 3 4 3 3 3 3 3 3 3 3 3 3 3 3 3 3 3 4 % 3 3 3 3 3 3 3 3 3 3 3 3 3 3 3 3 3 3 3 3 3 3 3 3 3 3 3 3 3 3 3 3 3 3 3 3 3 3 3 3 3 3 3 3 3 3 3 3 3 3 3 3 3 3 3 3 3 3 3 3 3 3 3 3 3 3 3 3 3 3 3 3 3 4 3 3 3 4 3 4 3 3 3 3 3 3 3 3 3 3 3 3 3 3 3 3 3 3 3 3 3 6 3 3 3 3 3 3 3 3 3 3 3 3 3 3 3 3 3 3 3 3 3 3 3 3 3 3 4 2 X # X # 2 3 3 3 0 3 3 3 3 3 3 4 3 3 3 3 3 4 3 3 3 3 3 3 3 4 3 3 3 3 3 3 3 3 3 3 3 3 3 3 3 3 4 3 4 3 3 3 3 3 3 4 3 4 3 3 3 4 3 4 3 3 3 3 4 ",
"3 3 3 3 3 4 3 3 3 3 3 4 3 3 3 3 3 3 3 3 3 3 3 3 3 3 4 3 3 3 3 3 3 3 3 3 4 3 3 4 3 4 4 3 4 3 3 3 3 3 3 q 3 3 4 4 4 3 3 3 3 3 3 3 4 3 3 4 3 3 3 3 3 3 4 4 3 3 3 4 4 3 3 3 3 3 3 3 3 3 3 3 3 4 3 3 3 3 3 3 3 4 3 3 3 3 4 3 3 3 3 3 3 4 3 3 3 3 3 3 4 3 3 3 3 3 4 3 3 3 3 4 3 4 3 3 3 3 3 3 3 3 3 3 3 3 3 3 3 3 3 4 3 3 3 3 3 3 3 3 4 3 3 3 3 3 3 3 3 3 3 4 3 4 3 3 3 3 3 3 3 4 3 3 3 3 3 3 3 3 3 3 3 3 3 3 3 3 3 3 3 3 3 4 3 3 5 3 3 3 3 4 3 3 5 3 3 3 3 3 3 4 3 3 3 3 3 3 3 3 3 3 3 3 3 3 3 4 3 3 3 3 3 3 # X . # # # # # # # * # # * $ # # * # * # * $ & # $ # * # # * $ # * $ * $ # & # * $ * # * # * # # # # * * # $ # # $ # # # # # # $ # # $ # # # # * # * # # # * # # $ * # # * # * # # # # * # # * # # # # # * * # # * * # # # #   # # * # * # * $ # # # * # * # * # # $ * * # # # * # # $ # # * $ # # * # # & # $ # * # & $ * # # # * $ & # * # # $ # # # * # * # # # # * # # * # # $ * # # # * $ # # * # $ # # # * $ # # * $ # # # * $ * # # $ # $ # # # # # # $ # * # $ # # * $ # # * # # $ # # * # * $ # # # $ & # # $ # # # # * # # $ * # # $ # * # * # $ * # * # * # # # # # $ # # # # # # * # $ # # $ # * # # * # # # # * # # # # * $ # # # # * $ * # # # # # # $ * # # $ * # $ # & # # # * # # $ # $ # # * # * # * * # # * # $ # # # * * # * # # $ * $ & # # * $ * # # $ # # # # # $ # # # # * # $ * # * $ # * $ * # # # * $ # # # # & # & X # X & & 3 3 3 3 3 3 3 4 3 3 3 3 3 3 3 3 3 3 3 3 3 3 4 3 3 3 3 3 4 3 3 4 3 4 3 3 3 3 3 3 3 3 3 3 3 3 3 3 3 3 3 4 4 4 3 3 4 3 3 3 3 3 4 3 3 3 3 3 4 3 3 3 3 3 3 3 # X # # % 3 3 3 3 3 3 3 4 3 3 3 3 3 3 4 3 3 3 3 3 3 3 3 3 3 3 3 3 3 3 3 3 3 3 3 3 3 3 4 3 3 3 4 3 3 3 4 3 3 3 3 3 4 3 3 3 3 3 4 3 3 3 3 3 3 3 3 4 3 3 3 3 3 4 3 4 3 3 3 3 3 3 3 3 3 3 3 3 3 3 4 3 3 3 3 4 3 3 3 3 3 3 3 3 3 3 3 3 3 4 4 3 2 2 2 2 2 2 % 3 % 2 2 2 2 2 2 2 2 2 2 2 2 2 2 2 2 2 2 2 2 2 2 2 2 2 2 2 2 2 2 2 $ O 2 2 2 2 2 2 2 2 2 2 2 2 % 3 % 2 2 2 2 2 2 2 2 2 2 2 2 2 2 2 2 2 2 2 2 2 2 2 2 2 2 2 2 2 % 2 2 2 2 2 2 2 2 2 & $ 2 2 2 2 2 2 2 2 & 2 & 2 2 2 3 % 2 2 2 2 2 2 2 2 & 2 2 2 2 2 2 2 3 3 3 4 4 3 4 2 # X X # 3 3 3 3 3 3 3 3 3 3 3 3 3 3 3 4 3 3 4 3 4 3 3 3 3 3 3 3 3 3 3 3 3 3 4 4 4 5 3 3 3 4 3 3 3 3 3 3 3 3 3 3 4 3 4 3 3 3 4 3 4 3 3 3 3 ",
"3 4 3 3 3 3 3 3 3 3 3 3 q 3 3 3 3 3 3 3 3 4 4 3 3 3 3 3 3 3 3 4 3 3 3 3 3 3 3 3 3 3 3 3 3 3 4 3 3 3 3 3 3 3 4 3 3 3 3 3 3 3 4 3 4 3 4 % 3 3 4 3 4 4 4 4 4 3 3 3 3 3 3 4 3 3 3 3 3 4 3 3 3 3 3 3 3 3 4 3 3 3 3 3 4 3 3 3 3 3 3 3 3 3 3 3 3 3 q 3 3 3 3 4 3 3 3 3 4 3 3 3 3 3 4 3 3 3 4 3 3 3 4 3 3 4 3 3 3 4 3 3 3 3 3 4 3 3 3 3 3 3 4 3 3 3 3 4 4 3 3 3 3 3 3 3 3 3 4 3 3 3 3 3 3 3 3 3 3 4 3 3 3 3 3 4 3 3 3 3 3 3 3 3 3 3 3 3 4 3 3 3 3 3 3 3 3 3 3 3 3 3 3 3 3 3 4 3 3 3 4 3 3 4 3 3 3 3 3 3 3 3 3 2 # # # # # # # $ # * $ # # # * # # $ # # # # # # * # $ # * # # # # # # # & & # & # # # # # & $ # * # # # # # # * # * # * * # * # # # # # # * # $ $ # # $ # * # # # * # $ # $ # # * * # $ # $ # # # * # * # # # $ # # # # #   # # # # # # # # # # $ * # # # * # # # * # # # # # * # $ # * # $ # # $ * # # & # & # $ # # $ # # * # # # # # $ # # * * # * # # # # # # * $ # # * # # * # # # # $ # # $ * # # # # * * # # * # # # * # # # # # * # & # # * * # * # # * # # # $ # $ # # $ * # # # * # * # # # # * # # * # & # $ # # # * # # # * # # * # $ # # $ * # # & $ # # $ # * # * * # * # * # # $ * # # * # * # $ # # * $ * # # # * # $ # * # * # # # # # # # # # * # & # * # # # * # & # $ * # # # * # # # * # # # # $ # # $ # # # * # * # # $ # # # * # # # # * # # # # * # & # # * $ * # * * # # # # * # # # # # # # # * # # $ # * * # # * & & & X # X X 3 3 3 3 3 4 3 3 3 3 3 3 3 3 3 3 4 3 3 3 3 3 3 3 3 4 3 3 3 3 4 3 3 3 3 3 3 3 2 3 4 3 3 3 4 3 3 3 3 3 3 4 4 3 3 3 3 3 3 4 3 3 3 3 4 3 3 3 3 3 3 3 3 3 3 2 # # X # 2 4 3 3 3 3 3 3 3 3 3 3 3 3 4 3 3 3 3 3 3 4 3 3 3 3 3 3 4 4 3 3 3 4 3 3 3 4 3 3 3 3 4 3 3 3 4 3 3 3 3 4 3 3 3 3 3 3 4 3 3 3 3 4 3 3 3 3 3 3 3 4 3 3 3 3 3 4 3 3 3 4 3 3 3 4 3 3 3 4 3 3 3 3 4 3 3 3 3 3 3 3 4 3 3 4 3 4 3 3 3 3 3 & % 2 # 2 # % 2 % 2 2 % 2 % 2 2 X & 2 2 X 2 & $ # $ O 2 2 X 2 % 2 % % 2 % 2 & & # & & & & & # 2 2 # 2 2 2 X % 2 % 2 % 2 % 2 2 2 X & 2 2 # 2 & & & & & $ O X 2 2 X 2 2 2 X & % % % % % 2 % 2 & & $ # & & & & & & & & & $ & & % 2 % 2 & # O X # 2 # 2 $ O 2 X % 2 % 2 3 3 3 3 3 4 4 2 X # # X 2 0 3 3 3 3 3 4 3 3 3 3 4 3 3 3 3 4 3 3 3 3 3 3 3 3 3 3 5 2 3 2 2 3 3 q 3 3 3 3 3 3 4 3 3 3 3 3 3 4 3 3 3 3 3 3 3 3 3 3 3 3 3 4 3 ",
"3 4 3 3 3 3 3 3 3 4 3 3 3 3 3 3 3 3 3 3 3 3 3 3 3 3 3 3 4 3 3 4 3 3 2 2 % 3 3 3 3 3 4 3 3 3 3 3 3 3 3 3 4 3 3 3 3 3 3 4 3 3 3 4 3 3 3 3 3 3 3 3 3 3 3 4 3 3 4 3 3 3 3 3 3 3 3 3 3 3 4 % 3 4 3 3 3 3 3 3 3 3 3 3 3 3 3 4 3 2 5 3 3 3 % 3 3 3 3 3 2 4 3 3 3 3 3 3 3 3 % 3 4 4 4 3 4 3 3 3 3 4 3 3 3 3 3 4 3 3 3 3 3 3 3 3 3 3 3 4 3 3 3 3 4 3 3 3 3 3 3 3 3 % 3 3 2 2 3 3 4 3 3 3 4 3 3 3 3 3 3 3 4 3 3 3 3 3 3 2 3 3 3 3 3 3 2 3 3 3 3 3 3 3 3 3 3 3 3 3 4 3 3 3 3 4 3 3 3 3 3 3 3 3 3 3 3 3 3 3 3 3 3 3 # #     # * # # * $ * # * # # * * $ * # $ # # # # * # # # # # # # # # # # # $ # # & $ # # $ $ * # # # # # * # * # # # # # # # # # * 0 T , # $ # $ # # # # # # # # # # # # # # # # # * # * # # # # * # * * # * # & # & # # # # . # # # # * # # * # # $ * # # * # # * # * * $ # * # # * # # # $ # # # # # # * # # # # # # # # $ * * # # $ # # # * # * # # * # # # # * # * # * # # * # # # # * # * # # * # # * # # $ # # $ * $ * # $ # # * * # # * # $ * # # * # # # # # # # # # # * # * # # # * $ * # & & # * # # # # # * R r # # # * # # * # # # # # & # # * # # $ & # # # # & # # * # # # # # # # # $ # # # # # # # # # # # * # # $ & # $ & $ # # # # # # # # # # # # * # * # # # & # & # * * # # * # * # # * # # * * # # $ * # # # # $ * # * # # * * # * # # * # # $ # # & # * * # * # # # # * # $ # # # $ * # # # $ * # $ # # # * # # # # * # X # X & X 3 4 3 3 3 3 3 3 3 3 4 3 3 3 4 3 3 3 4 3 3 3 2 3 2 3 3 3 3 3 3 3 3 3 4 3 3 i q.y 3 3 3 3 3 3 3 4 3 3 4 3 3 4 3 4 4 4 4 3 3 3 4 4 3 3 3 3 3 3 4 3 4 3 3 2 # # # X 2 3 3 3 3 3 3 3 3 3 3 3 3 3 3 3 3 3 4 3 3 3 4 3 3 3 3 4 3 3 3 3 4 3 3 3 3 3 3 3 3 3 3 3 3 4 3 3 3 3 3 3 4 3 3 3 3 3 3 3 3 4 3 3 3 3 4 3 3 3 3 3 3 3 4 3 4 3 3 3 4 3 3 3 3 3 3 3 3 3 3 3 3 4 3 3 3 3 3 3 3 3 3 3 3 3 3 3 3 3 3 3 3 & & % & O # 2 # # 2 2 # 2 % & 2 & & & & & $ & & & & & & & & & & 2 2 2 O $ # & & & & & & & & 2 X 2 2 2 % & 2 # 2 2 # 2 2 X 2 & & & & & & # $ & & & & & & & & # & & & & & & & & & & & 2 & # 2 & # 2 O & 2 # # & & & & & & & & 2 % 2 2 X 2 & & 2 % # # $ & & & 2 2 2 & 2 3 3 3 3 3 0 2 # # X # 2 4 3 3 3 3 3 3 3 3 3 q 3 3 3 3 3 3 4 3 5 3 3 3 3 4 y / R ` } } } } ] / / L 4 3 3 3 3 3 3 3 3 4 3 3 4 3 3 3 4 3 3 3 4 3 4 3 3 3 3 ",
"3 3 3 4 3 4 3 3 3 3 3 3 3 3 4 3 3 3 3 3 3 3 3 3 3 3 3 3 3 3 3 3 q U 5.( ( U i 3 3 3 3 3 3 3 3 3 3 3 4 3 3 3 3 4 4 3 3 3 3 3 3 3 3 4 3 3 4 3 4 3 3 3 4 % 3 3 3 3 3 4 3 3 3 4 3 4 3 0 4 4 3 3 3 3 3 3 4 3 3 3 3 3 3 3 3 3 i i w 3 3 w U I 3 3 3 i I 4 4 3 3 3 3 3 3 3 w e 4 4 3 3 3 3 3 4 4 % 3 3 4 3 3 3 3 4 3 3 4 3 4 3 4 3 3 3 3 4 3 3 3 3 3 3 3 3 3 3 4 U ( ( 5.U i 5 3 3 3 3 3 3 3 4 3 3 3 3 3 3 3 4 4 3 e ( U i 4 3 3 i T e 4 3 4 U i 3 3 3 3 3 3 3 3 4 w 4 3 3 3 3 4 3 4 3 3 3 4 3 0 3 3 3 3 4 3 3 #   # # # # $ * # # # # # # $ # # # # # # * # * & # # * $ # 3 w H P e * $ # # & & # # * * # # # * # * $ # # # # * $ # * * $ * # # # P ].e # # # $ & * # $ * # * * # * # $ * # * # $ $ # # $ * # # # # $ # # $ # # & # * # . # # # # # # # $ # # * # # # * # # $ # # $ # # # # # # * # # $ $ # 3 H w * # # # * 0 e r * # * # # # # # * * * * # # # # # $ # # $ * # $ # # $ # * $ # # $ * # $ # # * # $ # # * # $ # # * # # # # $ * # # # # # $ # * # # & # $ * # 3 e e e e r * # # # # # # * # # # & # # # $ # * 3 $ $ * 8.Y # * $ # # * $ # # * $ * # & # $ * # # # * # * * * # # # * $ * $ * # * * # # $ * # * * # * # # $ * # # * # * # # & # * r H e y P e P r * # # # # * $ & # & # # # # # # # $ # # * # # $ # # # # * $ # # * # * $ # # $ # # # # # $ # # * # # * * & & # # # # # * # # # # * * # * # # # * # # # # * * # # # $ * # & # # # # # X # 3 3 3 4 3 4 3 4 3 3 3 3 3 3 3 3 4 3 3 3 q T ( ( ( U i 3 3 3 3 3 3 3 3 3 3 <.hX5.2 3 3 3 3 3 3 3 3 3 3 3 3 3 3 4 4 4 4 3 3 4 4 0 3 4 3 4 3 3 3 3 3 3 4 2 # X # # % 3 3 3 4 3 4 4 3 3 4 4 3 4 3 4 3 3 3 3 3 3 3 3 4 3 3 3 3 3 3 3 3 3 3 4 3 4 3 4 3 3 3 3 3 3 3 3 4 3 3 3 3 3 3 3 4 3 3 3 3 3 3 4 3 3 3 3 3 4 3 3 3 3 3 3 3 3 3 3 3 3 3 4 3 4 3 3 3 4 3 3 3 3 3 4 3 3 4 4 3 4 3 3 3 4 3 3 3 3 3 3 2 & & 2 # # $ % 2 2 # % 2 & 2 % 2 & & & & & # & & & & & & & & & & % 2 # 2 # # % 2 & & & & & & % 2 2 2 # 2 & & 2 2 # # % 2 2 2 & & & & 2 & & O & & & & & 2 & & 2 % $ O & & & & & & & & % 2 X 2 2 & & & & % # O & & & & & & & & % 2 # 2 2 2 & & # 2 O & & & & & 2 % % 2 3 3 3 3 3 3 3 2 X # # X 2 0 3 4 4 3 4 3 3 4 3 3 3 3 3 3 3 3 3 3 3 4 q u L } &.>.L.%X2X,X>X%X%XL.L.>./ t u q 3 3 3 4 3 3 3 3 3 3 3 3 3 3 3 3 3 3 3 3 3 4 3 ",
"3 3 3 3 4 3 4 3 3 3 3 3 3 3 3 3 3 3 3 3 3 3 3 3 3 3 3 3 3 3 3 3 U sXdXsXsXeXg.I 4 4 3 3 3 3 3 3 3 4 4 3 3 3 3 3 3 3 4 3 4 3 3 3 3 3 4 3 3 3 3 3 3 4 4 3 4 3 3 3 4 4 4 4 3 3 4 3 3 3 3 3 4 3 3 4 3 3 3 3 3 3 3 3 3 3 3 3 e.[.4.w 3 1.6XgXw 3 3 h.6X5.4 3 3 3 3 3 3 5 ( 1.w 4 3 3 3 3 3 3 4 3 4 3 3 3 3 3 3 3 4 3 3 3 3 3 3 3 3 3 4 3 4 3 3 3 3 3 3 3 3 3 w wXfXsXsXtXQ.5.5 4 3 3 3 3 3 3 3 3 3 3 3 3 3 3 3 3 q.sXwXh.i 3 i g.sX1.3 % U eXq.i 3 3 3 3 3 3 3 w 4.i 4 3 3 4 3 4 3 3 3 4 3 3 4 3 3 3 3 3 3 2 # # # # # # # # # * * # # * * # # # * # * # # * # & * # # $ R t.~._.^.E , $ # & # & # # # * # * # $ * # $ * # * # * # $ # # * $ # * L _.e # # # # # # # # # # # * # # # * # # $ # # * # # # # * # * # # # # # * & # & # # X . # # # * # # * # # # * # * # # # # # * # # $ # # * # $ # # # # # R `.^.e # $ # 3 7._.w.0 # * # # * # $ * R H $ * # # * * # * # # * # * # $ # # # # * # # * # * # $ # * # * $ # # # * # * # # # # # * # # * # * * # # # $ # # # # , T p.~._.^.6.0 # # * * # $ # # # # $ # & $ # $ L H 2 * # & & # $ # # # # * # # * & # & # # # # # # * # # e R * # # # # # # # # # # # # * # $ # # # # # # $ # # # $ # # # * # $ # % q.^.`.`.'._._.6.* # # # # # # $ # $ $ * # $ * $ * # # * * # $ # # * * # # # # # * # # # # # # # * # # # * * # & # # r R 3 * # # $ * # * # $ # # # # # # # # * # $ # * # # # # * # # # # # * # # X # X X 3 3 3 3 4 3 3 3 3 4 3 4 3 3 3 3 3 3 3 3 T sXdXsXpXwXf.i 5 4 4 3 3 3 3 3 3 5.fX5.2 3 3 3 3 3 3 3 3 3 3 4 3 3 3 3 3 3 3 % 4 4 4 3 3 4 3 3 3 3 3 4 3 3 4 3 # X # # & 3 3 3 3 3 4 3 3 3 3 4 3 3 3 3 3 4 3 4 3 3 3 3 3 4 3 3 3 3 3 3 3 3 4 3 4 3 3 3 3 3 3 4 3 3 3 3 3 3 4 3 3 3 3 3 3 3 3 3 3 3 3 3 3 3 3 3 4 3 3 3 3 3 3 3 3 3 3 3 3 3 4 3 4 % w 3 4 4 3 4 3 3 3 3 3 3 3 4 3 3 3 3 4 3 4 3 3 3 3 3 3 & & 2 2 & 2 O $ & 2 $ O & & 2 # # O & & 2 O & & & & & 2 2 # O # 2 X & & 2 # 2 # # & & & & & # $ X 2 # # & & % & O $ & & % 2 & & $ O # 2 X 2 & & & & 2 % 2 2 & & # # O $ & & & & & & $ O 2 2 2 % # # # 2 & & & & & & O # & & O # 2 # % & & & 2 & & & & & & & # 2 2 2 2 3 3 4 3 3 4 2 # X # # 3 3 3 3 4 3 3 3 3 3 4 3 3 3 3 3 3 3 3 4 e L / >.$X,X,X,X,X,X,X,X,X,X,X,X,X,X,X%X>.K q q 4 4 4 3 4 3 3 3 3 3 3 3 4 3 3 3 3 3 3 3 3 ",
"4 3 3 3 3 3 3 3 3 4 3 3 3 4 4 3 3 3 3 4 3 3 3 3 3 3 3 3 3 3 3 3 U sXs.( ( e.6X[.( % 3 3 3 3 3 3 3 3 3 3 3 3 3 3 3 3 3 3 3 3 3 3 3 4 3 3 3 4 3 3 3 3 3 3 3 3 4 3 3 4 4 4 3 3 3 3 3 3 3 3 3 3 3 3 3 3 3 3 3 3 3 3 3 3 3 3 4.[.g.q 3 r.sXtXU 5 3 /.gXe 4 3 3 3 3 3 3 % s./.y 3 3 4 3 3 3 3 3 3 3 3 3 3 4 3 3 4 3 3 3 4 3 3 3 3 4 3 3 3 3 3 3 4 3 3 3 3 5 3 w tX/.5.5.4.[.6X3.3 3 3 3 3 3 3 3 3 3 3 3 3 3 3 3 ( h.6X)./.5.2 U gXfXr.w 3 5.fX1.3 3 3 3 3 3 3 3 U gX( 4 3 3 3 3 3 3 3 3 3 3 4 3 3 3 3 3 3 3 3 #   # # # # # * # # $ # $ # # # # * $ # # $ # # # $ # # $ q y.w.P e Y P = # $ & # # # $ # # # # # # # # # # # $ # # # # # # # # $ # P '.P # # # * # # * * * # $ # $ # * # # # * # * # # * # # $ # # * # $ * # # # & # # # # . # # # # $ # # * $ # # # # * # $ * # # * # # * # # # * # * # & # T  X!.R * # $ 0 d. X8.r # # # # # # $ * t.[ $ # # # $ # # $ # # # # # # * # * # # # $ # # # # # * # # # # # # * # * # # # # * * # # $ # # $ # # # # * # # # # 3 E T.7.P e Y P , # # $ # # # # * # * # & # # # $ 8.6.* # & # & # * # * # $ # # # $ # & # $ # * $ # # # # # E y., * $ * # # * # # * $ # # # * # # * * $ # * # # * # # # * * # # # $ $ w e Y w.d.P e 0 # * # $ # * # # # $ $ # # # # # # # * # # # # # # # # # * # * # $ # # * # * # $ # # * # # # # # # # R p., # # * # $ # # # # * * # # * # $ # # * # # # * # $ * # # # * $ * # # # # X # X 3 4 3 3 3 3 3 3 3 3 3 3 3 3 3 3 3 4 3 2 5.dXe.( ( r.6X[.i 3 4 3 3 3 3 3 3 5.dX5.2 3 3 3 3 3 3 3 3 3 3 3 3 3 3 3 3 3 3 4 4 4 4 3 3 3 3 3 3 3 3 3 3 3 3 2 X # X # 2 4 3 3 3 3 3 3 3 3 3 3 3 3 3 3 3 3 3 3 3 3 3 4 3 3 3 3 4 3 3 4 3 3 3 3 3 3 3 3 3 4 3 3 3 3 3 4 3 3 3 4 3 3 3 3 4 4 3 3 3 4 3 3 3 4 3 3 3 4 3 3 3 4 3 4 3 3 3 4 3 3 3 3 3 3 4 3 3 3 3 3 3 3 4 3 3 3 3 3 3 3 3 3 3 3 3 3 3 3 3 3 2 & & # & & # # # & # # 2 2 X # $ # & & & X & & & & & & & % 2 # # 2 # & 2 % 2 # # O & & & & & # O 2 2 # O & & & & 2 2 X & & & & # # % 2 # & & & & & & 2 2 X # & & 2 # X & & & & & & # # & % 2 # 2 # $ O & & & & & & & # & & & $ # % 2 2 & & & % & & & & & & & 2 # X 2 3 4 3 3 4 3 3 2 X # # X 2 3 3 3 3 3 3 3 3 3 3 3 3 3 3 3 3 3 3 e } L.%X%X,X,X,X,X,X,X,X,X,X,X,X,X,X,X,X%X:.~ ' D q 3 3 3 3 3 3 4 3 3 3 4 3 3 3 4 3 3 3 3 4 ",
"3 3 3 4 3 3 3 3 3 3 4 4 4 3 3 3 4 0 3 3 3 4 3 3 4 3 3 3 3 3 4 3 U sX4.4 3 e q.pXe.w 5.g.4.).s.s.f.( 4 3 ( e.e.4 3 3 3 3 3 3 3 4 3 4 3 3 3 3 3 3 3 3 3 4 3 3 3 4 4 4 4 3 3 3 3 3 4 3 3 4 3 3 3 4 3 3 3 4 4 3 3 3 4 3 4 3 ( g.[.e 6 Q.dX[.9.w I ).[.3 3 i r.{.[.r.w 9.rXfXgX/.i 3 4 3 3 3 4 3 3 3 3 4 3 4 3 3 4 3 3 4 3 3 3 3 3 3 3 3 4 3 3 3 3 3 4 3 3 3 e rXh.q 3 e 3.rXg.i I Q.4.Q.g.e.Q.5.w 3 i e.s.e 3 4./.r.e.6X4.2 5.sXwXh.U w 9.tX( 2 5 1.).gXg.U i /.jXeX[.4.3 3 3 3 3 3 3 3 3 3 3 3 3 3 4 3 4 3 X # X X # % # & # & # & # * # # # $ # * # # * # # $ # # * L T.6.# # 3 $ # q [ y.y.0.P # q 9.[ 0.p.6.y 2.y.y.[ 3 $ $ <.6.<.i.t.Y 0 # P `.w # 3 P w.i.6.e # , 3.y.i.7.P % # # $ # # * # # $ # # * # * # # # $ # * # * # # X # X # # # # & # & # & # * # # * # # * # # * # $ # * # * # $ # & # # T ].i.1.w # $ P i._.7.w * e 7.y.w.T 0 2.`.~.y.3.% q 3.p.t.[ 3 $ E 3.T t.[ 0 P 0.y.y.2.w $ * # # $ # # * # # # $ # # # * * # # # $ $ * # * # # $ # * $ * # # # r d.0.i * # * 0 $ = Y t.p.6.e $ y 0.[ 0.i.6.e 3 <.!.~.i.6.q 0.T # r 7.<.0.i.3.e 3.y.y.E 2 # * = [ y.y.1.0 P d. Xp.w.e * Y e.p.6.e # e 8.R 0.6.y 0 3.y.i.7.I * # $ # # # * # # # # # $ # # w 6.t.0 # # $ P 0.y.9.P $ 0 7.2.6.d.9.y <.y.y.[ 3 $ $ <.6.[ y.t.T 3 # % e 6.y.w.T $ 2 1.<.[ t.E = H 6.i.y.6.q P p. Xi.w.P T 6.$ # # 2.4.* 3 6.T 3.w.R $ 0 [ p.y.2.0 # # # # & # # $ * # # # . # # # 2 3 3 3 3 3 3 3 4 3 3 3 3 3 4 3 3 3 3 2 5.sX1.3 3 i e.sX4.w 5 1.).6Xg.( 3 <.fX5.3 i r.).6Xg.( ( g.( w 3 U r.r.e 3 3 3 3 3 3 3 3 3 3 3 3 3 3 3 3 3 3 3 3 o # # # $ 3 3 3 3 3 3 3 4 3 4 4 3 3 3 3 3 2 4 4 3 3 3 3 3 3 4 3 3 3 3 3 3 3 4 3 3 3 3 3 3 3 3 3 3 3 3 3 3 4 3 3 3 3 3 3 3 3 3 3 3 3 3 3 3 3 3 3 3 3 3 3 3 3 3 3 3 3 3 3 3 4 3 3 3 3 3 q 3 3 3 3 4 3 3 3 3 3 3 3 3 q 3 3 3 3 3 3 3 3 3 4 3 2 & O $ & & & $ # # & & & & # # % & # 2 # # 2 % 2 % & & & & & & & & & & # # % 2 & & & & & & # % & & & & & & 2 X 2 O $ # 2 # % & & & & & & & & & & & & & & & $ # 2 % & 2 2 % & X 2 2 # 2 # & & X & # # O X 2 & # % & & & & & & & & # & & & & X & # $ 2 2 & & & & & & 3 3 3 3 3 3 0 2 # X # # 2 0 3 3 3 4 3 3 3 3 3 3 3 3 3 3 3 3 L >.%X,X,X>X>X>X>X>X>X>X>X>X>X>X>X>X>X>X>X$X;.....{ _ t 4 3 3 3 3 3 3 3 3 3 3 3 4 3 3 3 4 3 3 ",
"3 3 3 3 3 4 3 4 3 3 4 4 3 3 3 4 4 % 3 3 4 4 3 3 3 3 3 4 3 3 3 3 U sXq.w 3 2 e wXg.U e.fX/.g.9.s.{.r.e 2 e.{.h.4 3 3 3 3 3 4 3 3 3 3 3 3 3 3 4 3 4 3 3 3 3 3 3 3 4 4 3 4 3 3 3 3 3 3 3 3 3 3 3 3 3 3 3 3 3 3 3 3 3 3 4 4 w s.tXi e ).gXs.W.y 1.).f.3 5 f.[.).).{.4.4.eXdX/.r.e 3 3 3 3 3 3 3 4 4 4 % 4 4 3 3 3 3 3 3 4 3 3 4 3 3 3 3 3 3 4 3 3 3 3 3 3 3 5 tXf.e 3 6 4 [.[.( <.dX).Q.e.q.6Xf.i 2 1.{.g.i 3 h.6XI 5.tXe.3 4.uXg.Q.1.i h.{.I 2 4.[.)./.gXh.1.f.zX{.g.1.3 3 3 3 3 3 3 4 3 4 3 3 3 3 3 3 3 3 # X # # # $ & # & # & # $ # # * * # $ # # $ * # # * * # $ r i.p.e # # # # r 2.8.0.f.6.0 P `.y.7.y.d.y.q.7.i.t.I $ 3 y.Q.6.8.y.y.R # P `.e # R y.y.w.i.1.H R i.0.0.3.I $ * # * # # # * # # * # # $ # # * * # # # # $ * # # # # X X # & # & # & # # # # $ * # # * # $ $ # # # # # * # # * # & # E ~.3.y.P # q <.0.!.7.0 w 0.e.w.y.0.P [ !.E.7.E q 6.y.w.e.y.I 0 e.!.7.7.Y y 6.p.7.0.<.q # # # * # # * # # * # # * $ # # # # * # * # # # # # $ # # # # # # # $ P '.Y $ # # # # # T y.w.q.i.<.0 Y `.0.7.w.i.8.* Y ^.!.9.<.w ~.6.# P `.t.8.y.d.t.0.0.d.t.P $ * [ t.w.w.i.E R p.'.q.3.0 Y y.t.q.i.<.0 T `.w.8.E P Y i.0.8.6.I # # # * # * # # $ * # * # $ # r 7.y.0 # # e 0.t.0.i.7.e e _.i.6.t.d.t.0.9.p.p.Y 2 * w.~.6.0.y.p.Y $ 0 7.y.a.y.y.P 0 d.E.7.6.P * P 3.8.w.E.T P t. Xw.6.P 0.T.* # # t.d.* w !.d.7.2.P 3 3.y.0.w.p.Y 3 # # * # * # & # # $ # # # X # 3 3 3 4 3 3 3 3 3 3 3 3 4 3 3 4 3 3 3 2 5.sX4.q 3 2 i eXg.I 5.).)./.gXh.I 5.fX5.2 U h.g./.eXs.9.6Xh.i % 4.{.h.e 3 3 3 3 3 5 3 3 3 3 3 3 3 4 3 4 3 3 4 3 # # o # & 3 3 3 3 3 3 3 & 3 & 2 6 2 3 3 <.4.3 3 3 3 4 3 3 3 3 3 3 4 3 3 3 3 3 3 3 3 3 3 3 3 4 4 3 3 3 3 3 3 3 4 3 3 3 4 3 4 3 3 3 3 3 3 3 3 3 3 3 3 3 3 3 3 3 3 3 3 3 3 3 3 3 3 4 3 3 3 3 3 3 3 3 3 3 4 3 3 3 3 3 3 3 3 3 3 3 3 4 3 3 4 2 & & # # 2 # O # # 2 & & & & O # 2 & # # 2 2 & & # 2 2 & & & # # & & & & # O 2 # 2 X & > t D < 3 & & & & & & 2 2 2 2 # # # = t < < 4 & & & & & & O # & & & & # # # 2 2 # # 2 & 2 2 2 # # 2 % * 4 t Q t Q D J D D t 1 & & & & & & & $ & & * < J < 3 - 2 X 2 & & & & & 3 3 3 3 4 3 3 2 X # X X 3 0 3 4 3 3 3 3 3 4 3 4 3 3 3 3 3 ] L.%X>X>X,X>X,X,X%XI.L.>.>.>.>.;.>.H.L.2X%XH......... .' ^ 4 3 3 3 3 3 3 4 3 3 3 3 3 3 4 3 3 3 ",
"3 3 3 3 3 3 4 3 4 3 3 4 3 3 3 3 3 4 4 3 4 3 3 4 3 3 3 3 3 3 3 % U sX9.q 3 3 e ).).5.e.jXg.y 2 i g.{.i 6 Q.{.T 4 3 3 3 3 3 3 4 3 3 3 3 4 3 4 3 4 3 3 3 3 3 3 3 3 3 4 4 3 4 3 3 3 3 3 3 3 3 3 3 0 3 3 3 3 3 3 3 3 3 3 3 3 3 q.pXT 1./.f.q.gXi u.).q.3 U tXf.5 i )./.i Q.gXw 3 3 3 3 3 3 3 3 4 4 4 4 3 4 4 4 3 3 3 3 4 3 3 3 3 4 % 4 3 3 3 3 3 3 3 3 3 3 3 u rXf.e 3 3 3 g.{.4.<.jX).U % y r.gXU 2 e.eX1.4 i Q.[.5 8 tXh.I r.[.1.[.e.5.).f.i q h.eXi 5 s.).q.5.dX1.3 6 3 3 3 3 3 3 3 3 4 3 4 3 3 3 3 3 3 3 # # # # # $ $ & # # # * * # # $ # * # # # # # # # # # * $ $ 8.T.0.T w $ # 0 r & # 8.y.I y '.7.0 e w.'.Y $ Y y.6.3 $ i.^.P $ P E.6.$ P `.P # 6.E.w # 3.y.3.3.i.e # 0 0 # # $ # * # # $ # * # # * * # * # # * # * # # # # # . . # # # # & * # * # $ * # $ # * # # # # * # # * # # # # * # & # # R Q.R T.[ # e t.E E.7.4 R ~.Y # P y.6.3 T.6.# $ e !.2.$ w t.0.w y._.<.# # P t.w.3 # 0 3 # # * # * # # $ * # * # * * # # $ * $ # # # * $ # * * # * # # * # # 0 E ~.y # # # $ $ 3 0.i.w $ 6.e.Y Y  X6.0 % 6.!.3 # i.w.$ # 3 W.3.# I  X3.0 w y.(.P $ T t.6.* r i.0.3 0 q.w.e [ !.3 $ 3 w.d.q 2 6.t.Y Y  X0.q # q 3.T.e # 3 3 * # * $ # # # # * # # # $ # # e 7.y.q # % 2.!.y # E t.2.e `.w.q 0 0.'.T * P t.9.3 $ y.W.Y * e T.0.3 P ~.T $ P t.7.r d.!.E # # # 0 0 # % i.7.4 E ~.q # * 7.d.2 $ # y.d.* w ~.d.P # $ q E.6.3 4 w.0.e # * # * # & # # * # # . # . X 3 3 3 4 3 4 3 3 3 3 3 3 3 4 3 3 3 3 3 3 5.sX1.w 3 3 i [./.5.h.tXU 3 r.[.q.5.fX( 2 i i 4 3 /.).q.s.6Xi 2 s.wX5.q 3 3 3 3 3 3 3 3 3 3 3 3 4 3 4 3 3 3 3 2 X # # X & 3 3 3 3 3 3 q 1.3.4.4.4.4.4.i w.e.4 3 3 3 3 3 3 3 3 3 3 3 3 3 4 3 3 3 3 3 3 3 3 3 3 5 w I ( 4 3 3 3 3 3 3 3 3 3 3 3 3 3 3 3 3 3 3 y U U 3 5 3 3 3 3 3 3 3 3 3 3 3 3 3 3 3 3 3 4 3 3 3 3 3 3 4 3 4 3 3 3 3 3 3 3 3 4 3 3 3 4 3 3 & & # 2 % 2 & 2 2 % & & 2 2 2 X X 2 O $ & & & O # # & & & & O $ 2 X & & & & & & 2 r _ X.:.H.;. .D = & # & & X 2 & & 2 > K  .:.H.:.X.Q 4 & # & & & & & & X 2 & O # 2 & O # # $ O X 2 & O & & 3 ^ :.J.H.H.H.J.H.H.:.` & & & & & & O # & 1 ~ ;.:.:.{ t & & % & & & & & 2 3 3 3 3 3 4 2 # X X # 2 4 3 3 3 3 3 4 3 3 4 3 4 3 4 e [ $X>X>X>X>X>X%XI.:.-.` < > = = # * * < ` &.>.%. ...........~ ^ 4 3 3 3 3 4 3 3 4 3 3 3 3 3 4 3 3 ",
"3 3 3 4 3 4 % 3 3 3 3 4 3 4 3 3 3 3 3 3 4 4 3 3 3 4 3 3 3 3 3 3 U sXq.q 3 3 e Q.).1.r.dX5.w 4 5 q.uXI y [.[.4 3 3 3 3 3 3 3 3 3 4 3 3 3 3 3 3 3 3 3 4 3 3 3 4 3 3 4 % 3 3 3 3 4 3 3 4 3 3 3 3 4 3 3 3 4 3 4 3 3 3 4 3 3 2 1.gXq.f.g.1.<.pXU /./.T e 4.rXr.i 5.h.wX( /.gXe 3 3 3 3 4 3 3 3 4 4 4 3 3 3 4 3 3 3 4 3 3 3 3 3 0 4 4 3 3 3 3 3 3 4 3 3 3 3 3 w tXh.e 3 3 4 f.[.q.1.fX4.4 3 3 5.pX1.e f.eXe 3 4.Q.r.3 q [.g.e.g.s.i 6Xh.1.gX9.e U ).gXT i q.{.h.U dX1.3 3 3 3 3 3 3 3 3 3 3 3 3 3 3 4 4 3 3 % X # X X X & & # # * # # # # * # # # # * # * # $ # * # # # # 0 E T.!.0.e $ $ 0 q q 7.w.Y i '.Y # 3 <.!.q # y 7.0.* * i.y.$ $ % y.a.w P `.e e w.i.w w E y.0.T ^.1.e * $ $ # * # # * # * # # $ # # # # # # # $ # # * # * $ # # # # # # $ # # & # # # # * # # # # $ # * # # # * # * # $ # # & # # T ^.u p.3.$ R T.w i.0.e 1.^.R q I 8.i.0 E.7.$ 3 E T.[ 0 P 6.d.y y.i.= & & q 8.i.T q * $ # # * # # # * # # $ # # # # # * # # # # * # # * # # # # # # * $ # # 0 2.W.y # # $ & $ e t.y.q e E i.1.T '.e $ # 2.~.w # y.t.$ $ 3 !.2.# R ].P # 0 6.^.0 # P 8.7.$ P T.6.w e 2.i.R 2.W.0 & y y.t.w w [ i.1.T `.P $ # % E E.2.e 3 # # # # # $ * # * # $ # * # # # e 7.y.q # e 7.E.t w Y y.w.e ].E # 4 [ !.e # e 7.w.3 $ p.i.* $ & y.0.P <.^.Y 0 P 7.i.e ^.0.3 # # # % w w H e.8.e E !.r # 3 0.d.$ $ # t.d.2 0 '.2.$ # * Y E.3.q e 3.i.P # # # # # $ # * $ # # . # # # 2 3 3 3 3 3 3 4 3 3 3 3 3 3 3 3 3 3 3 2 ( sX4.4 3 3 i /.).e./.gXU i q.{.g.5.hX5.2 5 i i U g.).9.1.pX5.y Q.gXw 4 3 3 4 3 3 3 3 3 3 3 3 3 3 3 3 3 3 4 4 2 # # o # & 4 4 4 3 3 3 i 6XuXdXjXjXpXuX4.e 4 3 3 3 3 3 3 3 3 3 3 3 3 3 3 3 3 3 3 3 3 3 3 4 3 3 3 i h.[.e 3 3 3 3 3 3 3 3 3 3 3 3 5 3 3 3 3 3 ( g./.w 4 3 3 3 3 3 3 3 3 4 3 3 3 3 3 4 3 3 4 5 3 4 3 3 3 3 3 3 3 4 3 3 3 3 3 3 3 4 3 3 3 3 2 & & 2 # & & & # 2 & 2 % 2 X 2 2 2 2 & & & & & & $ # # & & & % 2 2 2 & & & & & & = ;.#X:X-X=X;X:XJ.^ & # O # 2 # 2 & 2 ' +X:X-X-X-X<X@X{ * # & & & & & & & & & & 2 & & & # $ # & 2 2 & & & % = ! @X-X-X-X-X-X:X<X#X$.* & & & & & & & < ;.;X;X-X;X;XH.< 2 2 % & & & $ 3 3 3 3 3 3 4 2 X # # X 2 0 3 3 3 3 3 3 3 3 3 3 3 3 w &.%X>X>X>X>X>X%X:.` = O # & X # & # # # # & & & < Q  ........... .Q 4 3 3 3 3 3 3 3 3 3 4 3 3 3 3 4 ",
"4 3 3 3 3 4 3 3 3 3 3 3 3 3 3 3 3 3 4 3 3 3 3 4 3 3 3 3 3 3 4 3 U sX9.5 3 3 i [.Q.5.e.sXe 3 3 3 5.gXq.q.).s.3 3 3 3 3 3 3 3 3 3 3 3 3 3 4 % 3 3 3 4 3 3 3 3 3 3 4 4 4 4 3 3 4 3 3 4 3 3 3 3 % 4 4 3 3 3 3 3 4 3 3 3 3 3 2 ( ).f.gXh.i ( wX4.eXQ.4 e q.dXfXsXsXdXrX( Q.gXe 4 3 3 3 3 3 3 3 3 4 3 3 3 3 4 3 3 3 3 4 3 3 3 3 3 3 3 3 3 3 4 3 3 3 4 3 3 3 3 e eXh.e 3 3 3 Q.[.4.5.fX( 3 3 3 i gXr.4./.g.e 5 g./.5.3 q f.g.).[.1.w ).h.h.uXU 3 5.{.jXsXsXdXsXh.( dX1.4 3 3 3 3 3 3 3 3 3 4 3 4 3 3 3 3 3 3 % # # X # # $ * # & # # $ * # # # * # # # * # $ # * # # $ $ # * * w [ W.6.e y 0.W.!.].T.T i `.P # 0 [ ^.w # e 7.0.* * i.y.# # * t.w.e P `.H P p.'.!.!._.!.6.3 E p.T.3.q # # # * $ # # $ # # * * # # # # * $ # # # # # * # . # # . # # # & # $ # * # # * # # * # # * $ * # # * # # $ # # # # * # T R.r 3.7.T E y.q i.7.P 6. X~.~._.~.i.0 E.7.$ 0 [ '.`.!.!.~.E.e y.i.$ # & & e 6.T.d.Y * $ # * # # * # # # # # # * # # * # # # * # # $ # * # # # # * # * # # = E !.P # # # # & R i. X!.!.~.~.<.T `.q # # E ~.q $ i.t.* $ 3 ~.3.# R `.w # 0 3.d.3 # y 0.8.3 T !. X!._._.^.P 2.^.0 * I T. X!.~._.!.2.R `.q # # # 0 E i.^.3.q # $ # # * # # $ # # * # # * # r 6.y.0 # e t.}.~.^.!.~.0.r `.R # 3 E T.e # r 3.w.= $ y.p.# # & 0.t.Y 6.'._.!.~._.i.e E.7.# # # # T y.~.!.].y.e E !.w $ * 0.d.* # # w.d.2 q _.E # $ 2 E ~.'.!.!.`.^.P # # * # # # * # # $ # #   # # 3 3 4 3 3 3 4 3 3 3 3 3 3 3 3 3 3 3 3 3 ( sX3.w 3 6 i {.g.r.{.zXpXsXdXsXg.5.fX( 2 5.).tXsXjXgX1.U gXe.q./.g.3 4 3 3 3 3 3 3 4 3 3 3 4 3 3 3 3 3 3 3 0 3 # # # # $ 3 3 3 4 3 3 5 i e 9.)./.y y w 4 4 3 4 q q q 5 w 4 4 q q 5 3 3 3 5 3 w 5 4 3 3 3 3 3 % r.[.4.5 5 q q w 4 4 5 q q 3 3 3 3 3 3 3 q 4 4 r.wXU 5 3 3 3 3 3 3 3 3 3 3 3 4 3 3 3 4 3 4 4 3 3 3 3 4 3 3 3 3 3 3 3 4 3 4 3 3 3 3 3 3 3 3 % & 2 2 & & & O & & & & # 2 2 & & & & & & & 2 2 2 & O % & & 2 2 X 2 # O & & & & = :.@X:.~ ! X.#X<X:.& & & & # # 2 % & $.#XJ. .!  .K.<X+Xu # & # # & & & # O # 2 # & # # O 2 # # X 2 2 2 2 % * q D ^ Q ^ Q ^ H.;X+XQ & 2 # O & & & X &.-X-X;.! X.#X;X:.= & # & & & & 3 3 3 3 3 3 4 2 # # X # 2 3 3 3 4 3 3 3 3 3 3 3 4 q L $X>X>X,X,X,X%X} = & & X & # # X # # # o # # # # # * < !  ......... .K q 5 3 4 3 3 4 3 3 3 3 3 3 3 3 ",
"3 3 3 4 3 3 4 3 3 4 3 3 3 4 4 3 3 3 3 3 4 3 3 3 3 4 4 3 4 3 4 % U sXq.q 3 3 I uXf.i r.sXw 6 3 3 U g.g.{.g.1.3 3 3 3 3 3 3 3 3 3 3 3 3 3 4 4 3 3 3 3 3 3 4 3 4 3 4 4 4 4 3 3 3 3 3 3 3 4 3 4 4 3 3 3 3 4 3 4 3 3 3 3 4 3 5 i s.[.sXr.3 I /.Q.uXh.2 e q.eXh.5.<.<.( 5 /.gXy 5 3 3 3 4 3 4 3 3 3 3 3 3 3 3 3 3 3 3 3 3 3 4 3 3 3 3 4 3 3 3 3 3 3 3 3 3 3 3 w tXf.w 3 3 w gX).I 1.fXU 3 3 3 y f.g.)./.q.4 q 6Xg.3 3 q q./.tXwXi 4 r./.gXeXy 2 ( ).gX1.5.5.5.e ( dX1.4 3 3 3 3 3 3 4 3 3 3 3 3 3 3 4 3 3 3 3 # # # X # # # # # * # * # # # * # # * $ * # # # * # # * & # $ # $ 0 9.t.<.6.d.T P 0.t.T y `.y # 0 [ ^.q # e 9.0.3 2 d.y.$ # $ i.t.e P '.e e w.i.P R P i 0 # 3 e 3.y.6.# # * # # $ * # # # # # # # * $ # # # * # # $ * # # # . # # # * # * # $ # # * # # # # $ * # # # # # * # $ # # * # # # # E W.e P t.y.6.2.0 i.q.P 1.^.T P P P w 3 ^.6.$ * E E.2.P P P e 0 y.t.# & # # 3 0 P 0.y.P # # $ # $ # # $ * # * $ # # * # # # * # # * # # # $ * # * # # $ # # & P '.T * # # & # P y.y.P R P P 0 T `.q # # E !.r # i.t.3 # 3 !.3.o P `.r # 0 3.T.3 # P 7.7.3 I d.0.y P P P % 3.^.0 * P y.y.P P P P q T _.0 # # # # 3 e 2.y.6.* # # * # # * # # * # # # # # e 7.t.0 # e 7.T.R P R P w e `.P # 3 [ T.e # e 6.w.3 # p.i.* # # y.w.P 2.W.E P I P e 0 ^.7.# # # R y.t.I R y.0.e E !.e & * 9.T.$ # 2 p.i.2 w `.T # # 3 Y T.6.i P P e 3 # $ # # * # $ # # * # # # # # 3 4 3 3 3 3 3 3 4 3 4 4 3 3 4 3 4 3 3 2 ( sX3.w 3 3 T pXs.1./.gX1.5.5.5.P ( fX( I Q.6X9.1.).).4.y g.g.)./.4.3 3 3 3 3 4 3 3 3 3 3 3 3 3 3 3 3 3 3 3 3 2 # # o # & 3 3 3 3 3 3 3 3 3 <./.Q.4 4 3 g.Q.3 e /.g./.eX[.<.h.gXeXg.y 4 3 w 9.gXeX/.( 3 3 3 3 q /.6Xw e /.g./.eX[.1.s.6XeXQ.i 3 3 1.).eXwXg.U 5.[.s.i 3 3 3 4 3 3 3 3 3 4 3 3 4 3 3 3 4 4 3 3 3 3 3 3 3 3 3 3 3 4 3 3 3 3 3 3 3 3 3 4 4 2 2 & 2 X 2 & # # 2 # # O 2 & $ O & 2 & & & # # 2 X & # # & & 2 2 2 2 # & & & & & & < J < 4 - > H.<XK.= & & & # O # 2 # u Q t = 3 * &.:X-XD & # # O & & & & # # # 2 % 2 # $ 2 # 2 & & $ O # 2 - * 2 * 2 2 * t P.5X:.- & # # & & & & 5 H.<XJ.1 4 = ..-X#XJ - # & & # O 3 3 3 3 4 3 0 2 X # # X 3 4 3 3 3 3 3 4 3 3 3 3 4 / L.,X>X>X,X%X>.^ - X . X # X # X # X . # $ P 1.0 # # . & = Q  .....X...~ D 4 3 3 3 3 3 3 3 3 3 4 3 3 3 ",
"3 3 3 3 3 4 3 3 3 3 3 4 3 4 3 3 4 3 3 3 3 3 3 3 3 4 3 3 3 3 4 3 U sX9.3 3 T g.tX4.4 r.sXw 2 3 3 e 4.gXsXf.e 3 3 3 3 3 3 3 3 3 4 4 3 3 3 0 3 3 3 3 3 3 4 3 4 3 3 3 3 4 3 4 3 3 3 3 3 3 3 3 3 4 3 3 3 3 3 3 3 4 3 3 4 3 3 3 w 4.tXdXq.% i r.rXtXq.2 4 T tXh.5 2 2 0 3 /.wXi 3 3 3 3 3 4 3 4 3 3 3 4 3 3 3 3 3 3 3 3 3 3 3 4 3 4 3 3 3 4 3 4 3 3 3 3 3 3 3 e tXh.4 3 P s.tXh.5 1.fX( 2 3 3 5 5.[.dX).i w 5.[.r.3 3 3 I [.fX{.5 3 <.[.pX).e 3 e g.wXI 2 O 3 3 5.dX4.q 3 3 3 3 3 3 3 4 3 3 3 3 3 3 3 3 3 4 3 o X # # # # * # # $ # # # * * # # * # # # # * * # * # # & = 0 # # 3 0.w.3.w.y.* * 0.p.T e `.P # 0 [ E.q $ y 9.0.2 % d.^.P & e ^.7.% P _.P % 8.d.q # # # 3 3 * # e y.y.$ # # # # * # # * $ # # # # # # # * # # * $ # # # # # #   # # # & # # # # # * # * * # # # # * * # $ # # # * # # * # * # R W.w 0 0.`.y.w % i.8.w R !.I # # # $ * T.0.3 # P W.[ * . # 3 $ y.y.# $ $ 3 = $ # Y ^.E # * # # # # * # # # # $ # # # # * # * # # # * # * # * # # # # * # # # q i.p.R $ # # = 0 0.i.0 # # $ * T _.q # # E !.w * y.y.0 # 3 !.3.# I `.w # 0 2.T.3 # H 0.7.3 q i.7.3 # # % $ 2.W.e $ 0 0.y.0 # # # $ T `.0 # # * 0 $ # e y.y.* # # $ # # * # # * # # * # # r 6.p.0 # 3 2.E.e # # # 3 w `.R # 0 E W.r # e 6.w.3 & y.W.P & e d.0.3 P !.Y $ o # 3 3 E.7.# # # E i.6.# 0 i.w.e E !.y # # 7.W.q # P W.d.2 0 ~.E # # * w T.6.% o # 2 $ $ # # $ # * # # * # # #     X 2 3 3 3 3 3 3 3 3 3 4 3 3 3 3 3 3 4 3 % 5.sX1.3 3 ( Q.tX1.y f.eXi 2 & 3 5 5.fX5.5.[.).4 4 ).{.4.5 5.6XsXQ.i 5 3 3 4 3 3 3 3 3 3 3 3 3 3 3 3 4 3 3 3 3 2 # # # X & 3 3 3 3 3 3 4 3 3 1.(.g.5 4 4 {.gX2 i pXwXh.g.gXgXQ.s./.6Xq.y 3 9.{.Q.h.6Xf.I 3 3 5 U )./.3 y pXwXh.g.gXgXg.s./.gXq.i i g.{.s.s.e.i i f.[.i 3 3 3 3 3 4 3 3 3 3 4 3 3 3 3 3 4 3 4 3 4 3 3 3 3 3 3 4 3 3 4 3 3 3 3 4 3 3 3 3 3 3 2 # & O & & $ # 2 2 # 2 # & # 2 # & & & X $ 2 % & & & & & O 2 X & & # 2 2 % & & & O # % o & & H.5XJ.= & & & & & & & & & & X & O # { <X-X< & 2 % & & & & & & O $ 2 # # 2 X 2 2 2 & & # 2 & 2 # & # 2 & & - _ -X#X{ % & & & & & & & < K.:X;.% O % Q K.-X~ * & 2 % # # 3 3 3 3 3 4 3 2 # X # X 2 0 3 4 3 4 3 3 3 3 3 6 L >.,X,X>X>X%X>.t # X # & # X # # X # X o # w w.yX].y.y X X # = < ~ ........` t 3 3 3 4 3 3 3 3 3 3 4 3 3 ",
"3 4 3 3 3 3 3 3 3 4 3 3 3 3 3 3 3 3 3 4 3 3 3 3 3 3 3 3 3 3 3 % U fX).h.u.Q.gXh.i 3 u.dXe 3 3 3 4 i eXdXe.2 3 3 3 5 3 3 3 3 3 3 3 3 3 4 3 3 3 3 4 3 3 3 3 3 3 3 3 3 3 3 3 3 3 4 3 4 3 3 3 3 3 3 3 4 3 3 3 3 3 3 3 3 3 3 3 5 ( fXeX1.2 3 5.fXgX5.3 3 e g.).h.r.e.1.w r.gXQ.q.i % 3 3 3 3 3 3 3 4 3 3 4 3 4 3 3 4 3 3 3 3 3 3 3 3 3 3 3 3 3 3 3 3 3 3 3 3 w tXgXh.s.g.6Xg.( 2 1.jXU 3 3 5 4 e [.dXW.6 w g.Q.<.3 3 3 5 [.fXg.4 3 e [.fXh.5 3 3 4.{.W.u.r.7.U i gX).s.T 3 3 3 4 3 3 3 3 3 4 3 3 3 3 4 3 3 3 # # # X # # # # * # # * $ # # $ # # * # # $ # # # # # $ * e [ 3.[ 3.p.[ R 6.d.2.<.p.p.Y P '.y # q [ W.0 # t 9.t.3 2 p.~.6.<.w.p.Y # R `.P # Y u.7.2.[ E R P 3.2.6.t.3.& # * $ * # # # # # * $ * $ * # * * # # * # # * # #   # # # # & & # * # * $ # # # $ # # * # # $ # # # * # * # # # & # # E !.q # 6._.i.3 2 i.w.0 w t.0.2.[ E R * 0.p.4.P 0 0.w.6.2.[ R 3 i.y.$ # # q T 2.2.9.t.P # # # * * # # * # * # # * # * $ # $ # # * # $ # # # # * # $ * # # # # 3 T d.w.3.2.[ R 3 E y.7.<.[ Y q E `.w # # E ~.w & 6.i.7.Y 0 !.3.# Y '.e # 0 3.T.3 # P 7.q.* * 6.y.6.[ [ R 0 T i.0.[ 0 E p.7.2.<.Y q E `.w # # 0 I 2.<.6.t.3.# # * # # * # # $ # # * # $ # H 9.p.0 # # I y.9.2.[ E e e `.P # 0 [ W.e # y 6.t.3 $ y.(.9.2.0.p.[ $ 0 t.q.3.2.E P 3 ^.8.# # $ R y.y.2.3.i.a.P P d.0.[ 0 E T.0.2.6.~.p.* w `.E # # $ 3 7.y.6.2.E R , # # * # $ # * # # # # # # # # 3 4 3 3 3 4 3 3 3 3 3 3 3 3 3 4 3 3 3 3 5.dX(.s.s.(.{.h.y 2 4.6X/.r.r.9.U 5.jX( U g.6Xu.r.6X[.4.3 y 6XfXh.3 3 3 3 3 3 3 3 3 3 3 3 4 3 4 3 3 3 4 3 3 0 2 X # . # & 4 3 4 3 4 3 3 3 3 1.).Q.0 4 4 {.gX3 i dX).i e f.fXe.3 ( /./.i e /.gXi % u.).9.3 3 3 4.).s.3 i sX[.i e h.jXr.5 U (./.i ( ).[.e 3 w 4 i e.eXi 3 3 3 3 3 3 3 3 3 3 3 3 3 3 3 3 3 3 3 3 3 3 3 4 4 3 3 3 3 3 3 3 3 3 3 3 3 4 3 3 3 3 # # # $ & & # 2 % & # % 2 & # # 2 % & & 2 O $ O 2 # & # # $ # 2 & % 2 # # 2 & & & # = < t ^ ~ @X-X%.- & & & & & & & & & * 1 < D ! H.;XJ.> & $ O & & & & & & & & & 2 & % 2 2 % & & & # # & # & & & & & & > :.;XH.t # & & % 2 & & & t K.;X;.# # X ^ J.-X;.= # # 2 # 2 3 3 4 3 3 3 0 2 X # X # 2 3 3 3 3 3 3 3 3 3 3 w &.,X,X,X>X,X:.t X # X # # . # X # # X # # # T }.lXlX].R . & X X & D ~ ...... ._ q 3 3 3 3 4 3 3 3 4 3 3 3 ",
"0 4 4 3 3 3 3 4 3 3 3 4 % 4 4 4 3 3 3 3 3 3 3 4 4 3 3 3 4 4 4 % i gXtXtXrX{.e.e 3 3 q.{.w 3 3 3 3 i {.{.1.3 3 3 3 3 4 4 4 3 3 3 3 3 3 3 3 3 3 4 3 3 4 4 4 3 3 4 3 3 3 3 3 3 3 3 4 4 3 3 3 3 4 3 3 3 3 3 3 3 3 3 3 3 3 4 3 3 i [.h.U 3 3 y {.h.I 3 3 4 P f.eXtXgXq.y U g.eX[.i % 3 3 4 3 4 3 3 3 3 3 3 4 4 3 3 3 4 3 3 3 3 3 3 3 3 4 3 3 3 3 3 4 3 3 3 3 e ).tXtXtXgXs.i 3 3 ( gXI 3 3 3 3 4 /.gXq.3 w g.q.i 3 3 3 3 h.).4.4 3 3 r.{.1.4 3 3 e 4.6XwXrXg.5.w q.6XwXq.3 3 3 3 4 3 3 3 3 3 3 3 3 3 3 4 0 2 X # # . # # # $ # # $ * * # # # # * * # # $ * # # # # * $ y 0.^.T.d.6.q # R p.T.t.6.[ R w i.H # 3 Y t.0 # r [ 6.* $ p.f.6.E.d.E 0 # t i.r # * Y i.T.T.7.P E d.T.T.[ r # * * # $ $ # * * # # # * # * # # # # $ # * # * # # # . X # # & # * $ * # * # # * # # $ * * # # # # # # $ # * # * # # # R t.q * R 7.2.& & 0.3.= * H 0.T.T.y.I * P 0.T.0.* w 7.d.T.p.E = 8.6.# $ # e 6.T.W.p.Y 3 # * # # # $ # $ # $ # # # # # $ # * # * # * # * # * # # # # # $ * # $ # * Y t.T.E.i.E , * E p.T.T.6.r P d., # # R y.q * H 8.T.w.q y.[ # L i.w # , [ 0.3 # e 2.[ * $ 0 2.d.T.d.[ 0 q 3.T.y.r * E i.^.T.6.r P i., # # 0 E d.T.T.3.q * # # # # $ * # * # # * # $ $ , [ 6.4 # * * R y.T.^.0.y r i.R # * Y t.r # q [ 6.= $ w.W.6.T.d.[ 3 # * r 0.T.E.y.R 0 t.[ # * # * <.d.T.w.[ [ H 0 [ T.i.P 0 [ R.T.3.t.6.* 0 p.R # # $ $ q 3.T.E.i.E , # $ # # * # # & # & # X # X # 3 3 3 3 3 3 4 3 4 3 3 3 3 3 3 3 3 3 3 3 U wXeXuXeX[.q.w 3 3 u 1.6XrXrXQ.( U wXU 3 4.6XeX{.s.e.1.3 w [.gX9.3 3 3 3 3 3 3 3 3 3 3 3 3 3 3 3 3 3 3 3 3 4 2 # X # X & 4 4 3 3 3 3 3 3 3 1.(.Q.4 3 4 {.6X3 i dXr.2 e 9.uX5.2 I h.[.i T ).gX5.5.r.gXh.3 3 3 e./.r.3 i sXu.3 w 4.uX1.2 i s.[.I y f.gXq.5.e 3 5 9.sXU 2 3 3 3 3 3 3 3 3 3 3 q 3 3 4 3 3 3 3 q 3 3 3 3 3 3 3 4 4 3 3 3 4 3 3 3 3 3 3 3 3 3 # 2 & & # & & & # 2 & & # 2 & 2 & 2 2 & 2 # # # & & & O # # & & & & & & # # & & & # F X.H.P.;X<XH.D & & & & & & & & % X u $.:.J.=X<X+X_ * & # # & & & # # 2 O # # # 2 % 2 2 & & 2 # 2 2 2 2 & & & 2 & - t #X:X$.3 $ # 2 2 2 & & & = :.5XK.< 1 1 %.#X;X;.u # 2 X & & 2 3 3 3 3 3 4 2 # # X # 2 0 3 3 3 3 3 4 3 3 0 ] L.,X,X,X>X:.t X & X # X X # X & X & . & # # 7.aXkXhX7.% X # X # X = Q ........~ J 4 4 3 4 3 3 3 3 3 4 3 3 ",
"3 4 % 3 4 3 3 3 3 3 3 3 4 4 4 4 3 4 3 4 3 3 3 3 3 3 3 4 3 4 4 3 3 e 4 4 w q 4 3 3 3 4 q 3 3 3 3 3 i |.h.i 3 3 3 3 4 4 4 3 3 3 4 3 3 3 0 4 3 3 3 3 3 4 4 4 4 4 % 3 4 3 4 3 3 3 3 0 % 4 3 3 3 3 3 3 4 3 3 3 3 4 3 4 3 3 3 3 3 3 3 4 4 3 3 3 4 w 4 4 3 0 4 4 4 w w 5 4 4 0 w 4 4 4 3 3 3 3 3 3 3 3 4 3 3 3 3 3 3 4 3 3 3 4 3 4 3 3 3 3 3 3 3 4 3 3 3 3 3 3 3 q q w 4 q 4 3 4 3 3 w 3 3 3 3 3 e [.Q.T 3 3 3 q 3 3 3 4 3 4 4 4 3 3 3 q 5 4 3 4 3 3 4 q q q q 3 3 4 w 4 4 3 3 3 3 3 3 3 4 3 3 3 4 3 4 3 3 4 3 # # . # # # # * * # # # # $ * # # # # $ # # # # * * # # # * * 2 * * & # # * * 2 * * & & $ * * # # $ $ $ # * * * # * i.y.$ 2 * & # # $ 3 $ # # * * * * * # # * * * * $ # # # # # # # # # $ * # # # # $ * # $ # # # # * # # . # # X # # & # # # # # $ # # * # # # # # $ * # * # * # # # $ # # # * * # # $ * 2 # & & & $ # $ * 2 3 $ $ # * * * & & $ * * , * * # * * # * # $ * * * * * $ # # # * # * # # * # # * * * * # # # # # # # $ # # $ # * # * # # # # * * # * * $ , * $ $ * $ $ $ , * & $ * # # * * 2 $ & & % 3 $ $ * * # # $ $ # & & * # # # $ , # $ $ * * $ , * $ * * 3 2 $ * * * 2 * $ * $ * # * # # $ * * * * $ # # # * # * # $ # $ # # $ $ $ # & * & & # $ # * * * * * # * # # # $ * * # $ $ * & * y.p.$ * * & $ # # & * 3 * $ * # * & # # # * $ $ 3 2 * * $ $ * * $ $ # * * * # * * & & * * # # # # * * * 3 2 * * # # # * # # & # & # # # X # # 2 3 3 3 3 3 0 3 3 3 3 3 3 3 4 3 3 3 4 3 3 w q q q w 4 3 3 3 4 4 4 q 5 4 4 4 q 4 3 5 q w q 4 4 3 3 e [.g.U 3 3 3 3 3 3 3 4 3 4 3 4 3 3 4 3 3 4 3 3 4 0 3 # # X # & 4 4 3 3 3 3 3 3 3 1.(.Q.4 3 4 [.6X2 i dXe.2 w 9.tX5.2 U h.[.i 5.gXzXsXsXsXuXr.3 3 3 r./.q.3 i sXr.2 w 4.tX5.2 i s.[.P 6 i s.eXeXq.y 4 4.dXU 3 3 3 3 3 3 3 3 3 4 3 3 3 3 3 3 3 3 3 3 3 4 3 3 4 3 3 3 3 3 3 4 3 3 q 3 3 3 3 3 3 2 2 % & & $ O & % 2 2 & % 2 2 2 # & % # & % 2 & & & & & & % # & & & & & & O # & & & & ` K.-X-X:X#X-.t & & & & & & & & 2 % < :.-X;X:X-XH.K - * & & & & O # 2 # & & # 2 & & X 2 & & % # 2 X 2 2 & & 2 # & > X.;X+XQ X & 2 # X 2 & & 2 X &.#X;X+X:.J.=X<X;X-.= X 2 2 & & 6 3 3 3 3 3 4 2 X # # X 3 3 3 3 3 3 3 3 3 4 u >.,X,X,X,X$X^ # # X # X # X # # . # X & . # P `.lXkXaXP   # X # # # X > Q ........~ q 4 3 3 3 3 4 3 3 3 3 4 ",
"3 3 3 3 3 3 3 3 4 3 3 3 3 3 3 3 3 3 3 3 4 3 3 3 3 3 3 3 3 3 3 3 3 3 3 3 3 3 3 3 3 3 3 3 3 3 3 3 w 4.uX4.3 3 3 3 3 4 4 4 3 3 3 3 3 3 4 4 3 3 3 3 3 3 3 4 4 4 3 4 3 3 4 3 4 3 3 3 3 3 3 3 4 3 3 3 3 3 4 3 3 4 3 3 3 3 3 3 3 3 3 3 3 3 3 3 3 3 3 3 3 3 3 3 3 3 % 4 4 4 4 4 3 3 3 3 3 3 3 3 3 3 3 3 3 3 3 3 3 3 3 3 3 3 3 3 4 3 4 3 3 3 3 3 3 3 4 3 3 3 3 3 3 3 3 3 3 3 3 3 3 3 3 3 3 3 3 3 q <.eXs.3 3 3 3 3 3 3 3 3 3 3 3 4 3 3 3 4 3 3 3 3 3 3 3 3 3 3 3 3 3 3 3 3 3 3 3 4 3 3 3 4 3 4 3 3 3 4 3 3 3 3 2 # X . # # # # # # * # * # # # # $ # # # * # # * # $ # # & # $ # * # # * & # * $ # * * # $ & # & & # $ # # # # # $ * d.w.# # # # # $ $ # # * # $ $ # # # & # # # # # # * # * & # # * $ # # * $ # * # # # * # * * # # # $ # # # . # # # # # # * # # $ * # # * # * * # * $ # $ # # # * # # * # * # & # # * $ # # # # # # # * # # # # # # & $ # & # $ # # # # # # $ # # # * # # # # # # # # # * * # # # # # * # $ # # # # * # $ # * # # * # # # $ # * # # * # # # # # # # # $ # $ # # # # # $ $ # # # $ # $ $ # & # # # $ # # # # # # # $ # # # # $ # # # # & # $ # # # # # # # # # # # $ # $ $ # # # # # # & * # * # # # $ * # * # # # # # # * # # # $ * # # # # & # # * # # # $ $ # * * # # # & # $ # $ # & & y.p.# # $ # # & # & $ # $ # # * # # * $ # # # # # # # $ # # * # # # # * # # # # # # # # * # * * # # # # # # $ # # # # & # * # & & & # X # X $ 2 3 3 3 4 3 4 3 3 3 4 3 4 3 3 3 3 3 3 3 3 4 3 3 3 3 3 3 3 3 3 3 3 3 3 3 3 4 4 3 3 3 3 3 3 3 3 3 w 1.rXe.3 3 3 3 3 3 3 3 3 3 4 3 3 3 3 3 3 3 3 3 3 3 3 2 X # X # & 3 3 4 3 3 4 3 3 3 <.).Q.4 4 4 {.6X3 i dXw.2 u q.eX5.2 U h.[.i 5.).[.U I U I e 3 3 3 e./.r.3 i sXr.2 w 4.tX1.2 U s.[.P 3 4 e U f.gX4.4 9.sXU 3 3 3 3 3 3 3 3 3 3 4 3 3 3 3 3 3 3 3 3 3 3 3 3 3 3 3 3 3 3 3 3 3 3 3 3 4 3 3 5 3 3 # 2 & & & 2 & & 2 # & O 2 # # 2 # # 2 & # # & & & & # & 2 & & & & & & & & & & & & & > F ` ~ ;.=X;X:.q & # & & & & & 2 # 4 < Q { -.+X:X+X< * # & & & 2 X % & & & & & & & X 2 2 # $ # 2 X 2 X $ O X 2 & t K.:X-.> 2 & # # & & & & # O > %.#X:X:X-X+X@X-X&.= & 2 2 2 % 3 4 3 3 3 3 0 2 # # X # 2 4 3 3 3 3 3 3 5 4 ] L.>X,X,X%X&.4 X & # X X # # X & # X # # . # w.aXlXhX Xe # X # # X # X & < ......X.{ t 4 4 3 3 3 3 4 3 3 3 3 ",
"3 3 4 3 3 3 3 4 3 3 3 4 3 4 3 3 3 3 4 3 3 3 3 4 4 3 3 3 3 4 3 3 3 3 3 3 3 3 3 4 3 3 3 3 3 3 3 1.{.gXg.I 3 3 3 3 3 3 % 4 3 3 3 3 3 3 % 4 3 3 3 3 4 3 3 3 3 4 4 4 3 3 3 3 3 3 3 4 3 3 4 3 3 3 3 4 3 4 3 3 3 3 4 3 3 3 4 3 3 3 3 3 3 3 4 3 3 3 3 3 3 3 3 3 3 3 4 3 4 % 4 4 3 4 3 3 3 3 3 4 3 4 3 3 3 3 3 3 4 3 3 3 3 4 3 3 3 3 3 3 4 3 3 3 3 3 3 3 3 3 3 3 3 3 4 3 3 3 3 3 3 3 3 3 3 3 3 U ).wXQ.( 3 3 3 3 3 3 3 3 3 3 3 3 3 3 4 3 3 4 3 3 3 3 3 3 3 3 3 4 3 3 3 3 3 3 3 3 3 3 3 4 3 3 3 3 3 3 3 3 3 3 3 3 X # # # # # * # # # # # * # $ * # * * # * # # * # # $ # & $ # $ # $ # # & $ # # $ # # $ # # & # # & # $ # * $ # # * T.t.# # # & & # # $ # # * # $ # & & # & # & * # # $ # # # * # # * # # # # * # # # * # # # # # * # # # . # # # # # $ # * # # # * # $ # # # # # # # # * # # * $ # * # # # $ & # & # # $ $ # $ # * # & # $ # * # $ & # # * # $ # # # # # $ # * # & $ # $ & & # $ # * # # $ # # # * * # # # # # * # # # * # $ # # * # # * # * # # $ # # * # $ * # & * # # $ # # * # * # $ # # * # # # * # $ # & & & # $ * # $ * $ # # & * # * # # * * $ # # $ # # * # * $ # $ # # * # # # $ & # & $ # * $ # # # # * # # $ # # # # * # * # # * # $ # # # & & # & * # # # & $ # # $ # # # & # # & & # * # & * p.p.# # # & & # & # & # # $ # # * # # # * # # $ # # # * # * # # # $ # # * # # * # * # & $ # # # # $ # # $ # # # * * $ # & # & # # # # # # X # 3 3 3 3 3 3 3 3 3 3 3 3 3 3 4 4 3 3 3 4 3 3 3 3 3 3 3 3 3 3 3 3 3 3 3 3 4 3 4 3 3 3 3 3 3 3 3 5.{.wXg.U 3 3 3 3 3 3 3 3 3 3 3 3 4 4 3 3 3 3 3 3 4 3 4 3 # X # X & 4 3 3 3 3 3 4 3 3 1.).g.4 3 4 [.6X2 i dXq.2 w 4.eX5.2 i h.[.i 4 Q.gXI 2 % w w 3 3 3 1.).s.3 i sXr.2 e 4.eX1.2 I h.[.P w y 3 3 4.eXe.e e.eXU 2 3 3 3 3 3 3 3 3 3 3 3 3 3 3 3 3 3 3 3 3 4 4 3 3 3 3 4 3 3 3 3 3 4 3 3 4 3 4 4 3 3 2 # & & & X # O # # $ # # # 2 # # O & & $ # & & & & 2 & & & # # O & & & & & & & & & * 4 * = < ;.;X#XQ & O & & & & & # - * * * = > ~ #X;X~ 5 % 2 & & 2 2 & & & & & & 2 & 2 2 # 2 O 2 2 2 # 2 # % 2 2 2 ~ ;X-X^ 2 & & O # & & & & & # - 4 Q ~ { !  .+X-X~ = & 2 X 2 2 3 0 3 3 4 3 0 2 X # # X 2 0 3 3 3 3 3 3 3 4 >.%X,X,X,XL.< # X # X & # X X # X # # X # # = `.kXkXhXw.q # X # X # X # # * Q  .X.X. .Q q = 3 4 3 3 3 3 3 4 3 ",
"3 3 3 3 4 3 3 3 3 4 3 3 3 3 3 3 3 3 3 3 3 3 4 3 3 3 3 4 3 3 3 3 3 3 3 3 3 3 3 3 3 3 4 3 3 3 3 5.f.s.U 4 3 4 3 3 3 3 3 3 3 3 3 4 3 3 3 3 3 3 3 4 3 3 3 3 3 3 3 3 3 3 4 3 4 3 3 3 3 3 3 3 3 4 3 3 3 3 4 3 3 3 4 3 3 3 3 3 3 3 3 3 3 3 3 3 3 3 3 3 4 3 3 4 3 4 3 3 4 4 4 3 3 4 3 3 4 3 3 3 3 3 4 3 3 3 3 3 4 3 3 3 4 4 4 3 3 3 4 3 3 3 3 3 4 3 3 3 3 3 3 3 3 4 3 3 3 3 3 3 3 3 3 3 3 3 3 I s.h.( 4 3 3 3 3 3 3 3 3 3 3 3 3 3 3 3 4 3 4 3 3 3 3 3 3 4 3 3 3 3 3 3 3 3 3 4 3 3 3 3 3 3 3 3 3 4 3 3 3 4 3 4 3 # #     # * * # $ # # * * # # # # * * # # # $ # # # * * # & # # * # # # # & # # # * # # # # # # & # & # $ # * * # & [ R # * # * # & # & * # # # * # * $ * # & $ # * # # $ # # # * # # * # # * # # $ # # # # # # * # * # #   # # # # * $ # # # # # # # # $ * # # # * * # # # $ * # # # * & # # * * # # * $ # # # $ * # # # $ # # # # # # $ # & # $ * # * # $ # & # * # # * # * $ & # & # # # * * # # # # * $ * # $ # * * # * # # * # # # * # * # # # # * # # * # $ # # # & # & # # * # # # # & # $ # * # # * # # # & # * # # # # & $ * # # & # * # # # # & # $ # * # # # # # # * # # # * # & # & $ # * $ # # $ # $ & # & * # # # * # # * # # $ # * # # * # & # # * # # $ # & * # # $ * # # * # * # & # & * # E R # * # * # * # # # & # & $ * # * * # * # $ & # # * # # # $ # # # $ # # * # # $ # * # # # # * # * * $ # & $ # * # $ # # # # * # # X # X # # 2 3 3 3 3 3 3 4 3 3 3 3 3 3 3 3 3 3 3 3 3 3 4 3 3 4 3 4 3 3 3 3 3 3 3 3 3 3 3 3 3 3 4 3 3 3 3 U s.h.U q 4 3 3 3 3 3 3 3 3 3 3 3 3 3 4 3 3 3 3 4 3 3 4 2 # # X # $ 3 3 4 3 3 3 3 3 3 1.)./.4 3 4 {.wX3 i dXq.2 e 4.pX5.2 I f.{.i 2 4.[.).W.g.w.U 3 3 4 U ).).3 i dXr.2 e 4.pX1.2 I h.{.I I e.Q.g.).).5.i g.[.i 3 3 3 3 3 3 3 3 3 4 3 3 3 3 3 3 3 3 4 3 3 4 3 3 3 3 3 3 3 3 3 4 3 3 3 3 4 3 3 3 3 3 2 # & & & & # # 2 % & & & # % # # & & & # O & 2 2 # O # # 2 & & X & & & & & & & & # & & & O # { #X=X~ = & & # & & & & X & & & % % t K.;X;.< # # & & 2 2 2 2 # # 2 # # O & & 2 $ # # 2 % & & # & 2 & t ;.:XJ.< X & & & & & & & & & & # % % & * X } ;X=XD & O 2 X & & 3 3 3 3 4 3 4 2 # X # # 3 3 4 3 3 3 3 3 3 e L.,X>X>X,X$.> X # X # X # # # X X # X # X & R 8XlXkXyXP & # # X & X X # X & > ~ X.....{ t 5 3 3 3 3 3 3 3 3 3 ",
"3 4 3 3 3 3 3 3 3 3 3 3 3 4 3 3 3 3 4 3 3 3 3 3 3 3 3 3 4 3 3 4 3 3 3 5 4 3 3 3 3 3 3 3 3 3 3 2 % % 3 3 3 3 3 4 3 4 3 3 4 3 3 3 4 3 4 3 4 3 3 3 3 4 3 3 4 3 4 3 3 3 3 3 3 3 3 4 3 3 3 3 3 3 3 3 3 3 3 3 3 3 3 3 3 4 3 3 3 3 3 3 3 4 4 3 3 3 4 3 3 3 3 3 3 3 3 3 4 4 4 4 4 % 4 3 3 3 3 4 3 4 3 3 4 3 3 4 4 4 3 4 4 4 4 3 3 3 3 3 3 3 3 4 3 3 3 4 3 3 4 3 3 3 3 3 3 3 3 3 3 3 4 3 3 3 3 3 3 2 3 3 3 3 4 3 3 3 3 3 3 3 4 3 4 3 3 3 3 3 3 3 4 3 4 3 3 3 3 3 3 4 3 3 3 3 3 3 3 3 3 3 3 3 3 3 3 3 3 4 3 3 0 2 #   # # # # # # * # # # # # * # # # # # # * * # * # # # & # * # $ # * # & # * $ # # * # $ * # * # & # * # # # # * # # # # # # $ & # & # # # # * # # # # $ # # # # # * # # * * # $ # # # * # $ # # * * # # * $ * # $ # # # # #   # # # # $ * # * * # * # # # * # # # # $ * # # # * # # # # * # # # # $ # # # * * & # # $ # * * # # * $ * # & # & # # # # * # & # $ # # * # # # # # & # & # * # # * * # * # # # # # # # # # # # * # # $ * # $ # # * # # # * # # # # # * * # & # & # * # $ # & # & # # # # # # $ * & # # # * # * # # # # $ # $ # # * # * # # & # # $ # * # # * $ # $ & # # & # & # # # # # * * # # & # & # # # $ * # $ # # * # # * # $ $ # & # * # # # # * # & # # # * # # # $ # # & # & # $ # # # # $ # # # # $ * & # & # # # # # # # # # & # # * $ # * # # & * # # * $ # * # # * # # # * # $ # # # # & # # # # # * # * # & # # * # # # X # 3 4 3 3 3 3 3 3 3 4 3 4 3 3 3 3 3 4 3 3 3 3 3 3 3 3 3 3 3 3 4 3 4 3 3 3 3 3 4 4 3 3 3 3 3 3 3 3 2 2 3 5 3 3 3 3 3 3 3 3 3 3 3 3 3 3 3 3 3 3 4 3 3 3 4 2 $ X # # & 3 3 3 3 3 3 3 3 4 U r.w.4 3 4 s.h.3 i ).1.2 5 5.Q.U 2 i 4.h.i 3 5 4.).gX6Xs.U 3 3 3 w /.{.y e ).1.2 5 5.g.U 2 i 4.u.i i r.6XgX).4.5 1.{.r.e 3 3 3 4 4 3 4 3 3 3 3 3 3 4 3 3 3 3 3 3 3 3 3 3 4 3 4 3 4 3 3 3 3 4 3 3 4 3 4 3 3 3 O $ & & & & # 2 & & & % O $ O $ # & 2 & 2 & & & % 2 $ # 2 # & & 2 & & & & & & & * 6 * X X 2 &  .#X#X{ * & & O # & & - 3 * & & # X ! +X;XX.1 # $ O & 2 X O & # $ # 3 > < * & % O & & # # & & & & 2 X ! #X-X{ 4 2 & & O # & & & & & & % % O X # < H.<XK.> $ % 2 2 & & 2 3 3 3 3 3 3 2 X # X X * 3 3 3 3 3 3 3 q / %X>X>X>X%XJ & # X # X # # X X # # X & X # & a.aXlXhXE.2 X X X # X # & X # X & ! ...... .t 4 3 4 3 3 3 3 3 3 3 ",
"4 3 4 3 3 3 3 3 3 3 3 4 3 4 4 3 3 4 4 3 4 3 3 3 3 3 3 3 3 3 3 3 3 3 3 3 3 3 3 3 4 3 3 3 3 3 3 3 3 4 4 3 3 3 3 3 4 3 4 3 3 3 3 3 3 4 3 3 3 3 3 3 3 3 3 4 3 4 3 3 4 3 3 3 3 3 3 3 4 3 4 3 3 3 3 3 3 3 3 4 4 4 3 3 3 3 4 0 3 3 3 3 3 3 4 3 4 3 3 3 3 3 3 3 3 3 3 3 4 4 4 4 3 4 4 3 3 3 3 3 3 3 4 3 3 3 3 3 4 4 % 4 4 4 3 3 3 3 3 3 3 4 3 4 3 3 3 3 3 4 3 3 3 3 3 3 3 3 3 3 3 4 3 3 3 3 3 3 3 3 3 3 3 3 3 3 3 3 3 3 3 4 3 4 3 3 3 3 3 3 3 4 3 4 3 3 3 3 3 3 3 3 4 3 3 3 3 3 4 3 3 3 4 3 3 3 3 3 3 3 3 3 4 3 # # # # # # * # # * $ # # $ # * * # # * # * # # * # # # # * # & # # $ # # & # # $ # # # * # # $ # # # & # * $ # # # * # # $ # # # # # * # * * # # $ * # & # # * # # $ # # # * $ # * # * # * # * # # $ # * # # # # # * # #   # # # # * # # $ # # # # # * # # $ # $ # # # # # # * # * # * * $ $ # # * * # * # # # $ # * # # # # # * # # # # # & # # * * # # * # & * # * # # $ * # # * & # $ # # # # $ # # # # * # # * $ # # # $ # * # * $ # # * # # * $ # # $ # # * # # # $ # & & # # $ # # # & # # * $ # $ & # # # * * # # $ # * * # # # * # $ # # # # * & # * * * # * $ # # & # # * # * * # # & # * $ # # # # * $ # # & * # * $ # # * # * # # * # # * # * # * $ * $ # # & # & # # # # # # * # $ # * # * * # * $ # # # # $ * # # # # * # # * * # # $ # * $ $ * # * # * $ & # & # # # # # # # # $ * # * # # * $ & # # & $ # * $ # # # # * $ # # $ # X # . # 2 0 3 4 3 3 3 3 3 3 3 3 3 3 3 3 3 3 3 3 3 3 3 4 3 3 3 3 3 3 3 3 3 4 3 3 3 3 3 3 3 3 3 3 3 3 3 3 3 3 3 3 3 3 3 3 3 3 3 3 3 3 4 3 3 3 3 3 4 3 4 3 3 3 0 2 # # # X & 3 3 3 3 3 4 3 3 4 4 3 3 4 3 3 3 3 4 3 3 3 3 3 4 3 3 3 3 3 3 4 3 4 3 3 3 3 3 3 3 3 3 6 q.[.4.4 4 3 3 4 4 3 3 3 3 3 4 3 3 3 3 3 3 3 3 r.wXU q 3 3 3 3 4 3 3 3 3 3 3 3 3 3 3 3 3 3 3 3 3 3 3 3 3 3 3 3 3 3 3 3 3 4 4 3 3 3 3 3 3 2 & & & & # & % 2 & 2 # 2 2 # X 2 2 & 2 % # # # 2 # # 2 # % 2 & & # & & & & & & * < ~ Q u = u D J.<X+XD * 2 & & & & & 1 _ ! t > > t ;.:X-X` 3 % % # 2 2 # $ # & O % D ;.;.< = X & & & $ # 2 # & & & * ;.5X@X< * & & & # & & & & & & & = > > r < ;.-X=X&.* 2 2 2 # & & 3 3 3 3 3 3 4 2 # X X # 2 0 4 3 3 3 3 3 u >.%X,X>X,X>.* X # # X # X X # # X # # . # . 4 }.jXlXrX<.& X & X # & X X # X # X Q ~ .... .^ 4 3 3 3 3 4 3 3 3 3 ",
"3 3 3 3 3 4 3 3 3 4 3 3 3 3 3 3 3 3 3 3 3 3 3 4 3 3 4 3 3 3 4 3 3 3 3 3 3 3 4 3 3 3 3 3 3 3 3 3 3 3 3 3 3 3 3 3 3 3 3 3 3 3 4 3 3 3 3 3 3 4 3 3 3 4 3 3 3 3 3 3 3 3 3 4 3 3 3 3 3 3 3 3 4 3 3 3 4 3 3 3 4 4 4 3 3 4 5 3 3 3 3 3 3 3 3 3 3 3 4 3 3 3 4 3 4 3 3 4 4 % 4 4 4 4 4 4 3 4 3 3 3 3 3 3 3 4 3 3 4 3 4 3 3 3 3 4 3 3 3 4 3 3 3 3 3 3 3 3 3 3 3 3 3 4 3 3 3 3 3 3 3 3 3 3 3 3 3 3 3 3 3 3 3 3 4 3 3 3 4 3 3 3 3 3 3 3 3 3 4 3 3 3 3 3 3 3 3 4 3 3 3 4 3 3 3 3 3 3 3 3 3 4 3 3 3 4 3 4 3 3 3 3 3 3   # # # # # # $ # # # * # * # # # $ # $ # # # * # # * $ & # # # * # * # & # * # # * * # # # # * # * # $ # # * # * # # # # * * # $ * # # $ # # # # * # # # * $ # * # * # $ & # # & $ # # # # # # # * # * # # # * # * $ # # #   # # # # # * # # * * $ # # * # * # # * * # # * $ # # # # $ # # # * $ # # & $ # # * # # * # # * # * $ # # * # * $ & $ # # # # # & # # # # # * # # $ # # # * # # * * # # # * $ * # # # # * # * # * # # # # # # * # $ # # # * # * # * $ # # * # # * # * # # # $ * # & # * # # * # * # # # $ # # * # # $ # * # # # # * * $ # # # & # # # # # # $ & # * & $ # # # & # & # * # # * # # # * # * # # # # # # * # # # $ # # * # # $ # # # # # # * # # & # * # * $ * # # # * # # # # # # # # # * * # # # * # $ * # # $ # # # * # & # # & # # # # # # # & # * $ * # * $ * # & $ # # $ # # # # * # * # # * # # * # # # * # * # # # X # # 2 3 3 3 3 3 4 3 4 3 3 3 3 3 4 3 4 4 3 3 3 4 3 3 3 3 4 3 3 3 3 3 4 3 3 3 4 3 3 3 3 4 3 3 3 4 3 3 3 3 3 3 3 3 3 3 3 3 3 3 3 3 3 3 3 4 3 3 3 3 3 3 3 3 3 2 X # X # & 4 4 3 3 3 3 3 4 3 4 3 3 3 3 3 3 3 3 3 3 3 3 3 3 3 3 3 3 3 3 3 3 3 3 3 3 3 3 3 3 3 3 3 i s.[.e 3 3 3 3 3 3 3 4 3 3 3 3 3 4 3 3 3 2 5.f.g.e 3 3 3 3 3 3 3 3 3 4 3 3 3 3 4 4 3 3 3 4 3 3 4 3 3 3 4 3 3 3 3 4 3 3 3 3 3 3 4 3 3 3 2 & & & & # $ O # 2 # 2 2 # # 2 # 2 & # 2 # $ O & # $ O & & & & & O & & & & & & * ^ +X-X+XK.+X#X:X-X-.2 * & & & & & & < H.-X@X+XK.@X;X;XH.> X & & 2 & % 2 # # & & % X.-X-X%.4 2 & & & O 2 # 2 & & & ^ +X-X:.= & & & & & & & & & & & & D ;.P.J.#X;X;X:.> & 2 X 2 2 & $ 3 3 4 3 3 4 4 2 X # # X 2 0 4 3 4 3 3 3 u >.2X,X>X%X&.3 X X # # # X # X # # . # # # & y 8XkXjX(.& # # X # # X # & X # X & > ! %.X..._ t 3 3 3 3 3 3 3 4 3 ",
"3 3 4 4 3 3 3 3 3 3 3 3 3 3 3 4 3 3 3 3 4 3 3 3 3 3 4 3 3 3 3 3 3 3 3 3 3 4 3 3 3 3 3 3 4 3 3 4 3 3 3 3 4 3 3 3 4 4 4 4 3 3 4 3 3 3 3 4 3 3 3 4 3 3 3 3 3 3 3 4 3 3 4 4 4 3 3 4 4 4 3 3 3 3 3 4 3 3 3 3 4 3 3 3 3 3 3 3 3 3 3 3 4 3 3 3 4 3 3 3 0 0 % 0 0 3 3 3 3 3 3 3 3 3 3 4 3 3 3 3 3 3 3 4 3 3 3 3 3 4 3 3 3 4 3 3 3 4 3 3 3 3 3 4 3 3 3 3 3 4 3 3 3 3 3 3 3 4 3 3 3 3 4 3 3 3 3 4 3 3 3 3 3 3 3 3 3 3 3 3 3 3 3 3 3 3 3 3 3 3 3 3 3 3 3 3 4 3 3 3 3 3 4 3 0 3 3 3 3 3 4 3 3 4 3 3 3 3 3 4 3 3 3 3 # X # X # & # & & # # # * # # # # # * # $ * # # * # # # * # # * # * # * # # # # # # # # * $ # * & # & & # & # $ # # $ * & # & # & # * # # # $ # * # # # # * # $ $ # # # # * * # * # # # * # # * * # $ * # # * # # $ # # # X # X # # # & & # & # # # $ # # # # * # $ # # # # * # * # # # # # * # # * # # $ # * $ * # # # * # # $ # # $ * # * # # * # # * * # # # # # $ & * # # # # $ * # # $ # * # * # # $ * # * # # # * # $ # * # * # # # # $ # # $ # * # # * # # * # # # * # # $ # # * & # # * # * # # # * # # * # # $ * # # # $ # # * * # # # # * # $ # * # * # # # # # # # # * # # $ # # # # # * # * # # # * # # * # # # * * # # * # $ * # # # # # # # * # * # * # # $ # # # # # $ # $ # # * * # # # # $ # * # * # # & # & # & $ # * # # * # # & # & $ # # # * # # # * # * # # * # * # # & $ # # * # * # # # * # * # * # # # # # # * # * # # # . # # X 3 3 3 4 3 3 3 3 3 4 3 3 4 3 3 3 3 4 3 3 3 3 4 3 3 3 3 3 3 3 3 4 3 3 3 4 3 3 3 3 3 3 3 3 4 3 3 3 4 3 3 3 3 4 3 3 3 3 3 3 3 3 4 3 3 3 3 3 3 3 3 3 3 3 4 3 # X # # & 3 3 3 3 3 3 3 3 3 3 3 3 4 3 3 3 3 3 4 3 3 3 3 3 4 3 3 4 3 3 3 3 3 3 3 3 3 3 3 3 3 4 3 q i I 3 3 4 3 3 3 4 3 3 3 3 3 3 3 3 3 3 3 3 w i i 3 3 3 3 4 3 3 3 3 4 3 3 3 3 3 4 3 3 4 3 3 3 4 3 3 3 3 3 3 3 3 4 3 3 3 3 3 4 3 3 3 3 4 4 % 2 % % O $ & & & & & & $ # 2 2 2 O $ 2 # 2 & & & O # # & O $ # & & & & & X & & t :.#X;X:X;X-XJ.{ , 2 & 2 # & & & & > &.@X-X;X;X;X+X-.< * $ & & & & & & # O & O X ! @X#X~ * & & & & 2 % & & % 2 $ ;.:X#X_ * X 2 2 X # O & & & & & & J H.:X;X-XK. .< & & & 2 & & # # 3 3 3 3 4 3 4 2 # # X # 3 3 4 3 3 3 3 2 y L.,X>X>X$XQ & # X # X # X # X # X X # # X & & P p.(.w.# # X # # X # X & X # # # = ! ..X.X.~ t 3 3 3 4 3 3 3 3 4 ",
"3 3 4 4 4 3 4 3 3 4 3 4 4 3 3 3 3 3 3 3 3 3 % 4 3 4 3 3 3 4 4 3 3 3 4 3 3 3 3 3 3 3 3 3 3 3 3 3 3 3 3 3 3 3 3 4 4 4 4 % 3 3 3 3 4 3 3 3 3 3 3 3 3 3 4 3 4 3 3 3 3 3 4 4 4 4 4 % 4 4 3 4 3 3 3 3 3 3 3 3 3 3 3 4 3 4 3 4 3 3 3 3 3 3 3 3 3 3 3 4 0 0 0 0 3 3 3 3 3 3 3 3 4 3 3 3 3 3 4 3 4 3 3 3 3 4 4 3 3 3 3 3 3 3 4 3 3 3 3 3 4 3 3 3 3 3 3 4 3 3 3 3 3 3 3 4 3 3 3 3 3 3 3 3 3 3 3 3 3 4 3 3 4 3 4 3 0 3 3 3 3 3 0 3 3 3 3 3 3 4 3 4 3 3 3 3 3 3 3 4 3 3 3 3 4 3 3 3 3 3 3 3 3 3 3 3 3 3 3 3 3 3 3 2 # X X # # $ & # # * # & $ # # * # * # # # # # * # # # * # $ # # # $ # # $ * # * # * $ * # # # # # & # & * # # * * # # # # $ # & # * # $ * # # * $ # # * $ # # # # # * * * # # # # # * * # $ # # # # # # # * # # * # # * # # X # # # & # # & # & * # * # * * # # # # * * * $ # # # # * * # * # # $ # # * # # # # # # # * $ # # * * # # # & & # $ $ # $ # $ # * # * # * # # # # * # * # # * # $ # # $ * # # # # # * # # # * # # # # # * $ * # # * * # $ # # * # # $ # # * # * # * # # * # # * $ # # $ * # # * # $ $ # # * # # * # * # # # # & # * # # # * # $ # # $ * # * * # * # # # * # # * # * # # # $ * # # # # $ # # $ # # # # * # # # # # * * # * # # # # $ # # $ * # # * # * # * # * # # # $ # # * * # # # # $ * # # & # & # * # * # $ $ # & # & # # # * # # # * # # # # $ # # # $ * # * # # * # # $ # * # # # $ # # # $ * # * $ # # # # * # # # . # 3 4 4 3 3 3 3 3 3 3 3 3 3 3 3 3 3 3 3 3 4 3 3 3 3 3 4 3 4 3 3 3 3 3 3 3 3 3 3 3 3 3 4 3 3 3 3 3 3 3 3 3 3 3 3 3 4 3 3 4 3 3 3 3 4 3 3 3 3 4 3 4 3 3 4 2 # # X # & 3 3 3 3 3 3 4 3 3 3 3 3 3 3 3 3 4 3 3 3 3 3 3 3 3 3 3 3 3 3 3 3 3 3 4 3 3 3 4 3 3 3 3 3 3 3 3 3 3 3 3 3 3 3 3 4 3 4 3 3 3 3 3 3 3 3 3 3 3 3 3 3 3 3 3 4 3 3 3 3 3 4 3 3 3 3 3 3 3 3 3 3 4 3 3 4 4 3 3 3 3 3 4 3 3 3 3 3 3 3 4 3 2 % 2 2 # # & % & & # O O & X 2 2 X # # 2 & & & & # & % 2 2 # # & & & & O 2 & 2 * < _ ! ' { ! K > O # & % # & & & & * 1 ^ _ ' { ` Q > O $ & 2 & & & & & # # & & # r ! _ q 2 & & & & # # & & 2 # $ D ~ ^ > & 2 2 2 2 2 X & & & & & & = K ~ ! ! ^ q # & & 2 # & & O # 3 3 3 3 3 3 3 2 X # # X 2 4 3 3 3 3 3 3 H L.,X>X>X$X< & X # X & X & X & X & # X X # X # . u I e X # # X X # # # X # # X X * ! %. .X.{ t 3 3 3 3 3 4 3 3 3 ",
"4 3 3 4 3 3 3 3 3 3 4 3 3 3 3 3 3 3 3 3 4 4 4 4 4 4 4 % 3 3 4 3 3 3 3 3 3 3 3 3 3 3 3 4 3 3 3 3 3 3 3 3 3 3 3 3 4 4 3 3 4 4 4 3 3 3 3 3 3 3 3 3 3 4 3 4 3 3 3 3 3 3 3 4 4 4 3 3 4 4 % 4 4 3 3 3 3 3 3 3 3 3 3 3 3 3 3 3 4 3 3 3 3 4 3 3 3 3 3 3 0 0 0 0 3 3 3 3 3 3 q 3 3 3 3 3 3 4 3 3 3 3 3 3 3 4 3 3 3 3 3 3 3 4 3 3 3 3 3 4 3 3 4 3 3 3 3 3 3 3 3 4 3 4 3 3 3 3 3 4 4 3 3 3 4 3 3 3 3 3 4 3 3 3 3 3 3 3 3 3 3 3 3 3 3 3 3 3 3 3 4 3 4 3 3 3 3 3 3 3 4 3 3 3 3 3 3 4 3 4 3 3 3 3 4 3 4 3 3 3 3 3 3 3 X # # X # & # & # # * # * # * # # * # # # # # $ # $ * # # # * # # * # # * # # # * # $ # # # * # $ # # # # # * # # * # * * # * # # # # # # # # $ * # # * # # # * # * # # # # $ # # $ # # # * $ * # * # $ # # $ * # # # * # . # # X # $ & # # * # # # # * # # $ # * # # # # # # * # $ # # # # # # # # # $ # * # # * $ # # # # * # * $ # * & # # $ * # & # # # $ # # # # # * # * # # # # * # * # # # # # # # * * # # * # * # * # * # # # # * # # * # * # # # * # # $ # # $ # # * # * # # # # * # # $ # # # $ # # & * # * # * $ # # * # $ * & # # $ $ # # # # * # $ # * # # # # $ * # $ * # * # # $ $ * # $ # * # * $ # * # # * # * # # * * # # # * * # # * # * # # * # # # * # # * # # # * # * # * * # * # # * # * # # # # & # # $ # * # # # * * # & & # $ * # $ * # $ # * # * # # $ # # # $ # # # # $ $ # * # * $ # # # * * # * $ # * # # $ # # $ # . # # # 2 3 3 3 3 3 4 4 3 3 3 3 3 4 3 3 3 3 3 3 3 4 3 3 3 3 3 3 3 3 4 3 3 3 3 3 3 3 3 3 3 3 3 3 3 3 3 3 3 3 4 4 3 3 3 3 3 4 3 3 3 3 3 3 3 4 3 4 3 3 3 3 3 3 4 2 X # X X & 4 3 4 3 3 4 4 3 4 3 3 3 3 3 3 4 3 3 3 3 3 4 4 3 3 3 3 3 4 3 4 3 3 4 3 3 4 3 3 3 4 3 3 3 3 3 3 3 3 3 3 3 3 3 3 3 3 4 3 3 3 4 3 3 3 3 3 3 3 3 3 3 3 3 3 3 3 3 3 3 3 3 3 3 3 4 3 3 3 3 3 4 3 3 3 3 4 3 3 3 3 4 3 3 3 3 3 3 3 4 4 4 % 2 2 # # 2 # 2 & & # # 2 & 2 % 2 & $ O # 2 & & 2 % 2 2 2 2 2 % & & & & $ # & # O X X % o o X % X 2 2 # $ # & # & & & & X % % X & # 2 2 2 X # 2 % & O & % & & & 2 2 % X # # & & & & $ # & 2 # 2 X O X % X O 2 2 2 % # 2 & & & & & & # % % X % X 2 # 2 X X 2 & & & 2 2 3 3 3 3 3 3 2 # X # X 2 3 3 3 3 3 3 3 J %X>X>X>X$X> & X # # # # X X # # # X & X # # X X X X X # X # # # # X # & X # X # & Q %.X.X.X.t 3 3 3 3 3 3 3 3 3 ",
"3 3 3 4 3 4 3 3 3 3 3 3 3 3 4 3 4 3 3 4 3 4 4 4 4 4 4 4 3 3 3 3 3 3 3 3 3 3 3 3 3 3 3 4 3 4 4 3 4 3 3 4 3 4 3 3 4 3 3 3 4 4 4 4 3 3 4 3 3 3 4 3 3 3 3 3 3 3 4 3 4 3 3 3 4 4 4 4 3 3 4 3 3 3 4 3 4 3 3 4 3 4 3 3 3 3 3 3 3 3 3 4 3 3 3 3 4 3 3 3 0 0 $ 0 3 3 3 4 3 3 3 3 3 3 3 3 3 3 4 3 3 3 3 3 3 3 3 3 4 3 3 3 3 3 3 3 4 3 3 3 3 3 3 3 3 4 3 3 3 3 3 3 3 3 3 4 3 3 3 3 3 3 3 3 3 3 3 3 4 3 3 4 4 3 3 4 3 4 3 4 0 3 3 3 3 3 3 4 3 3 3 3 3 3 3 4 3 4 3 3 3 3 3 4 4 3 3 3 3 3 3 4 4 3 3 3 3 3 3 3 3 4 0 2 # # X # X & & # $ * # # # # # $ $ # # * * # * # * # # # # * # $ # # * # # # # * $ # # # $ * # # # # $ $ # $ # # # # # # # # # # * # * # $ * # & # $ # # * # # * # # * # # $ # * # # $ # # # # # # * # # * # # # * * # # # # . . # # # # $ * # # * # # $ # * # # * # * # # * # * # # # * # * $ * * # * # # * # * # # * # * # # # # # # # # & # $ # # # * * # * # $ * # $ $ # # $ # * $ # # # # * * # * $ # $ # # # $ # # # # # $ * # * # # $ # # # # # * $ # # * # # * # $ # # # # $ # * $ # # * * # * # # # * # # # # # # # * # # # # # # & # # # * $ & # # # * # # # * * $ # # * # # # # # # * # # * # # # # $ # # * # # * # # $ # # # * $ # # # $ # # # # * # $ # # * * # # * # $ # # # $ # # # # # # # $ # # * # * $ # # $ $ # # # # # # # # # # & # * # # # * # $ # # # * # # * * # * # * # # * # # # # # # $ * # # # # # # $ # # * * # * # #   #   # 3 3 4 3 3 3 3 3 3 3 3 4 3 3 3 3 3 4 3 3 3 3 3 4 3 3 3 3 3 3 3 3 3 3 4 3 3 3 3 3 3 3 3 4 3 3 3 3 3 3 3 3 3 3 3 4 3 3 3 3 3 3 3 4 3 3 3 3 3 3 3 3 3 3 0 3 # X # # & 3 3 3 3 3 3 3 3 3 3 4 3 3 3 3 3 3 4 3 3 3 3 3 3 3 3 4 3 3 3 3 3 3 3 4 3 3 3 3 3 3 3 3 3 3 3 3 3 3 3 3 3 4 3 3 3 3 3 4 3 3 3 3 3 3 3 3 3 3 3 4 3 3 3 3 3 4 3 3 4 3 3 3 3 3 3 3 3 4 3 3 3 3 3 3 3 3 3 4 3 3 3 3 3 4 3 4 3 3 3 3 % % % % 2 2 # 2 2 # & # 2 % & 2 2 & & # % 2 # & & & 2 X 2 2 X # 2 2 & & & & & & & $ & 2 2 2 2 2 2 & 2 % 2 O 2 # O & & & & 2 # O & # O X 2 2 2 2 # 2 & $ & & & & % 2 X & O % 2 & & & & O 2 # # 2 # 2 & % 2 & & & % # 2 # 2 & & & # O # # $ O & & & 2 O 2 2 2 2 & & & & 3 3 3 3 4 3 3 2 X # X # 3 3 3 3 4 3 3 2 t %X>X>X>XL.& # # X # X X # # X # X # X # X # # # X & X X # # X X X # X X # X # # . Q ..X. .X.t 3 3 3 3 3 4 4 3 3 ",
"3 4 3 3 3 3 3 3 4 4 4 3 3 3 3 4 3 4 3 3 3 4 3 3 4 4 4 4 4 4 4 0 3 3 3 3 4 3 4 5 4 5 5 4 4 4 4 4 3 3 3 3 3 3 3 3 3 3 3 4 3 3 3 3 3 4 3 3 3 3 3 3 3 4 3 3 3 4 3 3 3 4 3 3 3 3 3 3 4 4 4 4 3 3 4 3 3 3 3 3 3 3 3 3 0 0 4 3 0 0 0 0 0 0 0 0 4 4 w q , , , 0 , $ , $ 3 3 3 3 3 3 3 3 3 4 3 3 3 3 3 4 3 3 4 % 4 4 3 4 3 3 3 3 3 3 3 4 3 3 4 3 3 3 3 3 4 3 3 3 3 3 3 3 4 3 3 3 3 3 3 4 3 3 3 3 4 4 4 4 3 5 w 5 5 8 e 8 8 5 w 0 3 3 3 3 4 4 4 3 4 3 3 3 3 3 4 3 3 3 3 3 3 3 3 4 3 3 3 3 3 3 3 3 3 3 3 4 3 3 3 3 # # # X # # # * * # * # * # # # * $ * # # # * # $ # # * # # # # # # $ # * $ # * & # & * # * # # $ & $ $ $ * % % * * $ * $ # # $ # # # $ # * # # $ * * # # # * # # * # # # # * # # * # # # * # # * # * # # $ * # # # # * #   # # # # $ # * # # # * # # # # $ # # # $ # # # # $ # # # * # # # $ # # # # $ # # # # & # $ $ # $ $ $ * # $ * 2 $ * $ # $ # $ * # # * * # * # * # # # # * # * # # # # # * # # # * # * * # # # # # $ # # * # # * # # # * # # # $ # # # * * # # # # # * # # # $ $ # # # # * # # $ # & & # $ % % # # $ $ * # * * $ $ $ $ $ $ # $ # # $ * # # * $ # * # # # * # # # # * # # # * # # # # # * $ * # # * # # * # $ # # # # # $ # * # $ # # * # $ # # # # * # $ * # * # * # # $ # * # & # & # # * # # % % $ $ % % % 3 , $ 3 % $ $ # $ # * # # # * # # $ # # $ # # # # # # $ # * # # * * # # * # # $ * # # $ # * # # * # # # * # #   # # 3 3 3 3 3 3 3 3 4 3 3 3 3 4 3 3 4 4 3 3 3 3 3 4 3 3 3 3 3 4 4 4 q u 0 r 0 , q q 4 4 4 4 4 3 3 4 3 3 3 3 3 3 4 3 3 3 4 3 3 3 3 3 3 3 3 3 3 3 4 3 3 3 4 2 # # X # & 3 3 3 4 3 3 3 3 3 3 3 3 3 4 3 3 4 3 3 3 3 3 3 4 3 3 3 3 4 3 3 4 3 3 3 3 3 4 3 3 4 3 3 3 3 3 3 3 3 4 3 3 3 3 3 4 3 3 3 3 3 3 3 3 4 3 3 3 3 3 3 3 3 4 3 3 3 4 4 3 3 3 4 3 3 3 3 3 3 3 3 4 3 3 3 3 3 4 3 3 4 3 3 3 3 3 3 3 3 4 3 3 2 % & & O $ O $ # & 2 2 2 # # O & & # & & & 2 # 2 2 & & & & % 2 X 2 & 2 X 2 # 2 % & & & & & % & & & 2 X 2 # # & & & 2 % O # $ # 2 O $ # & & # # % 2 # & & & # 2 # 2 # $ & % & & & & & & & 2 2 2 2 % & & & & & O # # % & & & & & & & & & & & & & & & 2 & & & 2 X 2 % 3 3 3 3 3 3 0 2 # # # X 2 3 3 3 3 3 3 3 i ,X,X,X>XL.* X X & # X # X X # X # X & X X # X & X # # X # X # # X # X # X X # # * Q X.X...{ t 3 3 3 3 3 4 3 3 3 ",
"3 3 3 3 3 4 3 3 4 4 4 3 4 3 3 3 3 3 3 4 3 3 3 3 4 3 4 4 % 4 4 w 3 3 3 3 9 + a v v v v v v v a + 9 3 3 3 3 4 3 3 4 3 3 3 3 3 4 3 3 3 3 3 4 3 4 3 3 3 3 3 3 3 3 3 3 3 3 3 3 4 3 3 4 4 4 4 3 3 3 3 3 4 3 3 4 3 4 3 0 % 0 3 $ 0 0 0 0 0 r G W #.#.#.@.@.#.#.G G , , 4 3 4 3 3 3 3 3 3 3 3 3 4 3 3 3 4 3 3 3 3 0 3 3 3 3 4 3 3 3 3 3 3 3 3 3 3 4 3 3 3 3 4 3 4 3 3 3 3 3 3 4 3 3 3 3 3 4 3 3 4 0 4 5 9 Z B B N N N N N N B x 9 q 3 3 4 4 3 3 3 3 3 3 3 4 3 3 3 3 3 3 3 3 3 3 4 3 3 3 3 3 3 4 3 4 3 3 3 4 3 2 # . # X # * # # # # $ # # # # * # # # # # * # # * # # # $ * # * * # * # # # # # # & & # # # # $ * * 3 w e e y y r e e r 3 3 * # $ $ # # # # * # # # # $ # * $ # * # # $ * # * # $ # # * # # * # # $ # # * # # # # $ # # # # # . # # * $ # # # * $ # * # * # # * # * # * * # * # # * # $ * # * # # * * # * $ & $ # & $ $ $ * 3 q r r e e e e e e q 3 * $ # $ # # # # $ # # # * # # # # $ # * # * # # # $ $ # # # # # * $ * * # # $ # * # # $ # * # # * $ # # * * # # * # $ # * # * * # # # # * # # # * $ # # # & $ $ % % * 3 0 w r e y e e w e w 3 $ $ $ * # # # # * # # # # # $ $ # # * # * $ # # * # # # * $ * # # # # # * # $ # # # * # * * # # * # $ * # # # # * * # # $ $ # # # # # # # * # # * $ # * & # & # # $ * 3 4 w w y T 4.4.1.[ Y i q $ $ $ # # # $ $ # # * # * # * * $ * # * # # # * # # * # $ # # * # # # * # # * # $ # # * # # # # # # # X 3 3 3 3 3 4 3 3 3 3 3 3 3 3 3 3 3 3 3 3 3 3 3 3 3 3 4 4 3 q r J ^ ! ! ~ { ~ ! { ^ t r 4 4 3 3 3 3 3 4 4 3 3 3 3 3 3 3 3 4 3 4 3 3 3 4 3 4 3 3 3 3 4 0 2 $ X # X $ 3 3 3 3 3 3 3 3 3 3 3 4 3 3 3 3 3 3 3 3 4 3 3 3 3 3 3 3 3 3 3 3 3 3 3 3 3 3 3 3 3 3 3 4 3 3 3 3 3 3 4 3 3 3 3 3 3 3 q 3 3 4 3 3 3 3 3 3 3 3 3 4 3 3 4 3 3 3 3 3 3 3 3 3 3 4 3 3 4 3 3 3 3 3 4 3 3 3 3 3 3 3 3 3 4 3 4 3 3 3 4 2 # 2 & & # # % 2 # & 2 2 X 2 # & & & # 2 2 & & & X 2 2 & & & 2 2 2 2 & & 2 2 2 2 & & & & 2 & & & & & & 2 2 2 & & & & # 2 $ # 2 # # 2 # # & & & $ O # # & & & 2 & 2 % # O & 2 & & % 2 & & & 2 X 2 $ O & & & & & & 2 # 2 # 2 & & & 2 2 & & & $ & & & & % 2 & & & 2 2 2 3 4 3 3 3 3 0 2 # # # X 3 3 3 3 3 3 3 3 t %X,X,X>X$X> & # X X # X & # # & X # X # # X # X # # X & X # # X # # X X # # X X & Q X.....~ t 3 3 3 3 3 3 3 3 3 ",
"3 3 3 4 3 4 4 3 3 4 3 4 3 3 3 3 3 3 3 3 4 3 4 3 % 4 4 4 4 0 0 % 4 5 9 v v v v b n n n n n n b v v a + 5 3 3 4 3 3 3 3 3 3 4 3 3 3 3 3 4 3 4 3 3 3 3 3 3 3 3 3 4 3 3 3 4 4 3 4 3 3 3 4 3 4 3 3 3 3 3 4 3 3 4 3 3 0 0 0 0 0 0 $ 0 L #.#.@.+.+.O.O.+.+.+.+.Y.#.@.G L r 4 3 3 3 3 3 3 3 3 4 3 3 3 3 3 3 3 3 3 3 3 3 3 4 3 3 3 3 3 3 3 3 3 3 3 3 4 3 3 3 3 3 3 3 3 3 4 0 3 3 0 3 3 3 3 3 3 3 q q x B N c.c.c.c.x.v.x.x.x.c.c.N N Z 9 4 4 3 3 3 3 3 4 3 3 4 3 4 3 3 3 3 3 3 3 3 3 3 3 3 3 3 3 3 3 4 3 3 3 4 3 # # X # # # # $ # # # * * # * # # # * # # * # * # * # * * # # $ # # # * # * * # $ # # # $ # # = r e e e y P y P P i P y e e e 0 * $ # $ * # $ # # # # # # * # # # # # # # * # # * # # # * * # # # # * * # # # * # * * # #     # # # $ # * $ # # # # * $ # # # $ # # $ # # * # # # # # # # # # * # # # # # # # & & # % % 0 e e e i y P P i y i i y e w w = $ # $ # # * # * # # * $ # # # * # # $ $ # * # * # # # # $ * # # # # * # # # # # # * # $ # # # # * $ # # # # # * # # # # # * # * # $ * # # # # # * # # # $ % 0 e e e i e P P P P P P e w e 0 0 * # # * # $ # # $ # * # * # * $ # # # # # * # * * # # # # # * # # # * # # * # # # # * # # # # # # * $ # # # # # # # * # # * * # $ # # # # # # # # # $ # # * , w y y i i P [ 7.q.0.q.4.4.3.<.P 3 # # * # * # * # * $ # # # # # # # * # * # * # # # * # # # * # * * # * # # * # # # # * * # # # # # 2 3 3 4 3 3 3 3 3 3 4 3 3 3 3 3 3 4 3 3 3 3 4 3 3 4 3 4 J _ { ~  . .X.&......... .{ ~ ! J u 2 3 3 3 3 3 3 4 3 3 3 3 3 3 3 3 4 3 3 3 3 3 3 3 3 3 3 3 3 2 # # # # $ 3 3 3 3 3 4 3 3 3 4 3 3 4 3 3 3 3 3 4 3 3 3 3 3 3 4 3 3 3 3 3 3 4 3 3 3 3 3 3 3 3 3 3 3 4 3 4 3 3 3 3 3 4 3 3 3 3 3 3 3 3 3 4 3 3 3 3 3 3 5 3 3 4 3 3 3 3 3 3 3 3 4 3 4 3 3 4 3 3 3 3 3 3 4 3 3 3 3 3 3 3 3 3 4 3 4 3 3 3 3 3 3 2 # 2 # # 2 2 # 2 2 X 2 & & # % & & & 2 # % 2 & 2 2 # 2 % & X 2 2 # 2 2 X 2 2 2 2 2 X 2 % & 2 2 & & 2 # 2 2 2 2 & & 2 2 2 2 # % & # 2 # % & # 2 2 2 # & # 2 & & & & # 2 2 # # O # # & 2 2 2 & & # # & & & & & % # 2 % 2 2 # X 2 & 2 & 2 O $ & # & & 2 % X 2 2 # & % 3 3 3 3 3 3 4 2 X # X # 3 3 3 3 3 4 4 4 t %X,X,X>X$X< & X & X # # X # X . & X # # X & X # X X # X # & X # # X # # # X & # - ! X..... .u 3 3 3 3 3 3 3 3 4 ",
"4 3 3 3 3 3 3 3 3 3 3 3 3 3 3 3 4 3 3 3 3 3 3 3 4 4 4 4 4 4 5 5 9 a v b m n n n n n n n n n n n m n v a + 9 0 4 3 3 4 3 3 3 4 3 4 3 3 3 3 3 3 3 4 3 3 3 4 3 3 3 4 3 3 3 3 3 3 3 3 3 3 3 3 3 3 4 % 4 3 3 3 3 3 3 0 0 0 0 0 0 G G #.+.O.Y.O.O.O.O.+.+.Y.+.Y.Y.Y.+.#.] W H 3 3 3 3 4 3 3 3 3 3 3 3 3 3 4 3 3 3 3 3 3 3 4 3 3 3 4 3 4 3 3 3 4 3 3 3 3 4 3 3 3 3 3 4 3 3 3 3 3 3 3 3 3 3 3 8 x B N c.v.v.v.v.v.v.x.v.x.x.x.x.x.v.N B C 9 0 3 3 3 3 3 3 3 3 3 3 3 3 4 3 4 3 3 3 3 4 3 3 4 3 3 3 3 3 3 3 3 3 3 # X # X # # # * # * # # $ # # # # * # # $ # # # # $ # # # # # * * $ # # # # $ # # # * $ * = q e P P P P P P P P y i P P P P P y e q 3 # # # * # * # * # # # # * $ # * * # # # $ # # * * # # $ # * # # # * # # * # # # $ # # # # # # # # # # * # * # # # * * # # * # # * # # # * # * $ * # $ # # * # * $ * # & # & * 0 w y i i P P i P i P i P P P P P i e r q * # * # # # $ # # # * * # $ # # * # # * # # # * # * # # # * # # # * * # $ * # # # * # * # # # # # * * # $ # * # $ # * # # $ # # # * # * # # $ # $ 3 e P i i P P P P y P P e P P P P P P w w , * # # * # * # # * # # # # # $ * # * $ # # # $ # # * # * $ # * # # # $ # * # * # # $ # * * # # # # * # * $ * # * # # $ # # # # * # * $ * # * * # # $ 3 w e P i P i i i ( 7.q.w.q.w.q.q.q.4.<.P , * # # # # # # # # * * # $ * # $ # # # # # $ # # * $ # # # # # # # $ # # * $ # $ # # #   #   # 3 3 3 3 3 3 4 3 3 3 3 4 3 3 3 3 3 3 3 4 3 3 3 3 4 r t ^ {  .........................X...{ ! ^ u 3 3 3 3 3 3 3 3 4 3 3 3 3 3 3 4 3 3 3 3 3 4 3 3 4 3 4 2 X # X # 2 4 4 3 3 3 3 4 3 3 3 3 3 3 3 3 3 3 4 3 3 3 4 3 3 3 3 4 3 3 3 4 3 3 3 3 4 3 3 4 3 3 3 4 3 3 3 3 3 3 3 4 3 3 3 3 3 3 3 3 3 3 3 3 3 3 4 3 4 4 4 3 3 3 3 3 3 3 3 3 3 3 3 3 3 3 3 3 3 3 4 3 3 3 3 3 3 3 4 3 3 3 4 3 3 3 3 3 3 3 3 3 3 2 3 2 2 3 2 3 2 2 3 2 2 3 2 2 3 3 2 2 3 2 2 2 3 2 2 2 2 2 3 2 2 3 2 2 2 3 2 2 2 2 3 2 2 3 2 2 2 2 2 2 3 2 2 2 2 2 2 2 3 2 2 2 3 2 3 2 3 2 3 3 2 3 2 2 3 2 2 2 3 2 2 3 2 3 2 2 2 3 2 2 2 2 2 2 2 3 2 3 2 2 3 2 2 3 2 2 3 2 3 2 3 2 2 2 2 * 2 3 2 2 3 2 6 2 2 2 3 2 2 3 3 4 3 4 3 3 2 # X # X % 3 3 3 3 4 4 5 t >.,X,X>X$X^ * # X # X X & X & . # # # X & X # X # # X & X X # X # # X # X # X # 1 ~ X.....~ e 3 3 3 3 3 4 3 3 3 ",
"3 3 4 3 3 3 3 4 3 3 3 4 3 3 3 4 3 3 3 4 3 3 3 3 3 4 3 3 % 5 9 + v n n n n n n n n n n n n n n n n n n n b a 9 3 3 3 3 3 3 4 3 3 3 3 3 4 3 3 3 3 3 3 4 3 3 3 3 3 3 3 4 3 3 3 3 3 3 3 4 3 4 3 3 3 4 3 3 3 3 3 3 3 3 3 3 0 , G +.O.O.O.O.O.Y.+.Y.Y.+.Y.+.+.Y.+.+.+.Y.Y.@.@., , $ $ 3 3 3 3 3 3 3 3 4 4 4 % 3 4 3 3 3 3 % 4 3 4 4 4 3 3 3 3 3 3 3 3 3 3 4 3 3 4 3 3 3 3 3 4 3 3 3 3 = 3 9 B N x.v.v.x.x.x.x.v.v.v.v.x.x.x.x.x.x.v.v.x.B x 8 4 4 4 3 3 3 3 3 3 3 3 3 3 3 3 4 3 3 3 3 3 3 3 3 3 3 3 3 3 3 3 3 # # # . # # $ * # * # # # # $ # # * * # # * # # # # # # # $ # * # # # $ # * # * # # $ * q w P P P e P P i P P P P P P P P P P P P y e 3 $ $ # # # # # * * # # , # # # # * # # # $ # # # # * # # # # $ # # # # * # # # # # # # #   # # # $ # # # # * $ # # # # # # $ # # # * # # * # # # * * # # # $ # # * $ # * 0 w e P i i i P P P i P P P P P P P P P P P y q 2 $ $ # # # & # # # # # * # * # # # # # $ # # * * # # # # # * # # $ # # # # * # # * # # * * # # * # # # $ * # # # # # * * # * # # & & & # # * e T 3.4.P P i P i P P P P P P P P P P e P P y q 3 # # # $ * # # # # # * # * # # # # $ * # # * # # $ # # * * # # $ # # * # * # # # * # # $ # * * # # # # * * # # # # $ # * # * # * # & # & # $ 3 0 e P i P P y P P P E 7.w.w.q.q.q.q.q.w.w.9.[ e 3 # # # $ # # * $ # * # # $ # # # # # $ # # * * # # # # # # # * $ # * # # # & # & # # X # # 2 4 3 3 3 4 3 3 4 3 3 3 3 3 4 3 3 4 3 3 3 3 4 4 < ^ ~ ............X.....X.X.X.X.X.X.X...X.....` t q 4 3 3 3 3 3 3 3 3 3 3 3 3 3 3 3 3 3 3 4 3 3 3 3 4 2 # X # X 2 3 3 3 3 3 3 3 3 3 4 3 3 3 3 3 4 4 3 3 3 3 4 3 4 3 3 3 3 3 4 3 3 3 3 4 3 3 3 4 3 3 3 3 4 3 3 3 3 3 3 3 3 3 3 3 4 3 3 3 3 3 3 3 3 3 3 3 3 3 3 3 4 3 3 3 3 3 3 4 3 3 3 3 4 3 3 3 3 3 3 3 3 4 3 3 3 3 3 3 3 4 3 3 3 3 3 3 3 3 4 3 3 3 3 4 3 4 3 4 4 3 4 3 4 3 4 3 4 3 3 3 3 3 4 4 3 4 3 4 3 4 3 4 4 4 3 3 4 3 4 3 4 3 3 4 3 4 3 3 3 4 3 4 3 4 3 3 3 3 3 4 3 4 3 4 4 3 4 3 4 3 4 3 3 3 4 3 4 3 3 3 4 3 4 3 4 4 3 3 3 3 3 3 4 3 4 4 4 4 3 4 3 4 3 3 4 3 4 3 4 4 3 3 4 3 4 3 3 3 3 3 3 4 3 4 3 4 3 4 3 3 4 3 3 3 3 3 3 3 & # X # X 2 3 3 3 3 3 3 3 u -.2X,X,X%X{ * X & . # # # X # # X . & X . # # & X # # X # # X # X X # # X X # # F ~ X.X. .! u 3 3 3 3 3 3 4 3 3 ",
"3 3 3 3 4 3 3 3 3 3 3 3 4 3 3 3 3 3 3 3 3 4 4 3 3 3 3 3 5 9 v b n n n n b b b b v v v b v b b n b n n n n b b + 5 3 3 3 3 3 3 3 3 3 3 3 4 3 3 4 3 3 3 3 3 3 4 3 3 3 3 3 3 4 3 4 3 3 3 3 3 3 3 3 4 0 3 3 3 3 3 0 3 3 q H @.O.O.O.O.O.O.+.+.+.@.@.@.@.@.@.@.Y.+.Y.+.+.Y.@.@.G , , 3 3 3 3 3 3 3 0 4 0 4 4 3 3 3 3 4 3 4 3 4 4 3 4 3 4 3 4 3 3 3 3 3 3 3 3 3 3 3 3 3 4 3 3 3 3 3 4 > x B v.c.x.v.v.x.x.c.c.c.N c.c.N c.c.c.x.x.x.v.x.x.N x 8 4 3 4 4 3 3 4 3 3 4 3 3 4 3 3 3 3 3 4 3 3 3 4 3 3 3 3 3 3 3 2 X # . # # # # # # # * # * # # * # # $ # # # $ * $ * # * * # $ # # * * # & # # # # * $ q P e P e P P P e e e e w e e e e e P i i i P P e q * $ # $ * # # $ # # # # # # $ # # * # # * $ # # # $ * $ * # # # * $ # # * # * #     # # # # # # # * * # # # # # * * # * # # * # * # $ # # # * # # # $ # * * # # # * 0 y y P y i P i i P e e e e e e e e P e P P y P P e 3 $ $ $ & # & * $ * # # # $ # * # * # * # # # $ # # * $ # * # * # # * $ # * # # * # * # # # $ # $ * # # # # * $ # * # # # # # & # # # & = e 3.q.w.9.T P i P e H w w e e e e e P P P P P P P e 0 $ # # # # $ * # * # # # # * # * # # # # # * # * # # # # # * # * # # # # # * # # # * # # # # $ # * # # $ # # * * # $ # # $ # # & # & $ $ = r P i i i i P P e y y I 2.3.4.4.9.9.q.q.q.q.w.9.1.P 3 $ # # # * # # # # * # # # * # * # * # # # # $ $ * # * * # # # # # * # & # & # # X # X # 3 3 3 3 3 3 3 3 3 3 3 3 4 3 3 3 3 3 3 3 3 4 4 t ` X........... .o. .~ ~ ~ ~ ~ ~ ~ ~ X.......X.$.~ J q 4 3 3 3 3 3 3 4 3 3 3 3 3 3 3 3 3 3 3 3 3 3 3 3 3 # X # # $ 3 3 3 3 3 4 3 3 3 3 3 4 3 3 3 3 3 3 3 3 3 3 3 3 3 3 3 4 3 3 3 3 3 4 3 3 3 3 3 3 4 3 3 3 3 3 3 4 3 3 3 3 4 3 3 3 3 3 3 3 3 4 3 4 3 3 3 3 4 3 3 3 3 3 3 4 3 4 3 3 4 3 3 3 3 3 3 4 3 3 3 3 3 3 4 3 4 3 3 3 3 3 3 4 3 3 3 3 3 3 3 3 3 3 3 3 3 3 3 3 3 3 3 4 3 3 3 3 3 3 3 3 3 3 3 3 3 3 3 3 3 3 4 4 3 3 3 4 3 3 3 3 4 3 3 4 3 3 3 3 3 3 3 3 3 3 3 3 3 4 3 3 3 3 3 3 3 3 3 3 3 3 3 3 4 3 3 3 3 3 3 3 3 3 3 3 3 3 3 4 3 4 3 3 3 3 3 3 3 3 3 3 3 3 3 3 3 3 3 3 3 3 3 3 3 3 3 3 3 3 3 3 3 3 3 3 3 3 3 3 3 3 3 3 3 3 3 3 4 2 X # X # 3 3 3 4 3 4 3 3 q ] %X,X,X,X>.4 X X # # X X & X # # & X # # # X X # # X & X X & X # # X X # # . # Q  .X.X. .^ r 3 3 3 3 3 3 3 3 3 ",
"3 3 3 3 3 3 3 3 3 3 3 3 3 3 3 0 3 3 3 3 3 3 4 4 3 4 3 5 + v n n n n n n b v @ @ O O O O O O @ v v b n n n n n b + 5 3 3 3 3 3 3 4 4 3 3 3 3 3 3 3 3 3 3 3 4 3 3 3 3 3 3 3 3 3 3 3 3 3 3 3 3 3 3 3 3 3 3 3 3 3 3 0 q G #.O.O.O.O.+.Y.+.@.G G , $ , , , , G G @.+.+.+.Y.Y.Y.#.W H 3 3 3 3 3 3 3 3 4 4 3 3 3 3 3 4 4 4 4 3 3 3 3 3 3 3 3 4 3 3 3 4 3 4 3 3 3 3 3 4 3 3 4 3 3 3 3 5 g c.x.x.x.x.x.c.c.N B g @ O 6 6 6 @ g B c.v.x.x.x.x.x.c.C 9 4 4 3 3 3 3 3 3 3 3 3 3 3 3 3 3 3 3 3 4 3 4 4 3 3 4 3 3 3 3 # X . # # # # * # # # # # # * # # $ # # * # # # # * # $ # # # # # # # # # & # # $ = e P P P P P P e q q 3 # # # # # $ % 0 e e P P i P P P q 3 # # * # $ # # # $ $ # * # * # # * # * # # * # # # # * # * $ * # # * # # $ # # #   # # # # * # $ # * # # * # # $ # * # # * $ # # # * * # # # # * # & # * # # * q P P P P y P y y e * * # # # # # $ % w e e i i P y i e 0 % # # & # # # # # # # * # # # # * * $ $ # * # * # # # # # * # # # # * # # # # # # # * * # # # # # * # # * * # # # # # * # # & $ $ 3 U 6.w.q.q.q.3.P e w 0 $ # # # # # % 0 0 e e P P P i y y 0 * $ * # # & # # # # # $ # * # # * # * # * $ # * $ * # * # # # # * * # $ # * # # * # $ # # # * # $ # * # # * # # # # # * # & # & $ & q e P P y P P y e w 0 % # # $ $ % w P ( 7.q.q.w.q.q.q.7.Y 0 # $ # $ # # * $ # # * # # * # # # * $ # # # * $ # # # $ # # $ # # # & # & $ X # X # # 2 3 3 3 3 3 3 3 3 3 3 3 3 4 3 4 3 3 3 3 3 3 J ~ ........&...~ ~ G < = = - = = < < Q ~ ........X.X. .K r 3 3 3 3 4 3 3 4 3 3 4 3 3 3 q 4 3 3 3 4 3 3 4 2 # # X X 2 3 3 3 3 3 3 4 3 3 3 3 3 4 3 3 4 3 3 3 3 3 3 3 3 3 3 3 3 4 3 3 3 3 3 3 3 3 3 3 4 3 3 3 3 3 3 3 3 3 4 4 3 3 3 3 3 3 3 3 4 3 4 3 3 3 4 4 3 3 3 3 3 3 3 3 3 3 4 3 4 3 3 3 3 3 3 3 3 4 3 4 3 3 3 3 3 % 4 3 4 3 4 3 4 4 3 3 3 4 % 4 3 3 3 3 3 3 3 3 3 3 3 3 3 3 3 3 3 4 3 3 3 3 3 3 3 3 4 3 3 3 3 4 3 3 4 3 3 4 3 3 3 3 3 4 4 3 3 3 3 3 3 3 4 3 4 3 3 3 3 3 3 3 3 3 3 3 3 4 3 3 3 3 3 3 3 4 3 4 3 3 3 3 3 3 3 3 4 4 3 3 3 3 3 3 3 3 3 4 3 3 3 3 3 3 4 3 4 3 3 4 3 3 4 3 3 3 4 3 3 3 3 3 3 3 3 3 3 4 3 3 3 4 3 3 4 3 3 3 2 # # # X % 3 3 3 3 3 3 3 3 e $X,X,X,X%XJ & # & X # X X # X # X # X # X # & X # X X # # X # X X # # X # # = ! X.X... .t q 3 3 3 3 3 4 3 3 3 ",
"3 3 3 4 3 3 4 3 3 3 3 4 3 3 3 4 3 3 4 3 4 4 4 3 3 3 5 + v n n n n n b a @ o O O # o # # X # X o O @ b n n n n n b a 5 0 4 3 3 3 4 4 4 3 3 3 4 3 3 3 3 4 3 3 3 3 3 3 3 4 3 3 3 3 3 3 3 4 3 4 3 3 3 3 4 3 3 3 3 3 q W #.O.O.O.O.O.+.G F * $ # # #         $ $ , G @.Y.+.+.+.Y.+.G r 3 0 3 3 3 3 3 3 3 3 3 4 3 3 3 4 4 4 4 3 3 3 4 3 3 3 3 4 3 3 3 3 3 3 4 3 3 3 3 3 3 3 3 3 0 5 C c.x.x.x.x.x.x.B g O - - & & X & & & - 6 6 g N x.x.v.x.x.x.C 9 0 3 3 3 3 3 4 4 3 3 3 4 3 3 4 3 3 3 3 3 3 3 3 3 3 3 3 3 2 # # # # # # $ # * # * $ * # # $ * # # * $ # # * # # # * # * # * * # * $ & $ # # 0 e P P P y P P e % # # #         . . # # $ % w y P y P i P r = # # $ # # * * # # # * # # $ # # $ # # * $ # * # # # # * # # # * # # * # # # # # # # # # # # # # * # # * * # # * # $ # # # # * # # # # $ * * # # $ # # # * q e P y P P P e 3 # # #         . . . # # $ 3 e i P P i P y 0 * * # & * # $ * # * # # * $ # # # # # * # # # # # * # $ # # * * # # # * $ # * * # # $ # * # $ * # $ # # # * # $ # * $ # $ # # 3 U 4.q.w.q.q.q.6.e # # # #             # # # 0 P y P i P P y 0 * # $ & # $ * # * * # $ # # * $ # # # # # # # # # # # * * $ # # # * # $ # # * # # # * * # # # # * # $ # # # * # * # # # # * # * 0 y P P P P P e w # # #   o #     o # % % % i 6.q.q.q.q.q.7.T 0 # # * # * # # * # * # # * # $ # # # * * # # # # * # * # * * # * # # & $ % # X # # X 3 3 3 3 3 4 3 4 3 3 3 3 3 3 3 3 3 3 4 3 q ^ { ........X.~ ! < - * * & # # # # & & = > < ! X.X.X.X... .Q r 3 3 3 3 3 3 3 3 3 3 3 3 3 3 3 3 3 3 3 3 3 4 2 # X # # 2 3 3 3 4 3 3 3 3 3 3 4 3 3 3 3 3 3 3 3 3 4 3 3 4 3 3 3 3 3 3 3 4 3 3 3 3 4 3 3 3 3 3 3 4 3 3 4 3 3 3 3 3 3 4 3 3 3 4 3 3 3 3 4 3 3 3 3 3 3 4 3 3 3 4 3 3 3 3 3 3 3 3 4 3 3 3 4 3 3 3 3 3 3 3 3 3 0 4 3 3 3 3 3 3 3 3 3 0 4 4 3 3 3 3 3 3 3 3 3 3 4 3 3 3 4 3 3 4 3 3 3 3 3 3 3 4 3 3 3 4 3 3 3 3 3 3 3 3 3 3 3 4 3 3 5 3 3 3 3 3 3 4 3 3 3 3 3 3 3 3 4 3 4 3 3 3 3 4 3 3 3 3 3 3 3 3 3 3 3 3 3 3 3 3 3 4 3 3 3 3 3 3 4 3 4 4 3 3 3 3 4 3 3 4 3 3 3 4 3 3 3 3 3 3 4 3 3 3 3 3 3 4 3 4 4 3 3 4 3 3 3 4 3 3 3 3 4 3 3 $ # X # X 2 4 3 3 3 3 3 3 3 5 L.,X,X,X,X} = . . & X # # # # X & X & X & X X # X # # X X # # # # # X # # # < ~ X.X.X.! r 4 3 4 3 3 3 3 3 3 3 ",
"4 3 3 3 3 3 4 3 4 3 3 3 3 4 % 4 4 3 3 3 3 4 0 3 % 5 9 v n n n n b a @ O X # X # X # # # X # X # o O O a b n n n n b + 5 w 4 3 3 4 4 4 4 3 3 3 3 4 3 3 3 3 4 3 3 4 3 3 3 3 4 3 3 4 3 3 3 3 3 4 3 3 4 3 3 3 3 3 r W #.Y.@.Y.@.+.G F $ # #   # #   $   #   # # # $ , G +.O.Y.+.Y.@.W q 0 3 3 4 3 3 3 3 3 3 3 3 3 3 3 3 3 3 4 3 3 3 3 4 3 3 3 3 3 3 3 4 3 3 3 3 4 3 3 4 3 4 0 4 x N x.x.x.x.c.B g 6 X X # . # X # X # . # # X O g C c.x.x.x.x.c.C u 4 3 3 3 4 3 3 3 3 3 4 3 3 4 3 3 4 3 3 3 3 3 3 3 3 3 4 3 # #   . # # $ # # * # # # # # # # * # * # # # * # # * # $ # # # # * # # $ # * 3 e y y P P y e 3 #                           . # 0 e P i P P e w $ # # $ # * # # * * # # # # $ # * # # * # # * # # * # # $ # # # # * # # # #   # # # # * * * # # # * # # * # # $ # * # # $ # * * # # $ # # # # $ * # # * q P P P y P e 0 $ # .                         # 3 q e P P P P e = $ & # & # # # * # # # $ * # # # # * # # # * # * # # * # $ # # * # * # # * # # * # # $ # * # # # * # * # # * # * # # $ # * 3 P 4.w.q.q.q.7.E w $ .                         o $ 4 i P P i i y 0 # # $ & # $ # # # * # # * # # # * # * # # # $ * # * # # $ # # # # * # $ * # $ # * # * $ # # $ # * # # # # * * # # # $ * $ $ 0 y P e P P y w % # #                         # w T 9.q.q.q.w.1.e % $ $ * # $ # # # # * # # $ * # * # $ * # # # # $ # $ # # # # # # & # # # # X # X # 3 4 3 3 3 3 3 3 3 3 3 4 3 3 3 3 3 3 3 4 J ~ ........~ ! < - & . # X # . & . # . & . & & > Q ~ X.......{ ^ 4 4 3 3 3 3 3 3 4 3 3 3 3 3 3 3 3 4 3 3 3 3 2 # X # # $ 3 3 3 3 q 3 3 3 3 3 3 4 3 3 3 3 3 4 3 3 3 3 3 3 3 3 3 3 3 3 3 3 3 3 4 3 3 3 3 3 3 3 3 4 4 3 3 3 3 3 3 3 3 3 4 3 3 3 3 3 3 3 3 3 3 3 3 3 3 3 4 3 3 3 3 3 3 3 3 3 3 3 3 4 4 3 3 3 3 3 3 3 3 4 4 4 3 3 4 3 3 3 3 3 3 4 3 3 3 3 3 3 2 2 2 2 2 2 2 2 2 2 2 2 2 2 2 2 2 2 2 2 2 2 2 2 2 2 2 2 2 2 2 2 2 2 2 2 2 2 2 2 2 2 2 2 2 2 2 2 2 2 2 2 2 2 2 2 2 2 3 2 2 2 2 2 2 2 2 2 2 2 2 2 2 2 2 2 2 3 2 2 2 2 2 2 2 & 2 2 3 2 2 2 2 2 2 2 2 2 2 2 2 2 2 2 2 2 2 2 2 2 2 2 2 2 2 2 2 2 2 2 2 2 2 2 2 2 2 2 2 2 3 3 3 3 3 3 4 2 # # X # 3 4 3 3 3 3 3 4 3 4 &.%X>X>X>X%XD # X # # X & X & X # # . # # . X & X # # X X # X # X # X & X - ~ ......~ ^ 4 3 3 3 3 3 4 3 3 3 3 ",
"3 3 4 4 3 4 3 3 3 3 3 3 3 3 4 3 3 3 3 4 3 3 4 4 0 9 v n n n n b a O X # # X # X o # X # # X # # # # X o @ v n b n n v + 4 4 3 3 3 4 4 4 3 4 4 3 3 3 3 3 3 3 3 3 3 3 3 3 3 3 3 3 3 3 3 4 3 4 3 3 3 3 4 3 3 3 0 E G.I.Y.Y.O.@.@., #   #   # # # #   $ # . # . # .   $ G @.+.+.O.O.#.G 0 3 3 3 3 3 3 4 3 3 3 4 3 4 3 3 4 3 3 3 3 4 3 3 3 3 3 3 4 3 3 3 3 3 3 3 3 3 3 3 3 4 3 x N v.x.x.x.c.B g # # X # X # # X X # # # . . # X . 6 M N x.x.x.v.c.C 3 3 3 3 3 3 3 3 3 3 3 3 3 3 3 3 3 3 3 3 3 3 4 3 3 3 0 2   # # # # * # # # $ * # * # * # # # # # * # $ # # * # # # # * # # # * $ $ $ * e P P P P e w $ #                         .       # 2 w P y P P i w $ $ # # # $ * # # # $ * # # * # $ # # * # # # # # # $ # # * * $ # # $ # # # # . # # # # # # $ $ # # $ # # * # $ # # * # # # # * # * # # $ # * # # & 0 e P y P P e 0 #   .   .             .           # # 0 P P P y P e * # # # * * # $ # * # # # * $ # * # # # * $ # * # # * # # # * # $ # # # # # $ # # # * # # * # # # * # # * # # $ # # * # # i 3.w.q.q.q.7.U %     . $ 0                         # 0 e P i P P e 3 # & # * # * # # $ * # # # # * # # # $ * # # # # # # $ * # * # # # * # # # # * # # # # * # # * # $ # * # # # $ * # # # $ 0 e P P P P e 4 $ #                                 % P 4.w.q.4.<.P 3 # # # # # # * * # # # $ # # # # * # # # # * * # # * * # # * $ * # * # & # X X # # 3 3 3 4 3 3 3 3 4 3 4 3 3 3 3 3 4 3 3 t ~ ........~ Q > # # # & . # X & . # & & . & . & X = D ~ X.......{ J 3 3 3 3 3 3 3 3 3 3 4 3 3 4 3 3 3 3 0 3 3 3 # X # # % 3 3 3 3 3 3 3 4 3 3 3 3 3 3 3 3 3 3 3 4 3 3 3 3 3 4 3 3 3 3 4 3 3 3 3 3 4 3 3 3 3 3 3 3 3 3 3 3 3 4 4 3 3 3 3 3 4 3 3 3 3 3 3 3 3 4 4 3 3 3 3 3 4 3 3 3 3 3 3 3 3 3 3 3 3 3 3 3 3 4 3 4 3 3 4 4 3 3 3 3 3 3 4 3 3 3 3 3 3 3 3 3 & % 2 2 2 X 2 2 & & O 2 % 2 & 2 2 # 2 2 & & 2 2 & & 2 2 2 # 2 2 & & O 2 2 # 2 2 & % 2 2 X & 2 # $ # 2 2 2 2 2 X 2 2 # & % 2 2 2 % 2 2 X 2 2 2 # 2 # 2 # & % & & 2 & & & $ # 2 % 2 # 2 # 2 # 2 2 2 X 2 $ & 2 2 # 2 # 2 2 2 X 2 2 # 2 & % 2 2 $ 2 2 # 2 % 2 2 2 X 2 2 3 4 3 4 3 3 0 2 o # # X 2 3 4 3 3 3 3 3 3 3 i L.>X>X>X>X>.1 X X . # X # X # . X & X # # # X # X X # # X # X X # # X & Q ~ X...%.~ r 4 3 3 3 4 3 3 3 3 3 4 ",
"3 4 4 4 3 3 4 3 3 3 3 4 3 4 3 3 3 3 3 3 3 4 3 % 5 a m n n n v a O o % X # X # # # # # X X X # X o # o # o @ v b n n n v 5 % 0 0 3 4 3 4 3 3 4 3 3 3 3 4 3 % 4 3 3 3 3 4 3 4 % 0 3 3 3 3 3 3 4 3 3 4 3 3 4 4 P G.qX0XU.Y.@.G ,   #   # #   #     $   $ $ # # # # $   $ G @.+.O.O.O.#.e 0 3 3 3 4 4 3 4 3 3 3 4 3 4 3 3 3 3 3 3 3 3 3 3 3 3 4 3 3 3 3 3 3 4 3 3 3 3 3 4 4 5 B v.x.x.x.c.B g   X & X # & X X # # X . # & # & . & . % g N x.x.x.v.N 9 4 3 0 3 3 3 3 3 4 3 3 3 3 3 4 3 3 3 3 3 4 3 3 3 3 4 3   # # # # # # * $ # # # # $ # * $ * # # # * # * # $ $ # * # # * $ # # # $ $ 0 P y P P e w %                                       . $ w y P P i e * $ # * # $ # # # * # * # # * # * # $ # * * # # * $ # * # # # $ # * # #   # . # # # $ # * * # * # # # # $ * # # $ # # # * # # # # # * * $ * # * * * e P y P P w 0 #                                         % e P P P P q $ $ # # * $ * # * $ # # # # # # # # $ # # # # # * # * * # # # # # $ * * # # * $ # # * $ # # $ # # # # # * * * # * # * , [ w.q.q.q.1.I 0     $ H E 2.$                       . # 2 e i P i P r $ $ # # # # * $ # # # * # * # # $ # # * # # * # * # # # # # * $ # # # * # * $ # # * # * # # # # # * # # * # # # * # * % w P P P e e 0 #                                       % i 3.3.T P i e * # # # * # # # $ # * # # * # # # # # * # $ # # # # # # * # $ # # # * # # # X # # 2 4 3 4 3 4 3 3 3 3 4 3 3 3 3 3 3 3 u ^ X.......~ Q < # # # . . & . # # . # . . & . & & X # & < ~ -.......~ r 3 3 3 3 4 3 3 3 3 3 3 4 3 3 4 3 3 3 3 3 2 # # X % % 4 5 3 3 3 3 3 3 3 4 3 3 3 3 q 3 3 3 3 3 4 3 3 4 3 4 3 3 3 3 3 3 3 3 3 3 3 3 4 3 3 3 3 4 3 3 3 3 3 3 3 3 3 3 3 4 3 3 4 3 3 3 3 3 3 3 3 3 3 3 3 4 3 3 4 3 3 3 4 3 3 3 3 3 4 3 3 3 3 3 3 3 3 3 4 3 3 3 3 3 3 4 3 3 3 3 4 3 3 3 3 3 2 2 & & & & 2 % & & $ # 2 # & & & & # 2 X 2 2 & & & X 2 O # 2 & & & $ & & & # 2 # # & & & & 2 # O # & & 2 # & & & & & & # # & 2 & 2 & & & & 2 % # $ & & & & & & & & & & & O & & # 2 # # & & 2 % & 2 & & & & # & % 2 2 2 2 2 & 2 2 % 2 2 # 2 2 # # # 2 # # 2 2 2 2 # 3 3 3 3 3 3 4 2 X # # # 2 4 3 3 3 3 3 3 3 3 3 &.%X>X>X>X%X$.* # X # X # # # . & X & X # X # & X # X X & X # # X X # < ~ ......~ ^ 4 3 3 3 4 3 3 3 3 3 4 3 ",
"4 % 4 4 3 3 3 3 3 4 3 3 3 3 3 3 3 4 3 3 3 3 3 3 + v n n n b a o o % % o X # X # # X X # # # X # # # # # % O @ v n n n b v 5 4 0 4 % 3 4 3 3 3 3 4 3 3 3 3 4 4 0 3 4 3 3 3 3 4 4 3 4 3 3 3 3 3 3 3 3 3 3 3 4 #.U.qXqX9XI.G ,   , # # # # # # # #   $ $   # . . #   $   $ , +.O.O.O.+.#.4 3 4 3 3 3 3 3 3 3 3 3 3 3 3 4 3 3 3 4 3 3 4 3 3 3 3 3 4 3 3 3 4 3 3 3 3 4 3 0 0 x N x.x.x.c.M 6 X . # X # # X # # X # # X # . & . & . & # O g c.x.x.x.c.N 8 3 3 3 3 4 3 3 3 3 4 3 3 3 3 3 4 3 3 3 3 3 4 3 4 0 2 # # # # # # # # * # * # * # # # # # * $ # # # # # * # # * # # * # # * # % % w P y P P q #                                           . $ e i i P P r , * # # # # * * # # # $ # # # # # * # # $ # # * # # * # # * # # * # # # # # # # # * # # $ # # # * * # # # # * # # * # # * * # $ # # # # # # # # r e P P P w % #                                           # 0 y y P P P q $ $ & # # # # # # * # * # # * $ * # * # * # $ # # # # # $ * # * # # # # * # # * # # # * # # * $ # $ # # # # # # # $ R 4.w.q.q.4.i % o   o Y p.'._.E #                         # 3 i i i i P , * # * # # # * # * # $ # # # # * * # # $ # # $ # * # * # # # * # * # # # # # # * # # # $ # * * # # $ # # * # # $ # # 0 e P P P e % #                                     o   o # w P P P i i r * $ * # # # * # # * # # # * # * $ # # * # # * # * $ * # # # # * * # # # X # X # 3 3 3 3 3 3 3 3 3 3 3 3 3 3 3 3 3 3 D { ......{ Q * # . . # # & . & & . # . # & . & . X # X X & < ~ ...... .! e 3 4 3 3 3 3 3 4 3 3 3 3 3 3 3 3 3 3 3 2 # X # % % 4 3 3 3 3 3 4 3 3 3 3 3 3 3 3 3 3 3 4 3 3 3 3 3 3 3 3 3 3 3 3 3 4 3 3 4 3 3 3 3 3 4 3 3 3 3 3 4 3 3 3 3 4 3 3 3 3 3 3 3 3 4 3 4 3 3 3 3 4 3 3 3 3 3 3 3 3 4 3 3 3 4 3 3 3 3 4 3 3 3 3 3 4 3 4 3 3 4 4 3 3 3 3 3 4 3 3 3 3 4 3 2 2 # & & & & 2 2 & & # # & & & & & & 2 % 2 2 % & & & 2 2 $ # % & & & # # & & 2 % 2 2 & & & & 2 2 & & & & % 2 & & & & & & # $ O # & & & & & & & 2 # O & & & & & & & & & & & & & & & % $ O & & & & & & & & & & # $ O # 2 # 2 2 X & & & 2 X 2 & & 2 $ O % 2 # 2 # 2 % # 3 3 0 3 3 3 3 * # # o # 2 0 4 3 3 3 4 3 3 3 3 / L.>X>X>X>XL.^ # & . & X # X & X # X # X # # X # X & # X # # X # & > ! ........~ t 3 3 3 3 3 3 4 3 3 3 3 3 ",
"3 3 3 4 4 3 3 3 3 3 4 3 % 4 3 3 3 3 3 3 3 3 3 5 v n n n n a O X X # # X X # # X # X # X # X # X # X # # # % O @ b n n n v 9 5 4 3 3 4 3 3 3 3 3 3 4 3 3 3 3 3 3 3 3 3 4 3 3 3 3 4 3 3 3 3 3 3 3 3 3 3 3 0 P G.9X9X9X9XG.L # % w e * # # # X # X X # # & X & X # $   # # $ G +.Y.O.O.+.G $ $ 0 0 0 0 0 4 4 3 3 3 4 3 3 3 3 3 3 3 3 4 3 3 3 4 4 3 3 3 3 q 3 3 4 3 3 3 4 8 B v.x.x.x.B @ # . & . # # X & . & . & # X # X # X & X # # # O C c.v.x.x.c.x 5 = 0 3 3 3 3 3 3 3 3 3 0 3 3 3 3 3 q 3 3 4 3 3 4 3 # X # X % $ # & # & # & # * # # # $ # * # # * # # # * $ # * # # $ # # * $ 0 i P y P e % #                                             # # w P P P y 4 % $ $ & # & # # $ # # * $ * # # # * $ # * * # # # # $ * # # # # $ # X X X # # & # & # & # * # # * # # * # # * # # # * # * # # # * # # # $ % % e P P R e 0 $                                               # w P P P P e $ * & # & * # # # # # # * * # # # # # # * # $ # # # $ * # # * * # * # # * # * $ # * # # # # * # * # # # * % % % % 0 1.q.q.0.a.R $       $ R ^..X'.^.$                           # 0 P P y P e 3 $ # # # $ # # * * # # # # $ * # # # # * $ # * # # * $ # * * # # $ # # * # # # $ # # # , # # # # # $ # # # & # & * r P P i i w $ .                                   $ R $     $ 0 P P P P e $ $ $ $ $ # $ $ # # # * # * # # # * # * # # # $ # # * # * # # # $ # * # # # # # 3 3 3 3 3 3 3 3 3 3 3 3 3 3 3 3 3 q Q %.X.X.X.! = # X & . # X # X # X & X # # X # & . & # . # # & D  .X...X.~ t 4 4 4 3 3 3 4 3 3 3 3 3 3 3 3 3 3 3 3 3 # # X # & 3 3 3 3 3 4 3 3 3 3 3 3 3 3 3 3 3 3 3 3 3 3 3 3 3 3 3 3 3 3 4 3 3 3 3 3 3 3 3 3 3 3 3 3 3 3 3 3 3 3 3 3 3 3 3 3 3 3 3 3 3 3 3 3 3 3 3 3 3 4 3 3 3 3 3 3 4 3 4 3 3 3 3 3 3 3 3 3 3 3 4 3 3 3 3 3 3 4 3 3 3 3 3 3 3 3 3 3 3 3 3 2 & & & & % 2 2 # & & 2 # & & & & & & & & & & & & 2 # & & & & 2 # # 2 & % 2 2 & 2 # $ & 2 # $ # 2 # # 2 % & 2 # 2 # 2 & & 2 & & 2 O $ & & & & & & & O # & & & & & & & & & & & & & & & 2 # 2 & & 2 # 2 # # 2 % & & & & & & & & & & & O 2 % & & & & & & & & & & & & & # 2 3 3 3 3 3 3 2 # X # X 3 3 3 3 3 3 3 3 3 3 3 3 ` %X>X>X>X>XL.t # X # X % X # X # X # X # X # X # # # X & X # # = ! ........&.^ 4 3 3 3 3 3 3 4 3 3 3 3 3 ",
"4 3 3 3 3 3 3 4 3 3 3 3 4 3 3 4 3 4 3 3 3 3 3 + v n n n b @ X # # X # # # # X # # # X # # # X # X # X X X o X O v n n n b a 5 0 3 3 3 3 3 3 q 3 3 3 3 3 3 3 3 3 4 3 3 3 3 4 3 3 3 3 3 4 3 3 4 3 3 3 3 0 0 *.U.qX9X0X0X#.# # % 7.|.w.3 X X # X # # # . . # X # X   $ . # # , G +.O.+.+.G , , 0 0 % 0 4 4 3 3 3 3 3 3 3 3 4 3 4 3 3 3 3 3 3 3 3 3 3 3 3 3 3 3 3 3 q 3 0 Z N v.x.x.c.g & # & . # & . # . & X # # . X # # # & . # X X # # O B x.x.x.c.B 8 3 3 3 3 3 3 3 3 3 3 3 3 3 4 3 3 3 3 3 3 3 3 3 3 3 # X X # # # & $ & # & # # * # * * # # # # $ * # * # # # # # * # # * # # 3 e P i P y 0             #                                     # 0 e P y P e % # $ # & # * # * # * # # # # * # # # # # # # # * # * # $ # * # * # # # # # # # & # & & & # # $ # # * # # $ # * $ # $ # $ * # # # # $ # # % 0 P e e R e $         .       .                                 # e e i P y 0 # # & # # # * * * $ # # # # * $ * $ # # # # * * * # # # # # # # # $ # # # # # # # # * $ # # # # * * # # % % % % U 7.e.q.0.6.0           $ T..X'.'.R $                           # w y P P y w % # $ & # $ # # # # * * # # # # * * # # # # # * # # # # # # # * # * # # * * # * # # $ # # $ # * # # * # * # & & q e P i P e % . .                               $ , E ^.a.,     $ w e P e P w $ % $ $ $ # # # * # # $ # # $ # * # # $ * # # * # # $ # # * * # # #   # #   # 2 3 3 3 3 3 3 3 3 3 3 3 3 3 4 3 4 K { X.X.X.~ < & X # . & X # X & . & X # # X # X X # X # & X . # * ! ..X.X.X.Q r 3 3 4 3 3 3 3 3 3 3 4 3 4 3 4 3 3 4 2 X X # X & 4 3 4 3 3 3 3 3 3 3 3 3 3 3 3 3 3 3 3 3 3 3 3 4 3 3 3 3 3 3 3 3 3 3 3 3 3 3 3 3 3 3 3 3 3 3 3 3 3 3 3 3 3 3 3 3 3 3 3 3 3 3 3 3 3 3 4 3 3 3 3 4 3 3 3 3 3 3 3 3 3 4 3 3 3 3 3 3 4 3 3 3 3 3 4 3 3 3 3 3 3 3 3 3 3 3 3 3 3 3 3 2 # & & 2 & # X 2 & & # 2 & 2 & & & & & & & 2 & & % 2 & % & 2 % 2 2 # & 2 # # & # # O & # # O & % # $ # 2 & & # # 2 % # & % 2 & # # # & & & & & & & & $ # & & & & & & O X & # & & & & 2 # % & 2 X 2 % 2 2 $ O & & & & & & & & & & # # # 2 & 2 & & & & & & # O & & O $ 3 3 3 3 3 3 3 2 X # X # 2 3 3 3 3 4 3 3 3 3 4 3 y &.>X>X>X>X,XL.` 2 X # # # X # X & X & X # X % # X X # X # & > ! ~ ....-.~ Q 1 3 4 4 3 3 4 3 3 3 3 3 4 3 ",
"3 3 3 3 3 3 3 3 4 3 3 3 4 4 3 3 3 3 3 3 4 3 4 v b n n n @ O # X X # # X X # # X X # X # X # X # # # X # # X # X + v n n n v 9 % 3 4 3 3 3 3 3 3 3 3 3 4 4 3 3 3 3 3 3 3 3 3 3 3 3 3 3 3 3 4 3 3 3 3 0 0 e U.9X9XqX0XY.H # $ 2.8XkXiXd.P X # # # X # . & X & # # $   $ #   $ G @.Y.+.O.@.F $ 0 0 3 3 3 3 3 3 3 3 3 3 3 4 3 3 3 3 3 3 3 3 3 3 4 3 3 3 3 3 3 3 3 3 3 3 5 N x.x.v.x.B 6 # # . & # . # # & # & X # # # X & X & X # X # X X & g c.x.x.c.c.x 3 3 3 3 3 3 0 3 3 3 3 3 3 3 3 3 3 3 3 3 3 3 3 3 3 X # # X # # & $ * # # & # # * # # # * * # # # # # $ # * $ * # # # $ # * w P e P P w #                                                     # w P y P e 0 * # # # # $ # # # $ $ # * # * $ # * $ * * # * # # # # # * # # # # X # # X # # # # * # * * # * $ # * # * $ # # # * # # # # * # * $ # $ # 0 P P P R w 0                                                     # 0 P i P P r * # # & # $ # # # # # * $ # # # # # # * # * # # # # * # $ # * # # * * # * # # * # * * # * # # $ # $ # # % $ % 0 4.q.q.e.7.P $             E _..X'.T.,                             3 e P P P e % # * # & * # # # $ * # # $ # # * # $ # * * # * $ * # $ # # * # * # # $ # # * # # * # # # # # $ # * # # * & # * y P i i y 3 #                       #         o , 2.^..X'.6.$     0 P P P P w $ $ # $ # $ # * # * # # * * # # # # # # * # * # # * * # * # # # * * # # # # # 3 3 3 3 3 3 3 3 3 3 3 3 4 3 3 3 0 ` X.X.X. .Q * X # X & # . # # # & # # . . & X # # X # X X # # # # < ~ X.....~ t 3 3 3 3 3 3 3 3 3 4 3 4 3 3 3 3 3 4 2 # X X # 2 3 3 3 3 4 3 3 4 3 3 3 3 3 3 3 3 3 3 3 3 3 3 3 3 4 3 3 3 3 3 3 3 3 4 3 4 3 3 3 3 3 3 3 3 3 3 3 3 3 3 3 3 3 3 3 3 3 3 3 3 3 3 3 3 3 3 3 3 3 3 3 3 4 3 4 3 3 3 3 3 3 3 3 3 3 3 3 3 3 3 3 3 3 3 3 3 3 3 3 3 3 3 3 3 3 3 3 4 3 3 5 3 & & & & # 2 2 2 # 2 2 % 2 # O # % & & 2 # # O # # # & & 2 # & & # $ & & # 2 & & 2 % & & 2 % & 2 2 O 2 2 & & O $ & & 2 # # # 2 2 # % & 2 # 2 # # % & 2 X # 2 & & $ O # # X # X & & & # # 2 2 2 O $ # & & # X & & & & & & # # & & # 2 # # & & X X & & & & & & & & & & 3 3 3 3 3 3 0 2 # X X # 2 3 3 3 3 3 4 3 3 4 3 3 4 J >.,X,X,X,X,X$X$.q X X # X # X # # X X # X # X & X X & & < ! ......-.~ _ t 5 3 4 3 3 3 3 3 4 3 3 3 3 4 ",
"3 3 3 3 4 3 3 3 3 3 4 4 4 4 3 3 3 4 3 3 3 3 9 v n n n b O o # X X # X # # X # X # X % X # X # X # X # X # # # X O a n n n n + 5 3 3 3 3 3 3 3 4 3 3 3 3 3 3 3 3 3 3 3 3 3 4 4 3 3 3 3 3 3 3 3 4 4 3 % 0 L U.qXqX9X0XF # # 0 0.hXlXlXaX~.( # . X # X & X # X X #   $ # . #   , G O.O.O.O.G 0 0 0 3 4 3 3 3 4 3 3 3 4 3 3 3 4 3 3 3 4 3 3 3 3 3 3 3 3 3 3 4 3 3 3 3 4 9 N v.x.x.c.@ # . X & . . # . X # . X # . X X # X # X # X # X # # X @ B x.x.v.x.C 4 3 3 3 3 3 3 3 3 3 3 3 3 3 3 4 3 3 3 3 3 3 3 3 3 # # X # # # # & # # * # $ # # # # $ # # * * # $ # * # # # # # * * # # * w P P P y 3                                                       # 0 P P P P w * $ $ & * # # * # * # # # # # # # # # # $ # # $ # * # * # # # * # # . . # # $ # # # # # # # # # $ # # # * # * # # # * # # # # $ # $ $ $ % P P P P w $                                                       $ w i i P P * * & $ # # $ # # * # # # # * # # * # * # # $ # # * # * # * # $ # # # $ # $ # * # # # # * # # * # # * # $ $ % w 9.q.q.q.3.%               , a..X'.'.E                           # $ e P P y y 0 * # & # # # * * # # # * # * # # # * # # # # # # # # # * # $ # # # * # # # # # * # # * $ * # # * # $ # # # $ 3 y P P P e #                                   R 8.^..X.X'.6.$     o w P e P P $ $ # # $ # # * # # * # # # * $ # * * # # # # $ # # # # # # # $ # # # #   # X 3 3 3 3 3 3 3 3 3 3 3 3 3 3 3 4 u { X.X.%.~ > & # X # . & # X X X # . # X & X & X X # X # X # . # # = Q X.......K 4 3 3 3 4 3 4 3 3 3 3 3 3 3 3 3 3 3 3 # # # # * 4 3 3 3 3 3 3 3 3 3 3 & 3 3 3 3 3 3 3 3 3 3 4 3 3 3 3 3 3 3 3 3 3 3 3 3 3 3 3 3 3 3 3 3 U 4.q 3 3 3 3 3 3 3 3 4 3 3 3 3 3 3 3 3 3 3 3 3 3 3 3 4 3 3 3 3 3 3 4 3 3 3 3 3 3 3 3 4 4 3 3 3 3 3 3 3 3 3 3 3 3 3 3 3 3 3 3 3 3 3 3 3 & & & & # # % 2 # # $ O % # # # 2 2 2 X # $ # # O # & & & % & & # O & & O X % & # 2 # 2 # 2 2 X 2 & 2 X & & 2 # & & O $ # 2 & X = t > 2 2 % O # & & 2 2 & & & & # * > t t u 2 & & & $ O 2 X 2 & # # * 1 < q & & # & & & O # & % 2 # # O * > t u * & # & & & & & & 2 3 3 3 3 3 3 0 2 X # # X 3 3 3 3 4 3 3 3 3 3 3 4 4 4 / >.,X,X,X,X>X%X' 2 & X # X # # X & # X # X # X # # & 1 ~  .......~ { t 5 3 3 3 3 3 3 3 3 3 4 3 3 3 3 ",
"4 4 0 3 3 3 3 3 3 3 3 3 4 4 4 3 3 3 4 3 3 3 + v n n n v % # X # # X # # # # X # X 2 X # # X # # X & X # X # X % o a b b n n a 5 4 3 3 3 4 3 3 3 4 3 3 3 3 3 3 3 3 3 3 3 3 4 3 3 3 3 3 3 4 3 3 3 3 3 3 w ] U.qXqX0XU.$ # o $ P '.hXkXlXjX8XT 3 # X # X # X # # X # # # #   # . G @.Y.+.+.W r 4 0 3 3 4 3 3 3 3 4 3 4 3 3 3 3 3 3 3 3 3 3 4 3 3 3 3 3 3 3 3 4 4 3 4 4 x N v.x.x.N O . # # X & X # # X X # # . . & X & X # # # X & X # X # O g c.x.v.x.B 8 0 0 0 3 3 3 3 3 3 4 3 3 3 3 4 3 3 4 3 3 3 3 3 3 X # X # # # # # # # * # # # * * # # # * # # $ # * # * # * # $ # # # # , e P P P w #                                           #             $ P P e P w = # # * # $ # * # # * * # # $ # # * # # # * # # * # # $ # # # # #   # # # # & # $ # * # # * * # # # # # # * # # * # # * # # * # $ # $ * 0 P P e P 0 o                       .                               . q i P P e 0 $ $ # , # # # * # # $ * * # * * # $ # * # # # * # # # # # $ # # # # # # # * # # # * # # # $ # # # * $ $ # * P 7.q.q.q.[ o o o             R _..X.Xa.H                             w y P e P q * # # # $ # # # # * * # # * # # * # # # * # # # # # $ # # $ # # * # # # $ # # * # * # # * # # $ # # $ # $ $ 3 y P P i w .                                 r T.'..X'._.a.,         0 R P P P w * $ # $ # # $ # # * # # # # # * # # * * # # * # * # # # * $ # # # # # # # # 3 3 3 3 3 3 4 3 3 3 3 3 3 3 3 4 t ~ X. . .! * X # X X # X X # # X . # X # X # X # X # & X # # . # X # D ......&.! r 3 3 3 3 3 3 3 3 4 3 4 3 3 3 3 3 4 3 # X # X $ 4 3 3 3 3 3 4 0 w I T ( I e 5 3 3 3 3 3 3 3 3 3 3 3 3 3 3 3 4 3 3 3 3 3 3 3 3 4 3 3 3 3 r.sXy 3 3 3 3 3 3 3 3 3 4 3 3 3 3 3 3 3 3 5 y i 5 4 3 3 4 3 3 3 3 3 3 3 3 3 3 3 3 3 3 3 4 3 3 3 3 3 3 3 3 3 3 3 3 3 3 e i i 3 3 3 3 3 3 2 2 2 2 2 $ 2 & & & & & & # 2 % & & & & & O 2 % & & # $ # 2 & # # 2 & & & & & & & & # 2 # # 2 # # # O # # 2 % 2 & & & & & & & = ~ ;.%.= - # & & & & 2 2 2 2 & * > ! ..;.:.$.u & & & & & & & & & 3 < { ;.;...Q > 2 & & % 2 # 2 # 2 X 3 r ! -.;.;.! < * $ # 2 & O # % 3 4 3 4 4 3 0 2 # # X # 2 4 3 3 3 3 3 4 4 3 3 3 4 4 0 L >.,X,X,X,X2X&.q 2 # # # X # X # # X # # X # % 2 = D ........~ ' D 4 3 4 3 4 3 3 3 4 3 3 3 3 3 3 3 ",
"% 4 3 3 3 4 3 4 3 4 4 3 4 4 4 4 3 3 3 3 3 3 + b n n b + O X # X X # # X X # # X # X # X X # # X % X # X # # # X o @ v n n n a 9 4 3 3 3 3 3 3 3 3 3 3 4 3 3 q 3 3 q 3 3 3 3 3 3 4 3 4 3 3 3 3 3 3 3 3 w *.0XqXqX0XY.$ # # # $ P !.aXkXkXkXiXt.e X & # X & X X #   #   # $ #   G @.Y.Y.@.#.P % 0 3 4 3 3 4 3 3 3 3 3 3 3 3 4 3 3 3 3 3 4 3 3 3 3 3 3 3 3 3 3 3 3 3 0 C c.v.x.c.B - # # X # X # X X & & . X # & X # X # X # . # X # # # X . g N x.x.x.N x 0 0 3 3 3 3 4 3 0 3 3 3 3 3 3 3 3 3 3 3 3 3 3 2 X # # X # * $ * # & # # $ # # # * * # # # $ # # $ # # # # $ # $ # * $ * e P P e q #                                                         $ q P P P e , # # $ # & # # # * # # * # * # # # * $ # # * # # # * # $ * # * # # . # # # * # # * # # # # # # # * $ * # # * # # # $ # * $ # # # $ # * 0 P P P w $                                                         # 3 e P P i q 3 $ # # # $ # # # * # # # # # # # # # # $ # * # # $ # * # # * * # * # * # * # * # # $ # * * # * # # # # # 0 Y q.q.q.4.P o o .             $ 6.'..X'.E                             0 e P P P w * # # $ # * * # # # # # # # * # * # * # # # * $ * # # * # * # * # # $ * * # # * # # * # # # * # * # # * $ $ 0 y i P e 0 .       #                     # , T.'..X.X_.6.0           $ e e e P e % # $ # * * # # * # # * * # * # # $ # # $ # # # # # * $ # # $ # # #     # X 3 3 3 3 3 3 3 3 3 4 3 3 3 3 3 4 ^  .X... .Q * X # # # X # # X X # # & X # # X # X # # . & # . # # # X < ! X... .` < 4 3 3 4 3 4 3 3 3 3 3 3 3 3 3 3 4 2 X # # X $ 3 3 3 3 3 3 3 8 9.6XsXsXwX4.e 3 3 3 3 3 3 3 3 3 3 3 3 3 3 3 3 3 4 3 3 3 3 3 3 3 3 3 3 3 e.sXe 3 3 3 3 3 3 3 3 3 3 3 3 3 3 3 3 3 4 P h.).e 3 3 3 3 3 3 3 3 3 3 3 3 4 3 3 3 3 3 3 3 3 3 3 3 3 3 4 3 3 3 3 3 3 4 1.Q.r.3 3 3 3 3 2 # 2 X 2 & O & & & & 2 # O # # 2 O & % # & & # 2 2 & # O 2 # O # 2 # & & & & & & & & # $ 2 2 % 2 # $ $ # & & # # & & & & & 2 = -.#X5X+X= & & & & & & X 2 2 X = t H.-X;X;X-X+X^ X % 2 O & & & & 3 ! +X;X;X;X;X-X&.r & & 2 # # & 2 % % Q :.;X;X;X;X;X:.t - 2 # & & # # 3 3 3 3 3 3 0 2 X # # X 2 4 3 3 3 3 3 3 3 3 3 3 3 4 4 0 / >.,X,X,X>./ 3 3 3 3 2 2 & # # # X % # 2 3 3 3 3 r _ ~ -.~ ! t q 3 3 3 3 3 3 3 3 3 3 3 3 3 4 3 3 ",
"3 3 3 3 3 3 3 3 3 4 3 3 3 4 % 4 3 3 3 3 0 5 v n n n v O X # # # # X X # # X # X # X # X # X X # # X X & # X % % o O a n n b v 9 4 3 4 3 3 3 3 3 3 4 3 3 4 3 3 3 3 3 3 3 3 3 3 3 4 3 3 3 3 3 3 3 3 3 3 e G.0XqXqXU.G $ # # . # # q 9.8XlXkXkXaX9.. . X & X # X & # # #   $ .   , G Y.O.O.#.H 0 0 3 3 4 3 3 3 3 3 3 3 3 4 4 3 4 3 3 4 3 4 3 3 3 3 4 3 3 4 3 3 4 3 3 5 B c.v.v.N g O # # X # X # # # # X & & # X # # X X # # & X & # X # # X g B x.x.x.N x 0 3 3 3 3 4 3 3 3 3 3 3 4 3 3 3 3 3 4 3 3 3 3 3 # # X # # # # # # # * # # * # * # # $ # * # * * # # * $ # * $ # $ # $ r e P P e % #                                                         # 0 P P P e 0 $ # # # * # * $ # # # # # # * $ # # # # # $ # # # * # * # # $ #     # # # * # # # $ # $ # # # * # $ # # # # # # * # $ # # * # # # # = w P P P 0 $                                                         # % e i P y w * # $ * # # * # * # * * # $ # $ # # * $ # * # # * * # # # # $ # $ # * # $ # # * # # # # $ # # # # # # $ # q 2.0.q.0.2.0 .                   r _._.p.L                           # # w P P P w * & * # # # $ # * # # $ * $ # # # # * $ # * # # * # # * * # # # # * # # # # $ # $ * # # # $ * # # # # $ # $ e y i P w $                               $ T._..X'.^.6.$             $ w R P P w 3 # # # $ * # $ # # * # # # # $ * # # # # $ # # * # * # # # $ # # # # # # # 3 4 3 4 3 3 3 3 3 3 3 4 3 3 3 u !  .....~ < # X # X # # X X # & X & . # X & # X & # . . & X & # . # # > Q X.X...' t 5 3 4 3 3 3 3 3 3 3 3 3 4 3 4 3 3 2 # # X # & 4 3 3 3 3 3 q T wXf.( 5.9.U q 3 3 3 3 3 3 3 3 3 3 3 3 3 3 3 3 3 3 3 3 3 3 3 3 3 3 3 3 3 r.sXe 2 3 3 3 3 3 3 3 3 3 3 3 3 3 3 3 4 3 e.).4.4 3 3 2 3 3 3 3 3 3 3 3 3 3 6 3 3 3 3 3 3 3 3 3 4 4 3 3 3 3 3 3 3 3 4 5 /.[.i 3 3 3 3 3 2 % 2 & 2 & # # & & & 2 # 2 & & $ # O # & & & & & & & & # 2 2 # % & & & & & 2 # O # 2 O & & 2 & 2 O 2 % # 2 O # 2 2 & & & < :.-X<X5X+X= & & & & & & & 2 2 2 1 J.:X#X:.~ ~ { > # 2 # # & & 2 & > K.;XK...{ H.;X=X~ # & & # O & & & - ;.-X#XX.{ ;.#X;X;.= % & & & & 2 2 3 3 3 3 3 3 2 # X # # 2 0 4 3 3 3 3 3 3 3 3 3 3 3 3 3 w i &.$X%X} q 3 3 3 3 3 2 3 3 3 3 3 3 3 3 3 3 3 3 3 r ~ .._ u 3 4 4 3 3 3 3 3 4 3 3 3 3 3 3 3 3 3 ",
"3 3 3 3 3 3 4 3 3 3 3 3 3 3 4 4 3 3 3 4 0 3 v n n n b O # X # 0 y e i e P T U 4 2 # X # # X # X X # # X X # X o % O a n n n v 9 0 3 3 3 3 3 4 3 3 3 3 3 3 3 3 4 3 3 3 3 3 4 3 3 3 3 3 3 3 3 4 3 3 3 3 H U.0XqXqXU.G # # # # . # # 0 <.`.kXjXW.i X # & . & X # X # . $   # $ . , G Y.O.O.+.L % 0 3 3 3 3 3 3 4 3 4 3 3 3 3 3 3 3 3 3 3 3 3 3 3 3 3 3 3 3 3 3 3 3 0 8 N x.x.v.N + & X # # X # X # # X # X X # # X X # # # . . & . X # X X X : B v.x.x.N x 3 3 3 3 3 3 3 4 3 3 3 4 3 3 3 3 4 3 3 3 3 3 3 3 # X # X # # # * # * $ # # * # # # $ # * # # # # * # # # # # # $ # # # w e P P P $ #                         #                               # $ e P e P 0 # * # # $ # # # # * * # $ # # * # * # * # * # # * # # # # * # # # # # # # # & * # # * # * $ * # # # # * # * $ # # * # # * # # $ # # 0 w P P R w $               .                                         . # e P P i e * # # # $ # # # $ # # # # * # # * # # # # * # $ # # # * * # # # * # # # # # * # # * * # # * # * # $ * # # w 3.q.q.w.2.$ .                   $ R R r $                             # w P e P e = # $ # * # # # * # * # # # # * $ # # # # # * # # $ # # # # * # $ # * # # * # # # # # * * # # # * # * # # 3 e i i P w #                               # E '..Xa.R ,               $ w R e P H = # # * # # # # * # # $ # * # # # # * * # # * $ # $ # # * $ # # #   #   # # 3 3 3 3 3 3 3 3 4 3 3 3 3 3 3 q !  .....~ > # # X # X # # # # X # . & X # X # # X & . & X # X # . # # - ! X.....~ t 4 3 3 3 3 3 3 3 3 4 3 3 3 3 3 3 3 2 # X # X 2 4 3 4 3 3 3 w 4.uXq.2 4 e q 3 U s.[.{.g.U 2 5.Q.e.).{.r.( h.{.[.4.4 3 e f.r.h.{./.5.4 3 r.sXe 3 e q.[.{.h.i 3 U g.{.{.f.U 3 3 4 q /.{.e w e.).6X).4.w 5.g.{.[.u.y 3 q.g.e.[.[.9.1.g.{.Q.5.5 3 U g.e.Q.{.g.U q 2 e.[.9.4 3 5 3 2 O & 2 2 X & % O # & & % 2 # & & & # # & & & & & & & & & 2 & X 2 & & & & 2 & % 2 # # 2 X & & & & 2 2 X 2 # 2 & & & 2 2 X > &.-X#X#X:X+X= & & # O & & & 2 X 3 ~ -X@X{ 1 = = q - 2 % 2 # $ & # & = { { Q q > < +X<X;.O & & & & & % & & _ { ! u = 1 :.5X+X4 X 2 & & & % 3 4 3 3 3 4 0 2 X # # X 3 0 3 3 3 4 3 3 3 4 3 3 3 4 3 3 4 3 u } >.y 3 3 3 3 3 4 4 3 3 3 3 3 3 3 3 3 3 3 3 3 3 ^ t t 3 3 3 4 3 3 4 3 3 3 3 4 3 3 3 4 4 3 3 ",
"4 3 3 3 3 3 3 3 3 3 3 3 3 3 4 4 4 3 3 3 4 9 b b b n v O % o <.!.Q.(.~.~. X|.].6.3 # # X # # # # # X X # X # # X # % @ n n n b + 0 3 3 3 3 3 3 3 3 3 4 3 3 3 3 3 3 4 4 3 3 3 3 4 3 3 3 4 3 3 3 3 3 3 3 L U.qXqXqXU., # # #   # . # . $ I !.~.I # X # X # X # X # # # # . # #   # G +.Y.+.+.L $ 0 3 3 3 3 3 3 3 3 3 3 3 3 4 3 3 3 3 3 3 3 3 3 3 3 3 3 4 3 3 4 3 3 0 8 N x.x.v.c.O # X # X # X # X # # X # # # X # # X # X # X # X # X # X & # B v.x.x.x.x 0 3 4 3 3 3 4 3 3 3 3 3 3 3 3 4 3 3 4 3 3 3 3 3 # # # . # # # * # # # $ # * # # # * # # # * # * # * # * # # $ # & # * e P P P e #                                                           . * P y P i q # $ # # # # # $ # # * $ * # * # $ # # # # # # # $ # * # # # $ # . # # . # & # # # # # * # # $ * $ * # # # # # # # $ * * # # # # # # 0 P P P P w                                                             # w P y P e % # $ # * # # $ # # $ * # * $ # # * # # * # # * # # # # $ # # * # # $ * # * # # * # # # # * $ * # # # $ # w 9.q.q.w.( X                       $                                   # w P P P e % $ # $ * # # # # # * # # * # * # * # * $ # # * $ # # # * * # # # $ # # * # $ # # # # * # # * # # * # # # $ P P P P w # #                               # 8.8.H                 . o 0 P P P y 0 # # $ $ $ # * * # # # * * # # # # # * # * # # $ * # * # * # # $ # # # # X 3 3 3 3 3 3 4 3 3 3 3 3 3 3 3 r ~ &...X.~ *   # #   # # X # X X # # # X # # X # X X # X # X & X # X # & D X.X... .J 3 3 3 3 3 3 3 3 3 3 3 3 3 3 4 3 4 2 # X X # % 3 3 3 3 3 3 q <.uXg.i 3 2 3 3 ( s.Q.(.eXe.e q.fX/.g.{.gX).Q.Q.gX/.T 5 e tXgXf.(.{.).T 2 r.sXy 3 q.[.).).gXq.U r.gXQ./.h.5.6 3 4 U [./.4 5.{.)./.g.9.w 4.g.Q.).wX1.w Q.dXg./.gXgX/.Q./.eXh.i 3 5.fX).g.).{.g.u 2 5./.g.e 3 3 3 3 & & & & & & & & O # # 2 $ # & # # # 2 & 2 # & & O # % 2 2 % 2 2 O $ # & & & # # & 2 & & % 2 & & & & # 2 % & & & & & O # = ~ K.{ :.:X+X= & & # & & & # # X t J.;XX.D t D > # % 2 2 # & & & 2 & & - 3 2 X O & H.5XF.= & & & & & & & & * 3 2 # & X ..<X#X< 2 & # # 2 2 3 3 3 3 0 3 3 2 # X X # * 3 3 3 3 3 3 3 3 3 4 3 3 3 3 4 3 3 3 4 H 0 3 3 3 3 3 4 3 3 3 3 3 4 3 3 3 3 3 4 4 3 3 w 4 3 3 3 3 3 3 3 3 3 3 3 4 3 3 3 4 3 3 3 3 ",
"3 3 3 4 3 4 3 3 3 3 4 3 4 3 4 4 3 3 3 4 4 5 n n m m v o % o W.lXlXlXlXlXlXlXjX^.e X X # # X X # X & # X & X X # X # @ m n n n 9 0 3 0 3 3 3 3 3 3 3 3 3 4 3 3 3 3 3 3 3 3 3 3 3 4 3 3 3 3 3 3 4 3 3 % P U.qXqXqXU.$   $ # # # . # # X # 3 e 2 X & X & X X # # X # . # # #   #   F Y.Y.+.+.H 0 0 3 4 3 3 3 3 4 3 3 3 3 3 3 3 3 4 3 3 3 4 3 3 3 3 3 3 3 3 3 3 3 3 3 8 c.v.x.v.N - X # # # # X X # X X # X X X # X X # # X X # # # # X X # # X g v.x.x.x.C 3 3 3 3 3 3 3 3 3 4 3 4 3 3 3 3 3 3 3 3 3 3 3 2 # . # # # # $ # # * * # # $ # * # # * # # # # # # # $ # * # # * # $ # e P P P y #                                                         . . $ i P i y w $ * # * # * # # * # # # # # # # # * # * # * # * # # # # * * # # # . # # # & # * # * # # # * # # # # # * $ * # * # # # # # $ * # * # 0 P y e P 0                                                               w P P i P % # $ # # * # # * * # # # # # * # # # # # * # # $ # * # * * # $ # # * * # # # $ # * # # * # # # # * # # # w 9.q.w.w.T                                                               4 P P P e 0 $ # # $ # # * # * # # # # # # # $ # # # * # # # # * # # # # $ # * # * # # # * $ * # # # * # # $ # # $ # 3 e P i i w                                     , $ .                 . . 0 P e P y 3 # $ # # # # # # * # # # # # * # * $ # # # # * # # # # # # # # * # #   # # 2 3 3 3 3 3 3 3 3 3 3 3 3 3 3 u ~ ....X.! * # # #   # # X X # # X . # # # X # X # # X & X & . # X & X # D X.X... .J 2 3 3 4 3 4 3 4 3 3 3 4 3 3 3 3 3 3 X # # X 3 4 3 3 3 3 3 4 e [.wXQ.4.i 4 6 i i 3 4 {./.U q.jXs.e 5.gXsX5.3 e.[.s.3 i pX6X( 3 4.sXe.3 r.sXe y {.{.i 5 g.).s.g.{.y 3 e e 3 3 4 4.).r.e q.wX4.3 5 i 5 i e 3 U gXh.i /.sX4.q 4.pXgXi e g.).4.2 5.jXg.i y s.dX5.3 i g.{.e 3 3 0 2 & & & & & & & 2 $ # 2 # # O & 2 # $ % & # 2 & & # # 2 # # 2 2 2 % 2 # & & & $ O & # # 2 2 2 & & & & 2 # 2 & & & & & & 2 $ * Q - -.:X+X= & & & & & & O # X K =X;X-.X.H.:.&.D 2 # % 2 & & & % & & & & # 2 $ = K.<X:.* & & & & & & & & & # 2 & 2 2 X.5X@X> & & # $ 2 # 2 3 3 3 4 3 3 2 X # # X 2 4 3 4 3 3 4 3 3 3 3 3 3 4 3 3 3 3 3 3 4 3 3 3 3 3 3 3 3 3 3 4 3 3 3 3 3 4 3 3 3 3 3 3 3 3 3 3 4 3 4 3 4 3 3 3 3 3 3 4 3 3 3 3 4 ",
"3 3 3 3 4 3 4 3 3 4 3 4 3 3 3 4 3 3 3 3 % 9 S V V k.S O # o d.lXkXkXhXkXkXhXhXf.u X X # X # # X # X # # & X # X o % @ n n n n + 0 3 3 3 3 3 3 3 4 3 3 3 3 3 3 3 3 3 4 3 3 3 3 3 3 3 4 3 3 3 3 3 3 3 3 H U.9X9XqXU., # #   #   # X # # X # # # # X # # X # X & # # # . # # # # # G Y.+.+.Y.G $ 0 3 3 4 3 4 3 3 3 4 3 3 3 3 3 3 3 3 4 3 4 4 3 3 q 4 3 3 3 3 3 4 3 3 9 N c.x.v.c.6 X # X # X # # X # X # # # X # # & $ # # # # X # X # X & X X M v.x.x.v.C * 0 3 3 3 3 3 3 3 3 3 4 3 3 3 3 3 3 3 3 3 3 3 3 X # # . # # # # * # # # * # # # * $ # # * # # # # * # # * # # * # # $ w P P P e #             X         # #             #                   . $ i P P P r # # # * # # * * $ $ # # * * # * # # * # # $ * # # # * * # # # # .   # # # & & # # $ * # $ * # # # * # # # # * * # # * * # * $ # # # = e P P P w                     . $ $                                     e P P P P 0 $ # $ # # # # $ # # # $ # * # # * $ * * # # $ # * # # # # # # # # # # # $ * # $ # # # # # # * # * $ # # q 7.q.q.e.( $                                                             0 y y P P 0 # # $ * # * $ # # * # $ # * # # * # # * # $ # # * * # $ # * # * # # # # * # # # # # * # # # * # # * # # * e P P P w #                                     . .                 . # 0 P P y P 0 # # $ # # * # $ # # $ * # $ # * # # * # # $ * # # $ * # * $ # # #   # # # 3 3 3 3 3 3 3 3 3 3 3 3 3 3 3 q { ....X.~ - # # . # # X # # . # # 0 * X # # X # X # # X # # . # # # X & D X.X.....K 3 3 4 3 3 3 4 3 3 3 4 3 4 3 3 3 4 2 # X # # % 3 3 3 3 3 3 3 4 i f.tXuXg.i 4 e i i T )./.5.q.dXU 3 i Q.wXw 3 1./.f.3 y sXh.3 3 y eXh.i r.sXy 5.gXg.i U r.gXs.r.wXe.U 4 4 3 3 4 e./.q.q 1.wXg.5.i 5 4 e i i 1.{.g.U /.eXe 4 ( 6X/.2 w q.).4.2 <.hX1.3 2 1.uX9.w w h.eX5 3 3 3 2 & & & & & & 2 # # O % # 2 & 2 2 2 O 2 # 2 O & & & & & O $ # X 2 2 2 & & & & 2 % 2 & 2 2 2 2 $ O & & # # 2 2 $ O & & 2 2 2 2 2 % -.<X+X= & & & & & & 2 # O Q <X;X-X-X-X;X:XH.J & O # & & # 2 & & & & & & - Q #X;XX.# & & & & & & & & & & & & 2 t H.:XH.2 & & 2 O & & 3 3 3 3 3 3 4 2 # X X # 2 4 3 3 3 4 3 3 3 3 3 3 3 3 4 3 3 3 3 3 4 4 3 3 3 3 3 3 3 3 3 3 3 3 3 3 3 3 4 3 3 3 3 4 3 3 4 3 3 4 3 3 3 3 3 3 3 4 3 3 3 3 3 3 3 ",
"3 4 3 3 3 3 3 3 3 3 3 3 3 3 4 4 3 4 3 3 0 9 V k.k.N.V 9 o o y.aX7X7XyX8X|. X_.q.q . # # # X X # X & X # X # X & % o a n n n b + 3 3 3 3 3 3 3 4 3 3 3 3 3 3 4 3 3 3 3 3 3 3 4 3 3 3 3 3 3 4 3 3 3 3 % H U.9X9XqXU.H # . # # # # # X X # . # o # # X # # X # X # o # o # # # # $ G Y.@.Y.+.L 0 0 3 4 3 3 3 3 4 3 3 3 3 4 3 3 4 3 3 3 3 3 3 3 3 3 3 3 3 3 4 3 3 3 3 e N x.x.x.N 6 & X # X # X # # X # X # X # $ 2 u Y q # X X # X & X # X & - C v.x.v.c.x 0 0 3 4 3 3 3 4 3 3 3 3 3 3 4 3 3 3 3 3 3 3 3 2 # X # . # # # * # # * # # # * $ # # # * # $ * $ # # * # # $ # # * # # e e y P P #                       w 0                                 # % P y i P w # & $ # $ # # # # # * $ # # # * # # * # $ # # # * $ # # # * # # # # # X # & # * $ # # * # # # # * $ # * # # $ # $ # # # # # # $ & # 0 e P y P 0                     H 8.T.$                     #           # w P y y y % # $ # * # * # # # * # * # # * # # # # # $ # # # * # * # $ * # * * # # * # # * # # * # * $ * # # # # $ # w 6.q.q.e.( $                                                           # w P P P e = # & # # # # # * # # $ # * # $ # # * # # # # * $ # # # # # * # # # $ * $ # * # # * # # # * $ # * # * # $ * e P e P w #                                       .                     0 i P P e 0 # * # # # # * # # * # # * # $ # # * # # * # # # # * $ # # # * # # # #   # 3 3 3 3 3 3 3 3 4 3 3 3 3 3 3 u ~ ....X.~ * # # # #   # X # # $ P 6X( X X # X X & X # # # X # X # X # & D X.X...$.H 3 3 3 4 3 3 3 3 3 3 3 3 3 3 3 3 4 3 X # # # 2 3 3 3 3 3 3 3 3 5 e I h.pXr.i 1.[.uXsXjX[.5.q.dXi 3 i g.gXw 3 1./.g.3 y sXs.6 3 y gXf.i e.sXy 4.eXzXsXsXdXpXq.i s.wXwXe.y 3 3 4 r.).q.6 e 4.{.tX/.U e e.gXuXdXfXQ.i ).eX4 4 ( {.g.3 w q.[.q.2 <.fX5.3 6 5.eXe.e 4 h.uXe 3 4 3 3 & & O & & & % # # & & 2 & & X 2 # 2 % # # $ & & & & & & # # 2 2 X 2 & & & & # 2 # 2 X 2 2 X & X & & $ O 2 X & X & & X 2 2 X $ O -.:X+X= & & & & & & 2 $ % ` <X<X#XX.! %.-X:X..= X & & & # # & & & & 2 X r J.:XH.J # & & & & O # & & & & & 2 * ;.-X@X_ - & & 2 2 X 2 3 3 3 3 3 3 4 2 X # # X 2 4 3 3 3 3 3 4 3 3 3 4 3 3 3 3 3 3 4 3 3 3 4 3 3 3 4 3 3 4 3 3 4 3 3 3 3 3 3 3 3 3 3 3 3 3 3 3 3 3 3 3 3 3 4 3 3 3 3 3 3 4 3 3 3 ",
"3 3 4 3 3 3 4 3 3 4 3 3 3 4 3 3 4 4 % 4 0 5 k.k.N.N.V + # o w R P P P P y e e w & # # X # X X # & X & X # # X # % O @ n n n v 9 0 3 3 3 4 3 3 3 3 3 3 4 3 3 3 3 3 3 4 3 3 3 3 3 3 3 4 3 3 3 3 3 0 0 % H U.9X9XqXU.] $ # # X # # # X # # # # # . # X # X X # # X # # #   # #   $ G @.O.O.@.G 0 0 3 4 3 3 3 4 3 3 4 3 4 4 3 3 3 3 4 3 3 3 3 3 3 3 3 4 3 3 3 3 4 3 0 5 N x.v.v.c.@ - X X # # . # X # # X # # o q w.}.iXy.0 # X # X X # X # # - C v.x.x.c.x * 0 0 3 3 4 4 3 3 3 3 3 3 3 3 4 3 3 3 3 3 4 3 3   # # # # # # # # * # # * # # # # # * # # # # * # # * # # # * # # # # w P P P e 3 #                   $ a.^.8.R #                           . 3 i i P y 0 $ & & # & # # # # * # # $ # * # # * # # * # * # # # # # * # # # #     # # $ # # * # # # * # # * # # $ # * # # # * * # # # * # # # # 3 P P y P w $                 r a.'.'.T.,                               # w P P P r , # # # * $ # * * # # # $ # # # # # # # # * # # # * # # # * # $ # # # # # $ # # # # $ $ # * # # # $ # % o w 4.q.q.w.1.,                                                           # w P P P e * # # # * # # # * $ * # # # # * # # $ # # $ * # # $ # * * # # * # # # # # * # * * # # $ # # # * # # * # # * e P P P w #                                                           # 0 P P P e * # # $ # # * # * $ # # # # * # # * # # # # * # # # # $ # & # & # # # # . X 3 3 3 3 3 3 3 3 3 4 3 3 4 3 3 q ~  .....~ < & . # X # X # # # I }.hX8Xw.e # # # X # X X & X # X # # # - Q X.....{ t 4 3 4 3 3 3 3 3 4 3 3 3 3 3 3 3 4 2 # # X X 2 3 3 3 3 3 3 3 3 3 3 3 T /.).q./.[.4.4.[./.5.9.dXi 6 i g.gXw 3 1./.g.3 i sXh.3 3 y rXf.i r.sXe 5.6X).5.<.1.5.y 5 i 5.g.{.q.3 3 4 r./.q.3 3 w U e.).).9.gXg.1.q.6Xg.I /.wX3 4 ( {.g.% 5 q.[.q.2 5.fX1.3 2 1.uX9.w w h.tXq 3 3 4 2 2 # $ # 2 # & & & & O % 2 # # # % 2 & & & 2 & & & & 2 # # # # 2 # # & 2 O $ # % 2 # 2 # $ O & & & & & & 2 2 & & & & & & 2 2 $ # -.:X+X= & & X 2 % 2 # # 2 { <X-X$.q * t ;.;XH.J & & & & & O & & 2 2 X r -.;X#X' 2 2 & & & & # & & & & & X - ~ #X-X;.= & & & 2 & X 2 3 3 3 3 3 3 3 2 # X # # 2 0 3 3 3 3 3 3 3 4 4 3 3 3 3 3 3 4 3 3 4 3 3 3 3 3 3 3 3 4 3 3 3 3 3 3 3 3 3 3 3 3 3 3 3 4 3 3 3 3 3 4 3 3 3 3 3 3 3 3 4 3 3 3 3 ",
"3 3 3 3 3 3 3 3 3 3 3 3 3 3 3 3 4 4 w 4 0 9 V k.M.M.k.b o # # o   . . . # .   # . & X # X # # X X # X # X # # X o O v n n b v 9 0 4 3 3 3 3 3 4 4 3 3 3 3 3 3 3 3 3 3 3 3 4 3 3 3 3 3 3 3 4 3 3 3 4 0 e G.9X9X9XU.*., # X # X X X # X X # o # # X # X & # X # # o # # # # o # , G Y.O.O.@., 0 $ 3 3 3 3 3 3 3 3 3 3 4 4 4 3 4 3 3 3 3 3 3 3 4 3 3 3 3 3 3 3 3 3 3 5 B x.v.v.c.C O # # # X # X # # X # X # . I .XhXlX7X<.o # # # # X & X X @ B v.x.x.B x 0 3 3 3 3 3 3 3 3 3 3 3 3 4 3 3 3 3 3 q 3 0 3 3 # #   # # # * # $ # * $ # # * # # $ # # * # $ # * # # $ # * $ # # * # r e P P y 3 #                   E _..X_.8.#             .             # 0 i P i e 3 $ # & & # * $ # * # # * # # # # $ # # $ # # # * # * # $ # * # #   # # # # # # # # # $ $ # # * # # # * # # * # # # $ # # * # # # # # 3 e P P P e $               r a.'..X'.T.,                               # w P P y w * # * # # # # # # # * # * # * * * # * $ * # # * # * # * # # # # # * # * * # # # * * # # * # # # * # # % % w 1.q.q.q.4.e                                                           # e P P P w 3 # # # # # # * # # # # * # # # * # * # * # # # * # $ # # # # * # $ * # # # # # # # * # * * # # # $ * # # $ e P P P e 0                                                           # w P y P e 0 # * # & # # # # * # * # # # # * # # $ * # # # * * # # * # & # & #   # # X 3 3 3 3 4 3 3 3 3 3 3 3 3 3 3 q ! X.X... .D & # . # # # X # [ ].kXkXkXE.0 # X X & X # # X & X # X X X = ! X.X...~ t 3 3 3 3 3 4 3 3 3 3 3 3 3 3 4 3 4 3 X X # # % 3 3 3 3 3 3 4 y u 3 2 U )./.s.{.g.3 e {.).5.9.dXi 2 i g.gX5 3 1./.f.5 y sX{.U 3 1.sXe.3 r.sXy i {.).5 2 2 3 w e 3 2 <.wXg.3 3 5 4.).u.4 i q 2 i g.uXf.gXq.% 5.wXg.U /.wX3 4 U {.g.3 w 4.[.9.2 5.jXg.e q r.sX( 3 i g.wX4 3 3 4 3 % 2 # # % 2 & & & & $ 2 # 2 & $ O 2 & & 2 # & # & & % 2 # O 2 # $ O X 2 # # # # & & % # # 2 & & & & # O 2 2 & & & & # & 2 2 # # ;.:X+X= & & 2 # 2 # 2 % * ' <X#XD % & = { -X+XQ X 2 & & & # & & 2 X > &.=X-X&.> X & & & # # & & & & & & 3 _ +X:X:.t & & & & % 2 2 2 3 4 3 4 3 4 0 2 X # # X 3 0 4 3 4 3 3 3 3 3 3 3 3 3 3 3 3 3 3 3 3 3 3 3 3 3 4 3 3 3 3 3 3 4 3 4 4 3 3 4 4 3 4 3 3 3 3 3 4 3 3 3 3 3 3 4 4 3 3 3 3 3 4 3 3 ",
"4 3 3 3 3 3 3 3 3 3 3 3 3 3 3 3 % 4 w 0 0 5 S k.M.N.k.V O # # o # # # o # o # # & . & X & X X # # X # X X # X & o @ v n n b a 5 3 3 4 3 3 3 3 3 3 3 4 3 3 3 3 q 4 3 3 3 3 3 4 3 3 3 3 3 3 3 4 3 3 3 4 w *.0X9X9X0XU.q X # # X # # # X # # X . # X # X & X & # X #   #   # # # F @.O.O.O.G , , 0 3 3 3 4 4 3 3 3 3 3 3 4 4 % 3 3 3 3 3 3 3 4 3 3 3 3 3 4 3 3 3 3 3 5 C c.v.v.x.B O # # . # # X # # X # X X . e ~.kXkXhXW.2 X X # X & X X & g N x.x.x.B 9 3 3 3 0 3 4 3 3 4 3 3 4 3 3 4 3 3 3 3 3 3 3 3 2 #   # # # # # * $ # # # # * # * * # # * # * # * # # # # # # # # # * # 0 e P P i w #                 , ^.'..X^.2.                            # w i i P e * # & # # # # # # # # # # # # * * # * # # * # # # # $ * # # # $ # #   # # # # * $ # * # * # * $ * $ * # $ # # # $ # # # # # # # # $ $ * w P e P e 0             w a.'..X'.T.R                               # % y P P P * $ $ # * # # * * # # $ # # # # # # $ # # # $ # # * # $ # $ $ # * # # * # # # * # # # # # # # # * # # * % $ 5 T q.q.q.9.R $                                                       . 0 e e P e q * & $ # * # * # # # # $ * # $ # # # # * # # # * # * # # * * # # * $ # # * # * # $ # # * # # $ # # # # # $ $ q P P P e 0 #                                                       . 3 w P P P q $ # # & # $ * # # # # # * # # $ # * # * $ $ # # $ * # # * & & # # # X . # # 3 4 3 3 3 3 3 3 3 3 3 3 3 3 3 q Q $.......! & . X # X # & I (.kXkXjX8X3.& & X # X X # # . . & X # # # < ! ....{ Q r 3 3 3 3 3 3 3 3 3 3 3 3 4 3 3 4 3 2 # X X # 2 3 3 3 3 3 3 w 5.r.r.r.h.{.9.1.).{.r.s.gX).5.q.fXi 3 i g.gXw 3 1.).g.3 y tXeXf.h.).6X5.2 r.dXe 3 r.{.g.r.e.4.5.4.h.r.g.[.q.% 4 4 5.).Q.4 5.r.r.h./.).9.6X).e.f.wXg.U ).eX3 4 ( {./.% w q.{.q.3 5.jX{.s.h.[.[.i 3 <.Q./.q 3 3 3 3 # # & & & 2 & & & & # # & & & & X 2 2 X X 2 $ # # 2 & & & & 2 # & & % 2 2 # & O # 2 & & 2 2 & & & & # 2 & X & & & & O % 2 X & % -.:X+X= 2 2 2 2 2 2 O 2 & _ <X=XD O & = ! -X+X^ O $ & & & & & $ # = { #X;X;.1 & & & & & & O & & & & & * Q K.:XJ.D 2 & & & & 2 # & # 3 3 3 3 3 4 4 2 # X # # 2 4 4 3 3 3 3 3 3 3 4 3 3 3 3 4 3 3 3 4 3 3 3 3 3 4 3 3 3 3 3 4 3 3 3 4 3 3 3 3 4 3 3 3 3 3 3 3 3 3 3 3 3 3 3 3 3 3 3 3 3 4 3 3 3 ",
"3 3 3 4 3 3 3 4 4 3 3 3 4 3 3 3 0 4 % 0 5 e 9 k.N.M.N.k.O # # % . # . # # # # o X # X # X # # # X & X # # X & X % a b n n b + 5 3 3 3 3 3 4 3 3 3 3 3 3 3 3 3 3 3 3 3 3 4 3 3 3 4 3 3 3 4 3 3 3 3 3 0 e ] U.qX9XqX2XF X # X # X # X # X # # X # & X # X # X X # # # # # #   # G +.O.O.+.G $ 0 0 4 3 3 3 3 3 3 4 3 3 3 0 4 4 3 3 3 4 3 3 3 3 3 4 3 3 3 3 4 3 3 3 0 4 x N v.x.x.x.6 # . # # X # X # # X # # # $ I aXkXlX8X<.# # X # X & X # B c.x.x.x.C q 3 3 3 3 3 3 3 3 3 3 3 3 3 3 3 3 4 3 3 3 3 3 3 3 # # # # # # # * # # * # # * # # # $ # * # # # # * # $ * $ * # * $ # # = e P i i P $               , 6.'..X'.a.,                 .         . 3 e P i i q * $ # & * # * # # * $ * # * $ # # # * # # # * # * $ # # * # * # # # # # # # # * # # * # # # # # # # # # * # * # # * # * $ * # * # & $ $ 0 e P P R e         $ 0 a.'..X'.T.R                               # # w y H P P * $ # # * # $ # # # * # * # $ * # $ # # * # # * # # # # # * # # * # # * # $ # * # * # $ # * # * $ # # * $ $ % i 9.q.q.w.2.$                                             #         # w e P P P = & # $ # $ # # # # * * # # # # * * # # $ # * $ # # # # * # # # $ # # # * # # $ # # * # # # $ # # * * # $ # $ 0 e P e P w #                           #   o                       # 0 i P P e = * $ * # & # # * # * # $ # * # * # # # # # * # * # # $ # # & # # # # # # . % 3 3 3 3 4 4 3 3 3 4 3 4 3 3 3 4 t { ...... .= # # X # X y ~.aXkXkXiX9.3 # . # X & # . # # & . # # X * Q $.X.....^ 4 3 4 3 3 3 3 3 4 3 4 3 3 3 3 3 3 4 3 X # # # 2 3 3 3 3 3 5 q 1.[.tXtX6Xr.w 5 e.gXeX[.r.e.( 1.6Xi 2 y r./.w 3 ( h.e.3 i uX{.g.rX{.1.u 2 4.6Xe 3 i e.gXtXeXr.1.r.wXrXgXq.y 4 3 3 e ).[.e 1.{.tXtXg.U e f.eXwX/.e.e.i h./.3 4 I Q.r.5 5 1.g.1.2 5.fXg.[.rX).U 4 3 q.).e.5 3 3 3 3 # $ O & 2 # & & & & & & & % & & 2 2 2 2 2 2 O % 2 # 2 & & & % 2 & & & # 2 2 & & 2 & & & X 2 & & & & # % & & & & & & # # & & & 2 -.<X+X= 2 2 X 2 # # $ 2 o Q =X;X! 2 X = ..;XJ.^ # # & & & & X O * { +X-X:.> & # & & & & & & & & & & & K J.;XJ.D $ O X & & & # 2 & # 3 3 3 3 3 3 0 2 X # X X 2 0 3 3 3 3 3 4 3 3 3 3 4 3 3 3 4 3 3 3 3 4 3 3 3 3 3 4 3 3 3 3 3 3 3 3 3 3 3 3 3 3 3 3 3 3 3 3 3 3 4 3 3 4 3 3 3 3 3 4 3 3 3 3 4 ",
"3 4 4 4 3 3 3 3 3 3 4 3 3 3 4 3 3 3 3 4 4 4 w V N.k.N.k.v % % o # # # . X # # X # X # X # X & X # # X # X 2 # & O v n n b v 9 3 3 3 3 3 3 3 3 3 3 3 3 4 3 3 3 4 3 3 3 4 3 3 3 3 3 3 3 3 3 3 3 3 3 3 3 3 w U.9X9X9X0X] $ # # o # X # X # # X # X # X # # X # X # # # # # # # , #.Y.O.O.#.e 4 3 3 3 3 4 3 4 3 3 3 4 3 4 4 4 3 3 3 3 3 4 3 3 3 3 4 3 3 3 3 3 3 3 4 3 3 4 N v.x.x.x.g - X # X # # X X # X # X & X 4 W.hXkXkX'.3 # # . # # # 6 B v.v.x.N x 0 0 0 3 3 3 3 3 3 3 3 3 4 3 3 3 3 3 3 3 4 3 3 3 3 X # X X # # & # & & # & # * # # * # # # * $ * # # # # # * # # # $ # # # w P P i i 3 #             R ^.'..X^.E                             # 3 i P i i 0 # # # # # * # $ * # # # # # # * # $ # # $ # # # * # # * # # $ # # # X # # # & # & # & # * # # # # * # # # * # # $ # # * # * # # & # * # * y P i P e $ . .   3 8.'..X.XT.R #                                 $ e P P P e $ # # # # # $ # # * * # # # # $ $ # * * # # * # # $ # # # * # $ # # * # # * # * # # # * # * # # $ # * # $ # # 0 4.q.w.w.4.4 o                                 .                   # e P y P e * $ $ & & # * & $ # # * # # # * $ # * # # # $ * # # * # * # * # * # # # * # # * # # # , # # # # # * $ # * # & * e P P P e * . . .                                               # # e P P P e * # # # # * # # # # $ # # * * # # # # # * # # # # * # # * # # $ # # # # #   # * 3 3 3 3 3 3 3 3 3 3 3 3 3 3 = 4 ` -..... .< # # # # * 0.iXlXkXhXT.y X # # # X # # X # # X # # X & , ! X.....~ t 3 3 3 3 3 4 3 4 3 3 3 3 3 3 4 3 3 3 2 # # X X $ 3 3 3 3 3 3 3 0 q q e q 4 4 4 4 q w q 4 q 4 5 w 3 3 4 q w 3 3 3 4 4 3 y sXs.3 q q 4 3 3 4 e 4 3 4 0 w w w 3 3 3 w w 4 4 0 4 3 4 3 s.).1.q w e 4 q 3 3 q w w w 4 4 4 w w 4 3 4 3 w 3 4 3 w 3 3 5.fX5.3 q w 3 3 4 Q.{.I 3 3 3 3 2 2 # 2 2 # # # 2 % & # # # 2 & & & & 2 # 2 # # # 2 2 2 2 2 O # # % # 2 & # 2 & O # # & & X 2 2 2 2 2 2 # # # & & % 2 # # O & & O ;.:X+X= * % 2 # & X O & X t H.:X:.D * D +X;X;.< & & & & & # & = Q +X:X:.< 4 - = = * & & & % # O & & < H.:X+X^ = = = * * & & & & O # 2 3 3 3 3 3 4 2 # # X # 3 3 3 4 3 3 3 3 4 3 3 3 3 3 4 3 3 3 3 4 3 3 3 3 3 3 3 4 3 3 3 4 3 3 3 3 3 3 3 3 3 3 3 3 3 3 3 3 3 3 3 4 3 3 3 3 4 3 3 3 3 3 4 3 3 ",
"3 4 4 4 3 4 4 3 4 3 3 3 3 3 3 3 4 3 3 3 4 4 % S k.N.N.k.S 9 % % # . X # % X X # X # # X X # # # X # # X # X X o @ n n n b v 5 3 3 3 3 0 3 3 4 3 4 3 3 3 3 3 3 3 3 4 3 3 3 3 3 4 3 4 3 3 3 3 0 4 4 3 3 3 3 Y.U.qX9X9XU.L # # . # # # # X X # # X X # # X & X & X   #   # # $ G +.+.O.O.#.r 4 3 4 3 3 3 3 3 3 3 3 3 3 4 4 4 4 4 3 3 3 3 3 3 4 3 3 3 3 4 0 3 4 3 3 3 3 3 C c.x.x.x.N @ X X # # X # # X # # # X X & w iXlXkXaX9.$ # X # # O B N v.v.x.N 9 0 3 0 3 3 3 4 3 3 4 3 3 3 3 3 4 3 3 3 3 3 3 3 0 2 # # # # # & # & & # & # # * # $ # # # * # # # # * # * # # & $ * # # * # 0 y y i P w #           $ 6.'..X'.E #                           # 3 w P P i e 0 # # * * * # # # # # * # * $ # # * # * # # * * # * # # $ # * * # # . # X X # # & # & * & # # # * # # $ # # # * # # * # # # # * # # & # # * e i P P y 0 #     H T.'.'.T.R #                               # # q P P y y w $ $ # $ * # # * # # # # # * * # # # # # * # $ # # * # * # # # * * # # # $ # # # # * # # # # * $ # # # # $ # # $ ( 9.q.q.9.( % o           .                                     # 0 e P P P w $ # # # & # # # # * # # # * # # # # # * # # # # # # # # # # # # # $ * # # * # # $ # $ # # # $ * # # # # # $ # $ r e P P y w #             #                                   . # 0 e P y y e 3 # $ # $ # & $ * # # * # # # # $ * # * # # * # # # # $ * # # * * # # # #   # 2 0 3 3 3 0 3 3 3 4 3 3 3 3 3 3 5 ^ ~ X.....! = X X & 3.rXkXlXaXE.e # X # X # # X X & # X & X X # - D  .X.....{ r 3 3 4 3 3 3 3 3 3 3 3 3 4 3 3 3 3 4 2 # X # X $ 4 3 4 3 4 3 3 3 4 4 3 3 3 3 4 3 3 3 4 3 3 4 3 3 3 3 3 3 3 3 3 3 3 5 3 i uXu.% 3 3 3 3 3 3 3 3 4 3 3 3 3 3 3 4 3 3 3 3 3 4 4 3 3 3 U f.).q 3 3 3 3 3 3 3 3 5 3 3 3 4 3 3 3 3 3 3 3 3 3 3 3 3 3 5.fX( 2 3 3 3 3 1./.s.3 3 3 3 3 3 2 & 2 # O & 2 # & & O & 2 # & & & & # 2 O $ % 2 2 X X 2 # $ # O 2 & O & 2 & & & % # & & 2 2 O 2 X 2 % 2 # O & & 2 2 2 $ # % & X %.<X+X= * - % 2 & & $ & & 3 ^ -X:X+XJ.+X;X#X_ * & & & & # O * t +X<X-XK.:.:.:.:.-.^ 2 & & # # # & u :.:X;X+X:.:.:.:.;.' = & & & # & 3 3 4 3 3 3 4 2 X # # X 2 4 3 3 3 4 3 3 3 3 3 3 3 3 3 3 3 3 3 3 3 3 4 3 4 3 3 3 3 3 3 3 3 3 3 3 3 3 3 3 3 3 3 3 3 3 3 3 4 3 3 3 3 4 3 3 3 3 3 3 3 3 3 3 3 ",
"4 3 4 4 3 3 4 3 3 3 3 3 3 3 3 3 3 3 3 3 3 3 4 Z V N.N.N.k.S O % # . # # X # # X # # X # X & X # # X X % X X O @ v n n n b + 5 3 3 3 3 3 3 4 3 4 3 3 3 3 3 3 3 3 3 3 4 3 3 3 3 3 3 3 3 4 4 3 3 3 3 4 3 3 3 W U.9X9X9X0X*., # # # # X # # # # X # # # X % X # # X # # #   # F @.O.O.O.+.G r 3 3 3 3 3 3 3 3 3 3 3 3 3 3 3 3 4 3 3 3 3 3 3 3 3 3 3 3 3 3 3 3 3 4 3 0 3 4 x N x.x.x.c.C 6 # X # . # X X # X X # # X # t.aXlXkXtXP # # # X g N x.v.v.x.C 8 3 0 3 3 3 3 3 4 3 3 3 3 3 3 3 3 3 0 4 3 3 3 3 4 3 # X # # # # $ # # * # * # # # # * * # # $ # * # # $ # * # $ $ # * # # * % e P P y P w #       $ W '..X.Xp.H                             $ w y i i P q $ * # # # # # * # $ # # $ # # * # # # # $ # # * # # # # # # * # # # # . # # # # $ # # # # * # * # * # # # $ # # $ # # * # * # # $ $ # $ & $ 0 y P i i e 2     # R R.T.R                                   # 0 e e P P e 3 & # # $ # # * # $ # # * # $ # # # * $ # # * # # $ # # # * $ # # # * * # * # # $ # * # * # # # # # * $ # $ # # $ y 4.w.q.q.9.y %                                               # 3 y P y P e 0 * # $ # # $ # # # # * * # # # # # # # * # * # # * $ # * # * # # $ # * # $ # * # # # # # # * # * $ # * $ # * # # = e P P i e 3 #         #                                 .   # $ e i P i P 0 * # # & & # # # $ # * # # * * # # * # # $ # # # * * # # # # # # # * # # # # # 3 3 3 3 4 4 3 3 4 3 3 4 3 3 3 3 4 t ~ X..... .D = X $ e `.hXhX(.y # X # X # # X X # X # X X # X & < ~ X.X.X.$.^ 4 3 3 3 3 3 3 3 3 3 4 3 4 3 3 3 3 3 3 3 # # X # 2 3 3 4 3 3 3 3 4 3 3 3 3 3 4 3 3 3 3 3 3 3 3 3 3 3 3 3 3 3 3 3 3 3 3 3 i sXs.2 3 3 3 3 3 3 3 3 3 4 3 3 3 3 4 3 4 3 3 3 3 3 3 3 3 3 4 I 5.4 3 3 3 3 3 3 3 3 3 3 3 4 3 3 3 4 3 3 4 3 3 3 3 3 3 3 1.jX( 3 3 3 3 3 i ( i 3 3 3 3 4 3 & & % & & & # 2 O $ & & # 2 # O & & & & 2 # & & & 2 2 & # # & & & & # # 2 % 2 & 2 & & & & & $ # X 2 & & & & & & X 2 & & # 2 2 % ;.<X+X= 2 X 2 & & & & & & & = { K.-X:X;X+X~ 4 % & O & & & 2 * ^ -X5X<X:X:X:X:X<X@X .& & O # # & & < +X5X<X:X:X:X:X:X-X;.q # & & & & 3 3 3 3 4 3 0 2 # X # # 2 3 3 3 3 3 3 3 3 3 3 4 3 4 3 3 3 3 3 3 3 4 3 4 3 3 3 3 3 3 3 3 3 3 3 3 3 3 3 3 3 3 3 3 3 3 3 3 3 3 3 3 3 3 3 3 3 3 3 4 3 4 3 3 3 ",
"3 3 3 3 3 3 3 3 3 3 4 3 3 3 3 4 3 3 4 3 3 3 4 5 S N.N.k.k.k.v % # # # o # X # # # X % X # X # X X # # X # # O a n n n n v 9 3 3 3 3 3 3 3 3 3 3 3 3 4 3 3 3 4 3 3 3 3 3 4 3 3 3 4 3 3 3 3 3 3 4 3 3 3 3 3 w Y.0X9X9X9XU.#.# # o X # X X X # # X X X # X # X # #   # # # $ #.+.O.O.O.#.r 0 3 3 3 3 3 3 4 3 4 3 3 3 4 3 3 3 3 3 3 4 3 3 3 3 3 4 3 3 3 4 3 3 3 3 3 3 3 0 5 C x.x.x.x.c.g & # X # # # # X # # X # # # e ~.jXhX.XP # . # O N x.v.v.x.N 9 3 0 3 3 3 3 4 3 3 3 3 3 3 3 3 4 4 3 3 3 3 3 3 3 3 3 X # X X # # # & # # # # $ # * # # # # $ # * # # # * # # * # # # * # $ # % 4 y P y P y 0 $       R '..X'.R #                           # w y P P i e 3 $ # $ $ # # * # * # # * # # * # * * * # # # $ # # # * * # # # # * # . # # # # # # & # * # $ # # $ $ # # , # # * # # * # # $ # * # # # * # # * e P P i P w #     $ R r #                                   % e P P y P w $ & & # & * # # $ # * $ # * # # * # * # # # # # * # # * * # # * # # # $ # # # * # $ # # $ * # * # # * # # # $ # $ 3 <.q.q.q.q.3.w o                 .                           # e y P P P w * # * # # & # * $ * # # $ # * # $ * * # # $ * # $ # # * # $ $ # # * # # $ # $ # # * * # * # # # # # # # # * # $ # * e y P i P w $                             #                 # q P P P y e * # & & # # * * # * # # $ # # # $ # # # * # * # $ # # # * # $ * # # # # #   # # 2 3 3 3 3 3 3 3 3 3 4 3 3 3 4 3 3 4 _ ......X.~ < # # # Y ~.E.I # X # X # X X # # X # X # # X X = ! ..X.X. .! r 3 3 3 3 3 4 3 4 3 3 3 3 3 4 3 3 3 3 3 2 X # X X 2 3 3 3 3 3 3 3 3 3 4 4 3 3 3 3 3 4 3 3 3 3 4 3 4 3 3 3 3 3 4 3 3 3 3 3 w r.5.3 3 3 3 3 5 3 3 3 3 3 3 3 3 3 3 3 3 3 5 4 3 3 4 3 3 3 3 3 3 3 3 5 3 3 3 3 3 3 3 3 3 3 3 3 3 3 3 3 3 3 3 3 3 4 3 3 i h.i 3 3 3 3 3 5 2 3 3 3 3 3 4 2 & % & & & & 2 # # # & % 2 2 # & & & & & % # & & 2 # # & % 2 & & & & # $ # 2 # 2 # & & & & & # # 2 # 2 & & & & & 2 2 # & 2 2 # % Q %.{ 2 2 & & & & & & & & & & = ^ &.-.$.Q 4 & # # # & & & X = < X.-.-.-.-.-.-.%. .J & & # & 2 % 2 = ~ -.-.-.-.-.-.-.X.! = & & & & & 3 4 3 3 3 3 0 2 X # # X 2 3 3 3 3 4 4 3 3 3 3 3 3 3 3 4 3 3 4 3 3 3 3 3 3 3 4 3 3 3 4 3 3 3 3 3 3 3 3 3 3 3 4 3 3 3 3 3 3 3 3 3 3 4 4 3 3 3 3 3 3 3 3 4 3 ",
"3 3 4 4 4 4 3 3 3 3 3 0 4 3 3 4 3 3 3 3 3 0 4 % Z V N.k.N.N.k.+ X # X % X # # X X # X & X # X # X # # X % O + n n n n v + 4 3 3 3 3 3 4 3 3 3 3 3 4 3 3 3 3 3 3 3 4 3 3 3 3 3 3 3 3 3 3 3 3 3 3 3 3 3 4 3 3 E U.qX9X9XqXU.W $ # X # X # X # # X # X X & X # # X #   # , G +.O.O.O.+.G 4 3 3 3 3 4 3 4 0 3 3 4 3 3 4 3 3 3 3 3 3 3 3 3 4 3 3 3 4 3 4 4 3 3 3 3 3 3 3 3 0 x B v.v.x.v.N g & # # . # X X # X X # X X X 3./.E.<.* X & @ g x.x.x.x.c.C 4 3 3 3 3 3 3 3 3 3 4 3 3 3 3 3 3 4 3 3 3 3 4 3 3 3 3 # # X # # * * # $ # # * $ # * * # # $ # * # # # * # $ # # # # # # * # # $ 3 q P i P P e $ $   o 0 E T.a.,   #                       # $ e P P P y r * # # # # # * # $ # * # # $ * # $ # # # * # # * # * # * * # * $ # * # #   . # # # # # * * # # * # # # # * # # $ # # # $ # # $ # # # * # # $ * # 0 y P i P P w % #                                       # # q P P P P e = $ # # $ # * # # # # * # # # # * # # $ # * * # # , # # $ # # * * # * $ # * * # # # * # * # # # # * # # # * $ # # # $ H 3.w.w.w.w.( 0 #                                       # $ 4 P P P y e 0 # # * # * # # * # * * $ # * $ # # # # # # # # # # $ * # # # # # $ # , # # # # # * # # * # $ * # # # # # $ # & & # $ 0 e P y P P w # o .                                     . # 0 P i i P e , $ # # # * # * * # * $ # # # # * # # # # * * # # # # * * * # # # & # & # # # . # 3 3 3 3 4 3 3 4 3 3 3 3 4 3 3 3 3 3 t { ......X.! < # . . y e # # X # X # X # . # & . # X # & = D ......%.{ Q 4 3 3 3 3 4 3 3 3 3 3 4 3 4 3 3 4 3 3 4 2 # # # # 2 3 4 3 3 4 3 4 3 3 3 3 3 4 3 4 3 3 3 4 3 3 3 3 3 3 3 4 3 3 3 3 3 3 3 3 3 3 3 4 3 3 3 3 3 3 3 3 3 4 3 3 3 3 4 3 3 3 4 3 3 3 3 3 3 3 3 3 3 3 4 3 3 3 3 3 3 3 3 3 3 4 3 3 0 4 5 3 3 3 4 3 3 3 3 3 3 2 3 3 3 3 3 3 3 3 3 3 3 3 3 3 3 # 2 2 2 2 % 2 # # 2 2 # 2 # # % 2 O $ # $ # # $ 2 2 2 & X 2 & & & & & & & & 2 # & 2 # 2 # # 2 & & 2 2 2 # & & X O # # 2 & # 2 2 2 % o 2 & 2 X & & & & & & & X O # X X # % # & & & & & & & & & & X % X o O X # X % % & & & & 2 # $ O # X % o % o % X % X # 2 & 2 X 2 3 3 3 3 4 3 3 2 # X X # 3 3 3 3 3 4 3 3 4 3 3 3 3 3 3 3 3 4 3 3 3 3 3 2 2 3 3 3 3 3 3 3 3 3 2 3 3 3 4 3 3 3 3 3 3 5 3 3 3 3 3 3 3 4 3 3 4 3 3 3 3 3 3 3 3 ",
"3 3 4 4 3 4 3 4 3 3 3 4 3 3 3 3 3 3 4 3 3 4 4 4 % Z k.N.k.N.k.k.+ O % X X # X # & X # X & X X # % X X % O a n n n n b a 3 3 3 3 4 3 3 3 3 3 3 3 3 3 3 3 4 3 4 3 3 3 3 3 3 4 3 3 3 3 3 4 4 3 3 3 4 3 3 3 3 4 3 #.0X9X9X9X9XU.G , # # # X # % X # X # # X & X X # # # , G O.O.O.O.+.G q 0 3 3 3 4 3 3 4 % 3 3 3 3 3 3 3 3 3 4 3 3 3 4 3 3 4 3 3 3 3 3 3 3 3 3 3 3 3 3 3 3 3 x c.x.x.x.x.N g O . # X # # X # # X # & X 4 3 # # # - 9 B v.x.x.x.c.B 9 4 3 3 3 3 4 3 3 3 3 3 3 4 3 4 3 3 3 3 3 4 3 3 3 3 3 3 # . # X # # # $ * # # # # # # # * # * # # # # * $ # # * # * # * & # # * $ # 3 e i P i i R $ o         $ .                         # 0 P P P y i e * $ # # , # # # # # # # * # # # # # # # * # # $ # # * # # # $ # # # # # # # # # # $ * # # # $ # # * # * # $ # # * # * * # * # # * # * # # # * # # # r y i P P [ R % #                                   # $ w P P e P e q $ # * # # * # $ * # # # $ * # * # # * # # # # $ # # # # # # # # # $ # # # # # # # * # # # # * $ # * * # # # # * * # $ $ Y 9.w.q.q.q.[ 0 #                   .                 % e P P y P y r * # # # # # # # # # $ # # # # # * * # # * # * # * # # # $ * # * # # * # # # # * # # * # # * # # # * $ * # # * # & & # $ 0 y P i i P e # #                                     $ w i i P i e w * # # $ # $ # # # # # # $ * # * # $ # * # # # $ # * # # # # # $ & # & # # X # # # 3 4 3 3 3 3 3 3 3 3 3 3 0 3 3 3 3 3 3 t { ....X.X.~ < = # # # # . # X # X # X & . # & X & & > ! ........~ _ q 5 3 3 3 3 3 4 3 3 3 3 3 3 3 3 3 3 3 3 4 % # # X # 2 3 3 3 3 3 3 3 3 3 3 3 3 3 3 3 3 3 4 3 3 4 3 3 3 4 3 3 3 3 3 3 3 3 3 3 3 4 3 3 3 3 3 3 3 3 3 3 3 3 3 4 3 3 3 4 3 3 3 3 3 3 3 3 3 3 3 3 4 3 3 3 3 4 3 3 3 3 3 3 3 3 3 3 4 4 3 4 3 3 3 3 3 3 3 3 3 3 3 3 3 3 3 3 3 4 3 3 3 3 3 3 2 2 # 2 2 X 2 % 2 2 # % 2 # $ & 2 # 2 # # O 2 # O % 2 & & 2 2 & & & & & & & & % 2 & & 2 X $ O % & 2 # # 2 2 % & & # 2 # # & & 2 # X 2 O 2 & & O & & & & & & & & & % & % # O 2 & & & & & & & & & & $ O & & % % & & & 2 & & & & & # # % & & 2 2 2 2 O # O % 2 % & 2 2 & 2 3 3 3 3 3 4 2 X # # X 2 0 3 3 3 3 3 3 3 3 4 3 4 3 3 3 3 3 3 3 3 w i U I e 3 3 4 3 3 4 q i I I y 4 3 4 i I i i 3 3 3 3 3 4 3 3 3 3 3 3 3 3 4 3 4 3 3 3 3 ",
"4 3 3 % 3 3 3 3 3 3 % 4 3 3 3 3 3 4 3 4 3 3 4 4 0 9 M k.N.N.N.N.k.n 6 % # # X # X # X # # X # X % X O O v n n n n b v 9 3 3 3 3 3 3 3 3 3 3 3 4 3 3 3 4 3 4 3 3 3 3 3 3 3 3 3 3 3 3 3 3 3 3 3 3 3 3 3 3 3 3 3 e *.0X9X9X9X9XU.*.0 # # # X # # X & X # # X # # # # F #.O.O.O.+.+.#.H 0 0 3 3 3 3 3 3 3 4 3 3 4 3 3 3 3 4 4 3 4 3 3 3 4 3 3 3 3 3 3 3 4 3 3 3 3 4 3 3 3 3 3 8 C x.x.x.x.x.c.g O # & X X & X # # # X # X # X # O g N c.x.x.x.c.B x 4 3 3 3 3 4 0 4 3 3 3 3 3 3 3 4 3 3 3 3 3 3 4 3 3 3 3 2 # X # # # # # # # * # * # * # # # # # * * $ * # * # * # $ # # $ # & * # # # $ 3 y P P P P R R $                             o # # 0 H P P y P e 0 # # * # * $ # # * # $ * # # * # * # * # # * # # # # # $ # # # * # # * #   # # # # $ # $ # # # # # $ # # # # * # # * # # # # * # # * # * * # # * $ * * w P I ( 9.q.2.e #                               # $ e P P P P P r 2 * # * # # $ # # * # $ # # # # # * * # # * * # # # $ # # * * $ # # # * # $ # # * * # # $ * # # * # # # # * * # * # & # # 0 T q.q.q.w.q.1.w #     .                   .   . # % e P y P P y w * # * # # $ * # $ # # # # # # * # # # * * # # $ # $ * # # # * # * # # * $ # # * # # $ # $ * # # # * # # * # # * & # # * # * q P P i P i w 3 #                             # # * w P P i P e w 3 # # # * # * # $ # $ * # * $ # # # # * # # * # # * # # $ # # * # # & # $ X # # . X 2 4 3 3 3 3 3 3 3 3 3 4 3 3 3 3 3 4 3 q Q  .X...%.:.L.&.q X # # X # # # X # # # . # . & * < ! ........ .` t 4 4 4 = 3 3 4 3 3 3 3 3 3 3 3 3 3 3 3 3 4 2 # X # X $ 3 3 3 3 3 3 3 3 3 3 3 4 3 3 3 3 3 3 3 4 3 3 3 4 3 3 3 3 3 4 3 3 3 3 3 4 3 3 3 3 3 3 3 3 3 3 4 3 3 4 3 3 3 3 3 3 3 3 4 3 3 3 3 3 3 4 3 3 4 3 3 4 3 3 3 3 3 3 4 3 3 3 3 3 3 3 3 3 3 3 3 3 3 4 3 3 3 3 3 3 3 3 3 3 3 3 3 3 3 3 3 3 # $ X 2 2 # & & O # & & & # # & 2 2 2 & 2 # & & 2 X X 2 2 X & & O X & & & & O # & 2 2 X 2 % 2 2 # 2 $ # & & & & 2 2 O $ # 2 # 2 X 2 # 2 % & # & & & & & & # & & & & 2 % 2 # & & & & & # O & & & # & & & 2 & # 2 O # & & & & & & # 2 & & 2 O 2 X # 2 $ # # 2 % & & & 3 4 3 4 3 3 4 2 # X X # 2 3 3 3 3 3 3 3 3 4 3 3 3 3 3 3 3 4 3 3 4 5.[.sXuXg.e 3 3 4 3 5 1.{.sXtXg.e 6 U g.pXpX).( 3 3 3 3 3 4 3 3 3 3 3 3 4 3 3 3 3 3 3 4 ",
"3 3 3 4 3 4 3 3 3 3 4 3 3 3 4 3 3 3 3 3 3 3 4 4 0 % 9 S k.N.k.N.M.V M 5 # X # X X # # # X & X # % % O v n n n n n v 9 3 3 3 3 3 3 3 4 3 4 3 3 3 4 3 3 3 3 3 3 3 4 3 3 3 3 4 4 3 3 4 3 3 3 3 4 3 3 3 4 3 3 3 3 4 P Y.0X9X9X9X9X0X*.q X X # X X # X # # X # X X 2 , #.O.O.O.O.O.#.L 0 3 3 3 4 3 3 3 4 3 3 3 3 3 3 4 3 3 3 3 3 3 3 3 3 3 3 3 3 3 3 3 3 3 3 4 3 3 3 3 3 3 3 3 6 8 C c.v.x.x.x.c.C 6 # # # X & X # X # X # # X 2 9 B x.v.x.x.v.N x 6 3 4 3 3 3 3 3 3 3 4 3 3 3 3 3 3 3 3 4 3 3 3 3 3 3 3 3 3 X # # X # # * # # $ # # # # * * # $ # # # # # # # # # # * # * # $ # # # * # # $ 0 e P P R E 8.R 0                           . # 0 P P P P P e 0 * # # # # # # $ # * # # # # * # # $ # # * # # $ # * * # # * * # # # $ # # #   # # # # $ * # * # * # # * # * # # * # # # $ * # # * # # # # # # $ # # # # % e ( 7.q.q.q.1.r #                           # # e P P P e e w 3 $ # # # # # * * # # # # * * # $ # # # # $ # # # * * # # $ # # # * * # # # # * $ # # # # * $ # # # # $ # $ # # $ # # $ # $ & q ( q.q.q.q.0.1.w #                         . # , e P P y P P e % * # # # # * $ # # * * # $ * # # # * # # $ # # * # # # * * # # # # $ # # # * # # * # # # # # # * # # * # # $ # # # # $ # # $ * r y P i i P e % #                           # # e e P i P P w 3 $ * $ # # # # # * * # # # # # # * * # # $ # # * # $ # # * # * $ # & & # # # X # . # 3 3 4 3 3 3 4 3 3 4 3 3 3 4 3 3 3 3 3 3 r ^ X.X.:.$X>X%X$.q # X # X # X # X # . & . & & > !  .X.......~ t 4 3 3 3 3 3 3 3 3 3 3 3 4 3 4 3 3 3 4 3 3 3 3 X # X # & 4 3 3 3 4 3 3 3 4 3 3 3 3 3 3 3 3 3 3 3 3 3 3 3 3 4 3 3 3 3 3 3 3 3 3 3 3 3 3 3 3 3 3 3 3 3 3 3 3 3 3 3 3 4 3 3 4 3 3 3 3 4 3 3 3 3 3 3 3 3 3 3 4 3 3 3 3 3 3 3 3 3 3 3 3 3 3 3 4 3 4 3 3 3 3 3 3 3 3 3 3 3 3 4 4 3 3 3 3 3 3 3 # O 2 2 # 2 & & $ # & & O # 2 & X 2 % & # 2 & & 2 2 2 2 2 2 & & $ & & & 2 % $ # & # 2 2 2 2 % 2 X 2 # # O & & % 2 # & % 2 2 2 % 2 2 $ # & & & & & & & O # & & & & 2 % 2 & & & & & & # & & & & & & & & & & % 2 # # $ & 2 & & & & 2 # 2 # # $ 2 # 2 & & & 2 2 & & & # 3 3 3 3 3 4 4 2 X # # X 3 0 3 3 3 4 3 3 3 3 3 3 3 3 4 3 3 3 3 3 e gX/.4.e.gX9.e 3 3 3 i 6X/.4.r.gX4.e g.6Xq.4.6Xs.i 3 3 4 3 3 3 3 4 3 3 3 3 3 3 3 3 4 3 3 ",
"3 3 3 3 4 3 3 3 4 3 3 3 3 3 3 3 3 3 3 3 3 3 3 4 0 w 5 9 S k.N.k.M.M.M 3 & $ & # # X # # X $ & & % 4 5 v b n b b v + 3 4 3 3 3 3 3 3 4 3 3 0 3 3 3 3 3 3 3 3 3 3 3 3 3 3 3 3 3 3 3 3 3 3 4 3 3 3 3 3 4 3 3 4 3 3 0 L G.0X9XqXqX0X#.q 2 2 % % X # # # # % % % 2 3 , #.+.Y.+.Y.#.F w 3 3 3 3 3 4 3 3 3 3 0 3 3 4 3 3 3 4 4 4 3 3 3 4 3 3 3 3 4 4 3 3 4 3 3 3 3 4 3 4 3 3 3 3 3 4 9 B c.v.x.x.c.Z 3 2 2 # # # # X # # # # 2 % 3 5 B x.x.x.c.N C 8 0 3 3 3 3 3 4 3 3 3 3 3 4 3 3 3 3 3 3 3 3 3 3 3 3 3 3 3 3 X # # # # # # * # * # # # * # * # # # * # * # * # # # * # # # * # * # # # * # * * , e I E 9.q.P * # #   #                 # # # q P i P y e w * * # # * * # $ # * # * # # # # # $ # * # $ # # # # # $ # # # # # $ # # $ #   # #   # $ # $ # # $ # $ * # * # # # $ # # # # * # # # * # $ $ # # # # $ * # % w [ q.w.q.q.4., # # #                   # # # 3 e P P P e r = # # * # # # $ # # $ # # * # # $ # # * # $ # # # # $ # # # # # $ # * # # $ # # $ * # # # # * * # # # # # $ # # # * # * $ * $ # * 0 5.q.w.q.q.4.w $ # . . .           # . # # # * e P P P P w 0 # # $ & # * # # # # # # * * # # * # * # # # $ * # * # # * # # $ # * # * $ # # * # * # $ # # # # * $ # * # # * # # # # $ # # * * * w i P P P y , # # #                   . # # * e P P P e e 0 # # * # # * # # # # # # # # # * # # * $ * # # # $ # # # * # * # # # $ # # # #   # # # 3 3 3 3 3 3 3 4 3 3 3 3 4 3 3 3 3 4 3 3 4 r Q -.$X,X,X2X} 4 2 2 $ # # # # # # & & & & 3 4 !  ...X. .! J q 3 3 3 3 3 3 3 3 3 4 3 4 3 3 3 4 3 3 3 3 3 3 3 # # # # & 3 3 3 3 3 3 4 3 3 3 3 3 3 4 3 3 3 3 3 4 3 3 3 3 3 3 3 3 3 3 3 3 4 3 4 3 3 3 4 3 3 3 3 3 3 3 3 3 3 3 3 3 3 3 3 3 3 4 3 4 3 3 3 4 3 3 3 3 3 3 3 3 3 4 3 3 3 4 3 3 4 3 3 3 3 4 3 3 3 3 3 3 3 4 3 4 3 3 3 3 3 4 3 3 3 3 3 3 3 3 3 3 & 2 & & 2 2 $ 2 2 2 2 2 # 2 & % # 2 2 2 % 2 # 2 2 2 # 2 2 # % & & 2 # 2 2 2 # 2 2 2 # # & & & & 2 2 2 2 2 # 2 2 % 2 & & # # 2 # % 2 2 2 # 2 & & # & # 2 & & % # 2 2 % & 2 2 % 2 2 2 # 2 & 2 & & 2 2 2 2 # 2 2 2 % 2 & & # % # 2 2 % # 2 # 2 2 2 % & 2 2 # 2 & O $ # 3 3 3 3 3 3 4 2 # X # # 2 3 3 3 3 3 3 3 3 3 3 4 3 3 3 3 3 3 3 q 5.rXe.3 i /./.i 3 3 q <.tXq.3 U /./.1.).).w w h.).4.3 3 3 3 3 3 3 3 3 3 3 3 3 4 3 3 3 3 3 ",
"3 3 4 3 % 3 3 4 3 3 3 4 3 4 3 3 3 3 4 3 4 3 3 3 4 % 4 4 i S k.M.M.S 5 3 4 3 3 & 2 2 2 & 2 2 3 3 % 4 4 + v n b v 9 5 3 3 3 3 4 3 3 3 3 3 3 3 3 3 3 3 3 3 4 3 4 3 3 3 4 3 3 3 3 3 3 3 4 3 3 3 3 4 3 3 3 3 3 3 3 3 3 3 L Y.U.qX9XG.t 3 3 3 2 3 3 2 % 2 2 2 3 3 3 3 $ F #.Y.+.G F , % 4 3 3 3 3 3 3 3 3 3 4 3 3 3 3 3 3 4 4 4 4 4 3 3 3 3 3 3 3 3 3 3 3 3 3 3 3 3 3 3 3 4 3 3 3 0 0 9 C c.v.x.B 8 3 4 3 3 2 2 2 2 2 $ 2 2 3 3 4 4 Z N v.c.N x 5 0 0 3 3 3 3 3 3 3 3 3 4 3 3 3 3 3 4 3 3 3 4 3 3 3 3 3 3 3 2 # # . . # # # * # # # $ $ # # # # * # # # # # # $ * # # * # # # # $ * # # # # # # * q I 7.0.<.w # * # # #   # # # # # # $ # # # 3 e P y e 0 $ $ # # $ # * # # # # # * # * # * # # * # # # # * # * * # # # * * # # * * # # # # # # # # # # # * # # # # # $ # * # # * # * # * # $ $ # # * * # * # * # # # % % e [ q.w.7.U * # # # # # # # # . # # # # # * $ q e P P w * * # # # $ * # # * # * * # $ # # * * $ # # # # * * # # * * * * # # # # * # # * # # # $ * # # # # $ * * # * # # * # # # # # # # # # % w T 9.w.9.T % # # # # . # # . # . # # # # # $ w e P e w = # # $ # # * $ # # * * # # # # # $ # # $ * # # * # # * # # * # * # # # # # # # * # # # # # # * * # # # * # # $ # # * * # * # # # # # 3 w e P y r $ # # # # # # #   # # # # # # # # , e P y e = * # # # $ # # * # * # # * # * # * # $ # # # # * # * # * # $ # # # * # # * # * # # . # # 2 3 3 4 3 3 3 3 3 3 4 3 3 3 3 3 4 3 3 3 3 3 r $.%X>X,X>.e 3 4 3 2 2 2 & & $ 2 * * 3 3 3 3 J ~ X. .' H q 4 3 3 3 3 4 3 4 3 3 3 3 3 4 3 3 3 3 3 3 3 q 3 3 X X # X $ 4 3 4 3 3 3 3 3 3 4 4 3 3 3 4 3 4 3 3 3 3 3 3 4 3 3 3 3 4 3 3 3 3 3 3 3 3 4 3 3 3 4 3 4 3 3 4 3 3 4 3 3 3 3 4 3 3 3 3 3 3 3 3 3 3 3 3 3 4 3 4 3 3 3 3 3 3 3 3 3 3 3 3 4 3 3 3 4 3 3 4 3 3 3 3 3 3 3 3 3 3 3 3 3 3 3 4 3 3 3 3 3 2 2 2 2 2 2 2 2 2 2 2 2 2 2 2 3 2 2 2 2 2 2 2 2 2 2 2 2 2 2 3 2 2 2 2 2 2 2 2 2 2 2 2 3 2 2 2 2 2 2 2 2 2 2 2 2 2 2 2 2 3 2 2 3 2 2 2 2 2 2 2 2 3 2 2 2 2 2 3 2 2 2 2 2 2 2 2 2 2 2 2 2 2 2 2 2 2 2 2 2 2 2 2 2 2 2 2 2 3 2 2 2 2 2 3 2 2 2 2 2 2 2 2 2 2 2 2 2 2 2 3 3 3 3 3 3 3 2 X # # X 2 0 3 3 3 3 3 4 4 3 3 3 3 3 3 4 3 3 3 e q.6X1.2 e q.gX5.6 3 e q.|.1.2 e e.gXh.[.h.3 3 1.{.e.3 3 3 3 3 4 3 4 3 3 4 3 3 3 3 3 3 4 3 ",
"3 4 4 3 4 4 3 3 3 3 3 3 4 3 4 3 3 4 3 4 3 3 3 3 4 4 w 0 5 9 S k.V 9 3 4 4 3 3 4 4 4 4 3 3 3 3 3 3 3 0 9 a v a + 3 3 3 4 3 4 3 3 4 3 3 3 3 3 3 4 3 3 3 4 3 4 3 3 3 4 3 3 4 3 3 4 3 3 3 3 3 3 3 3 3 4 3 3 3 3 3 3 3 3 3 e Y.U.U.W q 3 3 3 3 3 3 3 3 3 3 3 3 3 q 3 0 0 W +.#.L 0 $ 3 3 3 3 3 3 4 3 3 3 % 4 4 3 3 3 3 3 3 % 3 4 3 3 3 3 3 3 3 3 4 3 3 3 3 4 4 3 3 3 3 3 3 3 3 3 4 4 3 9 C c.N 9 q 4 4 3 3 3 3 4 4 3 3 3 3 3 3 3 4 8 C c.B g 5 3 3 3 3 3 3 3 3 3 3 3 3 3 3 3 3 3 3 3 3 4 3 4 3 3 3 4 3 3 3 3 # X . # # # # # # # * # * # # $ # * # * $ * # # # * # $ # * # * # # # # $ * # # $ # * y 3.3.y % & $ # * # # # # # # # * $ # $ # $ 0 H r q * $ # * # * # # # * * # # # # # * # * # # $ * * # # * # # # * # # $ # * # # # # # # # # # # # # # * # * # # * # # $ # * # # * # # $ # # * # # # # $ * # # # * % $ $ q [ 4.( 3 # * $ # # # # $ # # * # # # # # # * w e q 3 $ # # & # # # # # $ # # * # # # # # # # # * # * # # # * # # # # * # # # $ # * # * # # # # * $ # # # # # $ # * # # * # $ * # # # # * % % 0 [ 7.<.0 % # * # $ * * # # # # * # # # # * $ w e w = # * # $ # # $ * # * # # * $ # # * * # $ # # # # # # # # # # # * # * # $ # # * # # * $ * # # * # $ $ # # * # # * # # $ # # # * $ # # # # $ w e e * * # # # # # $ $ # # # * # # $ # * * w e w 0 # # # # $ # $ & # $ # # $ # # $ $ # # # # # * # # # # * # * # * # $ # * * # # $ #     # # 2 3 3 3 3 3 3 3 4 3 3 3 3 3 3 3 3 4 3 3 3 3 3 u &.%XL./ 5 4 3 3 3 3 3 3 3 4 3 4 3 4 3 3 3 u Q { _ J 0 4 3 3 3 3 4 3 3 3 3 3 3 3 4 3 3 3 3 3 4 4 3 3 3 2 # # X # & 3 3 3 3 3 3 3 4 3 3 3 3 4 3 4 3 3 3 3 3 3 3 3 3 4 3 4 3 3 3 4 3 3 3 3 3 3 3 3 3 3 3 4 3 4 3 3 3 3 3 4 3 3 3 3 3 3 3 3 3 3 4 3 3 3 4 3 4 3 3 3 3 3 3 3 3 3 3 3 3 3 3 3 3 3 3 3 3 4 3 3 3 3 3 3 3 4 3 4 3 3 3 4 3 3 4 4 3 4 3 3 3 3 3 3 4 3 4 3 3 3 3 3 3 3 4 3 3 4 3 3 4 4 3 4 4 3 4 4 3 4 4 3 3 3 3 4 3 4 3 4 3 3 3 4 4 3 4 3 3 3 3 4 3 4 3 4 3 3 4 4 3 3 3 3 3 3 4 3 3 3 4 4 3 4 3 3 3 4 4 3 4 4 3 4 3 4 3 4 3 3 3 4 4 4 3 3 3 3 4 4 3 3 4 4 3 3 4 4 3 3 3 3 4 4 4 3 3 3 3 4 3 4 4 3 3 3 4 3 4 4 3 3 3 3 3 3 3 3 2 # X # # 2 3 3 0 3 4 3 3 3 3 4 3 3 3 3 3 3 3 6 e r.[.<.2 e 4.tX5.2 3 i r.).5.2 e 4.uXg./.r.2 q ( 6Xs.3 3 3 3 3 3 3 3 3 4 3 3 4 3 3 3 3 3 3 ",
"3 3 4 4 4 4 3 3 3 4 3 3 3 3 3 3 3 3 3 3 3 3 4 3 4 4 % 0 0 0 5 x Z q 3 3 3 3 3 3 4 4 4 3 3 3 3 3 3 3 4 3 9 9 5 w 3 3 3 3 3 3 4 3 3 3 3 3 3 3 3 3 4 3 3 3 3 3 3 3 3 3 3 4 3 3 3 3 3 4 4 3 3 3 3 3 3 3 3 4 3 3 3 3 3 3 3 3 e E ] 4 3 3 3 4 3 3 3 3 3 3 3 3 3 3 3 3 0 0 H F 0 0 0 0 3 3 4 3 3 3 3 3 4 3 4 3 3 3 3 4 4 3 3 4 3 3 3 3 3 4 3 3 3 3 3 3 3 3 3 3 3 3 3 3 3 4 3 3 3 3 4 3 4 q 5 9 x w q 4 3 3 3 3 3 3 3 3 3 3 3 3 3 4 3 3 9 x 8 7 3 3 4 3 3 3 3 0 4 3 3 3 3 3 4 3 3 4 3 3 3 3 3 3 4 3 3 3 3 3 3 3 X # # # # # # $ # * $ # # # * # $ # # $ # # * $ # # # * # $ # # * * # $ # # * # # # $ * w y 0 % # $ # # # # # # * # # $ # $ # $ $ $ 3 * # & # $ $ # # # # $ # # $ * # $ # $ # # * # # # * # # * # $ # * * # # * # # # * #   # #   # # # # * # # * # $ # * # # * # $ # # * # # # # # * # * # # # * # $ # % $ # $ 3 e w # # * # # # # # # * # $ # $ # # * $ $ 3 3 $ # # # $ # * # $ * # & * # # # * # * # # * # * # # $ # * # * # # $ # # * # # * # # * # * # # $ # * * # # $ # # * # # * * # # # # * $ # % % % % w e % % # # * # # # # * $ # # $ # # # # $ 3 0 % $ # # # & # * # # # # # # # # * $ # # # * # * # # * # * # * $ # # # # $ # * # # * # # # * # * # # # # # $ # # * # # * # * # # $ # * $ * # $ * * 3 $ # $ # # # # # # $ # # * # * # # # $ 3 3 * $ # * $ * # # * # # * # * * # * # # # * # $ * # # * # # $ # $ # # * # # # # # # * # # # # # 3 3 3 3 3 4 3 3 3 3 3 3 4 3 3 3 3 3 3 3 3 3 3 4 u / ] q 4 4 3 3 3 3 3 3 3 3 3 4 3 3 3 3 3 3 u t r 0 3 4 3 4 3 3 3 4 3 3 3 3 3 3 3 3 3 4 3 3 3 3 3 3 4 2 # X # # & 4 3 3 3 4 3 3 3 3 3 3 3 3 3 3 3 3 3 4 3 3 3 4 3 3 3 3 3 3 4 3 3 3 4 3 3 3 3 3 4 3 3 3 3 3 3 3 3 4 3 3 3 3 4 3 3 3 3 4 3 3 3 4 3 3 3 3 3 4 3 3 3 4 3 3 3 4 3 4 3 3 3 3 3 4 3 q 3 3 3 3 3 3 3 4 3 3 3 3 3 3 3 3 3 3 3 3 3 3 3 3 3 3 3 3 3 3 3 3 3 4 3 3 3 3 3 3 3 3 3 3 3 3 3 3 3 3 3 3 3 3 3 4 3 3 4 3 3 3 3 3 3 3 4 3 3 3 3 3 3 3 3 3 3 3 4 3 3 3 3 4 4 3 4 3 3 3 3 4 3 3 4 4 3 3 3 4 3 3 4 3 3 3 3 3 3 3 3 3 3 3 4 3 3 3 3 3 3 3 3 3 3 3 3 3 3 3 3 4 3 4 3 3 3 3 3 3 4 3 4 3 3 3 3 4 3 3 3 3 3 3 3 3 4 3 3 4 3 3 2 X # X X 3 3 3 3 3 3 3 3 3 3 3 3 3 4 3 3 3 3 3 y r.).5.2 5 4.pX5.2 3 i s.).5.2 w 1.sX/./.e.3 4 U gXf.% 3 4 3 3 3 4 3 3 3 3 3 3 3 3 4 3 3 3 ",
"3 3 3 3 3 3 3 4 3 3 4 3 3 3 4 3 4 % 4 3 3 3 3 3 % 0 4 4 3 3 3 3 5 3 3 3 3 3 3 4 3 3 3 4 3 3 3 3 3 3 3 3 3 3 4 4 3 3 3 3 3 4 3 3 3 3 3 3 3 3 3 3 3 3 3 4 3 4 3 3 4 3 3 3 3 3 3 3 3 3 4 3 3 3 3 3 3 4 3 3 3 3 3 4 3 3 4 3 0 0 q 0 3 3 3 3 3 3 4 3 3 3 3 3 3 4 3 3 3 3 0 4 0 0 0 0 4 4 4 4 3 3 3 3 3 3 3 4 3 4 3 3 3 4 3 3 3 4 3 3 3 3 3 3 4 3 3 3 4 3 3 3 3 3 3 4 3 3 3 4 3 3 3 3 3 3 4 4 4 3 3 3 3 3 3 3 3 3 3 4 3 3 3 4 3 3 3 3 u 5 4 3 4 3 3 3 3 3 3 3 3 4 4 3 3 3 4 3 3 4 3 3 4 3 3 3 3 3 3 3 3 3 3 3 # #     # * # # * $ * # * # # # * # # * # # $ # # # * # # # # # # * # # # * # * * # # $ % % $ # # # * # # # # $ # * # # $ # $ # # $ * # # $ * # # * * # # # # * # # * # # # * $ # # # * # # * # $ # # # * # # # # * # # # # # # # # # * * * # # # * # # * # # * # # $ # $ # * * # # $ # # * # # * # # # $ # # & # % % $ # # * * # # # # # # # $ $ # * $ # # * $ $ # * * # # $ # # # & $ $ # * $ # # # * # # * # # # * * # # # # # # # * # # # $ # # * # # # # # # * # # * $ * # # * # # # # # $ * # # # * # * & % * $ $ # * # # * # * # # # # $ $ * # * $ # # * # # * # # * # # $ * * # $ # * # # $ * # # # # * # # # $ $ # # * * * # # # $ # # * # # # # # # * * # * * # # # * # * # # # $ # # # * # # # # $ # * # # # # * * # # # # * # # * $ # # $ # $ $ & # & # $ # * # # # * # # $ # # # * # # # * * # # # * # # # # * # # $ # * # # # * # # # #   # 2 3 3 3 3 3 3 3 3 3 3 4 3 4 3 3 3 4 3 3 4 4 3 3 4 0 q 4 3 3 3 3 3 3 3 3 3 3 3 4 3 3 3 0 3 3 0 4 4 3 3 3 3 3 4 3 4 3 3 3 3 3 4 3 3 3 3 3 3 3 4 3 3 3 3 2 X # X X & 4 3 3 3 3 3 3 3 3 4 3 3 3 3 3 3 3 3 3 4 4 3 3 3 3 3 3 3 3 3 3 3 3 3 3 3 3 3 3 3 4 3 3 3 4 3 3 3 3 3 4 4 3 3 3 3 3 3 3 3 3 3 3 3 3 4 3 4 3 3 3 4 3 3 3 3 3 3 3 3 3 4 3 3 3 4 3 3 3 3 3 3 3 3 3 3 3 3 3 3 3 4 3 3 3 3 3 3 3 4 3 3 3 3 3 3 4 4 3 3 3 4 4 4 3 3 3 3 3 3 4 3 3 3 3 3 3 3 3 3 3 3 3 3 4 3 4 3 3 4 3 3 3 3 3 3 3 3 3 3 3 4 3 3 3 3 4 3 3 3 3 3 4 4 3 3 3 3 4 3 3 3 3 3 4 4 3 3 4 3 3 3 3 3 3 3 3 4 3 3 3 3 3 4 3 3 3 3 3 3 3 3 3 3 3 3 3 3 3 3 3 3 3 3 3 3 4 3 3 3 3 3 3 3 3 3 3 3 3 3 3 3 3 3 3 3 3 3 0 2 # # X # 2 4 3 3 3 4 3 3 3 3 4 3 3 3 3 3 3 3 3 e e.[.5.2 5 4.uX5.3 3 i e.[.5.% q 4.pXg./.r.2 3 ( gXh.% 3 3 3 4 4 3 3 3 3 3 3 4 3 3 3 3 3 4 ",
"3 4 3 3 4 4 3 3 3 3 3 3 3 3 3 3 3 3 3 3 3 4 3 3 4 4 4 4 3 3 3 3 3 3 3 3 4 3 3 3 3 3 3 3 3 3 3 3 3 3 3 3 3 4 0 5 3 3 3 3 3 3 3 3 3 4 3 3 3 3 4 3 4 3 3 3 3 3 3 3 3 3 3 3 3 4 3 3 3 3 3 3 3 3 4 3 3 3 3 3 4 3 3 3 3 3 3 3 0 3 4 0 4 3 3 3 3 3 3 3 3 3 3 3 3 3 3 3 3 0 4 3 0 0 0 % 4 3 4 4 3 3 4 3 3 3 3 3 3 3 3 3 3 3 3 4 3 3 3 3 3 3 4 3 3 3 3 3 3 3 3 4 4 3 3 3 3 3 3 3 3 4 3 3 4 3 3 3 3 4 3 3 3 3 3 3 3 4 3 3 3 4 3 3 3 3 3 4 0 0 3 3 3 3 4 3 3 3 3 3 3 3 3 3 3 3 3 3 3 3 3 3 3 3 3 3 3 3 3 3 3 3 3 3 #   # # # # $ * # # # # # # # * # $ # # * # # * * # # # # * # * # # # $ # # # $ # # * # % % # $ # $ # $ # $ # * # # * # # $ # $ * # $ # # & # & # # # # $ * # # * # $ # * # # # $ * # # # $ $ # # # * # # # * # $ # # * #   #     # * # # # # $ $ # # * # $ # # * # # * # # # # * * # # # # * $ # # # * # # * # % # # $ # * # # * # * * # * * # # # # # # $ # # # # # # * # * # * # * # # # # # $ * # # $ # * # * # # # # $ # * $ # * # * * # # $ # # * * # * # # # $ * # # # # # # # $ # * * # $ # # * # # # # $ $ # $ # # # * # # # # # * * # # # # # $ # # * # $ $ & # # * # # # $ # # * # # # * # # * # # # # $ # * # * # # # # # $ # * # * # # * # # $ # # # # # # * * # # $ # * # # * * # # # $ * # * # & # $ * # # # # # # $ # # # * # # * * # # # # # & # & # # * # # * # # # * * # # # * $ # * # # # * $ # * # # # * # # * # $ # * # # # # # # # 3 3 3 3 3 0 3 4 3 3 3 3 3 3 3 3 3 3 3 3 5 3 3 3 3 4 3 3 3 3 4 4 3 4 3 3 3 3 4 3 3 3 4 3 3 4 4 3 3 3 4 4 3 3 3 3 3 3 3 4 3 3 3 3 3 4 3 3 3 3 3 3 3 0 3 3 # X # # & 3 4 3 3 3 4 4 3 3 3 3 3 3 4 3 3 3 3 3 3 3 3 3 3 3 4 3 4 3 3 3 4 3 3 3 4 3 4 3 3 3 3 3 3 3 3 3 4 4 3 4 3 3 3 4 3 4 3 3 3 4 3 3 3 3 3 3 3 3 3 3 3 3 3 4 3 4 3 3 4 3 3 4 3 3 3 3 3 3 3 3 3 3 3 3 3 3 q 3 4 3 3 4 3 3 3 3 3 3 3 3 3 3 3 4 4 3 4 4 3 3 3 4 4 3 4 4 4 4 3 4 4 4 3 4 3 4 4 3 4 4 3 3 4 3 3 3 3 4 4 4 3 3 4 3 3 3 3 4 4 3 4 3 4 3 4 4 4 4 3 4 3 4 4 3 4 4 3 4 4 4 3 4 3 4 4 3 3 4 3 4 3 4 3 4 3 4 4 4 3 3 4 4 4 3 4 3 3 3 3 3 4 3 4 3 3 3 3 3 4 3 4 3 4 3 4 4 3 3 3 4 3 3 3 3 4 3 3 3 4 3 4 3 4 3 3 3 3 0 2 X # # X 2 4 0 3 3 3 3 3 3 3 3 3 3 4 3 3 4 3 3 e 4.gX4.2 i e.wX5.% 2 e 4.6X1.2 i r.wXr./.h.3 4 4.6Xr.3 3 4 4 4 4 3 3 3 4 3 3 3 3 3 4 3 3 3 ",
"4 3 4 3 4 4 4 3 4 3 3 3 3 3 3 3 3 3 3 3 3 3 4 3 3 3 4 4 3 0 3 3 3 3 3 3 3 3 4 3 4 3 3 3 3 3 3 3 3 3 3 3 3 3 3 3 3 3 3 3 3 3 3 3 4 3 4 3 3 4 3 4 3 3 3 3 3 3 3 4 3 3 3 3 3 3 3 3 3 3 3 3 3 4 3 3 3 3 3 3 3 3 4 3 4 3 3 3 4 3 4 3 3 3 3 3 4 3 3 3 3 3 3 3 3 3 3 3 3 3 3 3 3 3 0 0 3 3 3 3 3 4 3 3 3 3 3 3 3 3 3 3 3 3 3 3 4 3 4 3 3 4 3 3 3 3 3 4 3 4 3 3 3 3 4 3 4 3 3 3 3 3 4 3 3 3 3 3 4 3 3 4 3 3 3 4 3 3 4 3 3 3 3 3 3 3 3 3 3 3 0 3 3 3 3 3 3 0 3 3 3 3 4 3 3 4 3 3 3 3 3 4 3 3 3 3 3 4 3 3 3 3 3 2 # # # # # # # # # # * # # * * # # $ * # * # # * # $ # # * # # $ $ # * # # * $ # # $ * # % $ $ # # $ # # * $ # # $ # # # $ # $ # # * # # & # & # $ # # # # * # $ # * # * # $ # # # * # $ # * # * # * * # # $ # * * # # $ # # # # # # # # # # # * * # * # # $ * # # * # * # * # * # # # * $ # # # * # # # * # & & # $ * # $ # # # # # $ # # # # # # * # * $ # # & # * # # # # # * $ # # # # * # * # # $ # # * # # * # # # $ # * # # * # # # # * # # * # $ # # # * * # # # # * * # $ * # $ * # # # * # * # # $ # & # & # & # * * # $ # # * * # # # # * $ # & # & # * * # # $ # # # # # $ # # # # # # # # * # # * * * * # # # # $ # # # # * # # * # * # # $ # $ * # $ # # * # # $ # # $ # # # # # # * # & # * # & # # # * # $ # # $ # * $ # # # # # # # # * $ $ # # * # * * # # * $ * $ * # # * # * # * # # * $ # # # # * $ # # $ # # # # # # # # # # # # # # 3 3 3 3 3 3 3 3 3 3 3 3 4 3 3 4 3 3 3 3 3 3 3 3 4 3 3 3 3 3 3 4 3 3 3 3 4 3 4 3 3 3 3 3 4 3 3 3 4 3 4 3 3 3 3 3 3 3 4 3 3 3 3 3 4 3 3 3 3 3 3 3 3 3 3 2 # X # # & 3 3 3 3 3 3 3 3 3 4 3 3 3 3 4 3 3 4 3 3 4 3 3 3 3 3 3 3 3 3 4 3 4 3 3 3 4 3 4 3 3 3 3 3 3 3 3 3 4 3 4 3 3 4 3 4 3 3 3 4 3 4 3 3 3 3 3 3 3 3 3 3 3 4 3 4 3 3 3 3 4 3 3 3 3 3 4 3 3 3 3 3 3 3 3 3 3 3 3 3 4 3 3 3 3 3 3 3 3 3 3 3 2 2 2 3 2 2 3 2 3 2 2 2 2 2 2 2 2 3 2 2 2 2 2 3 2 2 3 2 3 2 2 2 2 2 2 3 2 2 3 2 3 2 2 3 2 2 2 3 2 2 2 2 2 3 2 2 2 2 2 3 2 2 2 2 2 3 2 2 2 2 2 3 2 2 2 2 2 3 2 2 2 2 2 3 2 2 3 2 3 2 2 2 2 2 2 3 2 3 2 2 2 3 2 3 2 2 3 2 2 2 2 2 2 2 2 2 3 2 2 2 3 2 2 2 3 2 3 2 3 2 3 3 3 3 3 3 3 2 # # X # 3 3 3 3 3 3 3 3 3 3 3 3 3 3 3 3 3 3 3 4 U eXr.3 I )./.U 5.4.w U eXe.5 U )./.5.).[.e w g.).1.3 3 3 3 3 5 3 3 3 3 3 3 3 3 3 3 4 3 3 ",
"3 3 3 3 4 4 4 3 3 3 3 4 3 3 3 4 3 4 3 3 3 4 3 3 3 4 3 3 3 3 3 3 3 3 3 3 3 3 3 3 3 3 3 3 4 3 3 3 3 3 3 3 3 3 3 3 3 3 3 3 4 3 3 3 3 3 3 3 3 3 3 3 3 3 3 3 4 3 3 3 3 3 4 4 0 3 4 3 3 3 4 3 3 3 3 4 3 3 3 4 3 3 3 3 3 3 3 3 3 3 3 3 3 3 4 3 3 3 3 3 4 3 3 3 4 3 3 3 3 3 3 3 3 3 3 0 3 3 4 3 3 3 4 3 3 3 4 3 4 3 3 3 4 3 3 3 3 3 3 3 3 3 3 4 3 3 3 3 3 3 3 3 3 3 3 3 3 3 3 3 4 3 3 3 3 3 4 3 3 3 3 3 4 3 3 3 3 3 3 3 3 3 4 3 3 4 3 3 3 3 4 3 3 4 3 3 3 3 3 3 3 3 3 3 3 3 3 4 3 3 3 3 3 4 3 3 3 3 3 3 3 3 3 3   # # # # # # * $ * # # $ # # # # * # # # $ # # # * # * $ # # * # # * # # # * # * # # # % % $ $ $ # * # # # * # * # * # # $ # $ # # # * # & # & # * $ * # # # * # # # # # * # * # # # * # # # # $ # # # * # $ # # # * # # # . . # # $ # * * # # # # # # * # # $ # # # # # * # # # $ $ # # # * # $ & # * $ # # & # # * # # # * * # $ # # * # * $ & $ # # & # * # # # * * # $ # # * # * # # * # # # * # * # # # * # # $ * # # * # # * # $ # * # # * # # # * $ # # $ # # * # # $ # # # * # # # * # # # # # # * & # & # & # $ # # # * # $ # # # # * # # * # # & # & # # # $ * # * # * # # * $ * # * # * $ # # $ # # # # # $ # * # # * * # # * # # # $ # * # # # * # # # * # # $ # # * # # * * # $ * # # $ # # & # & * # # # # * * # # # # * # * $ * # $ # # # # & & # # # # # $ # # # # # # # $ # # # # # $ # # * # * # # # * # * # * # * # $ * # * #   #   # 2 3 3 3 3 3 3 3 3 3 4 3 3 3 3 3 3 3 4 3 3 3 4 3 3 3 4 3 3 3 3 3 3 3 3 3 3 3 3 3 3 3 3 3 3 3 3 3 3 3 3 3 3 3 3 4 3 3 3 3 3 4 3 3 3 4 3 3 3 4 3 3 3 3 3 2 # # X X & 3 3 3 4 3 3 3 3 3 0 4 3 3 3 3 3 3 3 3 3 3 3 4 3 3 3 3 3 4 3 3 3 3 3 3 3 3 3 3 3 3 4 3 3 3 4 3 3 3 3 3 3 3 3 3 3 3 3 3 3 3 3 3 3 4 3 4 3 3 3 4 3 3 3 3 3 3 3 3 3 3 3 3 3 3 3 3 3 3 3 3 3 3 3 3 3 3 3 3 3 3 3 3 3 3 3 3 q 3 3 3 3 2 & & % # 2 # % 2 # % 2 2 2 2 # 2 # # 2 2 2 # & & & % # 2 % 2 2 2 # 2 # % 2 # # 2 % & & & # 2 # & 2 2 & & % % 2 2 # 2 # % 2 2 # 2 # % 2 2 # 2 # % 2 2 # 2 # 2 2 2 # 2 # & & % # 2 # & 2 2 % # 2 # 2 2 % 2 # # 2 2 & & $ 2 # 2 2 2 & 2 $ # 2 2 % & & 2 & # 2 # # # 2 3 3 3 3 3 4 4 2 X # # X 2 3 3 4 3 3 3 4 4 3 3 3 4 3 3 3 3 3 3 3 q ).).r.f.6X9.i /.[.i e ).).r.g.6X4.4 r.{.h.r.gXs.i 3 4 3 3 3 3 3 4 3 3 4 3 3 3 4 3 3 3 3 ",
"3 3 3 4 3 3 3 4 3 3 4 3 3 3 4 3 3 3 4 3 4 3 3 3 4 4 3 3 4 3 3 3 3 3 4 3 3 3 3 3 4 3 3 3 4 3 3 3 3 4 4 3 3 3 4 3 3 3 3 3 3 3 3 4 3 3 3 3 4 3 3 3 3 3 4 3 3 3 3 3 4 3 3 3 3 4 3 3 3 4 4 3 3 3 3 4 4 3 3 3 4 3 3 3 3 3 4 3 3 3 3 3 3 3 3 3 3 3 3 3 3 3 3 3 3 4 4 3 3 3 3 3 3 3 4 3 3 3 4 3 3 3 4 3 3 3 3 4 3 3 3 3 3 3 3 3 3 3 3 3 3 4 3 3 3 3 3 3 3 3 3 3 3 3 3 3 3 3 3 4 3 3 3 3 3 3 3 3 3 3 3 3 3 3 4 3 3 4 3 3 3 3 3 4 3 3 3 3 4 3 3 3 3 3 4 3 3 3 3 3 3 3 3 4 3 3 3 3 3 3 3 4 3 3 3 4 3 3 3 3 3 4 3 3 # X # X % $ & # & # & # # * # # * # # $ # # * # # # # # $ # # * # * # # * # # # # $ * # # # # # # # $ # # $ * # * $ * # # # $ # # $ * # # * # * # * # * $ * # # * # $ # * # * # # # * # # * # * # # # * # # # * # $ # # # # # . # # # # # $ # * # * # # # # $ # # * # # $ # # * * # # # * # # $ * # * # $ * # * # # # * # * # # # # # # $ * # # # # $ # # # # # $ # * # # # # # # * # * # # # * # * # # # # $ # # # # # # * # * # # # # # # * * # # # # # # * # # * # # # $ # * # # * # # $ # # $ * # # # # $ * # * # # # # # * # * # # * # # # # $ # * * $ * # * # # * # # # * # * # # # # # $ * # # $ * # # * # * $ # # * # * # # # * # # * * # $ # # * * # # $ # # # # # # * # # # $ $ * # * # # $ # * * # # # # * $ # * # # # # # * # * # * # # # * * # # * # * # * # # # # # # $ # * # # # # $ * # # * * # * # # * $ # # # $ # # # # & # $ # X # # # 3 4 3 3 3 3 3 4 3 3 3 3 3 4 3 3 3 4 3 3 3 4 3 4 3 3 3 3 4 4 3 3 3 3 4 3 3 3 3 3 3 3 4 3 3 3 4 3 3 4 3 3 3 3 4 3 3 3 3 4 3 3 3 3 4 4 3 3 3 4 3 3 3 3 4 3 # X # # 2 3 3 4 3 3 3 3 3 3 3 4 3 3 3 3 3 3 3 3 3 3 3 3 3 4 3 4 3 3 3 3 3 3 3 4 3 3 3 3 3 3 3 3 3 3 4 3 3 3 4 3 4 3 3 3 4 3 3 3 4 3 3 3 3 3 3 3 3 3 3 4 3 3 3 3 4 3 3 3 4 4 3 3 3 3 4 3 3 3 3 3 3 3 3 3 3 3 3 3 3 3 3 3 3 3 3 3 3 3 4 3 3 % % 2 # 2 & 2 X % & 2 & & & & # 2 # $ # & O # % 2 & X 2 2 X 2 2 2 # 2 2 2 2 2 X 2 X 2 2 O $ # & & & & # & # O # & & & # # & & O $ # 2 # & & & & O # & & O # & & & & & & & $ # # # # $ # 2 2 # 2 O # # 2 & & & & & & 2 & O # 2 # # 2 & & & 2 # O & & # # & & 2 X & & 3 3 3 3 3 3 4 2 # X X # 2 0 3 4 3 3 3 4 3 3 3 4 3 3 3 3 3 3 3 3 q T ).pXwXf.e e g./.i 4 ( (.uXwXh.e 3 i s.tXtX/.U 3 4 3 3 4 3 3 3 4 3 3 3 3 3 3 3 3 3 3 3 ",
"4 3 3 3 3 3 3 3 3 3 3 3 3 4 3 3 3 3 3 3 3 3 3 3 4 4 3 3 3 3 3 4 3 3 3 3 4 3 3 3 3 3 3 4 3 3 3 3 3 3 3 3 3 3 3 3 3 3 4 3 4 3 3 3 3 3 3 3 3 3 3 4 3 3 3 3 4 3 3 3 3 3 3 4 3 3 3 3 3 3 3 3 3 3 3 3 3 3 3 3 3 3 4 3 3 3 3 3 3 4 3 4 3 3 3 3 3 4 3 3 3 3 3 3 3 3 3 3 3 3 3 4 3 3 3 3 3 4 3 3 3 3 3 3 3 4 3 3 3 3 3 4 3 4 3 3 3 3 4 3 3 3 3 3 3 4 3 4 3 3 3 3 3 4 3 3 4 3 3 3 3 3 3 3 4 3 4 3 3 3 4 3 3 3 3 3 3 3 3 3 4 3 3 3 3 4 3 3 3 3 3 3 3 3 3 3 3 4 3 3 4 3 3 3 3 3 3 3 0 4 3 3 4 3 3 3 3 3 3 4 3 3 3 3 # X X # # # # & # & # & # * $ # $ # # * * # $ # * # * # # * $ # # # # * # # # * # * # # # * $ * # * # # * # # # # # # # * # * # * # # # # # # $ # $ # # # # # * # # # # # * # # $ # * # $ # # # # * $ # # $ # # # * * # # . # # # # # # $ # $ # # $ * # * # # * # # * # # * # # # # # * * # # * # # $ # # # # # * $ # * # # # $ * $ * # # # * $ * # # * * $ * # # * # $ $ * # * # # # # * $ # * # # # $ * # # * # * * # # # * # # $ # , $ # # # # * $ # * # # * # * # * * # # # # $ * # # * * # # # * $ * # # # $ # # * # * # # # $ * # $ # # * * # $ # # # # # # $ # # $ * # # # # $ * * # * # # # * # # $ # # # # # * * # # * # $ # # # $ # # # # $ # # # # * # # # , # # $ # # * * # # # # # * # # # # # # $ * # # # # # * $ * # # # # # # # * $ # # # $ # # # # # $ # * $ * # * # # # # * # * # # # # # # $ # $ # # # # * # * # * # & # & # # # X X X 3 3 3 3 3 4 3 3 3 3 3 3 3 3 3 3 4 3 3 3 3 3 3 3 3 3 3 3 3 3 3 3 3 3 3 q 3 3 3 3 3 3 3 3 3 3 3 3 3 3 3 3 4 3 3 3 3 3 4 3 3 3 3 3 3 3 3 3 3 3 3 3 3 4 3 2 X # # X 2 4 4 3 3 3 4 3 3 4 3 3 3 3 3 3 3 4 3 4 3 3 3 3 3 3 3 3 3 3 4 3 3 3 3 3 3 3 4 3 3 4 3 4 3 3 3 3 3 3 3 3 3 3 3 3 3 4 3 3 3 3 3 5 3 3 3 4 3 3 3 3 3 4 3 3 3 3 3 3 3 3 3 3 3 3 3 3 3 3 3 3 3 3 3 3 3 3 4 3 4 3 3 3 4 3 4 3 3 3 3 4 % % % 2 # % & 2 2 2 # & & 2 X & 2 & O 2 # & & # # # & 2 2 2 2 O 2 # 2 2 X 2 % 2 # 2 2 2 2 % 2 2 % # O & & # & & & & & # O # & & & # # % 2 & & & & # # & & $ # & & & & & & O # # 2 O & # 2 2 # 2 # $ # 2 # % & & & # O 2 2 $ # # 2 2 # & & & % # & & & & O # & 2 2 & & 3 3 3 3 3 3 3 2 X # # X 3 0 3 3 3 3 3 3 3 4 3 3 3 3 3 4 3 4 3 3 3 q q e e q 3 3 5 e 4 4 5 q y e q 3 3 4 w e u w 4 3 3 3 3 3 4 3 3 3 3 3 3 4 3 4 3 3 3 3 3 ",
"3 3 3 3 3 3 3 3 4 3 3 3 3 3 4 3 3 3 3 3 3 3 3 3 4 3 3 4 3 3 3 3 3 3 3 3 3 3 3 3 3 4 3 3 3 3 3 3 3 4 3 3 3 3 3 3 3 4 3 4 3 3 3 3 4 3 3 3 3 3 3 3 4 3 3 3 3 3 3 3 3 4 3 3 3 3 3 3 3 3 4 3 3 3 3 3 3 3 3 3 3 4 3 3 3 3 3 3 3 3 3 4 3 3 3 4 3 3 4 3 3 3 3 3 3 3 4 3 3 3 3 3 4 3 3 3 3 3 4 3 3 3 3 3 3 3 4 3 3 3 3 3 3 3 3 4 4 3 3 3 3 3 3 3 3 3 3 4 3 3 3 4 3 3 4 3 3 3 3 3 3 3 3 4 3 4 3 3 3 4 3 4 3 4 3 3 3 3 3 4 3 3 3 3 3 3 3 3 3 3 3 4 3 4 3 3 3 3 4 3 3 3 3 3 4 3 3 3 3 3 3 3 3 3 4 3 3 3 3 3 3 3 3 3 X # # X # # & # # # & # # # * # # # # # # * # * * # # * # # $ # * # # $ * # * # # # # # * # $ # * # # * # # * # # # * # # # # * # # * # $ # # # # * # & * # # * # * # * # # * * # # # # * # # $ # * # # $ # * # # # # * # # . # # # $ # # * # # $ # # # # $ # * # # $ # * # $ # # * * # # # * # # # * # # * # # # * # # # # * # # # # # # # # # # * # * # # # * # # # # * $ # # $ * # # # * # # $ # * # * # * # # $ # # * * # # # $ # # * # # * # # * * # # # $ # # * # # # * * # # # # # # # # # # # # # * # * * # * $ # * # * $ # # # * # * # # # # # # # * # # $ * # # * # $ * # & # # # * # # $ * # # * # # $ # # # # # # # * # * # * # # # # * # # # # $ # # * # $ $ # # # # # # # # * * # # * # * # # * # # # # # $ # # # # * $ # $ * # $ # * # * # * # # $ # # # * # $ # * # # * # $ # * # # # * $ # # # # # # $ * # $ * # # # * # & # $ # X X # % 3 3 3 3 3 3 3 3 3 3 4 3 4 3 3 3 3 4 3 3 3 3 3 3 3 3 3 3 3 4 3 3 3 3 3 3 3 4 3 3 3 4 3 3 3 3 3 3 3 3 3 3 3 3 3 3 3 3 3 3 3 3 3 3 4 3 3 3 3 3 3 4 3 3 3 3 # # X # $ 3 3 3 3 3 3 3 4 3 3 3 3 3 3 3 4 3 3 3 3 3 3 4 3 3 3 3 3 3 3 4 3 3 3 3 3 3 3 3 4 3 4 3 3 3 3 3 3 3 3 3 3 3 3 3 4 3 3 3 3 3 4 3 3 3 3 3 3 3 3 3 4 3 3 3 3 3 3 3 3 4 3 3 3 3 3 3 3 3 3 3 3 3 3 3 3 3 3 3 3 3 4 3 3 3 3 4 3 3 3 3 2 2 2 # 2 & & 2 $ # 2 2 2 2 2 % & # # # & & 2 2 # 2 & 2 2 2 % $ # 2 & X & & & & & 2 # X 2 2 2 & & # $ & & & & & & & & 2 # 2 O # 2 & & & 2 & % & & 2 # & & & & & & & & 2 % # 2 2 2 % & O & % & O # & % % 2 # & & % # # 2 X % 2 2 % $ # & & # 2 # % & & & & & & 2 & & & 2 3 3 3 4 3 4 2 # X X # 2 4 3 3 3 3 3 3 3 3 4 3 3 3 3 3 3 3 3 3 3 3 3 3 3 3 3 3 3 3 3 3 3 3 3 3 3 3 3 3 3 3 3 3 3 3 3 3 3 4 3 3 3 3 3 4 3 3 3 4 3 3 3 4 3 ",
"3 3 4 3 3 3 3 4 3 3 3 4 3 3 3 3 3 3 3 4 3 4 3 3 4 4 3 3 3 4 3 3 4 3 3 3 3 3 4 3 3 3 3 3 3 4 3 3 3 3 3 3 3 3 4 3 3 3 3 3 3 3 4 3 3 3 3 4 3 4 3 3 3 3 3 3 3 3 4 3 3 3 3 3 3 4 3 3 3 3 3 3 3 3 4 3 3 3 4 3 3 3 3 3 3 3 3 4 3 3 3 3 4 3 3 3 4 3 3 3 3 3 3 3 3 3 3 3 3 4 3 3 3 3 3 4 3 3 3 3 3 3 3 4 3 3 3 3 4 3 3 3 4 3 3 3 3 3 3 4 3 3 3 4 3 3 3 3 4 3 3 3 4 3 3 3 3 3 4 3 4 3 3 3 3 3 3 3 3 3 3 3 3 3 3 4 3 3 3 3 3 3 3 3 3 4 4 3 3 3 3 3 3 3 3 4 4 3 3 3 3 3 3 3 3 3 3 4 3 4 3 3 3 3 3 3 3 4 3 3 3 3 3 3 # # X # # # $ & * # * & * # # # # * * # # # # # # $ # # * # # * # # * # $ # # $ # * $ * $ # # # * # # # * # $ # # * # $ * # $ # # * # # # * * # # # & # # $ # # # $ # # $ # # # # $ # * # # * # $ # # * # # * # # * # # #   # # # # # # $ # # * * # * # # * # # * # # * # # # * $ # # # # $ # # $ * # # # # * # # # # $ # * $ # * # $ * * # * # # # # # * # # $ * # * # # # # * # # * # # # # $ # # * # # # # $ * # # * # # $ # * # # # # * # # $ # # # * * # # $ # # $ # $ # # * * # $ * # $ * * # * # # # # # # # # # $ # # $ * # * # # # # # # * # * # * # # # * # # # # # * # # $ # # * # # * # # # # # * # # * * # # $ * # # # # $ # # * * * # # * * * # # * # # # # * # * * * # $ $ # # # # $ # # * * # # * # $ * * # * # # # # * # # * # # # # $ # # * # # * * # $ # # # * # # * * # $ # # * $ # # * * # # * # * * # # # * # $ # & # # # # # # X X 3 4 3 3 4 4 3 3 3 3 3 3 3 3 4 3 3 3 3 3 3 3 4 3 4 3 3 3 3 3 3 3 3 4 3 3 3 3 3 3 3 3 3 3 4 3 3 4 3 3 3 3 3 4 3 3 4 3 3 3 4 3 3 3 3 3 3 3 3 4 3 3 3 3 4 2 # X # X # 4 3 3 3 3 3 3 3 3 4 3 3 3 3 3 3 4 3 3 3 3 3 3 3 3 4 3 3 3 3 3 3 3 4 3 4 3 3 3 3 3 3 3 3 4 3 3 3 4 3 4 3 3 3 3 3 3 3 3 3 3 3 3 3 3 3 3 3 3 4 3 3 3 3 3 4 3 3 3 3 3 3 3 3 4 3 3 3 3 3 3 3 3 3 4 3 3 3 4 3 3 3 3 3 4 3 3 3 4 3 3 3 2 % O X & & & O # # O 2 X 2 2 # 2 # 2 % 2 # % 2 # 2 X 2 # 2 # # % & 2 & & & & 2 % 2 2 2 X 2 & & 2 # & & & & & & & & % # # $ 2 & & & 2 # & & O & % 2 & & & & & & & & # 2 2 % 2 # & & # & & & # & & & & & 2 & & 2 # 2 & & & # $ O O 2 2 X 2 # & 2 & & & & & & X 2 & $ 3 3 3 3 3 3 4 2 X # # X 2 0 3 3 3 4 3 3 3 3 3 3 4 3 3 3 3 3 3 4 3 3 3 3 3 3 3 3 3 3 3 3 3 3 3 3 4 3 3 4 3 3 3 3 3 4 3 3 3 3 3 3 4 3 3 3 3 3 3 3 4 3 3 3 4 ",
"3 3 3 0 4 3 3 3 4 3 3 3 3 3 3 3 4 3 3 3 3 3 4 3 4 % 3 3 3 3 3 3 3 3 3 4 3 3 3 3 3 3 3 3 4 3 3 3 3 3 3 4 3 3 3 3 3 4 3 3 3 3 3 3 4 3 3 3 3 3 3 3 3 3 3 4 3 3 3 4 3 3 3 3 4 3 4 3 3 3 3 4 3 3 3 3 3 3 3 3 3 4 3 3 3 4 4 3 3 3 3 3 3 4 3 3 3 3 3 4 3 3 3 3 3 3 3 3 3 3 4 3 3 3 3 3 3 3 4 3 4 3 3 3 3 4 3 3 3 3 3 3 3 3 3 3 3 3 3 3 4 3 4 3 3 3 3 3 3 4 3 3 3 3 3 4 3 3 3 3 3 3 3 3 3 3 3 4 3 3 3 3 3 4 3 3 3 3 4 3 3 3 3 3 3 3 3 3 4 3 3 3 3 3 3 3 3 3 3 4 3 3 3 3 3 3 4 3 3 3 3 3 3 3 4 3 3 3 3 4 3 3 3 3 # X # X # # # # # # * # # # $ * # # # $ * # # # $ # * # $ # # $ # * # # * # # # # * $ & * # * # # * # * # # # $ $ # * & # * # # * # # # # # $ # $ & # & # * # # $ # * # * # # # * # # $ # # $ # * # # * * # # * # # # $ # # #   # # # # # # # # # * # # # $ # # # # # # # * * # # $ # * # * # * # # * # # * # * # & # * * # # $ * # # # * $ * # $ # # * # # # # # # & # # # # * # # $ * # * # # * $ * # * # # # * $ * # # # $ # # # # $ # * # # # $ * # # # $ # # * # # # # # * # # * # # # * # & # & # $ # * # # # * # # # # # # * # # * # # # # * * # # * # # # # $ # $ # # * # # $ # # * # # # * # # $ # # * # $ # # $ # # * # * # # * # # # # # * # # $ * # * # # * # # $ # # * # # * # # * # & # & # # # # * # # # * $ * # $ # # $ # * # # # # & # $ # # $ # # # # # # * # # * # # # # * # * # # # # # # * # $ # # # * # # # * # # # & * # # . # # # 3 3 3 4 3 3 3 4 3 3 3 5 3 3 3 3 3 3 3 4 3 3 3 3 3 3 3 4 3 3 3 3 3 3 4 3 3 3 3 3 3 4 3 3 3 3 3 3 3 3 4 3 3 3 4 3 3 3 3 4 3 3 3 3 3 3 4 3 3 3 3 3 4 3 3 2 # X # # 2 4 3 3 3 3 3 3 3 3 3 4 3 4 3 3 3 3 3 3 3 3 3 3 3 3 3 3 3 3 3 4 3 3 3 3 3 3 3 3 4 3 3 3 3 3 3 3 4 3 3 3 3 3 4 4 3 3 3 4 3 3 3 3 3 3 3 3 3 3 3 3 3 3 3 3 4 4 3 3 3 3 4 3 3 3 3 5 3 3 3 3 3 3 4 4 5 3 3 3 3 3 3 3 3 3 3 3 3 4 3 3 3 # 2 X 2 & & $ O & & $ # 2 # 2 2 2 $ 2 X & & O $ 2 2 % & - # # & & & O & & & 2 O $ # & & & & X 2 & & & & & & & & & & & & # % & & # & % # 2 2 $ # & & & & & & & X # % 2 X # # % 2 X 2 # # 2 % & & & & O & & & & O & & & & 2 2 # 2 & & & & # - X # % & & & & & 2 & O $ 3 3 3 3 3 3 3 2 # X # # 2 3 4 3 3 3 3 3 3 4 3 3 3 3 3 3 3 4 4 3 3 3 3 3 3 3 3 3 3 3 3 3 3 3 3 3 3 3 3 3 3 3 3 3 3 3 4 3 3 3 3 3 3 3 3 4 4 3 3 3 3 3 3 3 3 ",
"3 3 3 4 3 3 3 4 3 3 3 3 3 4 3 3 3 3 3 4 3 4 3 3 4 4 3 3 4 3 4 3 3 4 3 3 4 3 3 3 4 3 3 3 3 3 4 3 4 3 3 3 4 3 3 3 3 3 3 3 3 3 3 3 3 3 3 4 3 4 3 3 4 3 3 3 3 3 3 3 4 3 3 3 3 3 3 3 3 3 3 3 3 4 3 3 3 3 4 3 3 3 3 3 3 3 3 3 3 3 3 3 3 3 3 3 3 3 3 3 3 3 3 3 3 3 3 3 3 4 3 3 3 3 3 3 3 3 3 3 3 3 3 4 3 3 3 3 3 4 3 3 3 3 3 4 4 3 3 3 3 3 3 3 3 3 3 3 3 3 3 3 3 3 3 3 3 3 4 3 3 3 3 3 4 3 3 3 3 3 3 3 3 3 3 3 3 3 3 3 3 4 3 3 3 3 3 3 3 3 4 3 4 3 3 3 3 3 3 3 3 4 3 4 3 3 3 3 3 4 3 3 3 3 3 3 3 3 3 3 3 3 3 2 X # X # # * # * # $ * # * # # # * * # # $ # * # * # # $ # # * # $ # # * # $ * # # # & # # # # # # # # $ # * * # # # # # # $ * # # # $ * * # # * # # & # # # * # # * # # # # * * # * # # * # # * # $ # # * # # * # $ # * # # # # # # # # * # * * # # * # # * # * $ * # * # # # # # # $ # # $ # # * # # # $ # # $ & # $ # # # # * # # # * # # # # # * # # * # * # $ * # & # * $ # # * # # # # $ * # # # # # # # * # # # # * * # # # * * # # * $ # # # # * # $ # # # # # # $ * # # # $ # # # * # # # & # & # * $ # # * # # # * $ * # # # $ # # $ * # # # $ $ # # * * # # * * # # # * # # * $ # # $ $ # # * # * # # # * # * # * # # * # # $ # # $ # # $ # # # # # # * # # * # * # # # # # $ # # $ # & # & # # $ # * $ # * # # # # # # * # * $ # # * # * $ & # * # * * $ * # * # # # & # # $ # $ * # # # # * * # # # # # * # # # # $ $ # # * & # # # # # X # X 3 3 3 3 3 3 3 3 3 4 3 3 3 3 3 3 4 3 3 3 3 3 4 3 3 4 3 3 3 3 3 3 4 3 3 3 3 3 4 3 3 3 3 3 4 3 3 3 4 3 3 4 3 3 3 4 3 3 3 3 3 4 3 4 3 3 3 4 3 3 3 3 3 3 4 3 X # # X 2 3 3 3 3 4 3 3 3 2 3 2 3 3 3 3 3 i ( 4 3 3 3 3 4 3 3 3 3 3 3 3 3 3 4 3 4 3 3 3 3 3 3 3 3 3 3 3 3 4 3 4 3 3 3 3 3 3 3 3 3 3 4 3 3 3 3 3 3 3 3 3 3 3 3 3 3 3 3 4 3 3 3 3 4 3 3 3 3 3 3 4 3 3 3 4 3 3 3 3 3 3 4 3 3 4 3 3 3 3 3 3 3 2 2 2 2 & & & X & & # # % 2 X 2 & O O & & & # # 2 X & & > > 2 & & 2 $ # & & # 2 # # & & & & = q = & & & & O & & & & & 2 * u < > 7 > q = & # & # & & & & & & O 2 = > > 3 # O O 2 2 2 # 2 & & & & & & # & & & $ # & & & & # 2 # # & % & 5 > > u > > q = & & & 2 2 # # 3 3 3 3 3 4 0 2 X # # X 3 4 3 3 3 4 3 3 3 3 3 3 3 4 3 3 3 3 3 3 3 3 3 3 3 3 4 3 3 3 3 3 3 4 3 4 3 3 3 3 3 3 3 3 3 3 3 3 3 3 4 3 3 3 3 3 3 3 3 3 3 3 4 3 3 ",
"3 3 % 4 3 3 3 3 3 3 3 3 3 3 4 3 3 3 3 3 3 3 4 3 4 4 3 4 3 4 3 3 3 3 4 3 3 3 3 3 3 3 3 3 3 4 3 3 3 3 3 3 4 3 4 3 3 3 3 3 3 3 3 3 3 3 3 3 4 3 4 3 3 3 4 3 4 3 3 3 3 3 3 3 3 4 3 3 4 3 3 3 3 3 4 3 4 3 3 3 3 3 4 3 3 4 3 3 4 3 3 4 3 3 4 3 3 3 3 3 3 3 3 3 3 3 3 3 3 3 4 3 4 3 3 3 4 3 3 3 3 3 3 3 3 3 3 3 3 3 3 3 3 3 3 3 3 3 3 3 3 4 3 3 4 3 3 4 3 3 4 3 3 3 3 3 3 3 3 3 3 3 3 3 3 3 3 3 3 3 3 4 3 3 3 3 3 3 3 3 3 3 4 3 3 3 3 3 3 4 3 3 3 3 3 3 3 3 3 3 3 3 4 3 3 4 3 3 3 3 3 4 3 3 3 3 q 3 3 3 3 3 3 3 # # X # # # # $ $ # # # * # # * # # * # # # * $ # # # # * # * # # $ # # # # # * $ # # $ # # * # $ * # # # # # # # * # * # # # # * # * # # * # # # $ $ # $ * # # # # $ * $ # # # * # # * * # * # # * * # # # * # * * # #   # # # # # # # # # $ # # # # $ # # # # # * # # $ # # * * * # # # * # $ # * * # * # # & # & # # * $ * # * $ # # # # * # * $ $ # & $ # $ & # # $ # # # # # # # * * # # # # # * # * # * # # # * # # # # * # # # # # # * # * # # # # # * * * # # # # * # $ $ # * # # $ # # * # & # # # $ # # # # # * # $ # # # * # * # * # # * # # # # # $ * # # * # * # * * # & # $ # * # * # # * * # $ # # # * # # # $ # # # # * # * # $ * # # * # * # # # # # # * # # * $ # * # * # # & # * & & * $ * # * # * $ # # * # * # # # * # * # & $ & # * # # # # # # # # * * # & & & # # * # # # * * # # * $ # # # # # $ # * # * # * $ * # * # # . # . X 3 3 3 3 3 3 3 3 4 3 3 3 3 3 3 3 3 4 3 3 3 3 3 3 4 3 3 3 3 3 3 3 3 4 3 3 3 3 3 4 3 3 3 3 3 3 4 3 3 4 3 3 3 3 3 3 3 3 3 3 4 3 3 3 3 3 3 4 3 4 3 3 3 3 3 2 # # X # 2 4 3 3 3 3 3 4 i i i i i e 4 3 3 4./.e 3 3 3 3 3 4 3 3 4 3 3 3 3 3 3 4 3 4 3 3 3 3 3 3 3 3 3 3 4 3 3 3 3 3 3 3 3 3 4 3 4 3 3 3 3 4 e e 3 3 3 4 3 3 3 3 4 3 3 3 3 3 3 3 3 3 4 w y e 3 3 3 3 3 4 0 3 4 3 3 3 3 3 4 3 4 4 3 3 3 3 2 2 % 2 2 2 & & & & & & & 2 & & & & & $ # & & & 2 & 2 & < %.-.t & # % & & & & # # & & & & - = ~ ;.^ * & & & # & & & & # u ! ;.;.;.;.;.-.~ - 2 & & & & & & X & & < ' %.-.' 1 2 $ # 2 2 2 2 & 2 & & & & # # & & # & & & & & & # & & & & > ~ ;.;.;.;.;.-.! & & & & & # 2 3 3 4 3 3 4 0 2 # X # # 2 0 3 3 3 3 3 4 3 3 3 3 3 3 3 3 3 4 3 3 4 3 3 4 3 4 3 3 3 3 3 4 3 3 4 3 3 3 3 3 3 3 3 3 3 3 3 3 3 3 3 3 3 3 3 3 3 3 3 3 3 4 3 3 3 ",
"3 3 4 3 3 3 4 3 3 4 3 3 3 4 3 3 3 4 3 3 3 3 3 3 4 4 3 3 3 3 3 3 3 3 3 3 3 3 3 3 3 3 3 4 3 3 3 3 3 3 3 3 3 3 3 3 4 3 3 3 4 3 3 3 3 3 3 3 3 3 3 3 3 3 3 3 3 3 3 3 3 3 3 4 3 3 3 3 3 3 3 3 4 3 3 3 3 3 3 3 4 3 3 3 3 3 3 3 3 3 3 3 3 3 3 3 3 4 3 3 3 3 3 3 3 3 3 3 3 3 3 3 3 3 3 4 3 3 4 4 4 4 3 3 4 3 3 3 3 4 4 3 3 4 3 3 3 3 4 3 3 3 3 3 3 3 3 3 4 3 3 3 3 4 3 3 3 3 3 3 3 3 3 3 3 3 4 3 4 3 3 3 3 3 3 4 4 3 3 3 4 3 3 3 3 3 3 3 3 3 3 3 3 3 4 3 3 4 3 3 3 3 3 3 3 3 3 4 3 3 3 3 3 3 3 3 3 3 3 3 3 3 3 3 # X # X # # # * # # * # # # $ # # * # # * # # # # * * # * # # # * # # * * # # # # * # * # * $ # # # * # * # * $ & $ # # * # * $ $ # # $ # # # * # $ $ $ # # * # * # # # # # $ # # # * # # # # $ # # # $ # $ # # # # # $ # # #   # # # # # $ # # * # * # * # $ * # # * # # * $ # # # # * # # # * # # $ # # # * # & # $ # # # # # # # * # # * # # # # # * # # * # # * # $ $ * # * # * $ # # # # * $ * # # $ # # # # * # # # $ # * # * # $ $ # # # * # * # * # # # # $ # , # # # * # # * # # * # * $ # $ # * # # * # * $ * $ # # # * # * # $ # # $ # # * # * # * # # $ # # # $ # # # & # & # # * # # $ # # # # * # * # # # # , # # * * # # * # # # * # # $ * # # $ # $ * # * # # * # # * # # # * # # # # # # # # # # # # # # * $ # # # # * # # # # # * # & # # # * * # $ * # # $ # # & # & # # # $ $ # # $ # # # * # , # $ # # * # # # # # # & # # # . # # # 3 3 3 3 4 3 3 3 3 3 3 3 3 3 3 3 4 3 3 3 4 3 3 3 3 3 4 3 3 3 3 3 3 3 3 4 3 3 3 3 3 3 3 4 3 3 3 3 3 3 3 3 3 3 3 3 3 4 3 3 3 3 3 3 3 3 3 3 3 3 3 3 3 3 3 % # X # # 2 3 3 3 3 3 3 U tXsXsXuXwXh.i 3 3 w i 4 3 3 3 3 3 3 3 ( ( 4 3 3 3 3 3 3 3 3 3 4 3 3 3 4 3 3 3 3 3 3 3 3 3 4 3 3 3 3 3 3 3 3 3 3 3 U g.h.3 3 3 3 3 3 4 3 3 3 3 3 3 3 3 3 3 3 q 1.g.q.3 3 3 3 3 3 3 3 3 3 4 3 3 3 3 3 3 3 3 3 4 3 3 % 2 X 2 % 2 & & & & & & & & & & & & & & & & & # & & ^ :.;X;X! & # # O & & & O # & & & & t ;.-X:X-.* & & & & & & & & # < :.;X;X;X;X;X-X:.= & & & & & & & O & D K.-X;X-X-X+XQ * # X 2 2 X 2 # & & & & 2 % & & & & & & & & X O & & & & Q J.:X;X;X;X;X=X;.6 # & & & & % 3 3 3 3 3 4 0 2 X # X X 2 3 3 3 4 3 3 3 4 3 3 3 3 4 4 3 3 3 3 3 3 3 3 3 3 3 3 4 3 4 4 3 3 3 3 3 3 3 3 3 3 3 3 3 3 3 3 3 3 4 4 3 3 3 4 3 3 4 3 3 3 3 3 4 3 ",
"4 3 3 3 3 3 4 3 3 4 4 4 3 3 4 3 3 3 3 3 3 5 3 2 % 3 3 3 3 3 % 3 3 3 3 3 3 3 3 2 2 3 3 2 2 5 3 2 5 % 3 3 3 3 3 3 3 3 3 3 3 w ).9.3 3 3 3 3 2 3 3 3 3 3 3 3 3 3 4 3 3 4 3 3 4 3 3 3 3 3 4 3 3 3 3 3 3 3 3 3 3 2 2 3 3 3 2 3 2 3 % 3 4 3 3 3 3 3 3 2 3 3 3 5 2 2 3 3 3 3 3 3 3 3 3 3 3 3 w ).q.3 3 3 2 2 3 3 2 4 3 3 3 3 3 3 3 3 4 3 3 3 3 3 3 3 3 3 3 3 3 3 4 3 3 3 3 3 3 3 3 3 3 3 3 3 3 3 3 3 2 3 2 3 3 3 3 3 3 6 3 3 3 3 3 3 3 3 3 3 3 3 3 3 3 4 4 4 3 4 3 3 3 3 4 3 3 3 3 3 3 3 3 4 3 3 3 3 4 3 3 3 * # # # . # # * # # * # # # * # # # * # * * # * # * # * # # * # # $ # # $ # # # # * # # # * # # # $ # # * # # # & # & # $ # # # # $ * # # # * # # & # $ # # # # * # * # # * # * # # # * # # # $ # # * # # * # # * # * * # # # #   # # # * * # # * # # * # # * # * # # # $ * # # # # # # $ # # $ * * # $ # # # # $ # # # $ # $ $ $ # # # # # $ * # # * # # # & # # & # # # $ # # # # $ * # * $ # * # # # # $ # # * * # # # * * # # # # * $ # # $ # # * # # # $ * # # # # * # * # $ # # * # # * # # # # # # # $ # & # & & # * # * # # # # # # # # # & # & & # # $ # * # * # # * # # & # & # * # # * # # * # # * # # # * # $ # # # $ # # * $ # # * # * # # # # # # * * # # # # # # $ # # # * $ & # # # # # # # # & # # # $ $ # * # # # # # # # # $ # $ # # # # # # # # # $ # $ # # # # # $ # * # $ # # # * # # # $ * # # # # * # # $ * # * # # # # * # #   # X 3 4 3 3 3 3 3 3 3 3 3 3 3 3 3 3 3 2 3 3 3 3 2 2 2 3 3 3 3 3 3 3 3 3 2 3 2 2 3 3 3 3 3 3 3 3 3 3 3 3 4 3 3 4 3 3 3 3 3 3 3 4 3 3 3 3 3 3 3 3 3 3 3 3 4 2 # # X X $ 4 3 3 3 3 3 5.sXg.4.4.h.6XQ.I 2 3 % 3 3 3 3 3 2 3 2 s.f.w 3 3 3 3 % 3 3 3 3 6 3 3 % 2 3 3 3 3 3 3 2 2 2 3 3 3 2 2 3 3 3 3 3 3 5 h./.4.3 3 3 2 3 2 3 2 3 3 6 3 3 3 2 3 2 3 3 i ]./.e 3 3 3 3 3 3 3 3 4 3 3 3 4 3 3 3 3 4 3 3 3 3 2 2 & & & & & & # # # & & & # O # 2 % & & & & & & ~ +X:X5X<X_ # # # & O # % 2 2 & & * Q :.;X<X5X;.- # & & & & & & & X K H.:X:.X.$.$.~ ^ * & $ O & & & & & t H.:X+X;.;.K.:XJ.H # & & & & & & # 2 % & 2 & & & 2 2 2 2 2 # $ O O # $ # Q P.;X:.$.$.$.~ ^ * & & & & & & 3 4 3 3 3 3 0 2 # # X # 2 0 3 3 3 4 3 3 3 3 3 3 3 4 3 3 3 3 3 3 3 3 3 3 3 3 3 3 3 9.[.4 3 2 2 3 2 3 3 3 3 3 3 3 3 3 3 3 3 3 3 4 3 3 3 4 3 3 3 3 4 3 3 3 3 ",
"3 3 3 4 3 3 3 3 3 4 4 4 3 3 3 3 3 3 3 3 3 q 4.f.(.r.I 4 P r./.g.1.3 3 3 3 y 4.g./.Q.Q.Q.g.i T s.(.Q.q.e 3 3 3 3 3 3 3 3 3 i dXh.% i g.W././.s.<.4 3 3 3 3 4 3 3 3 3 3 3 3 3 3 3 3 4 3 3 3 3 3 4 3 3 3 3 3 i s.q.e 4.g./.Q././.g.i 3 3 3 w 1.h./.f.4.3 3 y 4.Q.Q.q.e 3 4 4 3 3 3 4 3 3 y sXf.% i g.Q./.Q.h.<.4 3 3 4 3 3 4 3 3 3 3 4 3 3 4 3 3 4 3 3 3 4 3 3 3 3 3 3 4 3 4 3 3 5 U f.4.3 3 5 i q./.W.4.4 6 e 1.g.g.q.i 3 3 3 3 3 5.h.h.I 3 2 T q.i 4 3 3 3 3 3 4 3 3 3 3 3 3 3 4 3 3 3 3 3 4 3 3 3 3 3 3 X . # # # # # # $ # # * # * # $ # # # * # $ # # # # # # # # # $ # $ r 2.9.6.P $ # # $ & $ # # # # * # # $ # $ # & # # # * # $ # # # # $ # $ # $ # & # # $ * # # # # $ * # * # # $ # * # * # # * # # * # # # $ # # # # #   # # # # # # # * # # * # $ # # # * # # # $ # * # # $ * * * # # * # # # # # # * # * # # e 2.E * $ # 3 Y 7.0.E 0 # # # $ $ # & $ # # & & # * # $ * # * # * # # # # # # # * # * # * # # # # # $ * # # * # * # # # * # # * # # $ # # # # * * # $ # # # # * # * # # & # # * r 6.Y # # $ t 3.E & # & # # # * e 3.0.2.P # # # # $ & # # * # $ # # * # # # # $ # & # $ # # # * # $ * # # * # * # # * # # # * # * # # # * # # # # # * # # $ # # # # * $ # $ # * # * # # # # * R 6.0.9.Y * # 3 Y 7.9.( 0 # # # $ # 3 Y 8.7.E 0 # # # & # L [ 3.R * # # 0 R 6.7.q.2.e # * * # # # # * * # * # # # # * * # $ # # * # # $ # * # & # # # # # X 3 3 3 3 3 3 4 3 4 3 4 3 3 4 i e.g./.s.5.3 e 9.g.).f.4.q 3 3 3 3 4 U s.Q.g.q.w 3 3 3 3 3 3 3 3 3 3 3 3 3 3 4 4 3 3 3 3 3 3 3 3 3 4 3 3 3 4 3 4 3 3 3 4 3 X X # # & 3 3 3 3 3 2 U sX4.3 6 i r.pXq.w 1.h.4 3 1.h./.g.4.q.wXsX/.s.i U r.Q.g.e.e 3 <.u.4.g.Q.q.i 3 3 y q.g./.s.e e 9.Q.g.q.e 6 3 3 3 e gXf.e 4 i s./.g.q.i u.q.u./.r.U q.W.Q.4.w 3 6 h.[.1.3 3 3 4 3 3 3 3 3 3 3 3 3 3 3 4 3 3 3 3 3 2 # # O & & & & & O & % 2 2 X & & # # & & & & & & ^ K.-X#X-X<X! O 2 % & & # # & # 2 # t :.;X#X-X<X;.* O & & & # & & & O F K.-X~ q = = = = & & # & & & # & & ! -X-X$.< 1 ! @X;X{ * & & & & O & 2 # & & & & & & 2 X 2 X # # # 2 # # O % _ +X#X! > = = = * & & & & & & & 2 4 3 3 3 3 4 2 X # # X 3 3 3 3 3 3 3 3 3 4 3 3 3 3 3 3 3 4 3 3 3 3 3 3 3 3 3 3 3 h.dXe 3 q./././.g.q.i 3 4 3 3 4 3 3 4 3 3 3 3 4 3 3 3 3 3 3 4 3 3 3 3 4 ",
"3 3 3 3 4 3 3 3 3 3 4 4 4 3 3 3 3 3 3 3 w 4.[.{.{.h.I w h.{.6X6X).U 3 3 3 e q.[.{.[.6XsXsX( r.[.{.{.6X4.w 3 3 3 3 3 3 % 6 e pXh.# 5.fXeX{.{.6X).U 4 3 3 3 3 4 3 3 4 3 3 3 3 4 3 3 3 3 3 3 3 3 3 3 3 3 3 q e.sX6Xi q.).{.[.gXsXsX( 3 3 5 i Q.{.{.6X[.U 4 q.[.gX6X6X1.w 4 3 3 3 3 3 3 % e uXf.# 5.fXtX|.{.6X).U 4 3 3 4 3 3 3 3 3 3 3 3 3 3 3 3 3 3 3 3 3 3 3 3 4 4 3 3 3 3 3 w 5.g.jX).3 3 3 s.{.gXgX{.5.4 1.).gXgXgXq.e 3 3 3 e h.eX{.r.e 4 r.[.i 4 3 4 3 3 3 3 3 3 3 3 3 4 3 4 3 3 3 3 3 3 4 3 3 3 3 3 # X . # # # # # # $ # # # # $ # * * # # # # * # # $ * # $ # * # $ 0 6.i.i.d.0.q $ # # & # # # # # # $ # $ # # $ # $ # # # # # # # # # # $ # $ # # # # # # # # # * # $ # # # # * # # # # * # # # $ # # # # * * # * # # * # # # # # # # $ # * # # # # * # $ # # # * * # # # * # # # # # * * # # * * # * $ $ # * H 3.`.i.3 & # E y.i.i.i.P * # # # # # # # # # # $ # # # $ # # # * # # # * $ # * # # $ # * * # # * # $ * # # # # # * # # # # # # * # $ * # * # # # # $ * # * $ # # # * * # # & # * 6. X7.$ * P 9.`.a.& & # # & # , 0.i.i.i.8.q * # # # # # # # # # # # # # # # # # # # $ # * * # # $ # # # # # # # $ * # # # # # # # $ # * # * * # # * # * * # # * # * # # * $ # # # * * # # * q 8.p.p.p.y.y * Y t.d.p.i.Y = # * # $ T y.i.i.i.Y * # $ $ 3 6.y.y.7.0 # = Y y.y.y.p.0.R $ # # # # * # * # # * # # # # $ # * * # * # # # # * # # & # # #     # 2 3 3 3 3 3 3 3 3 4 3 3 3 w 1.).6X[.wXg.I U W.{.6X6X[.T q 3 3 3 i g.{.{.6X{.1.e 3 3 3 3 3 3 3 2 2 3 3 3 2 3 4 3 3 3 2 3 & 4 4 4 3 4 3 3 3 3 4 3 3 3 3 2 # X # X & 3 4 3 3 3 3 T sX9.w 3 3 i rXg.i s.sXy i Q.gX{.{.s.r.uXfX6Xg.y 1.Q.{.|.wX4.q h.fXQ.[.gXgXe.3 5 r.{.gX{./.e q.[.gX{.gX3.q 3 3 4 5.eXr.2 i g.{.6X[.s.T dX[.).gXeX/./.{.wX{.5.5 3 4./.f.3 3 3 3 3 3 3 3 3 3 3 3 3 3 3 3 3 3 3 3 3 3 & & # # & & & & & & 2 2 2 2 & & & & & O # & & & ^ H.:.-.=X:X^ 2 # 2 & & & # # O % % < ;.K.~ +X<X;.& # # & & O & & & 2 Q +X=X^ 2 # & & & & & # & & & & # = { <X+X< & # q :.;X;.t & 2 & & # # # # & & & X 2 # 2 X & 2 2 % 2 2 2 % & 2 ~ @X@XH & X X & & & & & & # # & 3 4 3 3 4 3 0 2 # # X # 2 4 3 3 3 3 3 3 3 3 4 3 3 3 3 3 3 3 4 3 4 3 3 3 3 3 3 2 2 h.sX4 3 {.dX6X[.{.6Xq.e 3 3 3 3 3 3 3 3 3 3 3 3 3 4 3 3 3 3 3 3 3 3 3 3 ",
"3 4 3 3 3 3 3 4 4 3 3 3 3 3 3 4 3 3 3 3 ( {./.U 3 3 3 U pXs.w 1.6Xr.i 3 3 3 3 3 3 3 ( /./.U q.4.3 i 6XQ.T 3 3 3 3 q i ( U U sXs.# 5.sX4.4 4 q.uXe.e 3 3 3 3 3 3 3 3 3 3 4 3 3 3 3 3 4 3 3 4 3 3 3 3 3 3 U [.fX{.e 3 3 3 2 U Q./.i 4 3 q i r.( 3 1.gXs.U [.{.i i [.g.U 3 3 3 3 q i T T U sXh.2 U sX3.q 4 q.tXr.i 3 3 3 3 3 3 3 3 3 4 4 3 3 3 3 3 3 4 3 3 3 3 3 3 3 3 3 4 3 3 i g.).fX).3 3 i eXg.e T {.h.U W.wXU y /./.1.3 3 3 <.f.h.1.gXU T f.h.3 3 3 4 3 4 3 3 3 3 3 4 3 3 3 3 3 3 4 3 3 3 3 3 3 3 3 2 # # # # # # $ * * # # * * # # * # # $ # # * # # # * $ # # # * # % y !.<.2 Y p.2.= # & # * r r e w = * 0 w u e 0 * # r q , e e = 0 e e r * # # 3 r q e H , * * # $ # # # $ # * # # $ # * # # $ * # * * # # # # # # $ # $ # # # . # # # * # # # $ # * $ # # # * * # # # $ $ # * # # * # # # $ # # # # # # # # * 6.t.~.y.2 $ = p.y.q q y.7.H # # # # r q r e e 3 0 r H w % * # # # * $ $ # # * # # * # # # # $ # # * # # # * * # $ # # $ * * $ # # * # # # * # * # # # # # # # * # # # $ # $ # $ P i. X4.$ q 7.t._.0.& # & * # # R !.T * [ y.[ * # $ # # 3 r r e 0 * w q r e e 2 r e t 0 $ # # # $ # # * # $ # * * # # # * * * # $ # * # # # # $ # # $ # # # * # # $ # * # # # * # # # $ # # $ q [ y # P d.3.w w.p.e 0 t.9.H # $ # 3 y.y.r 0 t.0.y # $ $ H 6.E e p.w $ Y i.p.e $ , w w $ $ # $ * # # # # $ # * # $ * # # # # # # # # * # # * & # & # # # # # 3 3 3 3 4 3 3 3 3 3 3 3 3 w 5.4.w 3 s.{.e.I q.I 2 <.gXh.i 3 3 3 ( sXe.2 5.[.g.i 3 3 3 4 U i I ( U w i ( U i 5 3 4 u I ( T P 5 3 3 3 3 3 3 3 3 3 3 3 4 3 X # # # $ 3 3 3 3 3 2 U sX9.w 3 3 e )./.5.s.sXy 1.{.s.4 w i 3 [.{.w 5 3 I I 3 I gXh.I h.hXr.e i [.gX4 I uXg.i 3 e i wX/.i i )./.T 3 3 5 q.{.4.3 1.sXq.e 4 q 5.hX/.i U ).fXq.q 4.[.f.e 3 I Q.[.w 3 3 3 3 3 3 4 3 4 3 3 3 4 3 3 4 3 3 3 4 2 & 2 % # & & & & & & 2 2 X 2 & & & & & & # $ & & - ^ < < #X:X! # 2 % & & & # # & & & & t Q 3 J.<X;.2 # 2 & & # # & & % ! @X=XQ > 4 * & & & & & & & 2 X O =  .:X+Xt X & = X.-XJ.Q X 2 & & 2 # O & & & & & O $ 2 2 2 # & 2 X 2 # 2 & # { =X@XD u = * & & & & & O $ & & 3 3 4 3 3 3 3 2 X # # X 2 0 3 3 4 3 3 3 4 3 3 3 3 4 3 3 3 4 3 3 3 3 3 3 4 e U ( i f.sXe 3 {.).e 4 i wX).( 3 4 3 3 3 3 3 3 3 4 3 3 3 3 3 3 4 3 3 3 3 4 3 3 ",
"3 3 4 3 3 3 3 3 3 3 4 4 4 4 3 3 3 3 3 3 9.tXU y e 4 e 9.wX1.2 i s.[.i 3 3 3 3 3 3 2 q.wX1.e 3 4 3 i g./.1.6 3 3 3 5./.sXrXg.fXs.X 5.pX4.5 3 <.{.s.i 3 3 3 3 3 3 3 4 3 3 3 3 4 3 3 3 3 3 3 4 3 3 3 3 3 y g.s.rX[.4 3 3 3 % 4.tX4.w 3 3 3 3 4 3 3 ( ).g.q.[.h.3 w q.[.9.2 3 4 3 ( /.pXuXf.fXh.# 5.sX4.q 3 <.{.s.i 3 3 3 3 3 3 3 3 3 3 3 4 3 3 3 3 4 3 3 3 4 3 3 3 3 3 3 3 3 3 i 4.i gX/.3 q 4.gXe.2 y r.{.r./.).3 3 4.).r.3 3 4 4.f.4.U tX5.h.g.T q 4 4 4 4 3 3 3 4 3 3 3 3 3 3 3 3 4 4 3 3 3 3 3 3 3 3 3 # #     # # $ # # # # $ * # # # # # * # # * # # * # # # * # # # , E T.y # e 3.y.0 $ # $ e e.!._.i.E * [ d.!.!.0.3 2 0.d.0.!.!.<.2.T.!.d.P * $ R ^.6.T.!.t.R # # $ # * * * # # $ * # # # # $ # # # * # # * * # # # * # # # # #   # # # # # # # # * # * # # * # # # $ # # # # # * * # # $ # * # # $ # * # * # * Y q t.i.$ & P y.3.# * T y.Y # # $ * t.i.w.!.!.<.3.T.!.i.P * # # # * # # # # * # # $ * # # # * # # $ # * # # # # # * # # # # # # # $ # # * # # # $ # # $ * # # # * $ * # # # # w 7.3./.6.# 0 Y q i.w.* $ $ # # 0 [ T.w # e 7.t.3 # # # 3 R i.!.^.6.P E.0.i.`.p.T w.!.!.0.0 # * # # * $ # * * # # # # * # $ # # $ # * # # # * # # # # * # * # # $ # # # * # * # # # * $ # * # * # * # # e w.8.E t.7.# * T t.E # # * P y.8.# 2 T t.[ # # * e 6.[ P y.q $ 0.T.H $ # $ * * * # * # # # * * # $ # * # # # * * # # * # * * $ # * & # & # # X # X # 3 3 3 3 4 3 3 3 3 4 3 3 3 3 3 5 4 3 q.).r.5 q 3 3 5./.g.i 3 3 4 5.tX4.6 ( Q.Q.i 3 3 3 I eX).{.dXgXq./.tXsX).i q 4 e.wXpXuXg.I 3 3 3 3 3 3 3 3 4 3 3 3 3 # # X # & 4 3 3 3 3 3 T sX9.5 3 3 e /.).5.r.sXe T gX).5.w 4 3 ).6Xe 5 3 q w 5 U ).g.U h.sXi 4 3 /.wXi 4.gXq.2 4 q 1.wXh.4 i r.gX1.3 3 e s.).5.y r.eXI 3 3 3 T jX4.3 i s.pXU 3 T W./.e 3 w g.wX5 3 3 3 4 3 3 3 3 3 4 3 3 3 4 3 3 3 4 4 4 2 2 2 # & & & 2 2 2 2 X 2 O $ & & & & & & # O & & & & 2 H #X:X_ & O # & & # O & & # # 2 & & = K.<X;.* & & & & & & & & % ! #X;X-.X.X.Q 1 & & & & & & & & & - ` :X#XQ 2 - < H.:XK.^ 2 X X 2 2 X 2 2 % & & & & & 2 2 2 2 % 2 X 2 & & 2 2 $.=X=XX.X.$.Q u * & & & & & & 2 2 3 3 3 3 3 4 2 # X X # 3 3 3 3 3 4 4 3 3 3 3 3 3 4 4 3 3 3 4 3 3 3 3 3 e q.eXsX).{.sXe 3 {.).i 4 w Q.).1.3 3 3 3 3 3 3 3 3 3 4 3 3 3 3 3 3 3 3 4 3 3 3 3 ",
"3 4 3 3 3 3 3 3 3 3 4 4 3 4 3 4 3 3 3 i r.wX/.wXgXr.U r.{.( 2 i e.eXT 6 3 3 3 3 3 y f.wXi 3 3 3 2 i {.g.U 3 3 3 q ).6X4.1.g.jXs.% 5.sX4.4 4 e.tX4.w 3 3 3 3 3 3 3 3 3 3 3 3 3 3 3 3 3 3 3 3 3 3 3 3 3 <.6X5.[.{.e 3 3 6 y s.rXi 3 5 3 3 4 4 3 % 1.6Xr.e.).r.2 w 5.gXr.2 3 4 q ).6X9.5.g.jXh.X ( sX4.q 5 q.tX4.q 3 3 3 3 3 4 3 4 3 3 3 3 3 3 3 4 3 3 3 3 3 3 3 4 3 3 3 3 3 3 3 q 3 gX).3 5 e.[.4.2 w 4.wXQ./.f.3 3 5.[.g.2 3 4 4.h.4.I tX9.g.gX).[.( q 4 3 3 3 4 3 3 4 3 3 3 3 3 3 3 3 3 3 3 3 3 3 4 3 3   # # # # # * # # * * # # # * # * $ # # $ # # * # $ # * # # $ # r [ y.w # 3 [ T.q # # 0 [ p.Y e P e * R P y 2.d.Y 3 p.!.<.P 9.!.y.R I p.6.w # T [.8.P Y t.i.* $ # # # # # # * # # $ # , # * * # # # $ * # # # $ # * # * #   # # # # # # $ * # * # # $ # # * # $ # # * * # * # # # # * # # # * # # * # # # # $ = $ w.i.3 * T t.[ # * P d.[ # # # 3 i.!.E P 0.!.w.I T y.6.r # # # # # # * # # * # # # * $ # # * # # * # $ # $ # * $ # * # # * * # # # # $ # * # # * # # # * # $ # # # # * # 3 E p.t T.6.$ # 3 $ i.w.* # # # # e 6.y.q # 0 3.d.3 # # # i E.4.P P w H `.e.R T p.!.2.y 6.y.[ * # $ * # # # # # # $ # $ # # # # $ # # * # * # $ # * # # # # $ * # * # # $ # * # # * $ # # # # $ # # & # # P i.2.[ w.1.# * P p.[ # # $ Y t.[ # * P i.2.# # # * 2.i.i.3.0 q y.p., # $ # # # # # # # $ * # # # # # # * # # # # * # # # # # # # # # & # & # # X # X 3 4 3 3 3 3 3 3 3 3 3 3 3 3 3 4 4 i ).{.5.4 3 3 w e.eX4.e 3 3 3 i {.[.q.s.{.1.w 3 3 3 U dX{.4.4.{.pXh.5.s.{.r.e 5.).Q.( 5.1.y 3 3 3 3 3 3 3 3 3 3 3 4 3 X X # # & 3 3 4 3 3 * U sX4.e 3 2 i [./.T s.sXe 4 1.).wX).T 5 ).6Xe 3 4 4.[.rXsXfX).U h.uXw 3 2 /.gXI e.6X4.3 4 q q.sXfXuXuXsXuX4.% 3 e f./.5.i h.|.I 6 3 3 ( fX1.2 y e.tXU % ( g./.e 3 w g.eXq 3 3 3 3 3 3 4 3 4 3 3 3 4 3 3 3 3 4 4 4 3 2 % # $ & & 2 X 2 X 2 2 # # & & & & & & & # & & & & X K #X<X! & # # & & & & & & # $ 2 # & = K.<X;.& # # & & & & & & o } #X<X;X;X-X=XJ.! 3 $ & & & & & & % t @X:XK.;.-.J.;X<XJ.^ % 2 2 2 2 2 2 X & & O & & & 2 X O % 2 # 2 2 & & & X %.-X<X:X;X-X=XH.^ & & & & & & % 3 3 3 3 4 3 3 2 X # # X * 3 3 3 3 3 3 3 3 3 4 0 3 3 3 3 3 3 3 3 3 3 3 3 4.tXh.5.q.tXsX5 2 {.).i 4 i gXQ.i 3 3 3 3 3 3 3 3 4 3 3 3 3 3 4 4 3 3 3 3 3 4 3 3 ",
"3 3 4 3 4 3 3 3 3 3 3 % 3 3 3 % 2 2 2 I Q.sXh.w./.).h.h.).T 2 e 4.pX( 2 3 3 3 3 3 4.).g.q 3 3 5 w 1.rXq.w 3 3 4 ( gXg.3 4 4.fXs.# 5.dXwX|.wXwX/.e 4 4 3 3 3 3 4 3 3 3 3 3 3 3 3 3 3 3 3 3 3 3 2 6 3 T /.s.e (.{.q 3 3 3 <.).Q.w 3 3 3 3 3 3 3 i s.wXT e.).q.6 3 5.wXs.2 3 4 U 6Xg.5 5 4.dXh.2 ( dXwX{.wXwX).i 3 3 3 3 3 3 3 3 4 3 3 3 3 3 4 3 4 3 3 3 4 3 4 3 3 3 3 3 3 3 3 3 3 3 6X).3 e r.).1.3 4 5.tX).Q.s.3 4 I {./.3 3 3 5.g.r.5.wX[./.).).s.g.P 3 3 3 3 3 3 4 3 3 4 3 3 3 3 3 4 3 3 3 3 4 3 3 3 2   # # # # # # * # # # # # $ # * # # * # # * # # * # * # * * # # r 6.a.w # * E W.w # # 0 <.^.Y * # * $ 3 * . y p.1.0 i.d.r & Y !.6.# 3 3.t.P # T ].Y # # 1.^.H % # * * # # $ * # # $ # # # # # # * # # # $ # # * # # * # # #   # # # # # * # $ # # # * # # # $ # * # # # $ # * # # * # * # # $ # # # # # * $ # # # w.i.* * [ t.T # * y T.[ # $ $ 2 E.p.q $ T !.3.$ 0 6.y.H # $ # # * * # # $ # # # # # # # $ # # # # # # * $ # # # # * $ # # $ * * # # # # $ * # * # # # # * * # # # # * # P w.E 3 d.7.* & # # d.0.* $ # $ # r 6.0.0 $ 3 2.E.3 # # 3 E !.P # # $ P '.[ % 0 9._.P # P 8.8.* # # # # * * # # * # * # # # * * * # * # # * $ # # $ # $ # # # # * # # # # # # # * # # # # # * * # # # # 0 [ T.P E w.[ # $ e i.6.# # $ E w.[ # $ e d.3.# # # # q Y Y r $ P p.e.# # $ # $ # # $ # * * # # # # * # $ * # $ # # # $ * # # # * * # & # $ % # X # X # 3 4 3 3 3 3 4 4 3 3 3 3 3 3 w <.[.rXgXr.5 q U g.wXtX).i 5 3 3 3 4 4.eXdXeX/.e 3 3 3 3 U jXh.w i h.fX1.2 5././.e 5.{.[.i 2 q 5 3 3 3 3 3 3 3 4 3 4 3 3 2 # X X X & 4 3 3 3 3 3 T sXq.q 3 3 I tXg.i r.sXe 3 e T r.)./.i ).6Xe 4 5.[.).e.r.gXQ.( h.uXq 3 2 Q.gXI q.6X4.2 3 4 9.wX).q.q.q.1.i 3 3 e f./.<.i h.gXP 3 3 3 T fX1.2 e e.eXi 6 U g.).e 3 e g.wXw 3 3 3 3 3 3 3 3 3 4 3 3 3 4 3 4 3 3 4 3 3 & & % O X 2 2 X & 2 # 2 # 2 $ & & & & & & & & & & & X H #X:X_ & & & & & & & & # 2 O 2 % X = J.5X;.* # O & & & & & & & < %.:.;.-.:.#X<X+XD 2 X & & & & & & = ~ +X:X;X-X=X@X:XH.Q % 2 2 # 2 O 2 2 & & # # & & & & $ # # 2 # # & & & & D X.:.;.-.H.-X<XJ.< & & & & # 2 3 3 3 3 3 3 4 2 # X X # 2 0 4 3 3 4 3 3 3 3 3 3 3 4 3 3 3 3 3 3 3 3 3 y r.uXU 3 I ).sXq 3 [.dX6X6XwXgX4.4 3 3 3 3 3 3 3 3 3 4 3 3 3 3 3 3 3 3 3 3 3 3 3 3 ",
"3 3 3 3 3 3 3 4 4 3 3 4 3 3 i 4.h.f.( ( /.rX( 6 5./.gXh.).( 2 e 4.uX( 3 3 3 3 3 3 g.{.5.3 3 3 3 5.[.Q.i 3 3 3 4 1.6Xr.3 3 i sXh.X 5.dX6X(.).{./.5.5 3 4 3 3 3 3 3 3 3 4 3 3 3 3 3 3 3 3 i 4.h.f.5.y q.[.i % ).{.3 3 3 3 h.gX5.5 3 3 3 3 3 3 4 w.[.s.w q.).q.3 3 U wXh.2 4 4 4.{.s.3 3 i pXf.X ( dX6X/.).[.).<.e 3 3 3 3 3 3 3 3 3 3 4 3 3 3 3 3 3 3 3 3 3 3 3 3 3 3 3 3 3 3 3 3 3 6X).3 e r.).1.2 w 1.uX).g.s.3 4 I {./.3 3 3 e s.gX).).wX/.g.r.T 6X<.3 3 3 3 3 3 3 3 3 3 3 3 4 3 3 3 3 4 3 3 3 3 3 3 3 # # # # # # # # * # * $ # * # # # * # $ # # # * # # # $ # # # # 0 6.a.w # * E !.w # # * e e.t.2.R $ # P [ 3.w.E.3.w i.e.$ * P T.2.# 0 [ y.P # E `.w # # E T.Y 0 # # # # * # # # * # # # * # $ * # # * # # * # # $ # # # # #   # # # # * # # # * # * # # # * # # * # * # # # * # # * # # * # # * $ * # * # # * # # 0.i.2 * [ w.E $ * y T.[ # # # 3 E.q.# * P ^.E # 0 E y.P # # * $ # # # * # * # * # * # * # # * # * * # # # * # * # # # * # # # # * * # # # * # # * # $ # # # # * $ # # 0 2.0.3 # E.6.# # # # i.t.& & # & # e 6.0.0 # 3 2.^.3 # # r 6.i.0 # # # P ].P $ 0 2.T.0 # e 8.8., # # * # # $ # # * # # # * # * # # # # # $ # # * # # * # * * # $ # # * * # * $ # # * # $ * # # # & $ # # E y.6.* T t.[ # * e d.6.# # * T 0.[ # * e T.3.# # # # # # # # # e y.e.# # # * # # # * # # # # * # $ # * # # # * # # $ # # * $ # # $ # $ & # # # # # X X 3 3 4 3 3 3 3 3 3 3 4 3 3 3 w ( W.[.[.h.5.q I s.).[./.4.e 6 3 5 i h.).).)./.1.e 3 3 3 U fX4.2 e q.uXI 2 U f.).e e r.[.Q.e.i 3 3 3 3 3 3 3 3 3 3 3 3 4 2 # # # # & 3 3 3 3 3 2 U sX4.3 3 i h.uXq.5 s.sXe e 5 2 e r.uX( /.6Xi 4 e.gXr.2 i gXQ.U h.uXw 3 3 Q.wXi 5.uXs.4 3 5 ( wXh.3 # 2 4 3 3 3 e r.[.4.q q.sX5.3 3 4 T fX1.2 e e.eXi 5 ( g.).q 2 i /.6X4 3 3 3 3 4 3 3 3 3 3 3 3 3 3 3 3 3 3 4 3 2 & & 2 2 2 2 2 2 & & 2 % 2 # O X & & & & & & & & & & % D =X<X_ & & & & & & & & & & & # 2 2 3 K.<X;.* & & & & & & & & & & u D > u < ..-X;X{ = O & & & & & & & = { ;.:.:.-.:.;X:.t # & % # # $ # & & 2 % # & & & & & # 2 & 2 # & & & & 3 r D > > < ;.-X-X` 6 X & & 2 # 3 4 3 3 3 4 4 2 X # # X 2 0 3 4 3 3 3 3 4 3 3 3 3 3 3 3 3 3 3 4 3 3 6 i f.gXe 3 3 h.sXe 3 {.uX)./.[.{.e.i 3 3 3 q 3 3 3 3 3 3 3 4 3 3 3 3 3 4 3 3 4 3 3 3 ",
"3 3 4 3 3 4 3 3 3 3 3 4 3 3 U f.gXwX4.5.g.{.w 2 e g.tXr.{.5.2 e e.eXU 2 3 3 3 3 I [.[.3 4 3 3 T g.6X( 4 3 3 3 q 4.{.e.3 3 e pXh.& 5.pX1.4 2 1.{.Q.i 3 3 3 3 3 4 4 3 3 3 3 4 3 3 3 4 4 3 I f.gXwX4.4.).{.9.1.gXrX1.e 4 i (.{.w 4 3 3 3 3 3 4 1.[./.i w 1.).r.3 q 1.wXr.2 3 5 4.{.r.3 3 i uXf.2 5.uX4.4 3 5.6X/.i 2 3 3 3 3 3 3 3 3 3 3 q 3 3 3 3 3 3 3 3 3 3 3 3 3 3 3 3 4 3 3 3 3 6X(.3 q 9.[.4.2 w 4.eXg.Q.g.3 3 5.{.g.2 3 3 3 1./.{././.g.h.4.i tX5.2 3 3 3 3 3 3 3 3 3 3 3 3 3 3 3 3 4 3 3 3 3 3 3 3 # X # X # $ # & & # & # # # # # # * # $ # # # * * # # # # & & # 0 [ p.e # 0 <.T.r # # # $ y 9.d.0.Y e w.i.d.^.~.3.q i.y.# $ y d.[ # 3 E y.R # T `.q $ # T E.Y 3 # # # $ # # * # * # # # * # # $ # # $ * # * # # # * # * . # # X # # # & * # # # # # # * # # * # # * # # * # # # * # $ # # # # * # # # # # & # & $ w.i.* $ Y t.<.# $ P T.[ # # $ = E.0.# * P T.E # 0 <.p.y # # & * # # # * # # # # * * # # # $ # $ # # $ * # # # # * * # # # $ # # # # # # # * # * # # # # $ * # # * # # E y.t.Y Y !.y.P 3 $ # i.t.$ # # # # q 2.y.0 # q 6.d.3 # # r 6.s.0 # # # P `.y # * [ T.0 $ y 6.w.$ $ $ # # # # * # * # # * # # # # # $ # $ # # # * # # $ # $ * # # * # # # # $ # # * * # # # * # # & # * P t.0.0 * P 0.3.# $ P i.3.# # $ I w.2.# % P i.2.# * * # $ $ # # # r y.i.2 $ # & # # & # $ # * * # # $ # * $ # # # * # # # # $ # * # # * # # * # # . # # # 3 3 3 3 3 3 3 3 3 3 4 3 3 3 4 3 2 3 e.{.g.q 4 2 3 5.[.{.i 2 3 q 1.eX9.5 <.).[.i 3 3 3 I fX4.2 e q.tXU 2 ( g.).y 6 i q.{.6Xr.i 3 3 3 3 3 3 4 3 3 3 3 3 2 X # # # & 3 3 3 3 3 2 T dXW.9.9.g.6Xg.i 3 u.dXe U 4.q.9.h.6Xi h.gXr.1.9.{./.4.r.rX/.( f.pX4 3 2 /.wXy y {.).e.4.9.e ).).r.3.4.<.e 3 3 e 4.gXq.2 5.gXg.q.4.1.5.hX1.2 i e.tXI 2 5.g.).e 3 5././.q 3 3 3 3 3 3 3 4 3 3 3 3 3 4 3 3 4 3 3 3 2 2 2 & & & & 2 X 2 X 2 % O $ & & & X 2 O $ # # & & & X D #X:X^ & # $ 2 X 2 & & & & & $ O X = K.<X;.- # 2 % 2 & & & & & X # % % O X K H.;X;.1 X 2 O # & & & & * O & = * 1 J.:X-.> & & & & # O & & # & # # & X & & & # 2 # O $ & O # # & # # & % X _ P.-XX.> $ # 2 X 2 2 4 3 3 4 3 4 2 # X # # 3 3 3 3 3 3 3 4 3 3 3 3 4 3 3 3 4 3 3 3 3 3 3 U g.{.y 3 3 h.sXq 3 [.).e 2 e g.{.9.3 3 3 3 3 3 3 3 3 3 3 3 3 3 4 4 3 3 3 3 3 3 3 4 ",
"3 3 3 3 3 3 3 3 3 3 3 3 3 3 3 4 4 q 3 i h.gXi 3 i g.gX4.gX4.3 i h.[.U e e 5 3 3 r.[.r.3 3 4 i g.6X<.4 3 3 4 3 4 5.6Xh.3 5 ( sXh.X 5.sX4.w 3 U g.{.I 3 3 4 3 3 3 3 3 4 3 3 3 3 3 3 3 3 3 3 3 4 4 3 9.rXsXsXsXjXzXwX5.w q.).s.4 4 3 e e 5 4 U {.Q.U 3 4 T [.g.3 w e.[.9.2 3 4 5.gXf.3 4 U sXf.X ( pX4.q 3 U g.6XU 3 3 3 3 3 3 3 3 3 4 3 3 3 3 3 3 3 3 4 3 3 3 3 3 4 3 3 3 3 3 4 3 3 6X).3 4 5.gXe.3 i s.{.q.W.).4 4 4.[.r.3 3 3 3 4 3 U {.4.q.h.q.U tX1.2 3 3 4 3 3 4 3 3 4 3 3 4 3 3 4 3 3 3 3 3 3 3 4 2 # X X # # # & # # & # & * $ * # # # * # * # # # # # * # * # & # 3 Y T.P # e 6.y.0 # # # * $ $ P y.d.2.E.T $ P y.3.w i.w.# * P i.[ # 3 [ y.P # E `.P $ # <.^.P * # # & # # * # # $ # * # $ # # * * # # # # $ # * # # # * # # X # X $ & # $ # # * # * $ # # * # # $ # * $ # # * # * # # * # * # # $ * # * & # & $ # w.i.2 * e y.3.# 3 [ y.Y # # * 2 T.7.X * P T.E # 3 [ y.i # & # # $ $ * # # $ * $ # # # * * # # # # * # # * # $ $ # # # $ * # # * * # * * # # * # # # * * # # # $ # # # 2.W.(.!.!.}. Xy.w # # i.w.* & * 0 * 0 E d.r # y 9.0.3 # # q 2.T.w # # $ y `.P # 0 [ E.q # y 9.0.* # # $ # * # # # # * $ # # * # * * # # # # * * # # * # # # # $ # # # * # # # * # # # # $ # * # & # & r y.0.e $ $ e w.0.* 2 E y.[ & 0 * e y.6.$ 3 [ y.E # # # # # # # * # * 0.T.P * $ $ & & & & # # # # * # # # # # # * # # * # * # # * # # $ # # * # # # # # # X 3 3 3 3 3 3 3 3 3 3 3 3 3 4 4 3 3 3 5./.[.e 4 3 2 i r.wX( w e i r.).5.2 e 9.eXU 3 3 3 U fX4.2 e q.tXU 2 U h.).y 3 4 4 i s.rX4.2 3 3 3 3 3 3 3 3 3 3 3 2 # X X X & 4 3 3 4 3 3 I rXpXsXuXgXr.i 3 3 e.wXw 5.).pXuXgX4.8 5./.pX{.U h.tXtX{.h.r.U r.gX4 3 2 g.{.e 5 ( (.pXuX{.y i g.tXsXeXu.i 3 3 4 i eXh.3 4 4.gXpXpXg.U tX5.2 e q.gXi 2 U h.g.w 2 e.).e.4 3 4 3 3 3 4 3 3 3 3 4 3 3 3 3 3 3 3 3 3 3 # 2 2 # & & 2 2 2 2 2 2 # # & & & & # $ O % & & & & # F =X:X! & # O 2 2 # & O & & & # 2 2 = J.5X;.* 2 # # & & & & & 2 2 - & # $ $ D J.;X-.1 % % $ & & & & & # $ & & * ^ -X:X' & & & & & & & & & & & O # = 4 * 2 & 2 % 2 2 2 & & 2 # * * & & $ O Q P.-X&.= # 2 % 2 2 3 3 3 3 3 3 4 2 X # # X 2 q 3 3 3 3 3 3 3 3 4 3 3 3 3 4 3 3 3 4 3 3 3 i s.wXi 3 w g.sXe 3 {.).i 3 4 e.{.r.3 3 3 3 4 3 4 3 4 3 3 4 3 3 3 3 3 3 4 3 4 3 3 3 ",
"3 4 3 3 3 3 3 4 4 3 3 3 3 3 4 3 3 3 3 3 9.pXq.i q.{.h.i tXh.i 4.gXs.i f.h.e 3 q [.).T 3 3 q g.{.9.e 4 4 4 3 3 4 e 6X[.I i h.jXr.O ( pX4.e 4 4.wXQ.i 3 3 3 3 3 3 3 4 3 3 3 3 3 3 3 3 4 3 3 3 3 3 3 y U ( T U 6XgX( w 5 [.[.( 3 4 e h.h.e i gX/.5.4 4 3 4 ).[.U I {.g.5.3 3 4 e {.{.U i h.jXh.X ( sX4.e 5 1.wXQ.i 3 3 3 3 4 3 3 4 3 3 4 3 4 3 3 3 3 4 3 3 q 3 3 3 3 3 3 3 4 3 3 3 3 gX).4 3 e gXQ.i 5.6Xh.I h.gX5.i [.).1.3 3 3 3 3 e 4.[.I ( h.g.4.6X5.2 3 4 3 3 3 3 3 3 3 3 3 3 3 4 3 3 3 3 3 4 3 3 3 3 X # # X # # & & * # * # # # # * $ # # # # * $ * * # # * # # & # # e !.[ 0 T i.2.3 # # , e 0 * y 0.d.3.i.P * [ !.6.w i.w.# $ P T.[ # = [ t.R # T  X8.r u q.E.0 $ # * # & # $ $ # * # * $ # # # # # * # * # # * # * # # # . . # # # # # & * # # * # # # # # # # * # # # # * # # * # # # # * # # $ * # # # # * # # # 0.i.* $ * y.t.e w p.8.e # # # 3 d.0.# * P T.E # 3 E p.H # & # # # * # # * # # # # # $ # # # * * # * # # * * # # # # $ # * # * # # $ # # # # $ # * * # # # # * # * * # 0 e H r y W.w.w * $ # i.w.$ # 0 0.[ * P !.T 0 2.p.[ * # $ $ R _.[ 0 0 0 y '.e # 0 6.T.q # y 9.0.$ # # * $ * # * # # # # # * * # # # # * * # $ # # $ * # * # # # * # $ # # # # $ $ # # * # $ # # $ & 0 t.0.P 2 * & $ 0.p.y q y.0.H I w.e * 0.p.e w y.0.H # # * # # & # $ $ # E i.p.y 3 2 0 0 # & # * $ # # # * * # # # * # $ * # # * # * * # * # # # # * #     # # 3 3 3 3 3 3 3 3 3 3 3 4 3 i U i 5 w r.gXg.U i u 4 1.{./.5.h.h.i q.rXq.w U g.{.I 2 4 3 U fX4.2 e q.tXU 2 U h.).e i I e y q.rX3.3 3 3 4 3 4 3 3 3 3 3 3 3 # X # # & 3 3 3 3 3 3 0 i i i i e u 4 3 3 w i 3 4 e i i i q 4 4 e i e 4 e i i e w w q w i 5 3 3 y i 3 3 4 e i i e 4 4 u i i i w 4 3 3 3 q ).g.U 3 4 y i i e 3 i 4 3 q 5 i 3 3 3 w e 4 3 /.).I 3 3 3 3 3 3 3 3 3 3 3 3 3 4 3 3 3 3 3 4 3 3 2 % # & & & 2 2 2 2 & & & & & & & & & 2 # 2 & & & & o c #X:X_ & 2 2 2 % & & # # & & # & # = K.<X;.* # 2 2 2 & & $ O 2 < ^ * & & * ~ -X-X' = 2 2 # 2 2 & X & & & & & Q J.:XK.D & 2 # & & & & & & & & & = ` -.D 2 X & 2 & & 2 & & # 2 D D & & & = X.;X#X! * & # 2 2 # 3 4 3 3 4 3 3 2 # X # # 3 3 4 3 4 3 3 3 3 3 3 3 3 3 3 3 3 3 3 3 3 3 3 4 q.sX4.e 1.gXsXq 3 {.[.i q i ).6Xq.6 3 3 3 3 3 4 3 3 4 3 3 3 3 3 3 3 3 3 3 3 4 3 3 ",
"3 3 3 4 3 3 3 3 3 3 3 3 3 3 3 3 3 3 3 3 i h.gXeXwXg.i u e.{.tXeX).U i [.).i q 5.eXh.5 3 4 4.pXjXuXgXwXgX4.3 3 4 3 q.[.tX6Xg.fXs.# [ jXpXeXeXeX).5.q 3 3 3 3 3 3 3 3 3 3 3 4 3 3 3 3 3 3 3 3 3 3 3 3 3 3 5 3 ).6Xw 3 ( wXg.4 3 4 e [.[.T r.jXdXtXeXeX{.i 1.).tXeXgX5.4 3 4 4 4 4.[.eX6Xg.dXh.2 ( fXpXeXeXeX[.5.q 3 3 3 4 3 3 3 3 3 3 3 3 3 3 3 3 3 3 3 4 3 3 3 3 3 3 3 4 3 3 3 3 3 wX).4 3 3 9.{.rXwX{.( 3 ( Q.eXeXgX4.e 3 3 3 3 2 5./.q.w 4 e.eXgXr.i 3 3 3 3 4 3 4 4 3 3 3 3 3 3 3 3 4 3 3 3 3 3 3 3 3 # # X # # # $ # # & # # * # # # * # * # # # # # # $ # # # $ # $ # * [ i.E.T.0.q # # # = T d.T.T.t.T R T.!.i.y.t.3.w i.y.# % H T.2.# 0 E p.P # Y `.w.i.!.y.E % $ # & # $ # * # # # # # # * # * # # # # # * # # # # $ * # # # # . # # # & # $ # # $ * # * # * $ # * # * # # $ # # $ # * # $ # # * # # # * # # # $ # w.T.* $ # I y.E.E.i.P * # # $ 2 T.9.# 2 P T.E . 3 [ p.P # # & * # # # # # * # * # # * # $ # # * # # # # # # # * # # * # # # * # $ # # * * # # $ # # $ # * $ # # # $ # $ $ % * 2 ^.7.* # $ $ i.t.$ # r E.6.3 0 3.d.T.T.9.0 & # # # 0 6.d.T.T.3.P '.P # 0 [ ^.0 # L 9.0., # # # # # # $ * # * # # $ # # # $ # # * # # # * # # # * # * # # * # # , # # # # * $ # * # # * # 3 [ '.`.^.T.f.p.e P 0.E.T.d.R 0 E ^.P * P w.^.E.i.L * # # # $ & # & # # # * Y y.E.T.T.8.H * # # * # # # $ # # $ * # # * # # # # # # # $ # # # # * $ # # # # # X 3 3 3 3 3 3 3 3 3 4 3 4 3 i r.wXeXgXgXh.( q.{.eXeXgX).5.e [.[.i i /.gXeXwX{.4.e 3 4 3 U fX4.2 e q.uXU 2 ( g.{.i U Q.rXwXwXs.I 3 3 3 3 3 3 3 4 3 3 3 3 * # # # # * 4 3 3 3 3 4 4 3 3 2 3 3 3 4 3 3 3 3 3 3 3 3 3 3 3 3 3 3 3 3 5 3 2 3 3 3 3 3 3 3 3 3 3 3 3 3 3 3 3 3 3 3 4 3 6 3 2 3 3 3 3 3 4 4 1.).h.3 3 3 3 6 3 3 3 3 3 3 3 3 3 3 3 3 3 4 1.).h.q 4 3 4 3 3 4 4 3 3 3 3 3 3 3 3 4 3 3 3 3 3 2 & & # $ O & X 2 2 X & & & & & & & & & & 2 # & & & & % ^ #X:X_ & X & & 2 2 # # $ & & & & & = K.<X;.* 2 2 2 X & # # & 2 $.@XJ.:.;.J.=X:XK.1 & 2 X 2 % & & 2 4 ~ ;.;.H.+X;X-X! 3 % # # & & & & & & & & X D +X-X;.< O & & & & X & & & 2 ;.@XH.:.;.J.-X:X:.q & & 2 2 # # 2 4 3 4 3 3 3 2 X # X X % 3 3 3 3 3 3 3 3 4 4 3 3 3 3 3 3 4 3 3 3 3 3 3 I g.eXeX/.gXtXe 3 {.fXrXeXeXgXe.y 3 3 3 3 3 3 3 4 3 3 3 3 3 3 3 3 3 3 3 3 4 3 3 3 ",
"3 4 3 3 3 3 4 3 3 3 3 3 3 4 3 3 3 3 3 3 4 I q.r.q.T 4 4 e 4.s.e.( 3 q 4.4.w 4 I q.U 3 3 3 U q.h.s.s.s.r.U 3 3 3 3 u 1.s.r.5.q.U 3 y e.s.u.h.e.5.4 3 3 3 3 3 3 3 3 3 3 3 3 4 4 3 3 3 3 3 3 4 3 3 3 3 3 3 3 3 3.1.3 3 i 9.( 3 3 3 5 1.1.i 5.r.h.s.h.s.e.e q <.s.r.1.e 3 3 3 3 3 e 1.u.r.5.q.( 2 i e.s.s.s.r.1.5 4 3 3 3 3 3 3 4 3 3 3 3 3 3 3 3 4 4 3 3 3 3 3 4 3 3 4 3 3 3 3 4 3 3 4.1.3 3 3 i 4.s.r.1.4 3 w ( e.h.4.i 3 3 3 3 3 3 i 4.e 3 3 I w.e.i 5 4 4 3 3 3 3 3 3 4 3 3 3 3 3 3 4 3 3 3 3 3 3 3 3 3 # # # X # # * $ # # # * # # * $ # # # # # * # $ # # * # * * # # * # q E 1.E P # # $ # * e [ [ [ R 0 = R 2.<.Y L e 3 Y P # & q R H # * r I 0 # T _.T [ [ R = * # # # $ # $ # * * # # $ # # * * # $ # # * * # # $ # # # $ # # # # # # # # # # $ # # * # * # # $ # # * # # # # * # # * * # # # $ * # # * $ $ * # # # L R * # # = P 2.2.R = # * # $ * Y P # * 0 E r # $ r W 0 # # & # * * # * # # # * # # # * * # # * # # * $ * # # # $ # # # # * # $ # * * # # # # # , # # # * # # * $ # * # # $ $ # R L * $ # # Y R & # = T P # $ r E [ [ e # & & $ # * r E 2.[ R q [ , # $ r E = # 3 P P * # $ # # $ * # # # # * # # # * # * # # # # * * # * # # # # $ # # $ # # * # * # # # $ # # # # $ # * R [ [ [ [ [ [ 4 * R [ 3.R = $ e E 0 # * R [ 2.P 0 # # # # # * # # $ # * # = R [ 6.[ Y 0 $ # # # * * # $ * # # # # # * # $ # $ # * # # # * # # & # & # # #   # 3 3 3 4 3 3 3 3 3 3 4 3 3 e 5.r.s.u.q.U q U q.h.h.e.5.q q 4.3.e 5 ( q.h.r.1.e 3 3 3 3 i e.I 3 4 U q.e 3 e 5.1.5 i 4.s.r.e.I 4 3 3 3 3 3 3 3 3 3 3 3 0 2 # # o X $ 3 3 3 3 3 3 3 3 4 3 3 3 3 3 3 3 3 3 3 3 3 3 3 3 3 3 3 3 4 3 3 3 3 3 3 3 3 3 3 3 3 3 3 3 4 3 3 3 3 3 3 3 4 3 3 3 3 3 3 3 3 3 3 4 w <.<.3 3 4 3 3 3 3 3 3 3 3 3 3 3 3 3 3 3 4 I 1.I 3 4 3 3 3 3 3 4 3 3 3 3 3 3 4 3 3 3 3 4 3 3 2 & & & & & & % 2 X 2 & & & & # # % & # # O 2 & & & O # D -X5X! - # % 2 % O # 2 % & 2 % & # 3 P.5X;.& O # # 2 # # % & 2 ~ #X-X;X:X:X#X:.Q 2 2 % O # 2 & & & q -.-X;X;X-XJ.{ > 2 2 2 $ & & & & 2 # # O O D +X<X-.t & & O & & & 2 & & & %.#X;X;X;X;X#X;.Q & & 2 # 2 & # 3 4 3 4 3 3 0 2 # # X # 3 3 3 3 3 3 3 4 3 3 4 3 3 3 3 3 3 3 4 3 3 3 3 3 3 I e.s.4.3.9.4 3 1.s.s.s.u.9.P 3 3 3 3 3 3 3 3 3 3 3 4 3 3 3 3 4 3 3 3 3 3 4 3 3 ",
"3 3 3 3 3 3 3 3 3 4 3 3 3 3 3 3 3 3 3 3 3 3 3 2 3 3 3 3 6 3 % 3 3 3 3 3 3 3 3 3 3 3 3 3 3 3 3 2 2 2 2 2 3 3 3 3 3 3 2 2 2 3 2 3 3 3 2 2 3 2 2 3 3 3 3 3 3 4 3 4 3 3 3 3 3 3 3 3 3 3 4 3 3 3 3 3 3 3 3 3 3 3 3 3 3 3 3 3 2 3 4 3 4 3 3 3 3 2 2 2 2 2 2 3 3 3 % 3 3 3 3 3 3 3 3 3 2 3 2 3 2 3 3 3 2 2 2 * 2 2 3 4 4 3 3 3 3 3 3 3 3 4 3 3 3 3 3 3 3 3 3 3 3 3 3 3 3 3 3 3 3 3 3 3 4 % 3 3 3 3 3 % 2 2 3 3 3 5 3 3 2 2 3 3 3 3 3 3 3 3 3 3 3 3 3 2 2 3 3 4 4 3 3 3 3 3 3 3 3 3 3 4 3 3 3 3 3 3 4 3 3 3 3 3 # . # X # # # # * # # # * # # # $ * # * # # * # # * # # # # # $ # $ # # # # # # # * * # # # # # # & # # # # # # $ $ # # # & # # # # # # # & # E _.q   # # # # # * # # * # # # # * # * # # # # $ * # # # # # * # * # * # # #     # # # # * # # * # $ # # * * # # # $ * # * # # $ # # # $ * # # # # * # # & # # $ # # # # * # # # # # # # # $ & & $ # # $ # # # # # $ # # # # & # # # # $ # $ # * # # * # # # # $ # # $ # # # # * # * * # * # $ # # # # # # * $ # # # * # # # $ * # # # # # * & # # # # # # & # # # # * # # # # # # # # # # # & # # # # # # # # # # # # & $ # # # # # # # # # # * * # # $ # * # * * # # # * # # $ $ # # # # # # * * # # * # # $ # * # # * * * # # # * * # * # # # , # * # # # # # # # # # $ # # # * # # # # # # # * $ * # # # # * # # * # # # # # # $ # $ # * # # * # # # # * * # $ # # * # * $ # # * # # & # & # #   # # X 3 3 3 3 3 3 4 3 4 3 3 3 3 3 3 3 2 2 2 3 3 3 3 2 2 2 2 3 3 3 2 3 3 3 2 2 2 3 3 3 3 3 3 3 2 3 3 3 3 2 3 3 3 3 3 3 3 3 2 2 2 3 3 3 3 3 3 4 3 3 3 3 3 3 3 2 # # # # & 4 3 4 3 3 3 3 3 3 3 3 3 3 3 3 4 3 4 4 3 3 4 3 3 3 3 3 3 3 3 3 3 3 3 3 3 3 3 3 3 3 3 3 3 3 3 3 3 3 4 3 4 3 3 3 3 4 3 3 3 3 3 3 3 3 3 3 3 3 3 3 3 3 3 3 3 3 3 3 3 3 3 3 3 3 3 3 2 3 3 3 3 3 3 3 3 3 3 3 3 4 3 3 3 3 3 3 3 3 3 3 3 & 2 & & % # 2 2 2 # & & & & # O 2 & 2 # $ 2 & & 2 # % > -.:.t * # 2 # 2 $ # # 2 2 # 2 # 2 2 X.F.! $ $ # & % O # & & & t { -.:.:.;.{ D & & 2 - # # # & & & 3 ^ ;.:.;.$.^ 2 - X & O # O & & & # # $ & # q ~ ;.Q 3 & & # & & & & & & & < { -.:.:.;.~ t 2 & & & & & O $ 3 3 3 3 3 3 0 2 X # # X % 3 3 3 3 4 3 3 3 3 3 3 3 3 4 3 3 4 3 3 3 3 3 3 3 3 3 % 3 6 3 3 3 3 2 2 2 % 3 3 3 3 3 3 3 3 3 3 3 3 3 3 3 4 3 4 3 3 3 4 3 3 3 3 3 ",
"3 3 3 3 4 3 3 3 3 3 3 4 3 3 3 3 3 3 3 3 3 3 3 3 3 3 3 3 3 3 3 3 3 3 3 3 3 3 3 3 3 3 3 3 3 3 3 3 3 3 3 3 4 3 3 3 3 3 3 3 4 3 3 3 3 4 4 3 3 4 3 3 3 3 3 3 3 3 3 4 4 3 3 3 3 4 3 3 3 4 3 3 3 3 3 3 3 3 3 3 3 3 3 3 3 3 3 3 5 4 3 3 3 3 3 3 3 3 3 3 3 3 3 3 3 3 3 3 3 3 3 3 3 3 3 3 3 3 3 3 3 3 3 3 4 4 3 3 3 3 3 4 3 3 3 3 4 3 3 3 3 3 4 3 3 3 3 3 3 3 3 3 3 4 3 3 3 3 3 4 4 4 3 3 3 3 3 3 3 3 4 3 3 3 3 3 3 3 3 3 3 3 4 3 3 3 3 3 3 3 3 3 3 3 4 3 4 4 3 3 3 3 3 3 3 4 3 3 3 4 3 4 3 3 3 3 4 3 3 3 3 3 3 2 # # X # # # * # # * $ # # $ # # # * # $ $ # # # # # $ # # # * # # # * # # # # # # # $ # & # & * # # # # # # & # * # # # & # # $ $ $ * # & & # E `.0 # & # # * # * # # $ # * # # # # # * # * # # # * $ # # * # $ # # # * . # # # # # # & # # * # # * # # # # # * # # # # # # * # # * # # # * # * # $ $ # # # * # * # * $ # # & # # # # & # # # & # # # # # * $ # # $ # # $ # $ & $ # # # # # # * # $ $ # # # # * * # # $ # # # * # # * # # # # * # * # * # # * * # # $ # $ # # # # # # * # # # # # # # $ & # & & * # * $ $ # # $ # # # * # * # & # * $ # # # * $ # # & # $ # # & # $ # # # * # $ # # # # $ * # # # # # $ # # # * * # # $ * # # $ # $ # # * * # # # # $ # # # # * * # # # # # * # # # # * # # & # # # # * # # # # # # # $ $ # $ # # # # * * $ # # $ * # # # # # * # & & & $ # # # # # * # # $ # * # # # # # # $ # # # # # # * # & # #   # X 3 3 4 3 3 3 3 3 3 4 3 3 3 4 3 3 3 4 4 3 3 3 3 3 4 4 3 4 3 3 3 3 3 3 3 3 3 4 3 3 3 3 3 3 3 3 3 3 3 3 3 3 3 4 3 4 3 4 3 4 3 3 3 3 3 3 3 3 3 3 3 3 3 3 4 2 # # # X & 3 3 3 3 3 3 4 3 3 3 3 3 3 3 3 3 3 4 3 3 3 3 3 3 3 3 3 3 3 3 3 3 3 3 3 3 3 3 3 3 3 3 4 3 3 3 3 3 3 3 3 3 4 3 3 4 3 3 3 3 3 3 3 4 3 3 3 3 3 3 3 3 3 3 3 3 3 3 3 3 3 3 3 3 3 3 3 3 3 3 3 3 3 3 3 3 3 3 3 4 3 3 3 3 3 3 3 3 3 3 4 2 2 & & & & # & & & 2 # 2 O # & & & & 2 # X 2 O # % & $ % % X & & 2 % 2 # 2 # # # & & # # # 2 # % % O 2 2 & 2 & & & & & & X 2 # # X O & & & & # & & & & & 2 X & & X 2 % # & & & & & & # # & & 2 2 % & 2 # # % X 2 & 2 # # & & & X 2 # * & X O & & X 2 & & & & 2 & 2 # 3 3 3 3 3 3 4 2 # # X # 3 4 3 3 3 3 3 4 3 3 3 3 3 4 3 3 3 3 4 3 4 3 3 3 3 3 3 3 3 3 3 3 3 3 3 3 3 3 3 3 3 3 3 3 3 3 3 3 3 3 3 3 3 3 4 3 3 3 3 3 4 3 3 3 4 ",
"3 3 3 4 3 3 3 3 4 3 3 3 4 3 3 3 3 3 3 3 3 3 3 3 3 3 3 3 3 3 3 3 3 3 3 3 3 3 3 3 3 3 3 3 3 3 3 3 3 3 3 3 3 3 3 4 3 3 3 3 3 3 3 4 3 3 3 3 3 3 3 4 3 3 3 3 3 3 3 3 3 3 3 4 3 3 3 3 3 3 3 4 3 3 3 4 3 3 3 3 3 3 4 3 3 3 3 3 4 3 3 3 3 3 3 3 3 3 3 3 3 3 3 3 3 3 3 3 3 3 4 3 3 3 4 3 3 3 3 3 3 3 4 3 3 3 3 4 3 3 3 3 3 3 4 3 3 3 3 3 4 3 3 3 3 3 4 3 3 3 4 3 3 3 3 4 4 3 3 4 4 4 5 3 3 3 3 3 3 3 3 3 3 3 3 4 3 3 3 3 3 3 3 3 3 3 3 3 3 3 4 3 3 3 3 3 4 3 3 3 3 3 3 4 3 0 3 3 3 3 3 3 3 3 3 4 3 3 3 4 3 3 3 3 # X # X # # # $ # # # * # * # * # # # * # * * # * # # * # * $ # * # # # $ $ # # # * # * # & # & * # * # $ # $ # # # # # $ # # # # $ # # & # # T !.q # # * # $ # # # # * # # * * # $ # # $ # * # # # # * # # * # # * # # # . # # # # & # * # # $ # # * # # $ # # * * # $ * # # $ # # * # # $ # # # * # # * # * # # # # # $ # # & # # # $ # * & # $ * # # $ & # $ # # * # # # # & # * * # * # $ # # * # # * * # # # # * # * # $ # # * # # $ * # # # * # # $ # # # # # # * * # * # $ * # # * # $ * # & # * # & & # # # # # # # * # * # # $ # # & # # # * # # # # # & & # & # # & # & # # # # * # # # * * # # # # $ # * * # $ * # # # # * # # # * # # # # , # # # * # * # # # $ $ # # # * # * # # $ # $ $ # # & # & # # & # * $ # # * # & # # # $ # * # # # # # * # & # # $ * # & # & # & # # # * * # $ # # * # # # # * * # * # # * # * $ * # # # # . # . # # 3 4 3 3 3 3 3 3 3 3 3 3 3 3 3 3 3 3 4 3 3 4 3 3 3 3 3 3 3 3 4 3 3 3 3 3 3 3 3 3 4 3 3 3 3 3 3 3 3 3 3 3 3 3 3 3 3 3 3 4 3 4 3 3 3 3 3 3 3 4 3 3 3 3 4 2 # X X # & 3 3 3 3 3 4 3 3 3 3 3 3 3 3 3 3 3 3 3 3 3 3 3 3 3 3 3 3 3 3 3 3 3 3 3 3 3 3 3 3 3 3 3 3 3 3 3 3 3 3 3 3 3 3 3 3 4 3 3 3 4 3 3 3 3 3 3 3 3 3 3 3 3 3 3 3 3 3 3 3 3 3 3 3 3 3 3 3 3 3 3 4 3 3 3 3 4 3 3 3 3 4 3 3 3 4 4 3 3 3 3 3 2 2 & & # O & & & & 2 % # # & & & & % 2 & & # # 2 & # 2 & & O & & & & & & 2 % # O & $ O 2 # & & 2 2 X # 2 # & & & & & & 2 # & & & & & & & & & & & & & & & 2 & & & & 2 & & & & & & 2 % # & & 2 # 2 # 2 & & 2 2 & & # 2 % & & & & O $ * 2 2 2 & & O # & & & & & & % 2 2 3 3 3 4 3 3 2 X # # X 2 3 3 4 3 3 3 3 3 3 4 3 3 3 3 4 3 3 3 3 3 3 3 4 3 3 3 3 3 3 3 3 3 3 3 3 3 3 4 3 3 3 3 3 3 3 3 3 3 4 3 3 3 3 3 3 3 4 3 3 3 3 3 4 3 ",
"4 3 3 3 3 3 4 3 4 3 3 3 3 4 4 3 4 3 3 3 3 3 3 3 3 3 4 3 3 3 3 4 3 3 3 3 3 3 3 3 3 3 3 3 3 5 3 3 3 3 3 3 3 4 3 3 3 3 3 3 3 3 3 3 3 3 3 4 3 3 3 4 3 3 3 3 3 3 3 3 3 3 4 3 3 4 3 3 3 3 3 3 3 3 3 3 3 3 3 4 3 3 3 3 3 3 3 3 3 3 3 3 3 3 3 3 3 3 4 3 3 3 3 5 3 3 3 3 3 3 3 3 3 3 3 3 3 4 3 3 3 3 3 3 3 3 4 3 3 3 3 3 3 3 3 4 3 3 3 4 3 3 3 4 3 3 4 3 3 4 3 3 3 3 3 3 3 3 3 4 3 3 3 3 3 4 3 3 3 3 3 3 3 3 3 4 3 3 3 3 3 3 3 3 3 3 3 3 0 4 3 4 3 3 3 3 3 4 3 3 3 3 3 4 4 3 3 3 3 3 4 3 3 3 4 3 3 3 3 3 3 3 3 3 # . . # # # # $ * # * # $ # * $ * # # # * $ * # * # * $ * # # $ * # * # # * # # * # # # * # * $ * # # * # # $ # * * # # # # # # $ # * # & $ # = r * $ # # # * # # # # # $ # # $ $ * # * # # # * * # # # # # # # $ * # * # . # X # # # # # # # # # # $ # * # * # # $ # # * # * # # $ # # # * # # $ # # * * # # # $ # * # # # # # # # # # # # * # # # # $ # * # # # $ $ # * # # * # * # # # * # # * # # # * # # * # # * # # # # # $ * # # # * # # # $ $ # # # # $ # $ * # # # # # $ # * # # # * $ * # # # # $ * # * # # $ * # & $ # # # * * # # # # $ # * # $ * # * $ * # * # # $ & # # $ * # # # $ # * # # # # * # * # # # # * # # $ # # # * # # # * # # # # # * * # $ # * # # * # # * # * # # * # # * # # * # # # # # # # # * # # * # # # # * $ # * # # # # $ # $ # # $ # # # # # # $ # # * # * # # # * # $ # # # # # * * $ * # * # * $ $ * # # # # # # # 3 3 3 3 3 3 3 3 4 3 3 3 3 3 4 4 3 3 3 3 3 4 3 3 3 4 3 3 3 3 3 3 3 3 4 3 3 3 3 3 3 3 3 4 3 3 3 3 3 3 3 3 3 3 3 4 3 3 3 3 3 3 3 3 3 3 3 3 4 3 3 3 3 3 4 3 # X # X 2 3 4 3 3 4 3 3 3 4 3 3 3 4 3 4 3 3 3 3 4 4 3 3 4 3 3 3 3 3 4 3 3 3 3 3 3 3 3 3 3 4 3 3 3 3 4 4 3 3 3 3 3 3 3 3 3 3 4 3 3 3 3 3 4 3 3 3 3 3 4 4 3 3 3 3 3 4 3 3 3 3 3 3 4 3 3 4 3 3 3 4 3 3 3 3 4 4 3 3 3 3 4 3 4 3 3 3 3 3 4 4 2 & & $ O # 2 & & & & & & & & & & & & & & & & & & % 2 # 2 2 # $ # 2 % 2 & & & % 2 % $ # # & 2 & O $ # % & & & & 2 2 2 2 2 # 2 & & & & & & & & & & & & & & 2 2 & & & & & & & & & & & & & & & & % & & & & & & & & & & O & & & & & & & % & & & 2 & & # 2 % & & & & & & 2 3 3 3 3 3 3 3 2 X # # X 3 3 3 3 3 3 3 3 3 3 3 3 3 3 3 3 3 4 3 3 3 3 3 3 3 3 3 3 3 3 4 3 3 3 3 3 3 3 3 3 3 3 3 3 3 3 3 3 3 3 3 4 3 3 3 3 3 3 3 3 3 3 3 3 3 ",
"3 3 4 3 3 3 3 3 3 3 3 3 3 3 3 3 3 3 3 4 3 3 3 3 3 3 3 3 3 3 3 3 3 3 3 3 3 3 3 3 3 3 3 3 3 3 3 3 3 3 4 3 3 3 3 3 3 4 3 4 3 3 3 3 4 3 3 3 3 3 3 3 3 3 4 3 3 3 3 3 3 3 3 3 3 3 3 3 3 3 3 3 4 3 3 3 4 3 3 3 3 3 3 3 4 3 3 4 3 3 3 3 3 3 4 3 3 3 3 3 3 3 3 3 3 3 3 3 3 3 3 3 3 4 4 3 3 3 3 3 3 3 3 3 3 3 3 3 3 4 3 4 3 3 3 3 4 3 3 3 3 3 3 3 3 3 3 3 3 3 3 3 4 3 3 3 3 3 3 3 3 4 3 4 3 3 3 3 3 3 4 3 3 3 3 3 3 4 3 3 3 3 3 3 4 3 4 3 3 3 3 3 3 3 3 4 3 3 3 3 3 3 3 3 3 3 4 3 3 3 3 3 3 3 3 3 4 3 3 3 3 3 3 2 # # # # # # # * # # $ # # # # # # # # * # # # # # # # # # # # * # # # # # * # $ # # # * # # # # # $ # # # $ # # # # # $ * # * # # * $ # # # $ # # * # # # $ * # * # * # # * # * # # # # # * # # # # $ * # * # * # # # # # # # # # # # # # * # * * # * # # # * # # * * # # # $ # * # * # # # * # # * # # # # * # # * # # # * $ * $ * # * # * $ # # * * # # # # * * # # # # $ # # # # $ * # # * # # $ # * # $ $ # * # # # # * * # # # # * # # # * * # # # * * # # # # # * # * * # # # # * # * # # # # * # * # # # # # * # $ # # # * # # # $ # # * * # # # * # # # # # # # * # # * # * # & # $ * # # * # # * $ # # # # * # # * # # * # * # # $ # * # # # $ * $ # # # # # * # # # * # $ $ # # # $ # # * # # # # $ * # * $ * # * # & $ # * $ * # # # # # * $ * # * # * # * # & # * $ * # # * $ # # # # * $ # # # * * * $ # # # # # # # # # # # # * # # #   # X 3 3 3 3 3 3 3 3 3 3 3 3 3 3 3 3 3 4 3 3 3 3 3 3 3 3 3 4 3 3 3 4 3 3 3 3 3 4 3 3 3 3 3 3 3 3 4 3 4 3 4 3 3 3 3 3 3 3 4 3 3 3 3 3 3 4 3 3 3 3 3 3 4 3 4 % # # X # 2 4 3 3 3 3 3 3 4 3 3 3 3 3 3 3 3 3 3 3 3 3 3 3 3 3 3 3 3 3 3 3 3 3 3 3 3 3 3 3 3 3 3 3 4 3 3 3 3 3 4 3 3 4 3 4 3 3 3 3 3 3 4 3 3 3 3 3 4 3 3 3 3 3 3 3 3 3 3 3 3 4 3 3 3 3 3 3 3 3 3 3 3 4 3 3 3 3 3 3 3 3 3 3 3 3 3 3 4 3 3 3 3 & & # % 2 2 & & & & & & & & & & & & # 2 & 2 & & & # 2 & & 2 & # # 2 # 2 # O 2 % & O 2 # % 2 & & # # 2 # & & 2 X $ O # 2 2 % & & & & & 2 & & & & O # & & X 2 & & & & & & & & & & & & & & & & & & # O & & & & & & # # & 2 & & O & & 2 & & & & & & 2 2 & & & & & & & & 3 3 3 3 3 3 3 2 # X # # % 3 3 3 3 3 3 3 3 3 3 3 3 3 3 3 3 3 3 3 3 3 3 3 3 3 3 3 3 3 3 3 3 3 3 3 3 3 3 3 3 3 3 3 3 3 3 5 3 4 3 3 3 3 3 4 3 3 3 4 3 3 3 3 3 ",
"3 4 3 3 3 3 3 3 3 3 3 3 3 4 3 3 3 3 3 3 3 3 3 3 3 3 4 3 3 3 3 3 5 3 3 3 3 3 3 3 3 3 3 3 3 3 3 3 3 4 3 3 3 3 3 4 3 3 4 3 4 3 3 3 3 3 3 3 3 3 3 3 3 4 3 3 4 3 3 4 4 3 3 3 3 3 4 3 4 3 3 3 4 3 4 3 3 3 3 3 3 3 3 4 3 3 3 3 3 3 3 3 3 4 3 3 3 3 3 3 3 3 3 3 3 3 3 3 3 3 3 3 3 3 3 3 3 3 3 4 3 3 3 3 3 3 3 3 3 3 3 4 3 3 3 3 3 3 4 3 3 3 3 3 4 3 3 3 3 3 3 4 3 3 3 3 3 3 3 3 3 3 4 3 3 3 3 4 3 4 3 4 4 3 3 3 3 3 4 3 3 3 3 3 4 3 3 3 3 3 3 3 3 3 3 3 3 3 4 3 4 3 3 3 3 4 3 3 3 3 3 3 4 3 3 3 3 3 3 3 3 3 3 3 X # # . # # * # # # # * # * # # * $ * # # # * # # # * # * $ * # # * * # $ # # # * * # # # # * # # $ # # # & # * & # & $ * # # * # # # # * # $ # # # # * # # # # * # # * * $ # # # * * # * # $ # * # * $ * # $ # # * # # # # X # # # & # # # # & # $ # * # # # # # # # # # * # * # # # * # # $ # * # # * * # # * # # $ # * # # # * # # $ # # # # * # # # # * * # # # * * # * # # $ # # # * $ # # # # # * # # * # # # # * $ # * # # # # * # * * # # # # * # $ * # * # # # # # $ * # # # * # $ # # * # * $ # # # * # # * # & # # * # * * # * # * # # * # * # # * # # # * # # # & # # * * # # # # * # # $ # # # * # $ # # $ # # * # # # # * # # # # $ * # # # # # * $ # # # * * # # # * # # * # * # # # # * # * # # * # # # # & # & $ # # # # # # # $ # # # # # # * # # * # # # # # # * # * * # # $ # * # # # * # # # # * # # # * # # # * # # # $ # #   # # X 3 3 3 3 3 3 3 3 3 4 3 4 3 3 3 3 4 3 3 3 3 3 3 4 3 3 3 3 3 3 3 3 3 3 3 3 3 3 3 4 3 3 3 3 4 3 3 3 3 3 4 3 3 3 4 3 3 3 3 3 4 3 3 3 3 3 3 3 3 3 3 3 3 3 4 2 # # # X 2 3 3 4 3 3 3 3 3 4 3 3 3 3 3 3 3 3 3 3 4 3 3 3 3 4 3 4 3 3 3 3 3 3 3 3 3 3 3 3 3 3 3 3 3 3 3 3 3 3 3 3 4 3 3 3 3 3 3 3 3 3 3 3 3 3 3 3 3 4 3 3 3 3 4 3 4 3 3 3 3 3 3 3 3 3 4 3 3 3 3 3 4 3 3 3 3 4 3 3 3 3 3 3 3 3 3 3 3 4 3 4 3 & & # & 2 2 X 2 O $ & & & & & & & & 2 # 2 % & & % 2 # 2 2 $ # 2 # 2 & % # # % % % % # 2 2 # % 2 2 # 2 2 # 2 & $ # # 2 # & & & & & & & & 2 2 # 2 # # % & 2 2 & & & & & & & & & & & & & & & & & % # # 2 $ & & # 2 # % & & % 2 # # 2 # # 2 & & & % # % & & & & 2 & % 2 2 3 3 3 4 3 4 2 X # # X 3 3 3 3 3 3 3 3 3 3 3 3 3 3 3 3 3 3 3 4 4 3 3 3 3 3 3 3 3 3 3 3 3 5 3 3 3 3 3 3 3 3 3 3 3 3 3 3 3 3 3 3 3 4 3 3 3 3 3 3 4 3 3 3 3 ",
"3 3 3 3 3 3 3 4 3 4 3 3 3 3 3 3 3 3 3 3 3 4 3 3 3 3 3 3 3 3 4 3 3 3 3 3 3 3 3 3 3 3 3 3 3 3 3 3 3 3 3 3 4 3 3 3 3 3 3 3 3 3 3 4 3 3 4 3 3 4 3 3 3 3 3 4 3 3 3 3 3 3 3 3 4 3 3 3 3 3 3 4 3 3 3 3 3 3 3 3 4 3 3 3 3 3 3 3 3 3 3 3 3 3 3 3 3 3 4 3 3 3 3 3 3 3 3 3 3 4 3 3 3 3 3 3 4 3 3 3 3 3 3 3 3 3 3 4 3 3 3 3 3 3 4 3 3 3 3 3 3 4 3 3 3 3 3 3 3 3 3 3 3 3 3 3 3 3 3 4 3 3 3 3 4 3 3 3 3 3 3 3 3 3 3 3 4 3 3 3 3 3 3 4 3 3 3 3 3 3 4 3 4 3 3 3 4 3 3 3 3 3 3 3 3 3 3 3 3 3 3 4 3 3 3 3 3 3 4 3 3 3 3 3 # X . # # # # # $ * # # # # * * # # # # # * $ # # * # $ # # # # # # $ # # # * # # # # $ # * # # # * * # $ # & # $ # # * # $ # # $ * # * $ # # # # # # # $ * # $ # $ # # # # # * $ # # # # # # * # # # # # # * # # # * # # X # X # # & & # * # $ # * # # # * # $ # * $ * # # # # * # # $ * # * # # $ # # # $ # # # * # * $ # # * # # # * $ * # * # # # * $ # # # # $ # # # # * # # * * # # # # * * # $ # * # # $ # * $ # # # # * * $ # # $ # # # # * $ # # # # # * # * # * # # # * $ # # # * # * # # # # * $ $ # # * # # # * $ # # # $ # # # # # # $ # # # * $ # # * # # $ # # & # # $ # * # # # * # # * # * # * # # * # * # # $ $ * # # * # * * # # # * # * # * # # * # # # # $ # # # * $ # # # # * $ # # # * # $ # # * $ # & # * # * # * # $ * * # * # # $ # # * # # # * # * # # # # # # # * # $ # # * * # # $ # * # # # * $ # # * # $ * # # * # # #   # 3 3 3 3 3 3 3 4 3 3 3 3 3 3 3 3 3 3 3 3 3 3 4 3 3 3 3 3 3 4 3 3 3 3 3 3 4 4 3 3 3 3 4 3 3 3 3 3 3 3 3 4 3 3 3 3 3 3 3 3 3 3 3 3 3 3 3 3 3 3 4 3 3 3 3 2 $ X # # 2 4 3 3 3 3 4 3 3 3 3 3 3 3 4 3 4 3 3 3 3 3 3 4 3 3 3 3 3 3 3 3 3 3 3 3 3 3 3 4 3 3 3 3 3 4 3 3 3 3 3 3 3 3 4 3 3 4 3 3 4 3 3 4 3 3 3 3 3 3 3 3 3 3 3 3 3 3 4 3 3 3 3 4 3 3 3 3 3 4 3 3 3 3 3 3 3 3 3 3 3 4 3 4 3 3 3 3 3 3 3 3 3 2 2 2 2 2 2 2 2 & 2 2 2 2 2 2 2 2 2 2 2 2 2 & O 2 2 2 2 2 2 2 2 2 2 2 2 2 2 3 2 2 % 2 2 2 2 2 2 2 2 2 2 2 2 2 2 2 2 2 2 2 2 2 2 2 2 2 2 2 2 2 2 2 2 2 2 2 2 & & & O 2 2 2 2 & & $ O 2 2 2 2 2 2 2 2 2 2 2 2 2 2 2 2 2 2 2 2 2 2 2 2 2 2 2 2 & - 2 2 2 & $ O 2 2 2 2 3 3 3 3 3 3 3 2 # X X # 2 3 3 3 3 3 3 3 3 3 3 3 3 3 3 4 3 3 3 3 3 3 3 3 3 3 3 3 3 3 3 4 3 3 3 3 3 3 3 3 3 4 3 3 3 3 3 3 3 3 4 3 3 3 3 3 3 3 3 3 3 3 3 4 3 ",
"3 3 3 4 3 3 3 3 3 3 3 3 3 3 3 3 4 3 3 3 3 3 3 3 3 3 3 3 3 3 3 3 3 3 3 3 3 3 3 3 3 3 3 3 3 3 3 3 3 3 3 3 3 3 3 4 3 3 4 3 3 3 3 3 3 3 3 3 3 3 3 3 4 3 3 3 3 3 4 3 3 4 3 3 3 3 4 3 3 3 3 3 3 3 3 4 3 3 3 3 3 3 3 3 3 3 3 3 3 3 3 3 3 3 3 3 3 3 3 3 3 3 3 3 3 3 3 3 3 3 3 3 3 3 3 3 3 3 3 3 3 3 3 3 3 4 4 3 3 3 3 3 3 3 3 4 3 3 3 3 3 3 3 3 3 3 3 4 4 3 3 3 3 3 3 3 4 3 3 3 3 4 3 3 3 3 3 3 4 3 3 3 3 3 3 3 3 4 3 3 3 3 3 3 3 3 4 3 3 3 3 3 3 4 3 3 3 3 3 3 3 3 3 4 3 3 3 4 3 3 3 3 3 3 3 4 3 3 3 3 3 3 3 3 #   # # # * # * # # # * # * # # $ # # # # * # # * # # # # * # * * $ # * # * # * $ # # $ # # # # # # $ # # * # * # # # * # # $ # # * # * * # * # $ * # * & # # # # * # # # # * # # $ # * # $ * # # # * # # $ # * # # $ * # X # # X # & # * # # # * # # $ * # # # * # # # * # # # # * # # * # * $ # # $ # # # $ # # * # * # # * # # * # # $ # # # # * # # * # # * # $ * # $ # # * # # # $ # * * # # # $ # * # # # # # # # # $ * # # # $ # * # # * # # # $ # # * # # * # # # $ * # # # # * # $ * # # # # # # * # # * # # # # * * # $ # # * * # # # * # * # # # # $ * # # # # * # * $ # # * # # $ # # # $ # # $ # # # $ # # # * # # # # # * * # $ # # # # * # # $ # # $ # # * # # # * $ # * * # # # # * # * $ # # * # $ * # # # # # # * # # # $ # # # # # # * * # # * # # * * $ * # $ # # * # # $ # # $ # # # # # $ # # $ * # # # $ # # # # & # & # # # # . # 3 3 3 3 4 3 3 3 3 3 3 3 3 3 4 3 3 3 3 3 3 3 3 3 3 3 4 3 3 3 4 3 3 3 3 4 3 3 3 3 3 3 3 3 4 3 3 3 3 3 3 3 3 3 4 3 3 3 3 3 3 3 3 4 3 3 3 4 3 3 3 3 3 3 4 2 # # X X 2 3 3 4 3 3 3 3 3 3 3 4 3 3 3 3 3 3 3 4 3 3 3 3 3 3 3 3 3 3 4 3 3 3 3 3 3 3 3 3 3 3 4 3 3 3 3 3 3 3 3 4 3 3 3 3 3 4 3 3 4 3 3 3 3 3 3 3 3 3 3 3 3 3 3 3 3 3 3 3 3 3 3 3 3 3 4 3 3 3 3 3 4 3 3 3 3 4 3 3 3 3 3 3 3 3 3 3 3 3 3 3 3 3 3 3 3 3 3 3 3 3 3 3 3 3 3 3 3 3 3 3 3 3 3 3 3 3 3 3 3 3 3 3 3 3 4 3 3 3 3 4 4 4 3 3 3 3 3 4 3 3 3 3 3 3 3 3 3 3 4 3 3 3 3 3 3 3 3 3 3 3 3 3 3 3 3 3 3 3 3 4 3 3 3 3 3 3 3 4 3 3 3 4 3 3 3 4 3 3 3 3 4 3 4 4 3 3 3 3 3 3 3 3 3 3 3 3 3 3 3 3 3 3 3 3 3 3 3 3 3 3 3 3 4 3 3 3 3 3 3 X # # X 3 3 3 3 4 3 3 3 3 3 3 3 3 3 3 3 4 3 3 3 3 3 3 3 3 3 3 3 4 3 3 3 3 3 3 3 3 3 3 3 3 3 4 3 3 3 3 3 3 3 3 3 3 4 3 3 3 3 3 3 4 3 3 3 3 ",
"4 3 3 3 4 3 4 3 3 3 4 3 3 3 3 3 3 3 3 4 3 3 3 3 3 3 3 3 3 4 3 3 3 3 3 3 3 3 3 3 3 3 3 4 3 3 3 3 3 3 3 3 3 3 3 3 3 3 3 3 3 3 3 3 3 3 3 3 3 4 3 3 3 3 3 3 3 3 3 3 3 3 3 3 3 3 3 3 3 4 3 3 3 3 3 3 3 3 3 3 3 3 3 3 3 4 3 3 5 3 3 3 3 3 3 3 4 3 3 3 3 3 3 3 3 3 3 3 3 4 3 3 3 3 3 3 3 3 3 3 3 3 3 5 3 3 3 3 3 3 3 3 3 4 3 3 3 3 3 4 3 4 3 3 3 3 3 3 3 3 4 3 4 3 3 3 3 3 3 3 3 3 4 3 3 3 3 3 3 3 3 3 3 4 3 3 3 3 3 3 3 4 3 3 3 3 3 3 3 3 4 3 3 3 3 3 3 3 3 4 3 4 3 3 4 3 3 3 4 3 3 3 4 3 3 3 4 3 3 3 3 3 3 3 # # #   # $ # # * # # # # # # $ * # * # $ # # * # $ * # # # # $ # # # # # # # $ * # * # $ * # * * # # * # $ # # * # # # * # * # # $ # # # # $ # # # # # # * * # # # * $ # * # # * # $ # # * $ # # * # # * # $ # * # # # # X X # # & # & $ # # * $ # # * * # # * # # # * $ # * # # # * # # # # # * # # * * # # * # $ # # * # # # # # # $ * # * # $ # * $ # # $ # * # # $ # * # # # , # # $ # # # * # # # # # * # * * # $ # # # # # * # # # $ $ # * * # # * # # * # * $ # # # # * # * $ # # * # # * # * * # # * # # $ $ * # # # $ * # # # # # $ * # # # $ # * * # # $ $ * # # # $ * # # # * # # * $ * # # * # * # # * # * # # * # # * # # # # # # * $ # # * # * # # * # * # # $ * # # # # # # $ * # # # $ * # # # # * # # # * $ * # # * # # * * # # * $ * # # # $ # # $ # # # # # # * # # * # # * # # * * # * # # * # # # # * # * * $ * # # & # # # . # # X 3 3 3 3 3 3 3 3 3 3 4 3 4 3 3 4 3 3 4 4 3 4 3 4 3 3 3 3 3 3 3 3 4 3 3 3 3 3 3 3 3 4 3 3 3 3 3 3 3 3 3 4 3 3 3 4 3 3 3 3 3 3 q 3 3 3 4 3 3 4 3 3 3 3 4 2 # X # # % 3 3 3 3 3 3 3 4 3 3 3 3 3 4 3 3 4 3 3 3 3 3 3 3 3 4 3 4 3 3 3 4 3 3 3 q 3 3 3 4 3 3 4 3 3 4 4 3 4 3 3 3 3 3 3 3 3 3 3 3 3 3 3 4 3 4 4 3 3 4 4 3 4 3 4 3 3 3 3 3 4 3 3 3 3 3 3 3 4 3 3 3 3 3 3 3 3 3 3 4 3 3 3 4 3 4 4 3 3 4 3 3 3 3 4 3 3 3 3 3 3 3 3 3 3 3 3 4 3 4 4 3 3 3 3 3 3 3 4 3 3 3 3 3 3 3 4 3 3 3 4 4 4 3 4 3 3 4 3 3 4 3 3 3 3 3 3 3 3 3 3 3 3 4 3 3 3 3 3 3 3 3 3 3 4 3 4 3 3 3 3 3 3 3 3 4 3 3 4 3 3 3 3 3 4 3 3 3 3 3 3 3 3 3 3 3 3 4 4 3 3 3 3 3 3 3 3 4 3 3 4 3 3 4 3 3 4 3 3 3 4 3 3 3 3 3 3 4 3 % # X X # 3 4 3 3 3 3 4 3 3 3 3 3 3 3 3 3 3 3 4 3 3 3 3 3 3 3 3 3 3 3 3 4 3 3 3 3 3 3 3 3 3 3 3 3 3 3 3 3 3 3 3 3 3 3 3 3 3 3 3 3 3 3 3 3 4 ",
"3 3 3 3 4 3 3 3 3 4 3 3 3 5 3 3 3 3 3 3 3 3 3 5 3 3 3 3 3 3 3 3 3 3 3 5 3 3 3 3 3 3 3 3 3 3 3 5 3 3 5 3 3 3 3 3 5 3 3 3 3 3 3 3 3 3 3 3 3 3 3 4 3 3 3 3 3 4 3 3 3 3 3 4 3 3 3 3 3 3 4 3 3 3 3 3 3 3 3 3 3 3 5 3 3 3 3 3 3 3 3 3 3 3 5 3 3 3 3 3 5 3 3 3 3 3 5 3 3 3 3 3 3 5 3 3 3 3 3 5 3 3 3 3 3 4 3 3 4 3 3 4 3 3 4 3 3 3 3 3 3 3 3 3 3 3 4 3 3 3 3 3 3 3 3 3 3 3 3 4 3 4 3 3 3 3 3 3 3 3 3 4 3 3 3 4 3 3 3 3 3 3 3 3 3 3 3 3 4 3 3 3 3 3 3 4 3 3 3 3 3 3 4 3 3 3 3 3 4 3 4 3 3 3 4 3 3 3 3 3 3 3 3 2 #   # # # # # # # * * # $ * # # # # $ * # $ # # # # # * $ * # # # * $ * # * $ # # # * # * # # $ # # # * # * # # # * * # # # # * # * # $ # * # * # * $ # # * # $ $ # # # # # # # # # # # # # # # # # $ # # * # # # # $ * # X # X X # & # * # * $ # # * # # # * $ * $ * # # # # $ $ # # # # $ * # * # # $ # # # * # * # $ # * * # # * $ # # # # * $ # # # # * * # # # # # * # $ # # # # * # # # * # * * # # $ # , # $ * # * # # * # $ * # # # # , # $ * # # # # $ # # * # * # # # # $ # # $ # # # # # $ # # # # # # # * # $ # # # # * $ # * # * # # * # # # # # # # # * # # * # # # * # * # $ # * # # # # # # # # # # * # * # # $ * # * # # * # * # # # * # # # # # # * # * # # # * # * # * # # * $ # # # # * $ * # # # # * # $ # # # # # # # # # * # $ # # # * # * # # $ # # * # * $ $ # * # # # # , # # * # * # * # # # # $ # # # # # * & & # $ # X . # X 3 3 3 3 3 3 4 3 3 3 3 3 3 4 3 3 3 3 3 4 3 3 3 3 3 4 3 4 3 3 3 3 3 4 3 3 3 3 3 3 4 3 3 3 3 3 3 3 3 q 3 3 3 3 3 4 3 4 3 3 4 3 4 3 3 3 3 3 4 3 3 3 3 3 0 2 # # X # 2 3 3 3 3 3 3 3 3 4 3 3 3 3 3 3 4 3 3 3 3 3 4 3 3 3 3 3 3 4 3 3 3 3 3 3 3 3 3 3 3 4 3 3 3 3 3 4 3 3 3 3 3 3 3 3 4 3 3 3 3 3 4 3 3 3 4 3 3 3 3 4 3 3 3 3 3 3 3 3 4 3 3 3 3 3 3 4 3 3 3 3 3 3 4 4 3 3 3 3 3 4 3 3 3 3 4 3 3 3 3 3 3 3 3 3 3 3 3 3 3 3 3 3 3 3 3 3 3 3 4 3 3 3 4 3 3 3 3 3 3 3 3 4 3 3 3 3 3 4 3 3 4 3 4 3 3 3 3 3 3 3 3 4 3 3 3 3 3 4 3 3 3 3 3 3 3 3 3 3 3 3 3 3 4 3 3 3 3 3 3 3 3 3 4 3 3 3 3 3 3 3 3 3 4 3 3 4 3 3 3 3 3 4 3 3 3 3 3 3 3 3 3 3 3 3 3 3 3 4 3 3 3 3 3 4 3 3 3 4 3 3 3 3 3 3 4 3 3 3 2 X # X # % 3 3 4 3 4 3 3 5 3 3 3 3 3 5 3 3 3 3 3 5 3 3 3 3 3 3 3 3 3 3 3 5 3 3 3 3 3 3 3 3 3 3 3 5 3 3 3 3 3 5 3 3 3 3 3 3 3 3 4 3 3 3 4 3 ",
"3 3 3 3 3 3 3 3 3 3 3 4 3 3 3 3 3 3 3 e i e i y y y y i e e i i y y i y y y y i e i i i y y i y y y i y y y y i y y y y y y i e i e i i 4 3 3 3 3 3 4 3 3 3 3 4 3 3 3 3 4 3 3 3 4 3 3 3 3 3 4 3 6 e y y y i y y y y i i y y y y i i y y y y y i i y y y y i y i i e i y y y i e i y y y i y y y y 4 3 3 3 3 3 3 3 3 3 3 4 3 3 3 3 3 q 3 3 3 3 3 3 4 3 3 3 3 3 q 3 4 3 3 3 3 3 3 4 3 3 4 3 4 3 3 3 3 3 3 4 3 3 3 3 4 4 3 3 3 4 3 3 3 3 4 3 3 3 3 3 4 3 3 3 3 3 3 3 3 3 3 3 3 3 3 3 3 3 3 3 3 3 3 3 3 3 3 #   # # # # * $ # # $ # # # * # * # # # * # # * * # # # # # * # # # # # # # * # * # # # # # * # * $ # # # # * $ # # $ # * # # $ # # # * # # # # # # * # $ # # & * # * # # * $ * # * # * # * # * # * # * # # # * # * # # # # X # # # # & # # # # * # # # $ # # # # # # # * # * # * # * # * # # # # # # * * $ # # # # # * # # $ # # * # # * # # # * # * # $ # # # # * * # # # * # # $ # # * # # $ # # # * # # # # # # # # * # * # # # * # # # # # # # # # * * # # $ # # # * # * # # # * # # # * * # $ # # * # * $ * # # # # * * # # # # * $ # # $ # # * # * # * $ * # # $ # # * # # $ # # # * # # # * # , # $ # * * # # # $ # * # # # # $ # $ # # # * # * # $ # * * # # # $ # * # # # $ # # $ # # # * * # # # # # # * $ * # # # # * # * $ # * $ * # # # # * * # # # # * # # * # # # # # * # # $ # # # # $ # # * # # * # $ * # # * * # # # & # # # # # # . # 3 4 4 3 3 3 3 3 4 3 3 3 3 3 3 3 3 3 3 3 3 3 3 3 3 3 3 3 3 3 3 4 3 3 3 3 4 3 3 3 3 3 4 3 3 3 4 3 3 3 3 3 3 3 3 3 3 3 3 3 3 3 3 3 3 3 3 3 3 3 3 3 3 3 3 2 # # X # 2 4 3 3 4 3 3 3 4 3 3 3 4 3 3 3 3 3 4 3 3 3 3 3 4 3 3 3 3 3 3 3 4 4 3 3 3 3 3 3 3 3 3 3 3 3 3 3 3 3 3 3 3 4 3 3 3 3 4 3 3 3 3 3 3 3 3 3 3 3 3 3 3 3 3 3 3 4 3 3 3 4 3 3 3 4 3 3 3 3 4 3 3 3 3 3 3 3 3 4 3 3 3 3 3 3 3 3 3 3 3 3 3 3 3 3 3 4 3 3 3 3 3 3 3 3 3 3 3 3 3 3 3 3 3 3 3 3 3 3 3 4 3 3 3 3 3 4 3 3 3 3 3 3 3 3 3 3 3 3 4 3 3 3 3 3 4 3 3 3 3 3 4 3 3 3 3 3 3 3 3 3 3 3 3 3 3 3 3 4 3 4 3 3 3 3 3 4 3 3 3 4 3 3 3 3 3 3 3 3 4 3 3 3 3 3 4 3 3 3 3 3 4 3 3 3 3 3 3 3 3 3 3 3 3 3 3 3 3 3 3 3 4 3 3 3 3 3 4 0 2 # X # X 3 3 3 3 3 3 3 q y y y y y i y y y y i i y y y y i e i e i y i i y y y i y y y i e i i i y y y y y i y y y y i i i e 3 3 3 3 3 3 3 ",
"3 3 3 3 3 3 4 3 3 3 3 3 4 3 3 3 3 3 3 y U U U U U U U U U U U I U U U U U U U U U U U U U U U U U U U U U U U U U U U U U T U U U U U U w 3 3 3 3 3 3 3 3 3 3 3 3 3 3 4 3 3 3 4 3 3 3 3 3 3 3 4 3 e U U U U U U U U U U U U U U U U U U U U I U U U U U T U U T U U U U U U U U U U U U U T U U U 4 3 4 3 4 3 3 3 3 3 4 4 3 3 3 3 3 3 3 3 3 3 3 3 3 3 3 4 3 3 3 3 3 3 4 3 3 3 3 3 3 3 3 3 3 3 3 4 3 3 3 4 3 3 3 3 4 4 3 3 3 4 3 3 3 3 3 3 3 4 3 3 3 4 3 3 3 3 4 4 4 3 3 4 3 3 3 3 3 3 3 3 3 4 % 4 4 4 % # X # X # $ & # & & # & * # # # $ # * # # * # # # $ # # # * # $ # # * # # # * # # & $ & # # $ # & # & # & # # * # # # $ # # * $ # * # * # * # # * # # * * # * $ * # * # # # $ # # # $ # * # # # # # $ # # # # # # $ * # # # # # # # # # # # # * # * # # # * # * # * # * # # # # # # # # # # # $ # * # # * # # # * $ * # # * # # # * # $ # # * # * # # # $ # # # * * # # # # * $ # * * # # # # * # * # # # $ # # * * # $ * # # # $ # * # # * # # # # * * # # # # * * # # # $ # # $ & $ # * # * # # $ & # # $ # * # & # * * # # # # # * # # * # # # $ # & # # $ * # * # # # $ * # * # # $ * # * # * # # * # # $ * # * # # # * # # * # # # * # * # * # # $ # # * # # # $ # # $ # # # * # $ # # * # # # * # # * # # # * # * # # # * * # * $ # # * # # $ # # # $ # # $ # * # # # $ # # * # # # $ # # * # # $ # # $ * # # * # # # $ * # * # # $ # * $ # #   # # * 3 3 3 3 3 3 3 3 3 3 3 3 3 3 4 3 3 3 3 4 4 3 3 3 4 3 3 3 3 3 3 3 3 3 4 3 3 3 3 3 3 3 3 3 3 3 3 3 4 3 3 3 4 3 3 3 3 3 4 3 3 3 3 4 3 3 3 3 3 3 4 3 3 3 3 # # X # & 3 3 3 3 3 3 3 3 4 3 3 3 3 4 3 3 3 3 3 3 3 3 3 3 3 3 4 3 4 3 3 3 3 4 4 3 4 3 3 3 4 3 3 4 3 3 3 3 3 3 3 3 4 3 3 3 4 3 4 4 3 3 3 4 3 3 3 % 4 4 3 4 3 3 3 4 3 3 3 3 3 3 3 3 3 4 3 3 3 3 3 3 3 3 3 3 3 3 3 3 3 3 3 3 3 3 3 3 3 3 3 3 3 4 3 3 3 4 3 4 3 3 3 4 3 3 3 3 3 3 3 3 3 3 3 3 4 3 3 3 4 3 3 3 3 3 3 3 4 3 3 3 4 3 3 3 3 3 3 3 3 3 4 4 3 3 4 4 3 3 3 3 3 4 3 3 3 3 3 3 3 4 3 3 3 3 3 3 4 3 3 3 4 3 3 4 3 3 3 4 3 3 3 3 3 4 3 3 3 3 3 3 3 3 4 3 3 3 3 3 4 3 3 3 3 0 3 3 3 3 3 3 3 3 3 3 3 3 3 3 3 4 3 3 3 3 3 0 4 2 # X # # 2 3 3 3 3 3 3 e I U U U U U U U U U U U U U U U U U U U U U U U U U U U U U U U U U U U I U U U U U U U U T U U 5.y 5 3 3 3 3 3 3 ",
"3 4 3 3 3 3 3 3 4 3 3 3 3 3 3 4 3 3 3 w I I i i i I i i i i i I i i i i i i I i i P i P i i i i i i i I i i i I i i i i i i i i i i U U 5 3 3 3 4 3 4 3 3 3 4 3 4 3 3 3 3 3 3 3 3 3 4 3 4 3 3 3 % i U U i I i i I i i i I i i i i P P i I i I i i i I i i i i i i i i I P i i P i i i i i i i U I 4 3 4 3 3 3 3 4 3 3 3 3 3 3 4 q 3 3 4 3 3 4 3 3 3 q 3 3 3 3 3 4 3 3 3 3 4 3 3 3 4 3 3 4 3 3 4 3 3 3 4 3 3 3 3 3 3 3 3 3 3 3 3 3 3 4 3 3 4 3 3 3 3 3 3 4 3 3 3 4 4 3 3 3 3 3 4 3 4 4 3 4 3 3 3 4 4 4 3 # X X # # # # & & # & # # # * # # * # # $ # # * # * # * # # # * * # # # * # # $ * # # # * # $ & # & # & # * $ # # * * # * # # # # # # * # # # $ # # $ # # # # # # # # # # * # # * # * # # # * $ * * # # * # * $ * # # # #   # # # # * * $ * # # # # $ * $ # # # # # # $ $ * # * # * $ * # * * # # * # $ # # # * # # # # # * # $ # # # * * # # # # # * # # * $ # # # # * * # # # # # # $ # * # # * # # * # # # $ # # # # # $ * # * # # $ $ # # * * # # # # $ * # # # # $ # * * # * # # # # # * # $ # # * * # # # # $ # # # & $ * # * # # $ # # * # * & $ * $ # # # # # $ # * # # $ # # * # # $ # # # $ # * # # # # # # $ # # # $ * # * # # # $ # # # * # * # # * * # * # # * # * # # # * * # # # * # # $ # * # $ * # # * # $ # # # # # # # * # # * # * # # * * # # * # $ * # * # # * # * # # * # # * # # * # # # # * # # * $ # # # # * $ # # # # # # # # # * 3 3 3 3 3 4 3 3 3 3 4 3 3 3 3 3 3 3 3 3 3 3 3 3 3 3 3 3 3 3 4 3 3 3 3 3 4 3 3 3 3 3 3 3 3 4 3 4 3 3 3 3 3 3 4 3 3 3 3 3 4 3 3 3 3 3 4 3 3 3 3 3 3 4 2 # X # # & 3 3 3 3 4 3 3 3 3 3 3 4 3 3 3 3 3 4 3 4 3 3 4 3 3 3 3 3 0 3 3 3 3 3 4 4 3 3 3 4 3 3 3 3 3 3 3 3 3 3 3 4 3 3 3 3 3 3 4 4 3 3 3 3 4 3 3 4 4 4 3 3 3 3 3 3 3 4 3 4 3 3 3 3 3 3 3 3 3 3 4 3 4 3 3 4 3 4 3 3 3 3 3 q 3 3 4 3 3 4 3 3 3 3 3 3 3 3 3 3 3 3 3 3 3 4 3 4 4 3 3 3 4 3 4 3 3 3 3 3 3 3 3 3 4 3 4 3 3 3 3 3 3 3 3 4 3 4 3 4 3 3 4 4 4 3 0 % 4 3 4 3 3 3 3 3 3 0 4 3 3 3 3 3 4 3 3 3 3 3 3 3 3 3 3 3 3 3 3 3 3 3 3 3 3 3 3 3 4 3 3 3 3 3 3 3 3 3 3 3 3 3 3 3 3 4 3 3 3 4 3 3 3 3 4 3 3 3 4 3 3 3 3 3 3 4 3 3 0 2 X # # X 2 3 3 3 4 3 3 q I I i i i i i I i i I i i I i i I i P P i i i I i i i P I i i i i i i i i i i i i i i i i i i i i i 3 3 3 3 3 3 3 ",
"3 3 4 3 4 3 3 3 3 3 3 3 3 4 3 3 3 3 3 y U I 5 4 4 4 4 4 4 4 4 4 3 4 4 4 4 4 5 4 0 3 3 3 4 4 4 4 4 4 4 4 4 3 4 4 4 4 4 4 4 3 4 4 3 w I I w 3 4 4 3 4 3 3 3 4 3 4 3 3 3 3 3 3 3 3 3 4 3 4 3 3 3 3 5 w U i 3 3 4 4 3 3 5 4 4 4 4 4 4 4 4 4 3 3 3 3 3 3 3 3 3 4 4 3 3 4 3 4 3 3 3 3 3 5 4 4 5 5 y i I 4 4 4 3 3 3 4 3 3 3 3 3 3 3 3 3 3 3 3 3 3 3 3 3 3 3 3 3 3 3 4 3 3 3 3 3 3 3 3 3 3 3 3 3 3 3 3 3 4 3 3 3 3 3 3 3 4 3 3 3 3 3 3 3 4 3 4 3 3 4 3 3 3 3 4 3 3 3 3 4 3 3 4 3 3 3 3 3 3 4 3 3 3 3 3 3 3 4 3 # # # # # # # # # * # * # * # * # * # # * # # $ $ # # # * $ # # # * * # $ # $ # # # # * # # * # # & # $ # # # # * # # # # & # # $ * # # # # * # # * # $ # $ * # # $ * # * # # * # # # * # $ * # # # # * # $ * # # # # * # # #     # # # # * # # * # $ # # * $ # # * # # # * $ # * # # # * # # # # # # # * * # # # # * # $ # # # * * # # # * * # * # # * # # $ # * # # $ # # # # * $ # # # * $ # # # # # * * # # * # # * # # * # # # # # # $ # # $ # # # * * # # # # # * # # # * # # * * # # # # $ # $ # # # # * # * $ * & # & & # # # # # # # $ # # # # # * # * # # * # $ # # # * # * # # # # * # * * # # # # * # # * # # * $ # # # * $ # # # * # * # * # # $ # # * # # # # # # * # # # # # * $ # # # # # # $ # # # # # * # * # # * # * # # * $ # # # # # # * # # # # # # # # * # # * # * * # # * # * # * # # # # # $ * # * # * $ # # # # * & # # #     # 3 3 3 3 4 3 3 4 3 3 4 3 3 0 4 3 3 3 3 3 4 3 3 3 3 3 3 3 3 3 3 3 3 3 3 3 4 3 3 3 3 3 3 3 3 3 3 3 3 4 3 3 3 3 3 3 3 3 3 3 3 3 3 3 3 3 3 3 3 3 3 3 3 3 3 2 # # X X & 4 3 3 4 3 3 3 3 3 3 3 3 4 3 3 3 3 3 3 3 3 4 3 3 3 3 3 3 3 3 3 3 3 3 4 3 3 3 3 3 4 3 3 3 3 4 4 0 3 3 3 3 4 3 3 3 3 3 4 4 3 3 3 4 3 3 3 3 4 4 3 3 3 3 3 3 3 3 3 4 4 3 3 3 4 % 3 3 3 4 3 4 3 3 3 3 3 4 3 3 3 4 3 3 3 3 3 3 3 3 4 3 3 3 3 3 3 3 3 3 3 3 3 3 3 3 3 4 3 3 3 4 3 4 4 4 4 3 3 3 3 3 3 4 3 4 3 3 4 3 3 3 3 4 3 3 4 3 3 4 4 3 4 4 3 3 3 3 3 3 3 3 3 3 4 3 4 4 3 3 3 3 3 4 4 3 4 3 3 3 4 3 3 3 3 3 4 3 3 3 4 3 4 3 3 3 3 4 3 3 3 3 3 3 3 3 3 4 3 4 3 3 3 3 3 3 3 4 3 4 4 3 3 4 3 3 4 3 3 3 4 3 3 3 3 3 3 4 4 2 # X # # 2 0 4 4 3 3 3 w I I w 3 5 4 4 4 3 3 3 3 3 3 3 3 3 3 3 5 3 3 3 3 4 4 3 3 4 4 4 4 4 4 w 4 4 4 4 4 q 4 4 4 4 4 5 i U y 3 3 3 3 3 3 3 ",
"4 3 3 3 3 3 3 3 3 3 4 3 3 3 3 3 3 3 3 y U i 5 4 % 4 4 4 3 3 3 3 4 4 4 4 0 4 % 4 3 3 3 3 4 4 4 3 3 3 4 4 3 3 3 3 4 4 3 3 3 3 5 4 3 w i I w 4 3 3 3 3 3 3 3 3 3 3 3 3 4 3 3 3 4 3 3 3 3 3 3 3 4 3 3 y T i w 3 % 4 3 3 4 4 3 4 4 4 3 3 3 3 3 3 3 3 3 3 3 3 3 3 3 3 3 3 3 3 3 3 3 3 4 0 4 4 4 4 w I I 4 0 4 % 4 3 3 3 3 3 4 3 3 3 3 3 3 3 3 3 4 4 3 3 3 3 4 3 3 3 3 3 3 3 3 3 4 4 3 3 4 4 3 3 3 3 3 3 3 3 3 3 4 3 3 3 3 3 3 3 3 4 3 3 3 3 3 3 3 3 3 4 3 3 3 3 3 4 3 4 3 3 3 3 4 3 3 3 3 3 3 3 3 4 3 3 3 3 3 X # X . # # $ # # # # # # $ # # $ # # * # # * # # # * * # # * # # # $ # # # # # # * $ # # * # # $ # # # $ * # * # # * # & # $ * & # # $ # * $ # # # * # * # # # # * $ # * # # * # $ # # # # # # * # # # * # # # * # # # # # # # # # * # # # * # $ # # # # # # * # # * # # # # * # # # * # # * # $ # * # # # # $ # * $ # # # * * # # # $ # # $ # # $ # # * # # * # * # # * # $ * # # * # # # # * $ # * * # # # * # # * # * # # $ # * * # * # # * # # * * # # # $ * # $ # * # # # # $ # # $ * # $ # # # # # * $ # # # # # # & # # # * $ * * # * # * # $ * # # # # * # * # # # * # # # # # # * # # $ # # # # * $ # * # * # # * # # # $ # # $ * # # # $ # # # * # # $ # # * * # * # # $ # * * # # # # $ # * * # # # # $ * # # # $ # # # $ # * # # # # $ # * * # # # * # * # # $ # # $ # # * # # $ # # # * # # * # $ * # # # # # # # # # * # # # * # # # # # # 3 3 3 3 3 3 4 3 3 3 3 3 4 3 3 3 3 3 3 3 3 3 3 3 3 4 3 3 3 3 3 3 3 3 4 3 3 3 3 3 3 3 3 3 3 3 3 3 3 3 3 3 3 3 4 3 3 4 3 3 4 3 3 3 3 3 4 3 3 4 3 3 4 3 4 3 X # # # & 3 4 3 3 3 3 3 3 3 4 3 3 3 3 4 3 3 3 4 3 3 3 3 3 4 3 3 4 3 3 3 4 3 3 4 5 3 3 3 3 3 3 4 3 3 3 4 % 4 3 3 3 3 3 3 3 3 4 4 4 3 3 3 3 3 3 4 3 3 4 4 3 3 4 3 4 3 3 3 3 3 3 3 0 4 4 4 3 3 3 3 3 3 3 3 3 3 3 4 3 3 3 3 3 3 3 3 3 4 3 3 3 3 4 3 3 4 3 4 3 3 3 3 4 3 3 3 3 3 3 3 3 3 3 4 4 4 3 3 3 3 4 3 3 3 3 3 3 3 3 4 3 3 3 3 3 3 3 3 3 3 3 3 3 4 3 3 3 4 3 3 3 3 4 3 3 % 4 3 3 3 3 3 3 3 3 3 3 4 4 3 3 3 3 4 3 3 3 4 3 3 3 3 3 3 3 3 3 3 4 3 3 q 3 3 3 3 3 3 3 3 3 3 3 3 4 3 3 3 3 3 3 3 3 4 3 3 3 3 3 3 3 3 4 3 3 3 3 0 2 X # X X 2 0 4 4 3 4 3 w I I q 3 4 3 3 3 3 3 3 3 3 3 3 3 3 3 3 3 3 3 3 3 3 3 3 3 3 3 3 3 3 3 3 3 3 3 3 3 4 4 4 3 3 q 5 i U i 3 3 3 3 3 3 3 ",
"3 3 3 3 3 3 3 4 3 3 3 3 3 4 3 3 3 3 3 e U P 4 4 w 4 4 4 0 0 4 3 3 3 3 3 4 4 4 4 3 3 3 3 3 3 3 3 3 3 3 3 3 3 3 3 3 3 3 3 3 3 3 3 3 w I I w 3 3 5 3 3 3 4 3 3 3 3 3 4 3 3 3 3 3 3 3 4 3 3 3 4 3 3 3 e I I 5 3 4 4 3 3 3 3 4 3 3 4 3 3 3 3 3 3 3 3 3 3 3 3 3 3 3 3 3 3 3 3 3 3 3 3 4 4 % 4 3 3 w U I w 3 3 3 3 3 3 3 3 3 3 4 4 4 4 3 3 3 3 4 3 3 3 3 3 3 3 3 3 3 3 3 3 3 3 3 3 3 3 3 3 3 4 3 3 3 3 3 3 3 3 4 3 3 3 3 3 3 4 3 3 3 3 3 3 4 3 4 3 3 4 % 4 3 3 3 4 3 3 4 % 3 3 3 3 3 3 3 3 4 3 3 3 3 4 3 3 4 3 % # # # # * * # $ # # * # * # # * # # # # $ # * # # $ # $ $ # # # # # # # # # # # # # $ * # # $ # * $ # # # # * # * # # # # * # # * # $ # * # & # & * # # # # # # # $ # # # * # $ * # * * * # # # * # * # * # # # * # * # # #   # # # $ * $ # * # * # * # # * # # # # # * # * # # $ * # # $ $ # * # # * # # # # * # * # # # # # $ # # * * # # # # * * # # # * # # # * # # $ # # $ # # # $ # * # # * # # # * # $ # # * # # # # # # * # # # # # * # # $ # # * * # # # * # & # * $ # # # $ # * # # # $ # $ # $ * # $ # # $ # $ # # # & # * # # # $ # * & # # # # # # * # # $ # * * # $ * # * # * # # $ * # # # $ # # # * # $ # * * # $ * # # * # # * # * # * # # # # * # # * # * $ # # $ # * # # # * * # * $ # * * # $ * # # * # $ # # * # # * # # , # # # # # * $ # # # * * # * # # * # # # # # $ # # * # # * # # # * * # # # # # * * # # & # & # # # X # X 3 3 3 3 3 3 3 3 0 6 2 3 2 3 2 3 5 3 3 3 6 2 3 4 3 3 3 3 3 3 3 3 3 3 3 3 3 4 3 3 3 3 3 3 3 3 3 3 3 3 3 4 3 3 3 3 3 4 3 4 3 3 3 4 3 3 4 3 3 3 3 3 4 3 3 2 # # X X & 4 4 3 3 3 3 3 4 4 3 3 3 3 3 3 4 3 3 3 3 3 3 3 3 4 3 3 4 3 3 3 3 3 4 3 3 3 3 3 3 4 3 3 3 4 3 3 3 3 3 3 3 3 3 4 3 3 3 3 3 4 3 3 3 4 3 3 3 3 4 4 4 4 4 3 3 3 3 3 3 4 3 3 3 3 3 3 3 3 4 3 4 3 3 3 4 3 3 3 3 3 3 3 4 4 3 3 3 3 3 3 3 3 3 3 3 3 3 4 3 3 4 3 4 3 3 3 3 3 3 3 3 3 3 3 3 4 3 4 3 3 4 3 3 4 3 3 4 3 3 3 3 3 3 4 3 3 3 3 4 3 3 3 4 3 3 3 4 3 3 4 3 3 3 3 3 3 3 4 3 3 4 3 4 3 3 % 4 4 4 3 4 3 3 3 3 4 3 3 3 3 3 3 3 3 4 3 3 4 3 4 3 3 3 4 3 3 3 3 3 3 3 4 3 3 3 3 3 3 3 3 4 3 3 3 3 3 4 3 3 4 3 3 3 3 3 3 3 0 2 # # X # 2 3 3 3 3 3 3 w I I 4 3 3 3 3 3 3 3 3 3 3 3 3 3 3 3 4 3 3 3 3 5 3 3 3 3 3 0 3 3 3 3 3 3 3 3 3 3 3 3 3 3 3 3 4 i U i 3 3 3 3 3 3 3 ",
"3 3 3 4 3 4 3 3 3 3 4 3 3 3 3 3 4 3 3 e U I 4 4 3 3 % 4 3 3 3 3 4 3 3 3 4 4 4 4 3 3 3 3 3 3 3 3 3 3 3 3 3 3 4 3 3 3 3 3 3 3 3 4 4 5 I I w 3 3 3 4 3 3 3 3 3 3 3 3 3 3 3 4 3 4 3 3 3 3 3 3 3 3 3 3 e I I 4 3 4 4 3 3 3 3 3 3 4 % 3 3 4 3 3 3 3 3 3 3 3 3 4 3 3 3 3 3 3 4 3 3 3 3 4 4 0 4 3 3 w U I 4 3 4 3 4 4 3 4 3 3 4 4 % 4 4 3 3 3 3 3 3 3 3 3 3 4 3 3 3 4 3 3 4 3 3 3 3 3 3 3 3 3 3 3 3 3 4 4 3 3 3 3 3 4 3 4 3 3 3 4 3 3 3 3 3 3 3 3 3 3 3 0 4 3 3 3 3 4 3 4 4 3 3 4 3 4 3 3 3 3 3 4 3 3 4 3 3 3 3 # o o # # # # $ * # # # # $ # * # # * * * # $ # # $ # # $ * 0 0 , , 0 0 3 0 0 0 0 * * # $ # # * # # # $ # * # # $ # * $ $ # # # # # q [ , # & # * # # # # * # * * # # * # $ $ # # # # # # # # * # # $ # # # * $ # # $ #   # # # # # # # # # # # # * # # * # * # * $ * # # # $ # # * # # * # # # * # # * $ * # * # # $ # # # # $ # * # # $ # * # # # # $ # $ # # $ # * # # * * # # # * * * # # $ # # # $ * # # # $ # * # * # * # # # $ * # * $ # * # # # $ # # # # * $ # $ # # # $ 0 0 0 = = 3 0 0 3 0 0 = # # # # * # * * # # # * $ # # # * # * # # # # # # L E $ # * # # # # # & # # # $ # # # # * $ # $ * # # # $ * # # # # # * # # # # # * # $ # # * # # * $ # # # * # # # # # * # # # # * $ # # # # # # # # * # # # $ # # * # * # # # # $ * # # * # * # # # # * # # # * # # $ # * # * * # # $ # * # # # # * # # # * # * $ * # # * # # & # * # X # # # 2 3 3 3 3 3 3 3 3 u =.=.=.=.;.=.=.=.X.=.=.=.t 3 3 3 3 3 3 3 3 3 3 3 3 3 3 3 3 3 3 5 3 3 3 3 3 U e.q 3 3 3 4 3 3 3 3 3 3 3 3 4 3 3 3 3 3 3 3 4 3 3 3 4 2 # X # X $ 4 4 4 3 3 4 3 3 3 3 3 3 3 3 3 3 3 3 3 3 3 4 3 3 3 3 3 3 3 3 3 4 3 3 3 3 3 3 4 3 3 3 3 3 3 3 3 4 3 4 3 3 4 3 3 3 3 4 3 4 3 3 3 3 3 3 3 3 3 3 % 4 4 4 3 3 4 3 4 3 3 3 3 3 3 3 4 3 3 3 3 3 3 3 3 3 3 3 3 3 3 3 3 3 3 3 3 3 4 3 3 3 4 3 4 3 3 4 3 3 3 3 3 3 3 3 4 3 0 4 3 3 3 3 3 3 3 3 3 3 3 3 3 3 3 3 3 3 3 3 3 3 3 3 3 3 3 3 3 3 3 3 3 3 3 3 3 3 3 3 3 3 3 3 3 4 3 3 3 3 3 3 3 3 3 3 4 3 4 4 3 3 3 3 3 3 3 3 3 3 3 q 3 4 3 3 3 3 3 3 3 3 3 3 3 3 4 3 3 3 3 3 3 3 4 3 3 3 3 3 3 3 3 3 3 3 3 3 3 3 3 3 3 4 3 3 4 3 0 2 X # # X 3 3 3 3 3 4 3 w I I q 3 4 3 3 3 3 3 3 3 3 3 3 3 3 3 3 3 3 3 4 4 3 3 3 3 3 3 3 3 4 3 3 3 3 3 3 3 3 3 4 3 3 3 4 i U i 3 3 3 4 3 3 3 ",
"3 3 3 3 3 3 3 3 3 4 3 3 3 3 3 3 3 3 3 e U P 4 4 3 3 3 4 4 3 3 3 3 3 3 % 4 3 % 4 3 3 3 2 3 3 3 3 3 3 3 3 3 3 3 3 3 3 3 3 3 3 3 3 3 w I I w 3 3 3 3 3 3 3 3 3 3 4 3 3 3 4 3 4 3 3 3 3 3 3 3 3 3 4 3 e U I 4 4 0 4 3 3 3 3 % 3 4 4 3 3 3 3 3 3 3 3 3 3 3 3 3 3 3 3 3 3 3 3 3 3 % 3 3 3 4 4 3 3 w U I 4 3 3 3 3 4 3 3 3 3 3 3 4 4 3 3 3 3 3 3 3 3 3 3 4 3 3 4 3 3 3 3 3 3 4 3 3 q 3 3 3 3 3 3 4 3 4 3 3 3 3 3 4 3 3 3 3 3 3 4 3 4 3 4 3 3 3 3 3 3 3 3 3 3 4 3 4 3 3 4 4 3 4 3 4 3 3 4 3 3 4 3 3 4 4 3 3 4 % # # # # # # # # # * # * * # # # # $ # # # * # # * * # * # r w w w w w w w w w w w * # $ * # * # # , Y r * # # $ # * # # # * 0 * * # q 7.q # $ & # & # * # # # $ * # # * # # * # # * * # $ # # * # * $ # # # # # # * * # # # #   . * # * * # * # $ # # # # # # # # # $ # # * # * # # $ # # * # * # * # # # * # $ # # * # # , # # # # * # # # * $ * $ # # * # # * # $ # # # # * # * # $ # # # # # $ * # # # # # * # $ # # * # # * * # # # # * # # # # # * # # # $ # * # # $ # $ # * w w w w w w w q w w w r # * # * $ # # $ y R = # # # & # # * # # $ 0 $ & # E [ * # # # # * # * & # # $ # # # # # # # # * # # * # # # # # * # # # # # * * $ # # # # $ # # * # # * # $ # # $ $ # * # # * # * # # * # $ # # * # * # # # * # * # # # # * $ * # # # # # # # # $ # * * # # $ # # $ * # * # # # # * # # * # $ # $ * # $ # # # * # $ # # # # # & # & # X # # . # 3 3 3 3 3 3 3 3 % ^ 4X3X3X3X3X3X3X3X3X3X3X4Xt 3 3 3 3 3 3 3 U 3.i 3 3 3 3 3 3 3 3 3 4 i 3 3 3 1.h.w 3 4 3 3 3 3 3 3 3 3 3 3 3 3 3 3 3 3 3 3 3 3 3 3 3 2 # # X # $ 3 4 3 3 3 3 3 3 4 3 3 3 3 4 3 3 3 4 3 3 3 3 4 3 3 3 3 3 4 3 3 3 3 3 3 3 3 3 3 3 3 3 3 3 3 3 3 3 4 3 3 4 3 3 3 3 3 3 3 3 4 3 4 3 3 3 3 3 3 3 3 3 3 3 3 4 4 3 3 3 3 3 4 3 3 3 3 3 3 3 3 3 3 4 3 3 3 3 3 3 3 3 3 3 4 3 3 4 4 3 3 4 4 3 3 3 3 3 3 3 3 3 3 3 3 4 3 3 3 4 3 3 3 4 4 3 3 3 3 3 3 3 4 4 4 4 3 3 3 4 3 3 3 4 3 % 4 3 3 3 3 4 3 3 3 3 3 3 3 4 3 3 3 3 4 3 4 3 3 3 3 3 4 3 4 3 3 3 3 3 3 3 3 3 3 3 3 3 3 3 3 3 3 3 4 3 3 3 3 3 3 3 3 3 3 4 3 3 3 q 3 3 3 4 3 3 4 3 3 3 3 3 4 3 3 3 3 3 3 3 3 3 3 3 4 3 3 3 4 2 # # X # 2 4 3 3 3 3 3 w I I q 3 3 3 3 3 3 3 3 3 3 3 3 3 3 3 3 3 3 3 0 4 3 3 3 3 3 3 3 3 3 3 2 3 3 3 3 3 3 3 3 3 4 3 3 i U i 3 3 3 3 4 3 5 ",
"4 3 3 3 3 3 4 3 3 3 3 4 3 3 3 4 3 4 3 e I I 4 3 3 4 3 5 i y 4 4 3 4 i i w 0 4 4 e i P i e 0 0 e i i i i q 3 3 4 i i i i e 4 3 3 3 w i I w 3 3 3 3 3 4 3 4 3 3 3 4 3 3 3 3 3 3 3 4 3 3 3 4 3 3 3 3 e U i 5 % 4 0 3 4 i P P i w 4 3 3 q e e 0 3 3 e i w 3 3 3 q i i q 3 y P i P y 0 4 4 4 3 3 y U I 4 3 3 3 3 3 3 3 4 3 3 3 3 3 3 3 3 3 4 3 4 3 3 3 3 3 3 3 3 3 4 4 3 3 3 3 3 3 3 3 3 4 3 3 3 3 3 3 3 3 4 3 3 3 3 3 3 3 3 3 3 3 3 3 3 3 4 3 3 3 4 3 3 3 3 3 3 3 3 4 4 3 3 3 3 3 3 3 3 3 3 3 3 4 4 3 3 3 3 # o o # # # * # # $ # # # # * * # # $ # # # # * # # # # $ q w w w w w q w w w w r 0 # # # # # # * E `.2., # # * # # # # # * E e $ # # # $ # # # # $ $ # * # * # # # # # $ * # # $ # # # # * # # # # * # * # * # $ # # # #   # # # # # # # # $ # # # * * * $ # * * # # * # # # # # * # * # $ # # # # # $ # # # * # * # # # # $ * # * # # * # # # # # * # # * # * # # # * * # # # $ # # # * # * # # # # * # * # * # # # * # $ # # $ # # * $ # # * # * $ # * # # * # # # * # # # # 0 w w q r w w w w q w e q # # # # # # * 0 y.^.R * # & # $ # # # # H E * * # # # # * # $ & $ # # # & # $ # * $ * # * # * # # # * # * # $ # * # * # $ $ # # # # * # * # # $ # * # # * # # # * # # * # # * $ # * # # # * # # # * # # $ $ # # # # * * # # # # # * # $ * # $ # * # # $ # # * * # # # # # $ # # $ # * # # # # * # # # * # # $ # # # # * * # $ # & # & # X # . # 2 3 3 3 3 3 4 4 3 Q 4X3X4X4X4X4X4X4X4X4X3X*XD 3 3 3 3 3 3 w g.dXq.e 3 4 3 3 3 3 3 3 i q.i 3 3 3 3 3 3 3 3 3 3 3 3 3 3 3 3 3 3 3 3 4 3 3 4 3 3 4 3 3 3 2 X # # # 2 3 3 3 3 3 3 3 3 3 3 4 3 3 3 3 3 3 3 3 4 3 3 3 3 3 3 4 3 3 3 3 3 4 3 3 q 3 3 3 3 3 4 3 3 3 4 3 3 3 3 3 3 4 3 3 4 3 3 3 3 3 3 3 3 3 4 3 3 4 3 3 3 4 3 3 3 3 3 3 3 4 3 3 3 3 4 3 3 3 3 4 3 3 3 3 4 3 3 3 4 3 3 3 3 3 3 5 4 4 4 3 3 3 3 3 4 3 3 3 4 3 3 3 4 3 3 3 3 4 % 4 3 3 3 3 3 4 3 3 3 4 3 4 4 4 % 4 3 3 3 4 3 3 3 3 4 4 0 4 3 3 3 4 3 3 3 4 3 3 3 3 4 3 3 3 3 3 3 3 4 3 3 3 3 3 3 3 4 3 3 3 3 3 q 4 3 3 3 3 3 3 3 3 3 3 3 3 3 3 4 3 4 3 3 3 3 3 3 3 3 3 4 3 3 3 3 3 3 3 4 4 3 3 3 3 4 3 3 4 3 3 3 4 3 3 3 3 3 3 2 X # # X 2 4 3 3 3 3 3 w U I w 3 3 3 3 4 i P i i q 3 3 e y 3 3 3 w y 4 4 3 e e e 3 3 3 w i i i e 4 y i i i i q 3 3 3 4 i U i 3 3 3 4 3 3 4 ",
"3 3 4 3 3 4 3 3 3 3 3 3 3 3 3 3 3 3 3 w U i 5 3 3 3 0 I '.p.P 3 3 w T.~.2.3 4 P p.!._.^.3.e q 0..X_._.T.[ q 0 P `.`.!.R.9.r 3 3 4 4 U I w 4 3 3 4 3 3 3 3 3 4 3 3 3 3 4 3 4 3 3 3 3 3 3 3 3 3 3 3 e I I 4 3 3 3 4 P `.'.!.E.6.w 4 3 T i.y.e 3 3 6. X6.w 3 3 Y _.f.P 3 7..X!._.y.U 3 0 3 3 3 w U I 4 3 3 3 3 3 3 3 4 3 3 4 3 3 3 3 4 4 3 3 3 4 3 3 3 4 3 3 3 3 3 3 3 3 3 3 3 3 4 3 3 3 3 3 3 3 3 4 3 3 3 3 3 3 3 3 3 3 4 3 3 3 4 3 3 4 3 3 3 4 4 3 3 4 3 4 3 3 3 4 3 3 4 3 3 3 3 3 3 4 3 3 3 3 4 3 3 3 3 X # # # # # # * # * # # * # # # * # # * # # # # # # # # $ q w q 3 $ 0 $ 0 3 0 q w 3 # # $ # # # e 7.!.i.H # $ $ * * 3 * $ 0 d.E 3 # * 3 $ * * # $ $ * * $ # # * * 2 * $ # $ # # * # # * # * # # * * # # * # # # $ # # * #   o # # # # # $ # * * # # $ # # # * # # $ # # # * # # * # # # * # * # # * # * # * # # * $ # * $ # # # * # # $ $ # # $ # $ * # # # # * # # * # # # # * # # * * # # $ # # # # # # $ # # * * # $ # # # # * # # # # * $ # * # # * # # * # # $ # * # # $ # 0 r w 3 * 0 * 0 0 $ 0 w r $ # & & # & & Y i.W.7.% % # # * * 3 * & [ p.e * # * * * 3 & # # # * * $ $ $ * 0 % * # # * # * * # # $ # # * # * # # * # # * # # * # # # # # * # * # # * # # * # # # # # * # # # * # * * # # # $ # # * * # # # $ # # $ # $ * # * # # # $ # # * $ # * * # # $ # # $ * # # * * # # # * # # * # # * * # # # $ # # * $ * # * # # # # # $ # # . # # # 3 4 3 4 3 3 3 4 3 ^ *X3X*XXXoXoXoXoXoX*X4X*XJ 3 3 3 4 3 3 5.).uX).e 3 3 3 5 w w w 3 <.gX5.w 3 3 q 3 w 4 3 3 3 4 4 4 3 5 q w 5 q 3 3 3 3 3 3 3 3 3 3 4 3 # # o # & 3 3 3 3 4 3 3 3 3 4 3 3 3 3 4 3 3 3 3 4 3 3 3 3 3 3 3 3 4 3 3 3 3 3 3 3 3 3 3 4 3 3 3 3 3 3 4 3 3 3 4 3 3 3 3 3 3 3 3 3 4 3 3 3 3 3 3 3 3 3 3 3 4 3 4 3 4 3 4 3 3 4 3 4 3 3 3 4 3 3 3 4 3 3 4 3 3 3 3 4 q 3 3 3 3 3 4 3 3 3 3 4 3 3 3 3 4 3 3 3 3 3 3 3 3 3 3 3 3 4 % 4 3 3 3 3 3 4 3 3 4 3 3 3 3 3 3 3 4 3 0 4 4 3 4 3 3 3 3 3 3 3 4 4 4 4 3 3 3 3 3 3 3 4 3 3 4 4 4 3 3 3 3 3 3 3 3 3 4 3 3 3 3 3 4 3 3 3 3 3 q 3 3 3 3 3 3 4 4 3 3 3 4 3 3 3 4 3 3 3 3 3 4 3 3 3 3 3 4 3 3 3 3 3 3 4 3 3 3 3 3 3 3 3 3 3 4 3 0 2 X # X # 3 3 3 3 3 3 3 w I U w 3 3 3 3 y !.'.!.!.6.e q 7.u.0 3 3 8.y.q 3 3 3.i.6.0 0 0 3.T._.!.4.y t.}.!.Q.y.R 3 3 3 3 i I i 3 3 3 3 4 3 3 ",
"3 3 3 3 3 3 3 3 3 3 3 3 4 3 3 3 3 3 3 y T i 3 3 3 3 0 P `.!.<.3 4 i !.`.3.3 e T.w.E U 2.^.E e w.^.I U 8.i.6.0 P _.7.P P y 0 3 3 4 4 I I w 3 3 3 3 3 3 3 3 3 3 3 3 3 3 3 3 3 3 3 4 3 4 3 3 3 4 3 3 e I i 4 3 3 3 4 P _.7.P 7.^.y 4 % 2.'._.y 3 w 6..Xi.i 3 4 <.'.^.I 3 6.!.T Y T.t.4 3 3 3 3 w U I 4 3 3 3 3 3 3 3 3 3 3 3 3 3 4 3 3 3 3 3 3 3 3 3 3 3 3 4 3 3 3 3 3 3 3 3 3 3 3 3 3 4 3 3 3 3 3 3 3 3 4 3 3 4 3 3 4 3 3 3 3 3 3 3 3 3 3 3 4 4 4 3 3 3 3 3 3 3 3 3 3 3 3 4 3 3 4 3 3 3 3 4 3 3 3 3 3 3 2 # # . . # # # * # # # $ # # * # * # # * * * # * # * # * $ q w q * * * 3 $ * 0 w w $ # # # # # # Y y.3.^.R # $ % e 0.E.T.y.w. X(.T.[ y d.r 3.7.e # * Y 6.E * P t.^.i.[ $ # # $ & # # $ # # # * # # # # * # # # * * # # # # # # # . # # $ # # # # # $ # # # $ # # * # # * # * # $ # # # * # # # $ # # # # # # * # # # # # # * # * $ # # * # # * # # # # # $ # * # * # # $ # * * # # * # # $ * # # * # * * # # * # # # # # * # * # $ # * # # # # # # # $ # # * $ # * # # # # * # # % w w 3 * $ 3 * $ 0 q e q $ # & # & # * 0.8.t.d.0 $ # 3 T d.T.d.0.d. XW.p.P 3.0.0 t.T 3 # q 2.6.w 3 E d.E.w.H $ # # # # $ # # * * # $ # # # $ # # * # # # # $ * $ * # # # # # * # $ $ # # * # * # * # $ # # # # # # * # # * # # # # # * # * # # # # # # $ # * # # * # # # # # # * # # # # # # $ # # # # * # * # # # # $ # # # $ # * # * # # # # # $ * # * # # * # # # . # 3 3 3 3 3 3 4 4 % K 4X3X*XoXoXoXoXoXoX*X3X*Xt 3 3 3 3 3 6 r.).g.uXi 3 3 w 1.{.tXwX).{.zXpXgX4.9.6Xi /.e.i 3 e e.g.5.e 4.6XtX[.3.3 3 3 3 4 3 3 3 3 3 3 2 # # # # & 3 3 3 3 3 3 3 3 3 3 3 4 3 3 3 3 3 4 3 3 3 3 4 3 3 3 3 3 3 3 3 4 3 3 3 3 4 3 3 3 3 4 3 4 3 3 3 3 3 3 3 3 3 3 3 4 3 3 3 3 3 3 4 3 4 3 3 4 3 4 3 3 3 3 4 4 3 3 3 3 3 3 3 3 3 3 4 4 4 3 3 3 3 3 3 3 3 3 3 3 3 3 3 3 q 3 3 3 3 3 3 3 3 3 3 3 3 3 3 4 4 3 3 4 4 3 4 3 3 3 4 3 3 3 % 4 3 3 3 3 3 3 3 3 4 3 3 4 3 3 3 4 % 3 3 3 3 4 3 3 3 3 % 4 4 4 3 4 4 3 4 3 3 3 3 3 4 4 3 3 3 4 3 3 4 3 3 4 3 3 5 3 3 3 3 3 3 4 3 3 3 3 3 3 3 3 3 3 3 3 3 3 3 3 3 3 3 3 4 3 3 3 3 3 3 3 3 3 3 3 3 3 3 4 3 3 3 3 3 4 3 4 3 3 3 3 3 3 3 2 # X # X 2 4 3 4 3 3 3 w I i 5 3 3 3 4 y R.t.P 2.~.Y w 0.T.4 3 3 y.i.q 3 0 y..Xp.4 3 T t.9.R Y i y t.R.I I y w 3 3 4 4 i I i 3 3 3 3 3 3 4 ",
"4 3 3 3 3 3 4 3 4 3 3 3 4 3 4 3 3 3 3 e U U 5 3 3 3 w I ^.'.6.% w 2.i.!.6.0 T !.E 3 3 e t.w.Y 0.d.3 3 e i.i.w P ^.T & 2 3 3 3 3 3 w I I w 3 3 3 3 3 3 4 3 4 3 3 3 3 3 3 3 3 3 3 3 4 3 3 3 4 3 4 3 e I I 0 4 3 3 4 P ^.T % E !.Y 4 w 6.`.^.T w 4 2._.~.I % i 6.^.E.I 0 6.E.w 3 y.y.y 4 3 3 3 w U I w 3 3 4 3 3 3 3 3 4 4 3 3 3 3 3 4 3 3 3 3 3 3 4 3 3 3 3 3 3 3 3 3 3 3 3 3 3 3 3 4 3 3 4 3 3 3 3 3 3 3 3 4 3 3 3 3 4 3 3 3 3 3 3 4 3 4 3 3 4 4 4 3 3 3 3 3 4 0 3 3 3 3 3 3 3 3 3 3 3 3 3 3 3 3 3 3 3 3 # X . # # # # # $ # * # # $ * # # # # # # $ # # * # # $ $ w e 0 * 0 3 * $ 3 3 q r 3 # # & & $ $ 2.i.P i.<.0 # w y.0.3.[ E E `.t.[ y P  Xe 3.y.T $ & 0.w.L e y.0.2.w.w.P # # # $ * $ & # $ * # # $ # $ # # * * # # # # * # # . . # # # $ # * * # * # * * # # * * # # # # # # $ # * * # # # * # # * # * # * $ # # # * # * # # # $ # # # # # # * # * # # * # $ # # $ # # # # * # # $ # # # # * # * # # $ # * * # # $ # # * # $ $ # # # * $ * # # * # * * # # * # # * # # # # # # # 0 w w * 3 $ 0 $ * 3 q w w $ $ $ # # # , i.1.E i.P $ # E p.7.[ [ Y w.`.2.T 0 t.T.0 y.9.y # e p.3.w E y.6.2.i.[ H # * # $ # # * # # * # * # * # $ # * # # * # # # # # # $ * # $ # # # * # * # # $ # # $ # * # $ # # * $ # * # $ # # * * # # # * # * # # * # # * $ * # # * # * $ # # # * * * # # # $ # * # # * # # # * $ # $ # * # # # # # # * * # # # # * * # # $ #   # # # % 4 3 3 3 3 3 4 % K *X3XoXoXoXoXoXoXoX*X3X*XD 3 3 3 3 3 0 )./.1.wX4.e 2 1.6Xg.r.r.9.h.jXg.q.I s.dXi /.).<.6 i {.g.U 1.6Xg.r.[.Q.( 4 3 3 3 4 3 3 3 3 4 * # # o X & 4 3 3 4 3 3 4 3 3 3 3 3 3 3 3 4 3 3 3 3 3 3 4 3 4 3 3 3 3 3 3 3 4 3 4 3 3 3 3 4 3 3 4 3 4 3 3 3 3 3 3 3 3 4 3 3 4 3 4 3 3 3 3 4 3 3 3 3 3 3 3 3 3 3 4 4 3 3 3 3 3 3 3 3 3 4 4 4 4 3 4 4 3 4 3 3 3 3 3 4 3 3 3 3 3 3 3 3 3 4 4 3 3 4 4 3 3 4 3 4 3 3 4 4 4 4 3 3 3 3 4 0 3 4 4 4 4 3 3 3 3 3 3 4 3 4 3 3 4 3 3 3 3 3 3 3 3 3 4 3 3 3 3 4 4 3 3 3 4 3 3 3 3 3 4 3 3 4 3 3 3 3 3 4 3 4 3 3 4 3 4 4 4 4 3 3 3 3 3 3 3 3 3 3 3 4 3 4 3 3 3 3 3 3 4 3 3 3 3 3 3 3 3 3 3 4 3 4 3 3 3 3 3 3 3 3 3 4 3 3 3 4 3 3 3 4 3 3 3 2 X # X # 2 4 3 3 3 3 3 w I I w 3 3 3 3 y T.4.$ P !.[ e 0.i.3 % 2 w.i.w 3 e i.'.i.P 0 <.y.3.* 3 4 e 0.p.* % 3 3 3 3 3 4 i I i 3 3 4 3 3 3 3 ",
"3 3 3 3 4 3 3 3 3 3 3 4 3 3 3 3 3 3 3 y U i 3 3 3 3 % P ^.~.7.w e y.0.T.6.w 6.i.I 3 3 w <.T.[ 7.d.3 3 3 0.T.P P _.p.3.2.P 4 3 3 3 4 I I w 3 3 3 3 3 3 3 3 3 3 4 3 3 4 3 4 3 3 3 3 3 3 3 3 3 3 3 3 e I I 4 4 3 3 4 I !.E % <.^.R w U 0.i.y.7.y 4 <._.^.T 3 E i.w.E.R 0 3.E.4 4 i.r.w 3 3 3 3 w U I 4 3 3 3 3 3 3 4 3 3 4 3 4 3 3 3 3 3 3 3 3 4 3 3 3 3 3 3 3 4 3 3 q 3 3 3 4 3 3 3 3 3 4 3 3 3 4 3 3 3 3 3 3 3 4 3 3 3 3 3 4 3 3 3 3 3 3 3 3 % 4 3 3 3 4 3 3 4 % 3 3 4 3 3 3 4 3 4 3 3 4 3 3 4 3 3 3 3 3 X # # # # # # $ # # * # * # # # # $ * # # # # * $ # # * $ w w q $ 3 $ * 3 % 3 r e * * $ & # $ w 6.w.% 1.7.P $ R !.T $ $ $ 0 _.T # # P '.e P 0.9.$ = d.7.0 Y !.P # P w.8., # $ # # # # * # # # * # * # # $ # # # # * $ # #   # # # # # # $ # # # # # # # * # # # * $ # * # * # # # # $ # # # * # # $ # $ # # * # # # $ # * # # # # * * # # * # # * # $ # # # # * # # * * # # # $ # # * * # # # * # $ # # # # # $ # * # # # * # # * # # # * # # * # # # # # # # * # # $ * # # # , * w w 0 $ 3 * $ 3 $ q w 0 $ # # $ # $ P y.Y w 7.3.0 0 0.d.w # $ # 2.!.0 # $ e.d.3 [ p.Y # Y !.P q e.i.0 # 2.a.E # # # * * # # # # # # # # # * # $ # # * $ # * # # * # * # * # # * # # $ # # * # * # # # # # * # # $ # # # # # * $ # # # # * # # * # $ # * # # # # $ # # # * # # # $ # # * # * # # * # $ # # # $ # * # # # # * # * # $ * # # $ # * # # $ # # # * # #     # 3 3 4 3 3 3 3 3 4 K *X4X*XoXoXoXoXoXoXoX3X*Xt 2 3 3 4 0 ( ).h.y h.g.U w r.uX5.3 4 2 5.dXU 3 2 s.sXy 4.{.r.3 i uXe.i h.tXi 2 q.).u.3 3 4 3 3 3 4 3 3 4 2 X # # # & 3 3 3 3 3 3 3 3 3 3 3 4 4 3 3 3 3 3 3 4 3 3 3 3 3 3 4 3 3 3 3 4 3 3 3 3 4 3 3 3 3 3 3 3 3 3 4 3 3 3 3 4 3 3 3 4 3 3 3 3 3 4 3 3 3 3 3 3 3 3 3 3 3 4 4 4 3 3 3 3 3 3 4 3 3 3 4 4 3 3 4 4 4 % 3 4 3 3 3 3 3 3 3 3 3 4 3 3 3 3 3 3 3 3 3 3 3 3 3 3 3 3 4 4 0 % 3 3 3 3 3 3 3 3 4 4 4 4 3 3 3 4 3 3 3 3 3 3 3 3 3 3 3 4 3 3 3 3 3 3 3 4 3 3 3 3 3 3 3 3 3 3 4 3 3 3 3 4 3 4 3 3 3 3 3 3 3 3 3 3 3 4 4 3 3 4 3 3 4 3 3 3 3 3 3 3 3 3 3 3 3 3 q 3 3 3 3 3 3 3 4 3 3 3 3 3 3 3 3 4 3 4 3 3 3 3 3 3 3 3 3 3 4 3 3 3 3 3 3 2 X # # # 2 4 3 3 3 3 3 w I I q 3 3 3 3 y T.4.2 I _.E w 0.`.6.6.3.!.f.q q <.t.i.y.2.w P i.d.( e 4 q t._.4.3.Y w 3 3 3 4 i U i 3 3 3 3 3 4 3 ",
"3 4 3 3 3 3 4 3 3 3 3 3 3 3 3 4 3 3 3 e U P 4 3 3 3 0 P E.y.7.T P E.3.y.6.e 7.p.P 3 3 q Y ^.2.7.d.0 3 3 7.i.Y P '._.T.y.[ q 3 3 3 5 U I e 3 3 3 4 3 3 3 3 3 3 3 3 4 3 3 3 3 3 4 3 3 3 4 3 3 3 3 3 e U i 4 4 3 3 0 P _.9.T w.d.e 3 7.y.[ 3.i.Y 0 2.!.0.6.P 2.T.2.d.Y 3 6._.E <.T.7.3 3 3 3 3 e I i w 3 3 3 3 4 3 3 3 4 4 4 3 3 3 3 3 3 q 3 3 3 3 3 3 3 4 3 4 3 3 3 3 4 3 3 3 3 3 4 3 3 3 3 3 4 3 3 3 3 3 4 3 3 3 3 3 4 3 3 4 3 3 3 4 3 3 4 3 3 3 3 4 4 4 3 3 3 4 3 4 3 3 3 3 3 3 % 4 3 3 3 4 3 3 3 3 3 3 # #     # * # # * $ * # # # * $ # # # * * # * # $ * # # $ q w q % 0 * 0 $ * 3 w w $ $ # # & # E y.w.R 3.d.[ q [ d.e # # # q _.E & # P `.P $ 8.p.3 y T.<.0 3.!.E P E t.i.* $ # $ # * # # # # * # # # * # # * # # * # * $ # # # . # # # # # * # * # # # $ # * * # # # # * # # * * # # # # * * # $ # # # # # * # * # # $ * # # * * $ # # * * * # # # * # # * # $ # # # # # * # $ # # # $ # * # * # $ # * * # $ * # # # # # $ # * * # # $ # # # * # # # * $ * # # * # # # # $ # # $ , r w 0 * * 0 * * 3 0 w q & # # & # 0 6.y.2.T 0.i.w P w.0.$ # # # [ !.q $ * t.d.* e T.[ * [ ^.q i y.y.P P 3.d.3.# # # # # * # * * $ # * # # $ # * # # * # # # * * # # # # $ * # # * # # # $ # * # # # * # * # $ # # # # # * * # # $ # * * * # # # * # # * # # * # # $ # # # * * # $ * # # # # $ * # # # * # * # # $ # * * # # $ # * # # * # # $ # * # # # $ # * # # # # # 3 3 3 3 3 3 3 3 3 Q *X3XoXoXoXoXoXoXoX*X3X*XH 3 3 3 3 4 h.{.h.4.g.eX5.i g.6Xw 3 3 2 1.dX5.3 3 r.sXy i 6Xg.e 4.uX5.U /.tX1.1.r.6X/.3 3 3 4 3 3 3 3 3 3 2 # o # # & 3 3 3 3 4 3 3 3 3 3 3 4 3 3 3 3 3 3 4 3 3 3 3 3 3 3 3 3 3 4 3 4 % 4 3 4 3 3 4 3 3 3 3 4 3 3 3 3 3 4 3 3 3 3 3 3 4 4 4 3 3 3 3 3 4 3 3 3 3 3 4 3 3 3 3 3 4 3 4 4 0 3 3 3 3 3 3 3 3 3 4 3 3 3 3 3 3 3 4 3 3 3 3 3 3 3 3 3 3 3 3 3 3 4 3 3 3 3 3 3 4 3 3 3 3 4 3 3 3 3 3 3 3 3 3 3 3 3 4 3 3 3 3 4 3 3 4 3 3 3 3 3 3 3 3 3 3 4 3 4 3 3 3 3 3 3 3 3 4 3 4 3 3 3 3 4 3 3 3 3 3 3 3 3 4 3 4 3 3 3 3 3 3 3 3 3 3 3 3 3 3 4 3 3 3 4 3 3 3 3 3 3 3 3 3 3 3 4 3 3 3 4 4 3 3 3 3 3 3 3 q 3 3 3 4 3 3 3 3 4 3 3 3 3 3 3 4 3 4 2 # X # X 2 4 4 3 3 3 3 w I I q 4 3 3 3 y R.t.T 6.^.P 4 y..XT.T.d.'.T.4 w y.0.<.7.i.w 3 6.R.d.3.t w y..XT.T.6.y 3 3 3 3 i U i 3 3 3 3 3 3 3 ",
"3 3 3 3 3 3 3 3 3 4 3 3 3 3 3 3 3 3 3 i U P 4 3 3 3 0 P ^.6.8.0.R T.2.t.6.e 6.i.P 2 3 q T W.2.8.T.3 3 3 7.p.I P !.<.3 4 3 3 3 3 3 w I I w 3 3 4 3 3 4 3 4 3 3 3 3 3 4 3 4 3 3 3 4 3 3 3 3 3 3 3 3 e ( i 4 3 3 3 0 P '.'. X_.T 0 3 i.T.I E '.[ 4 2.E.E p.[ 3.i.E T.I 3 7..X_.^.6.i 3 3 3 3 3 w I I 4 3 3 3 3 3 3 3 3 4 4 3 3 3 4 3 3 3 3 4 3 3 3 3 3 3 3 3 3 3 3 3 3 3 3 3 4 3 3 3 3 3 3 3 3 3 3 q 3 3 3 3 3 3 3 3 3 3 3 3 3 3 3 3 3 3 3 3 3 3 4 3 4 4 4 4 3 3 3 3 3 3 4 3 4 4 3 0 4 3 3 3 3 4 3 3 3 3 3 #   # # # # $ * # # # # * # # # * # $ # # # # $ # # # # $ q w q $ 0 $ 0 $ 0 0 w w 3 # # & # # 6.~.`.~._.}.6.r 3.d.e # # # q ~.E * $ P ].e # 2.i.R 2.w.R 0 6. X~.!.!.~.y., # $ # # # $ * * $ # # * # * # $ # # * # # # # # X # # # # # # $ # # # * * # # # # # # # * # # $ # # # * # * * # # # # * # * # $ # # # * # # # * # # # # # * # # # # $ # * # * * # # * # * * # * # # * # , # # # # $ # # # # # * # # # # , # # # # # # * * # # $ # * # * # # # $ # # # # * * # # * # * $ r w $ 3 $ 0 * $ 3 q w q & $ * # # q T.`.`.!.`.`.t R t.9.$ & & # 2.^.0 # $ w.d.# 3 d.6.Y 7.0.0 I d.}.!.!._.^.[ # # * # # # # $ # # # # * # # * # $ # # * # # # # # * # # # # $ # # * # * # # # # * # * # # * # * # # , # # # $ * # $ # # # # $ $ # # * # $ # # * # # * # * # # * # # # # * * # # $ * # # $ # $ # # $ # # # # * # # * # # # # * # # * # # * $ # # .   # X 3 3 3 3 3 3 4 3 2 J 4X3X*XoXoXoXoXoXoX*X3X*XH 2 3 3 3 w {.dXdXsXdXjXq.5.Q.[.5 3 3 3 1.dXT 3 3 s.sXw 3 /.).1.f.).U U ).zXsXpXdXuXg.4 3 3 3 3 3 3 4 3 3 3 # # # X $ 4 3 3 3 3 3 3 4 3 3 3 3 3 3 4 3 3 3 3 3 4 3 3 3 3 3 3 4 3 3 3 3 0 4 3 3 3 3 3 3 3 4 3 3 3 3 4 3 3 3 3 3 4 3 3 3 4 4 3 3 3 3 4 3 3 3 3 3 0 4 3 3 3 4 3 4 3 3 % 4 3 3 3 4 3 4 3 3 4 3 4 3 3 4 3 3 4 3 3 3 3 3 3 3 3 4 3 3 4 3 3 3 3 3 3 3 3 3 4 3 3 3 3 3 3 3 4 3 4 3 3 4 3 4 3 3 4 3 3 3 3 4 3 3 3 3 3 3 3 4 3 4 3 3 4 3 3 3 3 3 3 3 3 4 3 3 3 3 3 3 3 3 3 4 3 3 3 3 3 4 4 3 3 3 3 3 4 3 3 4 3 4 3 3 3 4 4 3 3 4 3 3 4 3 3 3 3 3 4 3 3 3 3 3 4 3 3 3 3 3 3 3 3 3 4 3 4 3 3 3 3 3 3 3 3 3 3 4 3 3 3 3 3 3 4 3 3 3 0 2 X # X # 2 4 3 3 3 3 3 e I I q 3 4 3 3 y !.}.R.T.( q q q.d.q 0 3 y.i.q e _.8.P 6.`.t 3 q R w.`.6.P w.p.0 0 3 3 3 3 3 4 i U i 3 3 3 3 3 3 3 ",
"3 3 3 4 3 3 3 3 3 3 4 3 3 3 3 3 3 3 3 w U P 4 3 3 3 0 I ^.U 8.E.3.7.[ y.6.w 2.E.Y 3 3 e 3.i.E 9.d.3 3 3 y.T.r P W.[ 2 3 3 3 3 3 3 3 I I e 5 3 3 3 4 3 3 3 3 3 3 3 4 3 3 3 3 3 3 % 3 3 3 3 3 3 4 6 e i i 4 4 4 4 0 P !.2.3.i.[ w y ^..X'.'..X8.e 2.T.y T.y.6.6.<.i.R 3 6.!.P e w 4 3 3 3 3 3 e I I 5 3 3 3 3 3 3 4 3 3 3 3 3 3 3 3 3 3 3 4 3 4 3 3 3 3 3 3 3 3 4 4 3 3 3 3 3 3 4 3 3 3 3 3 4 3 3 3 3 3 3 3 3 3 3 3 4 3 3 3 3 3 4 4 3 3 3 3 3 3 3 3 3 3 4 3 3 3 3 3 3 3 3 3 4 3 3 3 3 3 4 3 4 3 3 3 3 3 2 # # # # # # # # # # * # * # # # # $ * # # # * # # * # # $ q w q * % 0 $ * % 0 w w 0 # # $ $ , t.y.t P y t.0.Y 1.T.e # # # q ~.T $ # P '.y . R 0.6.d.3.q 0 2.E.P 0 0 0 0 $ # * # # * # # # # * # # * # # * # * # # $ * # # X # . # # # * * # # # # $ * # * # # $ # $ * # # * # # # # $ # $ # * # * # # * # * # # # * # * $ # # # # # # # # # # * # # * # # # # # # * # # # # # # # # # * # # # * # * # # # # # * * # $ # # * # # # # # * # * # # * # # # # # # $ * $ # # # * # # $ e w 0 0 % $ 3 3 $ q w q * # # $ * R W.[ t e T i.2.Y w.0.# # & # 2.W.q & & t.d.# * 6.7.w.y.E * P y.t.q q w w % # # # * # * # # # * $ * * # # * # # * # # * * # # $ # * # # # # $ # # # # # # * # * # # $ * # # # # $ # $ # # # # * # # # # # * * # * # # $ * # # # # * $ # # $ # # # * # $ # # # # * # # # # # * * # # * * # # * $ # # * $ # # $ # # # # # # # # #   # o 3 3 3 3 3 3 3 3 3 K *X3X*XoXoXoXoXoXoX*X4X*XH % 3 3 3 I wXg.T 5.1.{.f.4.g.gXe 3 4 3 1.dX( 3 3 s.sXw 3 r./.g.{.e.e U Q.gXI i i i e 3 3 3 3 3 3 3 3 3 3 $ # . # # $ 4 3 4 3 3 3 3 3 3 4 3 3 3 3 3 3 3 3 3 4 3 3 3 3 3 4 3 3 4 3 4 4 3 3 4 3 3 3 3 3 3 3 3 3 3 4 3 3 4 4 4 % 3 3 3 3 4 4 3 3 3 3 3 3 4 3 4 3 3 4 3 3 3 3 3 3 4 3 3 3 3 3 3 3 4 3 3 4 3 3 3 3 3 3 3 4 3 3 3 3 3 4 3 4 3 3 4 3 3 3 4 3 3 3 3 3 3 4 3 3 3 3 4 3 3 3 3 4 3 3 3 3 4 3 4 3 3 3 3 3 3 3 4 3 4 4 3 3 3 3 4 3 4 3 3 3 3 3 3 3 3 4 4 3 4 3 4 4 4 4 3 3 3 3 3 3 3 4 3 4 3 3 4 3 3 3 4 4 3 3 3 3 3 4 3 4 3 3 3 3 4 3 3 3 3 3 3 3 3 3 3 3 3 3 3 3 4 3 4 3 3 3 3 4 3 3 3 3 3 3 3 3 3 4 3 4 3 3 3 3 3 3 3 3 3 3 3 3 0 2 # X X # 3 3 3 0 4 3 3 q I U w 3 3 3 4 y T.0.u e q 4 q 0.d.0 3 3 w.i.e T .X.X`..X.XE 0 3 0 y 7.i.T 0.p.3 4 3 3 3 3 3 3 i U y 3 3 3 3 3 3 3 ",
"3 3 3 3 4 3 3 3 4 3 3 3 3 3 4 3 3 3 3 y U I 0 3 3 3 0 P ^.Y 1._.E.Y Y p.6.3 P _.6.w % P ^.6.P 8.d.3 3 T d.0.3 P !.[ 2 3 3 3 3 3 3 w I I q 3 3 3 3 3 3 3 3 3 4 3 3 3 3 3 3 3 4 3 w 4 4 3 4 3 3 3 3 e ( U 4 4 4 4 0 P !.E e 8.T.e 2.i.y.[ 2.i.y.T <.T.e y._.t.P [ d.Y 0 3.^.4 3 3 3 3 3 3 3 3 e U I 0 3 4 3 3 3 4 3 3 3 4 3 3 3 3 3 3 3 3 3 3 3 3 3 3 3 q 3 3 3 3 3 3 3 3 4 3 3 3 3 3 4 3 3 3 3 3 3 3 3 3 3 3 4 3 3 3 3 4 3 3 3 3 3 3 3 4 3 3 3 3 4 3 3 3 3 3 4 3 3 4 3 3 3 3 3 3 3 3 3 3 3 3 3 3 3 3 3 3   # # # # # # * $ * # # # # * * # # # # * * # # # # * # $ q w w q w q w r w q w w $ # # # * Y y.2.# # * T w.3.R _.E & & 3 q !.2.* # P '.y # w 2.d.`.Y * * Y !.Y $ # $ 3 * # # # $ # * # # * # # $ # # * # # # # # * # # # X # # # # $ # # # * * # # # # * # * # # # * # # # * * # $ # # # * # # # $ # # # # * $ # # # # # # * * # * $ # * * # # $ # # # # $ * # * # # $ # $ * # # # $ # $ * # # # * # * # $ $ # # # * # # * # * # $ # * # # # $ # # * $ # * * # # # # * $ # # # * w w w q q q q q w q e q $ # $ # r [ y.e $ $ 0 3.y.I 0.T.e # = * [ R.P # & w.T.# $ P 0.!.d.q $ * 0.i.w # $ % 3 * # # # $ # * # # # # # # $ # # # * # $ # # $ # # * # # , # # # # * * # # * $ # $ # # $ # # # * * # # # # * * # # # # * * * # # # # # # * # # # * $ # # # # * # # * # # * # # * * # # # # , # # # # # * # # # $ # # * # # # * # * # * # # * # * # # # # # 3 3 3 3 3 3 3 3 6 Q *X4X4X*X*X4X4X*X*X4X3X*XH 4 3 5 y e.[.4.2 6 e e.).q.r.pX5.3 5 4 1.sX4.q 3 r.sXw 5 T g.uXpXT 5 4 h.tX( 3 2 w e 3 3 4 3 3 3 3 4 3 3 * # o # # 2 3 3 3 3 3 3 4 3 3 3 3 4 3 3 3 3 3 4 3 3 3 3 4 3 3 3 3 3 3 3 4 4 4 3 3 3 3 4 3 3 3 3 4 3 3 3 3 4 4 4 4 4 4 3 3 3 4 4 3 4 3 3 3 3 3 3 3 3 4 % 3 4 3 3 3 3 3 3 4 3 3 3 3 3 3 3 3 3 4 3 3 3 4 3 3 3 3 4 3 3 3 3 3 3 3 3 3 3 3 4 3 3 3 4 4 3 3 3 3 3 4 3 3 3 3 4 3 3 3 3 3 3 3 3 3 3 4 3 3 3 4 3 4 4 4 4 3 3 3 3 3 3 3 3 3 3 4 3 4 3 3 3 3 3 3 3 4 4 4 % 4 3 3 3 3 4 3 3 3 3 3 3 3 3 3 4 4 4 3 3 3 4 3 3 3 3 3 3 3 3 3 3 3 3 3 3 3 4 4 3 3 3 3 4 3 3 3 3 3 3 3 3 3 3 3 3 3 3 3 3 3 3 3 3 3 3 3 3 3 4 3 3 3 4 4 3 3 4 0 2 X # # X 2 3 3 3 3 3 3 e I i 5 3 3 3 4 i T.6.2 3 4 4 q 0.T.0 0 2 t.i.i 7.i.6.T 6.i.0.P 3 3 e 2.i.T w.p.3 3 3 3 3 3 3 3 i U i 3 3 3 3 3 3 4 ",
"4 3 3 3 3 3 3 3 3 3 3 3 3 3 3 4 3 3 3 e I i 3 3 4 3 4 P E.T R d.!.e U p.7.3 w 9.p.y.w.y.i.I w w.'.0.t.d.9.I 0 P '.T.0.9.[ 4 3 3 3 4 I U w 3 3 3 3 3 3 3 3 3 4 3 4 3 3 3 3 3 4 3 3 4 3 3 3 3 3 3 3 e U i 5 3 3 3 3 P !.[ % [ ^.3.E.0.P % 3 Y E.7.2.E.e 2._.t.w [ T.Y 3 6.!.q 3 3 4 3 4 3 3 3 e I I 4 4 3 4 3 3 3 3 3 3 3 3 3 3 3 3 3 4 3 3 3 3 4 3 3 3 3 4 3 3 3 3 3 4 3 3 3 3 3 4 3 3 3 3 3 3 4 4 3 3 3 3 3 4 3 3 3 3 3 3 3 4 3 3 3 3 3 4 3 3 4 3 3 4 3 3 3 4 3 3 3 3 3 3 3 3 4 3 3 3 3 4 3 3 3 3 3 3 3 X # X # # # & # & # & * # # $ # # # * # # # # # # * # * $ w r e e e e r w w e w q , # * # * 0.0.L # $ # , t.p.r q.y.w.0.[ 0 0.p.0.Y P  XH # $ T _.!.y # $ r 9.e.0.0.6.P 2 $ # & # & * # # # # # * # # # $ # # * * # # # # # # X # # # # # & * # # * # # * # # # $ # * # # # # # # * # * # * # $ # * # $ * # # * # # # # * # $ # # * # # # # $ * # # # * # $ # # # # # * # * # # # # # * # # * # # * # # # * # # * # # * # # $ # # * # # # # * # # * # # # * # * # * # # # * $ & 3 w w e e w e e r w e w q # # $ # L i.2.0 # # * R !.T Y p.t.0.0.y L p.y.6.e t.T.# # = t.'.t.* # # T t.a.8.8.<.w # * # * # # # * # # * # # * # # # * # $ # # # * # $ # # $ # # # # $ * # * $ * # # * # * # * # * # # $ # $ # # * # * $ # # # # * # # * $ # # * # * $ # # # # * # # * # # * * # $ # # # $ # * # # # # # # $ # # # # $ * # # * # * # * # * # & # & # X # X # % 3 3 4 3 3 3 4 3 ^ 3X3X3X3X3X3X3X3X3X3X3X3XK 3 3 3 i 6Xg.I 3 5 4 T wXf.5.[.[././.4.U {.|.Q.( r.dXw 3 4 f.fXwXi 2 3 <.).).).Q.h.5.3 3 3 4 3 3 3 4 3 4 2 # X # # & 3 3 3 3 3 3 3 4 3 3 3 3 3 3 3 3 3 3 3 4 3 3 3 3 3 4 3 3 3 3 3 4 3 3 3 3 3 3 3 3 3 4 3 3 3 3 4 3 3 3 3 3 3 3 3 3 3 3 3 3 4 3 4 3 3 3 3 3 3 3 3 3 3 4 4 3 3 3 3 3 3 4 3 4 3 3 3 4 4 3 3 4 3 3 3 3 3 4 3 3 3 3 3 3 3 3 3 3 3 3 3 3 3 4 0 3 3 3 3 3 4 3 3 4 3 3 3 3 3 4 3 3 3 4 3 3 4 3 3 4 3 3 3 3 4 4 4 3 3 4 3 3 4 3 3 3 4 3 3 3 3 4 3 3 3 4 3 3 3 3 3 3 3 3 3 3 3 3 3 3 4 3 3 4 3 3 3 3 3 3 3 3 4 3 3 3 3 3 3 3 4 3 3 3 4 3 4 3 3 3 3 4 4 3 3 3 4 3 3 3 3 4 3 3 3 3 3 3 3 3 3 3 3 3 3 3 3 4 3 3 3 3 3 4 3 3 3 3 4 2 # # . # 3 3 3 3 3 3 3 w U i 3 3 3 3 3 i W.6.3 3 3 3 w w.d.0 3 3 w.i.I !.3.w % w 1.Q.6.6.t.w.p.3.i y. X0.w.3.i 3 3 3 3 i I i 3 3 3 3 4 3 3 ",
"3 3 q 3 3 3 3 3 3 4 3 4 3 3 3 3 3 3 3 w U I 3 3 3 3 4 y 8.P e <.7.w y 3.E 3 4 w 6.i.i.t.Y w 4 1.T.p.d.0.I 3 4 y p.d.p.w.<.r 3 3 3 w I I w 3 3 3 3 3 3 3 3 3 3 3 3 3 3 3 3 3 3 3 3 3 3 3 3 4 0 3 3 e U U w 4 3 3 3 i 0.U 3 y 3.2.y.E 0 3 0 w 8.2.U 7.w P 7.[ 0 I 6.i 0 T q.4 3 3 3 3 3 3 3 3 w I U 4 4 3 3 3 3 4 4 3 4 3 3 4 3 4 3 3 3 3 4 3 3 3 3 3 3 3 3 3 3 4 3 3 3 3 4 3 3 3 3 3 3 4 4 3 3 3 3 3 4 3 3 3 3 3 3 4 4 3 4 3 3 3 3 3 3 3 3 3 3 3 3 3 3 3 3 4 3 3 3 4 3 3 4 3 3 3 3 3 4 3 3 3 3 3 3 3 0 2 # # # X # & # & # & # # * # # * # * $ # # * # * # # # $ $ 0 0 0 0 0 0 0 q q 0 q 0 * # # & & 6.[ 3 $ # $ # [ 6.3 e 7.p.p.<.3 R 0.p.( e w., # # w 0.1.0 # # & e 6.y.p.8.L * $ & # & # # # * # * # $ # * # * # # # $ # # * # X X # # # # # & # # # $ # * $ # $ * # # * # # $ * # * $ # # # # # * # # # # # # # $ # # * # * * # # # * # * # * # # # # * $ # # # * # * $ # # # # * * * $ # # * # $ # # $ # * $ # # $ # * # # * # # * # # * # * # # $ # * # * # $ # # # # $ * # # & # $ q 0 , 0 q 0 0 0 0 0 q , # # & # e 6.P * # # & 0 0.P 0 Y a.s.a.P 4 [ y.q.t [ 6.# # # [ 9.E * # # = R a.i.y.2.w # # # $ * # # # # $ * # # $ # * $ # # * # * # # * # # * * # * # * # # # # # # $ # # # # # # # # $ * # # # # * # # # # # $ # # # * # # # # * # # # # , # * # # $ # # * # # # # # * # * # # # $ * # * $ * * # * # * # # # # # # $ # $ # # & # & $ # # X # # 3 3 3 3 3 3 3 3 3 J =.D.D.D.D.D.D.J.D.D.D.=.u 3 3 2 i g.1.e 3 3 4 4 g.q.u <./.{.[.9.q 4.).).<.1./.w 3 3 1.).e.q 3 3 q 5.Q.{.{.h.U 3 3 3 3 3 3 3 3 3 4 3 X X # # & 3 3 3 3 4 3 3 3 3 3 3 3 3 4 3 3 4 3 3 3 3 3 3 3 3 3 3 4 3 3 3 3 4 3 3 4 3 3 4 3 3 3 3 3 3 3 3 3 3 4 4 3 4 3 3 3 3 3 3 4 3 3 3 3 3 4 3 4 3 3 4 3 3 3 3 3 3 4 3 3 3 3 3 3 3 3 4 4 3 3 3 3 3 3 3 4 3 3 3 3 3 4 3 4 3 3 4 3 3 3 3 3 3 3 4 3 3 3 3 3 3 3 3 3 3 3 4 3 3 3 3 3 3 3 3 3 3 3 3 3 4 3 4 3 4 4 3 3 3 3 3 3 3 3 3 4 3 3 3 3 3 3 4 3 3 3 3 3 3 3 4 3 4 3 3 3 4 3 3 4 3 3 3 3 3 3 3 4 3 4 3 3 3 3 3 3 4 3 4 3 3 3 3 3 3 3 3 3 3 3 3 3 3 3 3 3 3 3 3 4 3 3 3 3 3 3 3 3 3 3 3 3 3 3 3 4 3 3 3 3 3 4 3 3 3 3 4 3 3 2 # # # # % 3 3 3 3 3 3 w U I w 3 3 3 3 w 8.[ 3 3 4 3 4 <.6.q 3 3 2.3.P t.i 4 3 3 P y.2.q.i.i.0.e 4 3.E.p.y.6.i 3 3 3 3 i I i 3 3 3 3 3 3 3 ",
"3 3 3 3 3 3 3 3 3 3 3 3 4 3 3 3 3 3 3 i U P w 5 3 3 3 3 3 3 3 3 0 3 3 3 3 3 3 3 3 3 3 3 0 3 3 3 3 = 3 3 3 3 3 3 3 3 3 3 3 3 3 3 3 4 U U w 3 3 3 3 3 3 3 4 3 3 3 3 3 3 4 3 4 3 3 3 3 4 3 4 3 3 3 3 e I i 4 3 3 3 3 3 3 3 0 3 3 3 0 3 3 3 3 3 3 3 3 3 3 3 3 3 3 3 3 3 3 3 3 3 3 3 3 4 3 3 3 3 e U I 5 3 3 3 3 3 3 3 4 3 3 3 3 4 3 3 3 3 3 3 3 3 3 3 3 3 3 3 3 3 3 4 3 3 3 3 3 3 3 4 0 3 3 3 3 4 3 3 4 3 3 3 3 3 3 4 4 4 4 3 3 3 3 4 3 3 3 3 3 3 3 3 4 3 4 3 3 4 3 3 3 4 3 3 3 3 3 3 3 3 3 3 3 3 4 3 3 4 3 # X X # # # $ # # # # & * # * # # # # # * # # $ # * * # # # * # # # # # $ # # # # # # $ # & # # & # $ # * # # * $ # # # # & # # # # & # # * $ # $ # $ $ # & $ # # # $ # # # $ & # # * # # $ # * # # $ # * # # * * # * # # # # X # # # & # * # * $ # # # # # # * # # # # * # # $ # * # # * * # # * # * # # * # $ # * # # # # * * # # # # * # # * # * # # # , # $ # # * # $ # # # # # * # # * # # # # * # # * # # * # $ # # # # * # # $ # * # # * # # * # # * # # $ * # # $ # # $ # # # # $ # $ # $ # $ $ * # # * # # # # * # & # * # # & # # # # # # # # $ $ # # $ & # # # # # # & # # # # # # # * # # * # # * * # # # # # # * # # # # # # * * # * # # # # # $ * # # # * # # # # $ * # # * # # $ # * # * # # # # * # # * * # * # $ # # # # # * # $ # # # * # # # * $ # # $ # * # # $ # * * # # # * # # # # # # * # # # * $ * # # # * # $ # & # # # X # X # 3 3 3 3 3 3 3 3 3 3 3 3 5 4 4 5 4 3 3 q 4 3 3 3 3 3 3 3 3 3 4 3 3 3 3 3 3 3 3 3 3 3 3 4 3 3 3 4 3 3 3 3 3 3 3 3 3 3 3 3 3 3 3 3 3 3 3 3 3 3 3 3 4 3 3 3 X # X X & 4 3 3 3 3 3 3 3 3 3 3 4 3 4 3 4 3 3 3 3 3 4 4 3 3 3 3 3 4 3 3 4 3 3 4 3 4 3 3 3 3 3 3 3 3 4 3 3 3 3 3 4 3 3 4 0 3 3 3 3 4 3 3 3 3 3 3 3 4 3 3 3 3 3 3 3 3 3 3 3 3 3 3 3 3 3 4 4 4 3 4 4 3 4 3 3 3 3 3 3 3 3 3 3 3 4 3 3 3 3 4 3 3 3 3 3 3 4 4 3 3 3 3 3 4 3 4 4 4 3 3 3 3 3 4 3 3 3 3 4 3 3 3 3 4 4 3 3 3 3 3 4 3 4 3 3 4 3 3 3 3 3 3 3 3 3 3 3 3 4 3 4 4 4 3 4 3 4 3 3 4 3 3 3 3 4 3 3 4 3 3 3 3 3 3 4 4 3 3 3 4 3 0 4 3 3 3 3 3 3 3 4 3 3 3 3 3 3 3 3 4 3 4 3 3 q 3 3 3 3 3 3 3 3 3 3 3 3 3 3 3 3 3 3 3 4 3 3 0 2 o # o . 3 3 3 3 3 3 3 w U I w 3 3 3 3 3 3 3 3 3 3 3 3 3 4 3 3 3 3 3 3 3 3 3 3 4 0 % 0 3 3 3 0 0 3 3 3 3 3 3 4 3 3 3 4 i U i 3 4 4 3 3 3 3 ",
"3 4 3 3 3 4 3 3 3 3 4 3 3 3 3 4 4 3 % i U P 4 3 3 3 4 3 3 3 3 3 3 3 3 3 3 3 3 3 3 3 3 3 0 3 4 3 3 4 3 0 3 3 3 3 4 3 3 3 3 3 3 3 5 e i U w 5 3 3 3 3 3 3 3 3 3 3 3 3 3 3 3 3 3 4 4 3 3 3 3 3 3 4 3 e U i 4 3 3 4 3 3 3 3 3 3 3 3 3 3 3 3 3 3 3 3 3 3 3 3 3 3 3 3 3 3 3 4 3 3 3 3 3 3 3 3 3 6 e U I 3 3 3 3 4 3 3 3 3 3 3 3 3 3 3 3 3 4 3 3 4 3 4 4 3 3 4 3 4 3 3 3 3 3 3 3 3 4 3 3 3 3 3 3 3 3 3 3 3 3 3 3 3 3 4 4 4 0 % 3 3 4 3 3 3 3 4 3 3 4 3 3 3 3 3 3 3 3 3 4 3 3 3 3 3 3 3 3 4 4 3 3 3 3 4 3 3 3 3 # X # X # # # & & # * # # # # $ $ * # * # # # * $ # # # * # # & # # * # $ # * # # $ # * & # & # # & # & $ # # # # * # # & # & # & & # & # # * # $ # # # & # # $ # # * # $ # & # $ * # # # * # # * # * # # $ # # # # # $ X X # # # # & # & # # # * # * # * # # # $ * # * # # # * # # * # # # # * # # * # # # * # $ # # $ # $ # # * * # $ # $ # # $ # # * # # * # # * # # * # # $ # * # # # # # * * # # * # # # * # # * # * $ # # * # # * # $ # # $ # # # # # * # # # # * # * # * # # # * # # # $ & # # $ # $ # # # $ # $ # $ # & # # & # # # * # # & & & $ # # * # $ # * # & * # & & # * $ # $ $ # $ # # # $ # # $ * # $ * # # # # * * # # # # $ # # * $ * # # # * # $ # # * * # # # * $ $ # # * # # # # # , $ # * # # * # # # $ # # * * * # # $ # # # # # # * $ # # # * # # * # # * # # # # # * $ # # * * # # # * $ $ # # # * # # # # * & # $ # # # # X # 3 3 3 3 3 4 3 3 3 3 3 3 4 4 4 3 3 3 3 4 4 3 4 3 3 3 3 3 3 3 3 3 3 3 3 3 3 3 3 3 4 3 3 4 3 3 3 3 3 3 3 3 3 4 3 3 3 3 3 3 3 3 3 3 3 3 3 4 3 3 3 3 3 3 4 2 # X % # & 3 3 3 4 3 3 3 3 3 4 3 3 3 3 3 3 3 4 3 3 3 3 3 3 3 3 4 3 3 3 3 3 3 3 3 3 3 3 3 4 3 3 4 3 3 3 3 4 3 3 3 3 3 3 4 % 4 3 3 3 3 3 3 3 3 3 3 4 3 3 3 3 3 4 3 3 3 3 3 3 4 3 4 3 3 3 4 4 3 3 4 4 4 % 3 3 3 3 4 3 3 3 3 3 3 3 3 3 4 3 3 3 3 3 4 3 3 3 3 3 3 3 4 3 3 3 4 4 4 3 3 3 3 4 3 3 3 4 3 3 3 3 3 3 % 4 3 3 4 3 3 3 3 3 3 3 3 3 3 3 3 4 3 3 4 3 4 3 3 3 3 4 4 4 3 3 3 3 3 3 3 3 4 3 3 3 3 3 3 3 4 3 3 4 3 3 3 3 3 3 3 3 3 4 % 4 3 4 3 3 3 3 3 3 3 3 4 3 3 3 3 3 3 3 3 3 3 3 3 4 3 3 q 3 3 3 4 3 3 4 3 3 3 3 3 3 3 3 4 2 # # # # 2 3 3 3 3 3 5 w I I w 3 3 3 3 3 3 3 3 3 3 3 3 3 4 3 4 3 3 3 3 3 3 3 3 3 3 3 0 0 3 3 3 3 3 3 3 3 3 3 4 4 5 3 3 i I i 3 3 3 3 3 4 3 ",
"3 3 4 3 3 4 3 3 3 3 3 3 3 3 3 3 3 3 5 w U i 4 3 3 3 3 3 3 3 3 3 3 3 3 3 5 3 3 3 3 3 3 3 3 3 3 3 3 3 3 3 3 4 3 3 3 3 3 3 4 3 3 3 3 4 U i e 3 3 3 3 3 3 3 3 3 3 4 4 3 3 3 3 3 3 3 3 3 3 3 4 3 3 3 3 e U i 4 4 4 3 3 3 3 3 3 3 3 3 3 3 3 3 3 3 3 3 3 3 3 3 3 3 3 3 3 3 3 3 3 3 3 3 3 3 3 3 3 3 w U i w 3 3 3 4 3 3 3 3 3 3 3 3 3 3 3 4 4 3 3 3 4 4 3 3 3 3 3 3 3 3 3 3 3 4 3 3 3 4 3 3 3 4 3 3 3 3 4 3 3 3 5 4 4 4 4 3 3 4 3 4 3 3 3 3 3 3 3 3 3 3 3 4 3 3 4 3 3 3 3 3 3 4 3 3 3 3 3 3 4 3 3 3 3 0 3 3 3 3 # . X # # * # * # # $ * * # # # # * # * # # # * # # # * # & # & # # $ # # & # & # $ # # # * * # & # & # * # # # # # # * $ # # $ # # # # * # # * * $ * # # & # # $ # * # # * # * * # * # # # * $ # # $ # # * * # # # * # # # # X # # # & # # # # # * # # # # $ # # * # * # # # * # # $ * # # # * # # * # # * # # * # # * # * # # # # # * # # $ # * # # * # $ # * # # $ * # # # * # # $ * * # * # # * # # # * # $ # $ # # # # # # # * $ # # # $ # # * # * $ # # * # $ # # # # * # # $ # # # * # * # & # & # # $ # # # # * * # # $ # # # # * # # # * $ * # # & # & # # # # & # & # # # * $ # # # # $ # * # # # # * * # * # # * # * * # # $ * # # * # # # # # # * # * # # # # # # $ # # # # # # * # $ # * * # # $ # $ # # # * # # * # $ * # $ # # # * * # # * # # # # # $ # # * # $ # # * # * $ # * # $ * # # * # # * # # # # # # * # $ # # # # & # # X # # X 3 3 3 3 3 3 3 3 3 3 3 3 3 3 3 3 3 3 3 3 3 3 3 3 3 3 3 3 3 3 3 3 3 3 3 3 3 4 3 3 3 4 3 3 3 4 3 3 3 4 3 3 4 3 3 3 3 3 3 3 3 3 3 3 3 3 3 3 3 3 4 3 3 3 4 3 X # # # & 3 3 3 3 4 3 4 3 3 3 3 3 3 3 3 3 4 3 3 3 4 3 3 3 3 3 3 4 3 3 4 3 3 4 3 4 3 3 3 3 3 3 3 3 4 3 3 3 3 3 3 4 % 4 3 3 3 3 3 3 4 3 4 3 3 3 3 3 4 3 3 3 3 3 3 3 3 3 3 4 3 3 3 3 3 4 3 3 3 3 4 3 3 3 3 3 3 3 3 3 3 4 4 3 3 3 3 3 3 3 3 3 3 3 3 3 3 3 3 4 3 3 3 3 4 3 3 3 3 3 4 3 3 3 3 4 3 3 3 4 4 4 3 3 3 3 3 3 3 3 3 4 3 3 3 4 3 3 4 3 3 3 3 4 3 3 3 4 3 3 3 3 3 3 3 4 3 3 4 4 4 4 3 3 0 3 3 3 3 3 3 3 3 3 4 3 3 3 3 3 3 3 3 3 3 3 3 3 3 3 3 3 3 4 3 4 4 3 3 3 3 3 3 3 3 3 3 3 3 3 3 3 4 3 3 4 3 3 q 3 3 3 4 3 3 3 3 3 4 2 X # X # 3 3 3 3 3 3 3 w I U w 5 3 3 3 3 3 3 3 4 3 3 3 3 4 3 3 3 3 3 3 3 3 3 4 3 3 3 3 3 3 3 3 3 3 3 3 3 3 3 3 4 3 3 3 i U i 3 3 4 3 3 3 3 ",
"3 3 3 3 3 3 3 3 3 3 4 3 3 4 3 3 3 3 3 y U P w 3 3 3 3 3 3 3 4 3 3 3 3 4 3 3 3 3 3 3 3 3 3 3 3 3 3 3 4 4 3 3 3 3 3 3 3 3 3 3 4 3 3 w U U 5 3 3 3 3 3 3 3 3 3 3 3 3 3 4 3 4 3 3 3 3 3 3 4 3 3 3 3 3 i U I 4 4 3 3 3 3 3 3 3 3 3 3 3 3 3 3 3 3 3 3 3 5 3 3 3 3 3 3 3 3 3 3 3 3 3 3 3 3 3 3 3 3 w U I w 3 3 3 3 3 3 4 3 3 0 3 3 3 4 3 3 3 3 3 3 4 4 3 4 3 3 4 3 4 3 4 3 3 3 3 3 3 3 3 4 3 3 3 3 3 4 3 3 3 4 4 4 3 3 3 3 3 3 3 3 3 3 3 4 3 3 4 3 3 4 3 3 3 3 3 3 3 4 3 3 3 3 3 4 3 4 3 3 3 3 3 4 3 3 3 3 3 3 # # # # # $ # # * # # # # # * # # # # # # * $ # * # # # $ # & # * # # * # $ * # # * * # # # # # # & # & # $ * # $ * # # * # * # & * # * # # $ # # # # $ & # * # # * # $ # $ # # # # # # # * # # $ * # # # # # # # * # # # X X # # # & # * # * * # # * # * # # * # # # # # * $ # * $ # # * * # # * # # $ $ # # * # $ # # # # * # # $ # # * # # * # $ # # # # # # * # # # # * # # * # # # $ # # # # # # $ * # # # * # * # * $ * # # # # * # * # # # # # * * # # # # * * # & $ # # # * * # # # # $ & # & # * # * # $ * # # # # * # $ * # * # # $ * # # # $ & # & # * # * # # & # * # * # # $ # * # # * # $ $ * # # # # # # $ # # # # # * # * # # * # * * # # $ * # $ # # * # * # * * $ * # * # $ # # # # # # # # $ # # # * * # # * # # # # # # * * # # # $ # # * # * * # # # # * # # * # # # # # # # * # # # $ * # # # # * * # # # # * * # * # # * # . # . X 3 3 3 3 3 3 3 3 3 3 3 3 3 3 3 3 3 3 4 3 q 3 3 3 3 4 3 3 3 3 3 3 3 3 3 3 3 3 3 3 3 3 3 3 3 3 3 3 3 3 3 3 3 3 3 3 3 4 3 3 3 3 4 3 3 3 3 4 3 3 3 4 3 3 3 2 # # X X & 4 3 3 3 3 3 3 3 4 3 3 3 3 3 3 3 3 3 3 3 3 3 3 4 3 3 3 3 3 3 3 3 3 3 3 3 3 3 3 4 3 4 4 3 3 3 3 3 4 3 3 3 0 4 3 4 4 3 3 3 3 3 3 3 3 4 3 3 3 3 4 3 % 4 4 3 3 4 3 3 4 3 4 3 3 3 3 3 4 3 4 3 3 4 q 3 3 3 3 3 3 3 3 3 q 3 3 3 3 4 3 4 3 3 3 3 4 3 3 3 3 3 3 3 3 3 3 3 4 3 3 3 3 4 3 3 3 3 3 4 4 4 3 3 4 3 4 3 3 4 3 3 3 3 3 3 3 3 3 3 3 3 3 3 3 3 3 3 3 4 3 4 3 3 3 3 3 3 4 4 4 % 3 3 4 4 3 3 3 4 3 3 3 3 3 3 3 4 3 3 4 3 3 3 3 4 3 3 4 3 4 3 3 3 3 3 3 3 3 3 3 3 4 3 3 4 4 3 4 3 3 3 3 3 3 3 3 3 3 3 3 3 3 3 3 4 3 3 4 2 # X # X % 3 3 3 3 3 3 w I i 4 3 3 3 3 3 3 3 4 4 3 3 3 3 3 3 3 3 3 3 3 3 3 3 3 3 3 3 3 3 3 3 3 3 3 3 3 3 3 3 3 3 3 3 3 i U i 3 3 3 3 3 3 3 ",
"3 4 3 3 3 3 3 4 3 4 4 4 3 3 4 3 3 3 3 y U i 4 3 3 3 3 3 3 3 4 3 3 3 3 3 3 3 3 3 3 3 3 3 3 3 3 3 3 3 3 4 3 3 3 3 3 3 3 3 3 3 3 3 3 q I U e 3 4 3 3 3 3 3 3 3 3 3 3 4 3 3 3 3 3 3 3 3 3 3 3 3 3 3 3 e I i 4 3 3 3 3 5 3 3 3 3 3 3 3 3 3 3 3 3 3 3 3 3 3 5 3 3 3 3 3 3 3 3 3 3 3 3 3 3 3 3 3 3 w U I 3 3 3 3 3 3 4 3 3 4 4 3 3 3 3 3 3 4 3 3 3 3 5 3 3 4 3 3 4 3 3 3 3 4 3 4 3 3 3 3 3 4 3 3 3 3 3 3 3 3 3 4 3 3 4 3 3 3 3 3 3 3 4 3 4 4 3 3 3 3 3 4 3 3 3 3 3 3 3 3 3 3 3 3 3 3 4 3 3 3 3 3 3 4 3 3 3 3 2 # X # X # # # # # * # * # $ # * $ # * # # # # # # # # * * # # & # # * # # * # # # # # * $ # * # # * & * # # # * # * # # # # * # * # # $ * # # $ # # # # # * # & # # # # # * # $ # * * # # $ # # * # # * $ # # # # # # # # # X # X # $ & # # $ # # # # # # # # * * # # $ # * # # # * # * # # * # # * # # * # # # # $ * # * # # $ * # * # # # * # # * # $ * # $ # # * # # * # $ # # * # # # # $ * $ * # # # # * # # # # # # # # * $ * # # # # * * * # # # # * $ # # # # # # # * # # # # * $ # # # # * $ * # $ # * # * # $ # $ * # * # # $ * # * $ # # # # # $ # * & $ * $ * # # $ # # # # # & # & # # # # # * # $ # # * # * # # # # # * # # # # # $ * # # $ # # # * # * # * $ # # # # # * # # # * # * $ # # # # * # * # $ # # # # # # * # * # # # $ # * # # * * # # # # * * * # # # # * * # * $ * $ # # # # # # # * # * # # * $ # # # # * & # # # # # # . # 3 3 3 3 3 3 3 3 3 3 3 3 3 3 3 3 4 3 3 3 3 3 3 3 3 3 3 4 3 3 3 3 3 3 3 4 3 3 3 3 3 3 3 4 3 3 3 3 3 3 3 3 3 3 3 4 3 3 3 3 4 3 4 3 3 3 3 3 3 3 3 3 3 3 4 3 X X # # $ 4 3 3 4 3 3 3 4 3 3 4 3 3 3 3 3 3 3 4 3 3 3 3 3 3 4 3 3 3 3 3 3 3 3 3 3 3 4 3 3 4 4 % 4 3 3 3 4 3 3 3 3 3 3 3 3 4 3 4 3 3 3 3 3 3 3 4 3 3 3 3 3 4 4 3 3 3 3 3 4 3 3 3 3 3 3 3 4 3 3 3 3 3 3 3 3 4 3 4 3 3 3 3 3 3 3 3 3 3 3 3 3 3 4 4 3 3 3 3 3 3 4 3 3 3 3 3 4 3 3 3 3 3 3 3 3 3 3 3 3 3 4 3 4 4 3 3 3 3 3 4 3 4 4 3 3 3 4 3 3 3 4 3 4 % 0 3 3 3 3 4 3 4 3 4 3 3 3 3 3 3 4 3 3 3 % 3 3 3 3 3 3 3 4 3 3 3 3 3 4 3 3 3 3 3 3 4 3 0 3 3 3 3 3 3 3 4 3 3 3 3 4 3 3 3 3 4 3 3 3 4 3 3 3 3 3 4 3 3 3 3 4 3 4 3 3 4 3 4 2 # X X # 3 3 3 3 3 3 5 w U i w 3 3 3 3 3 3 3 3 4 3 3 3 3 3 3 3 3 3 4 3 3 4 3 3 3 3 3 5 3 3 3 3 3 3 3 3 3 3 3 3 3 3 3 3 i U y 3 3 3 3 3 3 4 ",
"3 3 3 4 3 3 3 3 3 3 4 4 4 4 3 3 3 3 3 i U i w w w w w 5 w w w 4 w q w w w w w w q w q w w w 5 w 0 e q q q w w w w w w w q w w q 4 e I U q 3 3 3 3 3 3 3 3 3 4 3 3 3 3 3 3 3 4 3 3 4 3 3 3 3 4 3 3 e I I e 5 w w w w 4 w w 5 w w w w w q e q q e w w q w w w 5 w e q q e w w q w w w w w q q y U I 3 3 3 4 3 3 3 3 3 % 4 3 4 3 3 3 3 3 3 4 3 3 3 3 4 3 3 3 3 3 3 3 3 3 3 3 3 3 3 3 3 3 3 4 3 3 3 4 3 3 3 3 3 3 3 3 4 3 3 3 4 3 3 3 3 3 3 3 4 3 3 3 3 3 4 3 3 3 4 3 4 3 3 3 3 3 3 3 3 4 3 3 3 3 3 3 3 3 3 X # X # # # * # # $ # # * # # # # * # $ $ * # * # * $ # # # * # * # # $ # # & $ # * # # # * # $ # # # # * # # $ # # * # * # # # # # * # # # * # # * * # & # # $ * # * # # # # * # # $ # # * # * # # # * # * $ * $ * # * # X # X # # & # # $ # # * # * $ * $ # # $ # # * $ # # * # # # # # * # # $ # # * # # * * # # # $ $ # * # # # # $ * # # $ # # # * # # # * # * # $ # # * # # # $ * * # # # # # * # # * # * # $ # * * # # # # # * # * # # # # $ * # # # # * # * $ * # * $ # # * # # # * * # # # # # # * # # # # # * * # # # # # # * # # # # # * * # * & # # # # # # # # # * # * $ * & # & $ * # * # # # # * # * $ # # # * $ # * # # # $ * # # # # * # # * # # # # # # # # * * # # # # * # # # * # # * * # # * # # # # $ * # * # # $ $ # * # # # * # # $ # # * # # # # # # * $ # # # # # # # # # * # * * # $ $ # # # # # # * # * # # $ # # * # . # # # 2 3 3 3 3 3 3 3 4 3 3 3 3 3 3 3 3 3 3 3 3 4 3 3 3 3 3 3 3 3 4 3 3 4 3 3 3 3 4 3 3 3 4 3 3 3 3 3 3 3 4 3 4 3 3 3 3 3 3 3 3 3 3 3 3 3 3 3 3 4 3 3 3 3 3 2 # # X # & 3 3 3 3 3 4 3 3 3 3 3 3 3 4 3 3 3 4 3 3 3 3 4 3 3 3 4 3 3 3 3 3 3 3 4 3 3 3 3 3 4 4 4 4 3 4 3 3 4 3 3 3 3 3 3 3 3 3 3 3 4 3 3 4 3 3 3 3 3 3 3 3 3 0 3 3 4 3 3 3 3 3 3 3 4 3 3 3 4 3 3 4 3 3 3 3 3 3 3 3 3 3 3 4 3 3 3 3 3 3 4 3 3 3 3 3 3 4 3 3 3 3 4 3 3 3 3 3 4 3 3 3 4 3 4 3 3 3 4 3 3 3 3 3 3 3 3 4 3 3 4 4 4 4 % 4 3 3 3 4 3 3 3 3 4 4 4 3 3 3 3 3 3 3 3 3 3 4 3 3 3 3 4 3 3 4 3 4 3 3 4 3 3 3 3 4 3 3 4 4 4 3 3 4 3 3 3 3 4 3 3 3 3 3 3 3 3 3 4 3 3 3 3 3 3 3 3 3 3 3 3 3 3 3 4 3 3 3 3 3 3 3 3 3 3 3 3 3 3 2 X # # # 2 4 3 3 3 3 3 w U I w w w w 4 w 0 e q q q e q w w q w w q q e 0 w 5 w w w q w w e q q e q w w w w q q e e 5 w i U i 3 3 3 4 3 3 3 ",
"3 3 4 3 4 3 3 3 4 3 3 3 3 3 4 3 3 3 3 e U I I I I I I i I I I I I I I I I i U I I I I I I I I I U U U U I I I I i U I I I I I I I I I I q 3 3 3 3 3 3 3 3 3 3 3 3 3 3 3 3 3 3 3 3 3 3 3 4 3 3 3 3 e i U U i U i U U i U I I I I I U U U I I I I I I I I U U U U I I I I I I I U U i I I I U U U I 3 4 3 3 4 3 3 3 3 4 3 4 3 3 4 4 3 3 4 3 4 3 3 3 3 3 4 3 3 3 4 3 4 3 3 3 3 3 4 4 3 3 3 3 3 4 3 3 3 3 4 3 3 3 3 3 3 4 3 3 3 3 3 3 4 3 3 3 3 3 3 3 3 4 3 4 4 4 4 3 3 3 4 3 3 3 3 3 3 3 3 3 3 3 3 3 3 3 3 # # # . # # $ # * * # # # # # # * # # # $ # # # # # $ # # # # # $ # # * # $ * # * # # $ # # # # # * # * # * # # # # * $ # * # # # $ * # * $ # * * # # # # # $ # $ # # # # * # # # # # * $ * # * # # # # # * * # * # # * # # # # # # # * * # # # * # * # # # * # * # # # * # * # * $ * # $ # * # $ # * $ # # * # * # # # # # # * # # * $ # # # * # # * # # * * # # # * # # # * $ # # * # # # $ # * # # $ # $ # # * # # $ # # * $ # * # # # # $ # # # # # # * * # # # # # # # * $ * # # $ # # # * * # # * # * # # # # * # # * # # # $ * # * $ * # * # # # # # $ * # * # # # # * * # $ # # # # $ # $ # # $ # * # # # # # * * # # # $ # * # # * # * # * # * * # # # * # * # # # * $ * # # # * # # # $ * # * $ # # # * # # * * # # * # $ * # # * # # * $ # * # * # * # # # * # $ * # * # * # $ * # # # # $ # # # $ # # $ * # $ # * # # # # # # # # # # # #   % 5 q 3 3 3 4 3 3 3 3 3 3 3 3 3 3 3 3 3 3 3 3 3 4 3 3 3 3 3 3 3 3 3 3 4 3 3 3 4 3 3 3 3 3 3 3 4 4 3 3 3 3 3 3 3 3 3 3 3 3 3 3 3 3 3 3 4 3 3 3 3 3 4 3 4 3 X # # # $ 3 3 3 3 3 3 3 4 3 3 3 3 3 4 3 4 4 3 3 3 4 3 3 4 3 3 3 4 4 3 4 3 3 3 3 3 3 3 3 4 3 3 4 3 3 3 3 4 3 3 3 4 3 3 4 3 3 3 3 4 3 3 3 3 4 4 4 4 4 4 3 3 4 3 3 3 3 3 3 4 3 3 3 3 3 3 3 3 4 3 3 3 4 3 3 4 3 3 3 3 3 4 3 3 3 3 3 3 3 3 3 3 3 3 3 4 3 3 3 4 3 3 3 4 4 3 3 % 4 4 3 3 3 3 3 4 3 3 3 3 3 3 3 4 3 3 3 3 3 3 3 3 4 3 3 3 3 3 4 4 3 3 3 3 4 3 3 3 3 3 4 4 4 4 3 3 4 3 3 3 3 3 3 3 4 3 4 3 3 3 3 3 3 3 3 3 3 4 4 4 3 4 3 3 3 4 4 3 3 3 3 4 4 3 3 4 3 3 3 3 4 3 3 3 3 3 3 3 3 3 3 3 3 4 3 4 3 3 3 3 3 3 3 3 3 3 3 4 3 % # X # X 3 3 3 3 3 3 3 e U I I I I I I I U U U U U U U U I I I I I I I I I I I U U I I I U U U U I I I I I I I I I I I I I i 3 3 3 3 4 3 3 ",
"3 3 3 3 3 3 3 3 3 3 3 4 3 3 3 3 3 3 3 y I I I I I I I U I I I I I I I I I I I I I U I I i I I I i U i i I I I I U U I I I I I I I I I I w 3 3 4 4 3 3 4 3 3 4 3 3 3 3 3 4 3 3 3 4 3 3 3 3 3 4 3 3 e U U U i U U U U U U I I I I i U U i I I I I I I U i U i i U I I I I I I I U U U I I i U U i I w 3 4 3 3 4 3 3 3 3 3 3 3 3 3 % 3 3 3 3 3 3 4 3 3 3 3 3 3 3 3 3 3 3 3 3 4 3 3 3 3 3 3 3 3 3 3 3 3 3 3 4 3 3 4 3 3 3 3 3 3 4 3 3 3 3 3 4 3 3 4 3 3 3 3 % 4 4 4 3 4 3 3 3 3 3 4 3 3 3 4 3 3 3 3 3 3 3 2 X . # # # # # # # # # $ * # * # $ # * # * # * # * # * # # * * # * # # # # * # # # # # * $ * # * # # # # # $ * # * # # # # $ * # # * # # # # # # # $ # * * # * # * # * # # # * $ * # # # # # # # # $ # * # # # $ # $ # # # #     # # # # $ # # * # # $ # # * # # $ # * # # # # # # # # # # # * # # # # # * # # # # # * # # * # # * # # # # * # # * # # # # # # $ $ # * # * # # # # * # # * * # # # # * # # # # $ # * # # * # # # # # * # # * # # * # * * # # # $ $ * # * # * # # # # # * * # # # # # $ # # $ * # * # # # # $ * # # * # # # # # # # $ * # * # # # # # # $ # * # # # # # * * # * # * # * # # # * $ * # # # # # # * # * # # # $ # # # # # # * # # * # # $ # # * # # # # * $ $ # * # # # # # # # # * * # # * # # * # # # # # # # * # # # # # # # # # * $ # * * # # # # # # $ # # * $ * # # * * # # * # * $ # # * # # $ * # * * $ * # # # # # # 3 3 3 3 3 3 3 3 3 3 3 3 4 3 3 3 3 3 4 3 3 3 3 3 3 3 4 3 3 4 3 3 4 3 3 3 3 3 3 3 3 4 3 3 3 3 3 3 3 3 4 3 4 3 3 3 3 4 3 3 3 3 3 3 3 3 3 3 4 3 3 3 3 3 3 2 # # X # & 3 3 3 3 3 3 3 3 3 3 3 3 3 3 3 3 3 3 3 3 3 3 3 3 3 3 3 3 3 3 3 3 3 4 3 3 4 3 3 3 3 3 3 3 3 3 3 3 3 3 3 3 3 3 3 3 3 4 3 3 3 3 3 4 3 3 4 4 3 3 3 3 3 3 3 4 4 3 3 3 3 3 3 3 4 3 4 3 3 3 3 3 3 3 3 3 3 3 3 4 3 3 3 4 3 3 4 3 3 4 3 3 3 4 3 3 3 3 3 3 3 3 3 3 3 3 3 4 4 4 3 3 4 3 3 3 3 3 3 3 4 3 3 3 3 3 3 4 3 4 3 3 3 3 3 4 4 3 0 % 4 3 3 3 3 3 3 3 3 3 % 4 4 4 3 3 3 3 3 4 4 3 3 3 3 3 % 3 3 4 3 3 4 3 4 3 3 3 3 4 3 3 3 3 3 3 3 3 3 3 3 3 3 3 3 3 3 3 3 3 3 3 4 3 3 3 3 4 3 4 3 3 3 3 3 3 3 3 3 3 3 3 3 4 4 3 3 3 4 % X # X # % 3 3 3 3 3 3 q I I I I I I I U i U i i U i U i I I I I I I I I I U i U i I U i i U i i I I I I I I I I I I I I I i 3 3 3 4 3 3 3 ",
"3 3 3 3 3 3 3 3 3 3 3 3 4 3 3 3 3 3 3 5 w w w w w 5 w w 5 w w w q q w w w 4 w w q w w w w q w w e e q e 4 w q e 5 w w 4 5 w 4 w w w q w 4 3 3 3 3 3 3 3 3 3 3 3 4 3 3 3 4 3 4 3 3 3 3 3 3 3 3 3 3 4 5 e 4 e e q w q 5 e q w w w e q e 5 q w 4 e w 4 w w w w w w 4 w 4 w q w w q w 5 w w w w e 5 w 3 3 3 3 4 3 3 4 3 3 3 3 3 3 3 4 4 3 3 3 3 3 3 4 3 3 3 3 3 3 3 3 3 3 3 3 3 4 3 3 3 3 4 3 4 0 4 3 3 3 3 3 3 3 3 3 3 3 3 3 4 4 3 4 3 3 4 4 4 4 3 3 3 3 3 3 3 4 3 3 3 3 3 3 3 3 3 3 4 3 4 3 3 3 4 3 3 3 3 # # # . # # # * # # * # # $ # * # # $ # # # # * # # # * # * # & # * $ # $ # # # * $ * # * # # $ $ * # # # # # # # $ # # $ # # # # # # # # # * # # # * # # # # * # # $ * $ # # # # * $ # # * # # * * # # $ # # # # * # #   # # # # # * # * # * $ # # * # # $ $ # * # * $ # $ # * # # * # # # # $ # * # * # * * # # * # * * # * # # * # * * # * # # $ # * $ # # # # $ # # # * # # # # * # # # # * # $ * # * * # # # # # , $ # # # # # * $ * # # * # # $ # $ # # # * $ # # $ # # # * $ * # # * $ # # * * # $ # # # # $ # # $ # # # # # # # # * * # # # # * # # # * # # * # $ # # # * # * # # # # * # # * # * $ # # # * $ * * # * # # # # * # * # # $ * # # # # * $ # # * # # # # # * $ # # # # $ # * # # * # * # $ # # # # # $ # # * # # * * # * $ # * * # $ * # # # * # # # # * # # $ * # # # # # # * # * * # # * # # # # # # # # * # # $ # # # & # #     o 3 3 3 4 3 3 3 3 3 3 4 3 3 4 3 3 4 3 4 4 3 3 4 3 3 3 3 3 4 3 3 3 3 4 3 3 3 3 3 3 4 3 3 0 3 3 3 3 3 3 3 4 3 4 3 3 4 3 3 4 3 3 3 4 3 3 3 3 3 4 3 3 3 4 4 3 X X # X 2 4 3 3 3 3 3 3 3 4 3 4 3 3 3 3 4 3 3 3 3 3 3 3 3 3 3 3 3 4 3 3 3 3 3 3 4 3 4 3 3 3 4 3 3 3 3 3 3 3 4 3 3 3 3 4 % 3 3 3 3 3 3 3 3 4 3 3 3 3 3 4 4 4 4 3 3 4 3 3 3 3 4 3 4 3 3 3 3 4 3 3 3 3 4 3 3 3 3 3 3 4 3 3 3 3 3 3 3 3 3 3 3 3 3 3 3 3 4 3 3 3 3 3 3 4 3 3 3 4 4 3 4 3 4 4 3 4 3 3 4 3 4 4 3 3 4 3 3 4 3 3 3 3 3 3 3 4 3 3 3 4 3 4 3 3 3 3 3 3 3 3 4 4 3 3 4 3 4 3 3 4 3 4 3 3 3 4 4 3 3 4 3 3 3 3 3 3 3 4 3 3 3 3 3 3 3 3 3 3 3 3 3 4 3 3 3 3 4 4 3 3 0 4 3 4 3 3 3 3 4 3 3 3 3 3 3 3 3 3 3 3 4 3 3 4 3 3 3 4 3 # X X # 3 3 3 3 3 3 3 q 5 w w w q w q 4 e 5 q e 5 e w w w 5 w q w 4 q w w w q w e q w w e e q e 4 w q e q w w 4 5 w 4 w q q 3 4 3 3 4 3 3 ",
"3 3 3 4 3 4 3 3 3 4 3 3 3 3 3 4 3 4 4 4 3 3 % 3 4 3 3 3 3 3 3 3 3 3 3 3 5 3 3 3 3 3 3 3 5 3 3 3 3 6 3 3 3 3 3 3 4 4 3 3 3 3 3 3 3 3 3 3 3 3 3 3 3 3 3 3 3 4 4 3 3 3 3 4 3 3 3 3 3 3 4 3 3 4 3 3 3 3 3 3 3 3 3 3 3 3 3 5 3 3 3 3 3 3 3 3 3 3 5 3 5 3 3 3 3 3 3 3 3 3 3 3 3 5 3 3 3 3 3 3 3 3 3 3 3 3 3 3 3 3 3 3 3 3 3 4 3 3 3 3 4 0 3 3 4 3 3 3 3 3 4 3 3 3 3 4 4 3 3 3 3 3 3 3 3 3 3 3 3 3 3 3 3 3 4 3 3 3 4 3 4 3 3 4 3 3 3 3 % 3 3 3 4 4 4 3 3 3 3 4 3 3 3 3 3 3 4 3 3 4 3 3 3 3 3 3 4 3 3 3 3 3 3 2 # X #   # # # # * * # # # * # # * # * # * # # # * $ $ # $ # # $ # # # * # # * * # # # # # # # * # # * # * * # $ # * # * * # * # # * # * $ * # # * # # $ # $ # # * # # # * # * # # # # * # # * # # # # $ # * * # # # * & # # # # # # # # # # # # $ * # # # * # # # # # # * # $ # # * # # * * # # # * # # # # $ # # $ # # # # # $ # # $ # # # $ # # * # # # * * # * # # * # # $ * * # # $ # $ # # * # # # # # # * # # # # # * # * * # # # * # # * # $ # # # * * # # # # * # # * * # # # # # # # * $ # # # * # * # # * # * * # * # # * # * # # $ # * # # $ # * $ # * # * # # # * * # # # $ * # # # * # # # # # * # # # # # $ # # # # * $ # # # * # # # * $ # $ # # $ * # # # * $ * # # * # * # # * # $ # # * # # # # $ * # # # $ # # * # * # # # # # # $ # # # * # # # # $ # * # # * # # # * # * # # # # # # $ # # # * # * $ * # * # # # * * # & # # # # # # 3 4 3 3 3 3 3 4 3 3 3 4 3 3 3 3 3 3 3 3 3 3 3 3 3 3 3 3 3 3 4 3 3 3 3 3 4 3 3 3 3 3 4 4 3 4 3 3 4 3 3 3 3 3 3 3 3 3 4 3 3 3 4 3 3 3 3 4 3 3 3 3 3 3 3 2 # # X # 2 3 3 3 3 3 3 4 3 3 3 3 3 3 3 3 3 3 3 3 3 4 3 3 4 3 3 3 3 3 3 3 3 4 3 3 3 3 3 4 3 3 3 4 3 3 3 4 3 3 3 4 3 3 3 4 4 3 3 4 3 3 4 3 3 3 3 3 3 3 4 4 4 4 % 3 3 3 3 4 3 3 3 3 3 4 3 3 3 3 3 4 3 3 3 4 3 3 3 3 3 3 3 3 4 4 3 3 3 3 3 3 4 3 3 3 3 3 3 3 4 3 3 3 3 3 3 4 3 3 4 3 3 3 3 3 3 3 3 3 3 3 3 3 3 3 3 3 3 3 3 3 3 3 4 3 3 3 3 3 3 3 3 3 3 3 4 4 3 3 4 3 3 3 3 3 3 3 3 3 3 3 3 3 3 3 3 3 0 3 3 3 3 4 3 3 3 3 4 3 3 3 4 3 3 4 3 3 4 3 3 3 3 3 3 3 3 3 3 3 3 3 3 3 3 3 3 3 3 3 3 3 3 4 3 4 3 3 3 3 3 3 3 3 3 3 3 3 3 4 % X # # X 2 3 3 3 3 3 3 3 3 3 3 3 3 3 5 3 4 4 3 3 3 3 3 3 3 3 3 3 3 3 3 3 3 3 3 3 5 3 3 3 3 5 3 3 3 3 3 3 3 3 3 3 3 3 3 3 3 3 3 3 3 3 3 3 3 ",
"3 5 3 3 3 3 4 3 3 3 4 3 3 3 3 3 3 4 3 3 3 3 4 4 3 3 4 3 3 3 3 3 3 3 3 3 3 3 3 3 3 4 3 3 3 4 3 3 3 3 3 3 3 3 3 3 4 3 3 3 4 3 3 3 3 3 3 4 3 3 3 4 3 3 3 3 4 3 3 3 3 3 3 3 3 3 3 4 3 3 4 3 3 4 3 3 3 3 3 3 3 4 4 3 3 5 3 3 3 3 3 3 3 3 3 3 3 3 3 3 3 3 3 3 3 3 3 3 4 3 3 3 3 3 4 3 3 3 3 3 3 3 3 3 % 4 4 3 3 3 3 3 3 3 3 3 3 3 3 4 4 4 3 3 3 3 3 3 3 3 3 3 4 3 3 3 3 3 3 3 3 3 3 3 4 3 3 3 3 4 3 3 3 4 3 3 3 3 3 3 3 3 3 3 3 4 3 3 4 4 3 3 4 3 3 3 4 3 3 3 3 4 3 3 3 3 4 3 3 4 3 3 4 3 3 3 3 3 3 3 3 3 0 3   # # # # # # # # # * # # # * $ # # $ # # # * # * # # # * # * # # # $ # # * # # # * * # # # # * # # $ * # # # # * # # $ # # # * # # # $ # * # # # * # # * * # # * # # * * $ * # $ # # $ # * # * * # # $ # # # # & # & # # # . # # # # # # * # * # # * # # # * * # # $ # # # # $ * # # # # # $ # * # $ # * # # # # * * # # * # $ # # * # # * # # , # # $ # $ * # # # # $ # $ # # $ # # # * * # # # # * * # $ * # $ # # * # $ * # # # $ # # # * # $ * # * # $ * # # # # $ # * # # $ # # & $ # * # # $ * # # # $ # * # # $ # # $ # * # # $ * # # # # * # # # # $ # # # * # $ # * # # # $ # # * # # * # # # * $ * # $ # # * * # # # * # # * $ # # # # # # # # * # * # # * # # $ * # # # & # # # # * # # $ # # # * * * # # * * * # # * # # # * # # # # # * # $ * # * # $ * # # # $ # * # # # * # * # $ # # * # # # # # * # # # # # # # # # $ # & # & # X o # # 2 0 3 3 3 3 4 3 4 3 3 3 3 3 4 4 3 3 3 3 3 3 3 3 3 3 3 4 3 3 3 3 3 4 3 3 3 3 3 4 3 3 3 3 3 4 3 3 3 4 3 3 3 4 3 4 3 3 3 3 3 4 3 3 3 3 3 3 4 3 3 3 3 3 3 2 X # X # & 3 3 4 3 3 3 3 3 3 3 3 3 3 4 3 3 3 4 3 3 3 3 3 3 3 3 4 3 3 3 3 4 3 3 3 3 3 3 3 3 3 3 3 4 3 4 3 3 3 3 3 4 3 4 4 4 4 3 3 3 3 3 3 3 3 3 4 3 3 4 4 3 3 4 3 3 4 4 3 3 3 4 3 4 3 3 3 3 3 3 3 3 3 4 3 3 3 3 3 3 3 3 3 3 3 4 3 3 3 3 4 3 3 3 4 3 3 3 3 3 3 3 4 3 3 3 3 3 3 3 4 3 3 3 3 3 3 3 3 3 3 3 3 3 3 4 % 4 3 3 4 4 3 3 3 4 3 3 3 4 3 3 3 4 3 3 4 3 3 3 3 4 3 3 3 4 3 3 4 3 3 3 3 3 3 3 3 3 3 4 3 3 3 3 4 4 3 3 3 3 3 3 3 3 3 3 3 3 3 3 4 3 3 3 4 3 3 3 3 3 3 3 3 3 3 3 3 3 3 3 3 3 3 q 3 3 4 3 4 3 3 3 3 3 4 4 3 4 3 2 # # X # 3 4 3 3 3 3 3 3 3 3 3 4 3 3 3 4 3 3 3 3 3 4 3 3 3 4 3 3 3 3 3 3 3 3 3 3 5 3 3 3 3 3 3 3 3 3 3 3 3 4 3 3 4 3 3 3 3 4 3 3 3 3 3 3 4 ",
"4 4 3 3 3 4 3 3 3 4 3 3 3 3 3 3 4 % 4 3 4 3 4 4 3 4 3 3 3 3 3 3 3 3 3 3 3 3 3 3 3 3 3 3 3 3 3 3 3 3 3 3 3 3 4 3 3 3 3 3 3 3 3 4 3 4 3 3 4 3 3 3 4 3 3 3 3 3 3 3 3 4 3 3 3 3 3 3 3 3 3 3 3 3 3 3 3 3 3 3 3 3 3 3 3 3 3 3 3 3 4 3 3 3 3 3 4 3 3 3 3 3 3 3 3 3 3 3 3 3 3 4 3 3 3 3 3 3 3 3 3 3 3 3 4 3 0 3 3 4 3 3 4 3 4 3 4 3 3 3 4 4 3 3 3 4 3 4 3 3 4 3 3 3 3 4 3 4 3 4 4 3 3 4 3 3 4 3 3 3 3 3 3 3 3 4 3 4 4 3 3 3 3 3 3 3 3 4 3 0 3 3 3 3 3 4 3 3 3 3 3 3 3 4 3 3 3 3 3 3 3 3 3 3 3 3 3 3 4 3 3 3 3 3 # #   # # * # * # $ $ # # * # # $ * # # # $ * # # # # * # # # # * # # * # # # $ # # # & # * $ # # * # # * # # * $ # # * * # # # # $ # * # # * $ # # * # # # * # # # $ # # # # # # * # * $ # # $ # # * # $ * # * # & # &   # # . # # # # # $ # # * # $ # # * # # * # * # # * * # # # $ * # $ # # * # # # $ # * # # # # $ $ # # * # * # # $ # # $ # # # * * # # # # * * # # * # * # # * * # # # $ $ # # # * # # # # * # # # * # # # * # * # $ # # # # # # * # # # # * * # # # # $ * # * # # * # # # * # # * # # # # # # * * # # # # # # * # # * $ # # * # $ * # # # $ * # # # # # * * # # $ # * # # # $ * # # # $ # * # # $ # # * # $ # # # * # * * $ * # # # # # * # # # # * # # # * # & # $ # # * # * # # $ # # # # * # # # # * # $ $ # # # * $ * # $ # # # # # * # # # # * * # $ # # * # # # $ # * # # * $ * # # # & # * # * # # * * # & $ & # # # # # o 3 3 3 3 3 3 3 3 3 3 3 3 3 3 3 3 3 3 3 3 3 3 3 4 3 4 3 3 3 3 3 3 3 3 3 3 4 3 3 3 3 3 3 3 3 3 3 3 3 3 3 3 3 3 3 3 3 3 3 3 3 3 3 3 4 3 3 3 3 3 3 3 3 3 3 3 # X # X $ 3 3 3 3 3 3 3 3 3 4 3 4 3 3 4 3 3 3 4 3 3 3 3 3 3 4 3 3 3 4 3 3 4 3 % 4 3 3 3 3 3 3 3 3 4 4 3 3 3 3 3 3 4 4 4 4 3 3 3 3 3 3 3 4 3 3 3 3 4 % 3 3 3 3 3 4 4 4 3 3 3 3 3 3 3 3 3 3 3 0 3 3 3 3 3 3 3 4 3 4 3 3 3 3 3 3 3 3 4 3 3 3 3 3 3 3 3 4 3 3 3 4 3 3 3 4 3 3 3 3 3 3 3 4 3 3 0 4 3 3 3 3 3 3 3 3 0 4 3 4 4 4 3 3 3 3 3 4 3 3 3 3 3 3 3 3 3 3 3 4 3 3 3 3 3 3 3 3 4 3 3 4 3 4 3 3 4 3 3 3 3 4 3 3 4 4 3 3 3 3 4 3 4 3 3 4 3 3 4 3 3 3 3 3 3 3 3 4 3 3 3 3 3 3 3 3 3 3 3 3 3 4 3 3 3 3 3 3 3 3 4 3 4 3 4 4 3 3 0 % X # # X 2 3 4 3 3 3 3 3 3 4 3 3 4 3 3 3 4 3 3 3 3 3 3 3 3 3 3 3 3 3 4 3 3 3 3 3 3 3 3 3 3 3 3 3 3 3 4 3 3 3 3 3 3 3 3 4 3 3 3 3 3 3 4 3 3 ",
"4 3 3 3 3 3 4 3 3 3 4 3 4 3 3 3 3 4 3 3 3 3 3 4 3 3 4 3 4 3 3 3 3 3 3 3 3 3 3 3 3 3 3 3 3 3 3 3 3 3 3 3 3 4 3 3 3 3 3 4 3 4 3 3 3 3 4 3 3 3 3 3 4 3 4 3 3 3 3 3 3 3 4 3 3 3 3 3 4 3 3 3 3 3 0 3 3 3 3 4 3 4 3 3 3 3 3 3 3 3 3 3 3 3 3 3 3 3 3 3 3 3 3 3 3 3 3 3 3 3 3 3 4 3 3 3 3 3 3 3 3 3 3 3 3 3 3 3 3 3 4 3 3 4 3 3 3 3 3 3 4 3 4 3 3 3 4 3 3 4 3 3 3 3 3 3 3 3 3 4 3 3 3 3 4 3 3 3 3 3 3 3 3 3 3 3 3 4 3 3 3 3 3 4 3 3 3 3 3 3 3 3 3 3 3 3 3 3 3 4 3 3 3 3 3 4 3 3 3 3 3 4 3 3 3 3 3 4 3 3 3 3 3 3   # # # # # # # # # * # # $ # # * # # * # # # # # * * # # $ * # * # # $ # * $ # # & & # # # # # # # # * # # * $ * # * # # # * * * * # # * $ # # # # $ # # # # # * # # $ # # * # * # # # * # # $ # # * # * $ # # & # # # # # # . # # # * # * # # # * # * $ # # # # # # * # # # # * # & # * # * * # # * * # # * $ * $ # # # * # # # # * # # * # # # # # # # # # * * # # # # # * # * # $ # # # * # * # # $ # # * # # $ $ # # # # # * # # # # # * # # * # # # # # * * # # # $ * # # # # # # # # # # # # # * # # * * * * # # # * # * * * # # * $ # # $ # # # * # # * # # # # # * # $ # # # * # # # # * # * $ # # # # * # $ # * # * # # # * # * # # * # # # * * # # $ # * * # $ # # # * # & # * # # * # * # # * # # # # $ # # * # $ # # # * # # * # # * # # * # * * # # # # * # $ # # * # * # # $ * # * # # * # # # * # * # * # # $ * # $ # # # # # # # X # X # 3 3 3 3 3 3 3 3 3 4 3 3 3 3 3 3 3 3 3 3 4 3 3 q 3 3 3 3 3 3 3 4 3 3 3 3 3 3 4 3 3 3 3 3 4 3 3 4 3 3 3 3 3 3 3 3 3 3 3 4 3 3 3 3 3 3 4 3 3 3 3 3 3 3 3 2 # # # # $ 3 3 3 3 3 4 3 3 3 3 3 3 4 3 3 3 3 3 4 3 4 3 3 4 3 4 3 3 3 3 3 4 3 3 4 3 3 3 3 3 3 4 3 4 4 4 3 3 3 4 3 4 4 4 4 3 3 3 4 3 3 3 3 3 4 3 3 4 4 4 3 3 3 3 3 3 4 4 3 3 3 3 3 3 3 3 3 3 4 4 3 3 3 3 3 3 3 3 3 3 4 3 3 3 3 3 3 4 3 3 3 3 3 4 3 4 3 3 3 4 3 4 3 3 3 3 3 3 3 4 3 3 3 3 4 3 3 4 3 3 3 4 4 3 3 3 3 3 3 3 4 3 3 4 3 3 3 3 3 3 3 4 3 3 3 3 3 3 3 3 4 3 4 3 3 3 3 3 4 4 3 3 4 3 4 3 3 3 3 3 3 4 4 3 4 4 3 3 3 4 4 3 3 3 3 3 3 4 3 3 3 3 3 4 3 4 3 3 3 3 3 3 3 3 3 3 4 3 3 4 3 3 4 3 3 3 3 3 3 3 3 3 3 3 3 4 3 4 3 3 # X # # 3 3 3 3 3 3 3 3 3 3 4 3 3 3 3 3 4 3 4 3 3 3 3 3 3 3 3 4 3 4 3 3 3 3 3 3 3 3 3 3 3 3 3 3 4 3 3 3 3 3 3 4 3 3 3 3 3 3 3 3 3 3 3 3 3 ",
"0 3 3 3 3 3 3 3 3 3 3 3 3 3 3 4 3 3 3 3 3 3 4 4 3 3 3 3 3 3 3 4 3 3 3 3 3 3 3 3 4 3 3 3 4 3 3 3 3 3 3 3 3 3 3 4 3 3 3 3 3 3 3 3 3 3 3 3 3 3 3 3 3 3 3 3 3 4 3 4 0 3 3 3 3 3 4 3 3 3 3 3 4 3 3 3 4 3 3 3 3 3 3 3 3 3 3 3 3 3 3 3 3 3 3 3 3 3 3 4 3 3 3 3 3 3 3 3 3 4 3 3 3 3 3 3 3 3 3 3 3 3 5 3 3 4 3 3 3 4 3 3 3 3 3 3 3 4 3 3 3 3 3 3 3 3 3 3 3 3 4 3 3 4 3 3 3 3 3 3 3 3 3 3 3 3 3 3 3 4 3 3 3 4 3 3 3 3 3 3 4 3 3 3 3 4 3 3 3 3 3 4 3 4 3 3 4 3 3 3 3 4 3 3 3 3 3 4 3 3 3 3 3 4 3 3 3 3 3 3 3 3 3 2 # # # # # # * # $ * # # # * # * # # # * # * # $ $ # # # # * $ # # # # * # * # # * # # # $ * # * # * $ # # $ # # # # # # # $ # # # # # $ # # * # * # * # $ * # $ # # * # # * $ # # # # * # # * # # * # # # # # * $ # # # # . # # # # $ # # # * $ # # # # # # * * # $ # # * # * $ # & # # # # # # # $ # # * # # # # # * # # # * # * # # $ # # * # # $ * # # $ $ # # # # * * # # # $ # # # * * # # # # * # # * # # * # # * # * # * $ # # * # * $ # # # * # * $ $ # # # # * # # * # * # * # $ * # * # * $ # # $ # # # # # $ # $ # # # # # $ # # * # * # * # # # # * # * # $ # * # # * # # # * # * $ # # # # # * * # # # # * # # # $ # * # # # $ # # * # # # $ # # * # # $ # # # * * # # # & # * # $ # # # * # # * * # # $ # # * # # * # # $ # # * # # $ # # # $ # # * # # # * # # * # # # # # * # # # # $ # * # # $ # # & & * $ # # * # # * # $ # # # # # o # 3 4 3 3 3 3 q 3 3 3 3 3 4 3 3 3 4 3 3 3 3 3 3 3 3 3 3 3 3 4 3 3 3 3 3 4 3 3 3 3 3 4 3 3 3 3 3 3 3 3 4 3 3 3 4 3 3 4 3 3 3 3 3 4 3 3 3 4 3 3 3 3 3 3 3 3 X # X # 2 4 4 3 3 3 3 3 4 3 3 3 3 3 3 3 3 3 3 3 3 3 3 3 3 3 3 3 3 3 3 3 3 3 3 4 0 3 3 4 3 3 3 3 3 4 4 4 3 3 3 3 3 4 4 3 3 4 3 3 3 3 4 3 4 3 3 3 4 4 4 3 4 3 3 3 4 4 3 3 3 4 3 4 3 3 3 4 3 % 4 3 3 4 3 3 3 3 3 q 3 3 3 3 3 4 3 3 3 3 4 3 3 3 3 3 3 3 3 3 3 3 3 3 3 3 3 4 3 3 3 3 4 3 3 3 3 4 % 4 3 3 3 3 3 3 4 3 3 3 3 4 4 3 3 3 4 3 3 4 3 3 3 4 3 3 3 4 3 3 3 3 3 3 3 4 3 3 4 4 4 3 3 3 3 3 3 3 3 4 3 3 3 3 3 4 % 4 3 3 3 3 3 3 4 3 3 3 3 3 4 3 3 3 3 3 3 3 3 3 3 3 3 q 3 3 3 3 3 3 3 3 3 3 3 3 3 3 3 3 4 3 3 3 3 3 5 3 3 4 % X # # X % 3 3 4 3 3 3 4 3 3 3 3 3 3 3 3 3 3 3 3 4 3 3 3 4 3 3 3 3 3 3 3 3 3 3 3 3 3 3 3 3 3 3 3 3 3 3 4 3 3 3 3 3 4 3 3 3 4 3 3 3 4 4 3 3 ",
"3 3 3 3 3 3 3 4 3 3 3 3 3 3 3 3 3 3 3 3 3 3 3 3 3 4 3 4 3 3 4 3 3 3 3 3 3 3 3 3 3 3 3 3 3 3 3 3 3 3 3 3 3 3 3 3 3 3 3 3 3 3 3 3 3 3 3 3 3 3 3 3 3 3 3 4 3 3 4 3 3 3 3 3 3 3 3 3 3 3 3 3 3 4 3 3 3 3 3 3 3 3 3 3 3 3 3 3 3 3 3 3 3 4 3 3 3 3 3 3 3 3 3 3 3 3 3 4 3 3 3 3 3 3 3 3 3 3 3 3 3 3 3 3 3 3 4 3 3 3 4 3 3 3 3 3 3 3 3 3 3 3 3 3 3 3 3 3 3 3 3 3 4 3 3 3 3 4 3 3 3 3 3 3 3 3 3 3 3 3 3 3 3 3 3 3 3 3 3 3 3 4 3 3 3 3 3 3 4 3 3 3 3 3 3 3 3 3 4 0 3 3 3 3 3 3 3 3 3 3 3 3 3 3 3 3 3 3 3 3 3 3 3 3 # X # # # # # & # & # & $ # & # & # # # # # & # & # & & # & # # # # # * $ # & & # & # # & # # # # & $ # # & # & & # & # & # # # # & # & # & & # # $ # $ * # # # # # * # & # & & # & # # # # & * # & # # & # # # # # # # # X # # X & & # & # & # # & # # & # # # # # # * & # & # & # # # & # # # # & & # & # & # & # & # & # # # # & & # & & # & $ & # $ * # # # # # * # & # & # & & # # # # & # # & # # & # # # # * # # # & # & # & # # # # # & & # & # & # # # # # * # # & # & # & # # & # # # & # & # & # & # & # $ & & # # # # & # & & # # & $ & # $ * $ * # # & # # & # # # # # # & $ # & & # & # # # # & # & # & & # & # * # & # # & # # # # # # # # & # # & # # # # # # # # & # # # # $ # # # # & $ & # # # $ * # & # & # & # & # & # * # # & # # & # & # & # & & # & # # # # # # # & # & # & # # # & # * & # & # # * # # # & # & # & # # # # #   # 2 3 3 3 3 3 3 3 3 3 0 3 3 3 3 3 3 3 3 3 3 4 3 3 3 3 3 3 3 3 3 4 3 3 3 3 3 3 3 3 3 3 3 3 3 3 3 3 3 3 3 3 3 4 3 3 3 3 3 3 4 3 3 3 3 3 3 3 3 3 3 3 3 3 4 2 # # # X & 3 3 3 3 3 3 3 3 3 3 3 3 3 3 3 3 3 3 3 4 4 3 3 3 3 4 3 3 3 3 3 3 3 4 3 3 3 3 3 3 4 3 3 3 3 3 3 3 3 3 4 3 3 3 3 3 3 3 3 3 3 3 3 3 3 3 3 3 3 3 3 3 3 3 3 4 3 3 3 3 3 3 3 3 3 3 3 3 3 3 4 3 3 3 3 3 3 3 3 3 3 3 3 3 3 3 3 4 3 3 3 3 3 3 3 3 3 4 3 3 3 4 3 3 4 3 3 3 3 3 3 3 3 4 4 3 3 3 3 3 3 3 3 3 3 3 3 3 3 3 3 3 3 3 3 3 3 3 3 3 3 3 3 3 3 3 3 3 3 3 3 4 3 3 3 3 3 3 3 3 3 3 3 4 3 3 4 3 3 3 3 3 3 3 3 3 4 3 3 3 3 3 4 3 3 3 3 3 3 3 3 3 3 3 3 3 3 3 3 3 3 3 3 3 3 3 3 3 3 3 3 3 3 3 3 3 4 4 3 3 3 3 3 3 3 3 3 3 4 2 X # X # 3 3 3 3 3 3 3 3 3 3 3 3 3 3 3 3 3 3 3 3 3 3 3 3 3 4 3 3 3 3 3 4 3 3 3 3 3 3 3 3 3 3 3 3 3 3 3 3 3 3 3 3 3 3 3 4 3 3 4 3 3 3 3 3 3 ",
"3 3 3 3 4 3 4 4 3 3 3 3 4 4 3 4 4 3 4 3 4 4 3 4 4 0 3 0 4 4 3 0 3 3 3 3 3 3 3 3 4 4 4 3 4 4 4 3 4 3 3 4 4 4 4 4 4 3 4 3 3 4 3 4 3 4 4 4 3 4 3 4 4 3 4 3 4 0 3 4 3 4 3 3 3 3 4 4 3 4 4 3 4 3 3 3 4 3 3 3 3 4 4 4 4 4 3 3 4 3 3 3 4 4 0 3 4 4 3 3 3 3 3 3 4 3 4 4 4 4 3 3 3 3 3 3 3 3 4 4 3 4 3 4 0 4 3 4 3 4 3 4 3 4 0 3 3 4 3 4 3 3 3 3 4 3 4 3 4 3 4 0 0 3 4 3 4 3 3 3 3 3 3 4 3 3 3 3 4 3 4 3 3 3 3 3 4 4 3 4 4 0 3 4 3 3 3 3 3 3 4 4 3 4 4 3 4 4 4 0 3 3 3 3 4 0 3 3 3 3 4 3 4 0 4 3 4 4 3 3 3 3 0 2 X # # X # # & & & # # & # $ # & & & # # # & # * # $ & # & # # # # * # # # $ # & & # # # & # # # & # & # & # & # & & # $ & # # # & # & & & & # & $ # $ # # # # # * # $ # # & & # & # # # # & # # $ # & & # & # # & * # & # X X # # # & & # & * & & & & & # & # # * # # # # $ # & & & # # # # # # & # & # & & # & # & $ $ # # # # & & # & # # & # # # $ $ * # * # * # $ # # & # & & # # # # & # * $ # & & # & # # & # # * & $ & # # & # # * # # * # # # & & & # # # & * # & & & # # & # # # & # # # & # # & & # & # & $ # & # # # & # & & # & & # # # $ $ # # # # & & & & # & # # * # # * & & # & & # # # # & # * # & & # & # # # & # & & # & # # & * # * $ & & & # & # # & * # & # $ & & * # * # # # # # * # # # # # # # $ & # & * & # # # & * # $ # & & # & # * # & # & & # # # # * * & & & & # & # # # & # # # # & # & # # # * & & & # * # # # # # # # # 2 0 4 3 4 3 3 3 3 4 3 4 3 4 3 4 3 4 4 3 4 3 4 3 4 3 3 3 3 4 0 0 3 4 3 3 4 3 3 3 3 3 3 3 4 4 4 4 4 3 4 3 3 3 4 3 4 3 4 0 4 3 4 3 3 4 4 3 4 3 3 3 3 3 4 2 # X # # $ 4 3 3 3 3 3 4 3 3 3 3 3 3 4 3 3 3 3 4 3 0 3 4 3 4 3 4 4 4 3 4 3 4 4 3 3 3 3 4 4 3 0 3 3 3 3 4 3 0 3 3 3 4 4 3 3 3 3 3 3 q 0 4 4 3 3 3 3 4 3 4 0 4 3 4 3 3 3 3 3 3 0 4 3 4 3 3 4 3 4 3 4 3 4 4 0 4 3 3 4 3 3 3 0 4 3 4 0 3 4 3 4 3 3 3 3 4 3 4 3 3 0 4 4 0 3 3 3 3 3 4 3 4 4 3 3 4 3 4 4 3 4 3 3 3 3 3 3 3 3 3 3 3 3 3 3 3 3 3 4 3 3 3 3 3 3 4 0 4 3 4 3 3 3 3 3 3 3 3 3 3 3 4 3 3 3 3 4 3 4 3 3 3 3 4 4 0 3 4 3 4 4 4 0 4 3 4 4 3 3 3 3 3 4 4 4 4 3 4 4 3 3 4 4 3 4 4 3 4 4 4 3 4 4 3 4 4 4 4 3 4 4 4 3 3 3 4 3 4 2 # X # X 2 3 3 3 3 3 3 3 3 3 3 4 3 4 3 4 4 4 4 3 3 3 3 3 4 3 4 0 4 3 4 3 4 3 4 3 3 4 4 4 3 4 3 4 4 4 4 3 3 4 3 3 3 3 4 3 3 3 3 4 3 4 3 4 4 ",
"3 & 2 3 3 & 3 & 3 & 2 3 3 & 3 2 3 2 3 2 3 2 3 2 3 2 2 2 3 2 2 2 3 2 3 3 % 3 3 2 3 2 2 * 3 2 3 2 2 & 3 2 3 & 3 3 3 2 3 * 3 2 3 2 3 2 2 3 3 2 3 2 2 2 3 2 2 2 3 2 3 2 3 & 2 & 3 2 2 2 3 2 3 & 2 2 3 & 2 3 3 & 3 & 3 2 3 2 3 * 2 3 3 2 2 2 3 2 3 2 3 * 2 3 3 & 3 & % 3 % 2 3 2 3 3 3 2 2 3 3 2 3 2 2 2 3 2 2 2 3 2 3 & 2 2 2 * 3 2 & 3 3 2 3 2 3 2 2 & 3 2 2 2 2 2 3 2 3 & 2 2 3 2 2 3 3 2 3 2 3 2 3 & 3 3 3 & 2 3 3 2 2 2 3 2 2 3 3 2 2 2 3 2 3 2 3 2 2 2 3 2 2 3 3 2 3 2 2 2 3 2 2 2 3 2 3 2 3 2 2 2 3 2 X # X # # # # # # # # # # # # # # # # # # # # # # # # # # # # # # # # # # # # # # # # # # # # # # # # # # # # # # # # # # # # # # # # # # # & # # # # # # # # # # # # # # # $ # # # # # # # # # # # # # # # # # # # # # # # # # X & # # # # # # # # # # # # # # # # # # # # # # # # # # # # # # # # # # # # # # # # # # # # # # # # # # # # # # # # # # # # # * # # # # # # # $ # # # # # # # # # # # # # # # # # # # # # # & # # # # # # # # # # # # # # # # # # # # # # # # # # # # # # # # # # # # # # # # # # # # # # # # # # # # # # # # # # # # # # # # # # # # # # # # # # # # # # # # # # # # # # # # # # # # $ # # # # # # # # # # # # # # # # $ # # # # # # # # # # # # # # # # # # # # # # # # # # # # # # # # # # # # # # # # # # # # # # # # # # # # # $ # # # # # # # # # $ # # # # # # # # # # # # # # & # # # # # # # # # # # # . #   # # 2 3 2 3 2 2 2 2 2 3 2 3 2 3 3 3 2 3 2 2 2 3 2 3 2 3 & 2 2 3 2 2 2 2 2 3 2 3 2 2 2 3 2 2 2 3 2 3 2 3 2 3 2 2 3 3 2 3 2 3 2 3 2 3 2 3 2 3 2 3 & 2 2 3 2 & # X # # # 3 2 2 3 2 3 3 2 3 & 2 * 3 2 2 3 2 3 3 2 3 2 3 2 3 * 3 & 2 3 3 & 3 2 3 2 3 3 3 2 2 2 3 2 2 3 3 2 & 2 3 2 2 2 3 2 2 3 3 2 2 2 % % 3 % 3 2 3 3 2 2 2 2 3 2 2 2 2 2 3 2 3 2 * 3 3 2 3 2 2 & 3 2 2 2 2 2 3 2 2 2 2 2 3 2 2 2 3 2 3 2 3 & 2 2 3 2 2 2 2 2 3 2 3 2 3 & 3 3 3 & 3 & 3 2 3 2 3 2 3 2 3 2 2 3 3 & 2 3 3 2 $ 2 2 3 2 3 3 % 3 3 2 % 3 2 2 2 3 2 3 2 3 2 2 2 3 2 & 3 3 2 3 * 3 2 3 2 3 2 3 2 2 3 3 2 3 2 3 2 3 2 2 2 3 2 3 2 3 & 2 2 3 2 2 2 3 2 3 2 3 2 3 2 2 2 3 2 3 2 3 2 3 2 3 2 3 2 3 2 2 2 3 2 3 2 3 2 3 2 X # # # % 3 2 3 2 3 3 2 2 3 2 3 3 2 3 2 2 & 3 2 2 3 2 3 3 2 3 2 2 & 3 2 3 2 * 3 3 2 3 2 3 2 3 * 2 2 3 2 3 2 3 & 2 2 3 2 2 3 * 3 3 3 3 3 3 ",
"# # # # X # # X # # # # X # # X # # X # X # # X # # X # # # # X % % X # # # X # X # # # X # X # # # # # # X X X X # X # # X # # X # # X X # # X # # # # # X # # # X # # # # # # # # X # # # # # # # # X # # # X # # X # X # # . # # # X # # X # X # # X # # X # % % # # X # X # X # # X # X # X # # # # # X # # # # # # # # # # # # X # X # # X # # # # # # # # # X # # # # # # # X # # # X # X X # X # X # # X # # # X # # # # # # # # X # # X # # X # # # X # # X # # # # # # # X # X # X # # # # # # # X # # X # X # # # # # # X # # # # # # # # # # # X # # # # # # # # # # # X # # # # # # # # # # # # # X # # . # # # # X # # # # # # X # # # X # # X # # # # # # # # # # # # X X # # # # # # # # # # X # # # # # # # # # X # X X # X # X # # # # X # X # # # # # # # # # # X # # # # # # # # # # # # # # # # # . # # # X # # # # # # X # # # # # X # X #   # # . #   # # # # X X # # # # # # # # # X # # # # # # # # # # # X # X # # # # # # # # # # X # # # # # # # # # X # # X # # # # # # # # # # # X # # # . # # # X # # # # # # # X # # # # X # X # # # # # X # # X # # # # # # # # # X # # # # # # # # # # # X # X # # # # # X # X # # # # # # # # X # X # # # # # # # # # # X # # # #   #   # # # # # # # # # # # # X # X # # #   # # # # # X # X # # # # # # X X # # # # # # # # X # X # # # # # # # # # X # # X # # # # X # # X # # # # # # . # # X # # # # # # # # # # # X X X # # X # # # X # # X # # # # # # # # # # # X # # # # # $ # X # # X # X % X # # X # X # X # X # # X # X # # X # # # # # # # X # X X # X # X # # X # X # # # # # # # X # X # X # X # # X # # X # X # # X # X # X # # # # X # # # X # # # # # # # X # # X # # # X # % % # # X # X # # # # # # # # # # # # # # X # X X # X # # # # # # # # # # # # # # # # # # X # X # X # # # # # # # # # # # X # X X # X # X # # X # # X # X # # X # # # X # # # # # # # # # # . # % % o # # # # # # X # X # X # # # # # # # # X # X # X # # X # # # X # X # X # X # X # # # X # X # X # # # # # # # X # # # X # # # # # X # # X # # # X # X # X # # # # X # # # X X # X # X # X # # # # X # X # # # X # # X # # X # # # # X # # X # X # X # # # # # X # X X # X # # # X # # # X # # X # # # # # # # # X X X X X X # ",
"X # # X # # X # X # X # # X # # X X # X # X # # X X # X # X # # X # X # X X # X X # X # # # . # # # X # X # X # # X X # X X # X # X # # # # # # # # # X # X # X # X # X # X # X X # X X # # # X X # X # # X # # X X # X # . # # X X # X X # X # # X # # X # X # # X # X # # X # # # X # # # X # # # X # # X # X X # # X # # X # X # X X # o o # # # X # X # X # # X X # # # # X # X # X X # # X # # X # # X # # X X # X # X # X # X # # # X # # X X # X X # X X X # X # # # # o # X # # X # # X # # # # X # # X X # # . # # # . # X # X # X X # # # . # # . # X X # X # # # #   # X # X # X # X #   # # # X # # # #   # # X # # #   # # X # X # # # # . # X # X # .   # # # # # # X # # # X X # # # # # . # # X X # # . #   # # # # X # # o # o #   . # . # X # X # X # # #   # # X # X # # X # # . # # # X # X # # # . # X # # # #   # X # X X # # . # X # X # # # # # # #   # # X # # # X X # # # # # . # # X # # X # # # . # # X # # # # # # #   . # # . # X X # # X # # #   # X # # # X # # # #   # # X # # # # # . # X # # #   # # # # X # # # . # X # X X # # . # # . X # # X # # #   # # # X # X # X # X # # # # X # X # # # . # # . # # # X # # #   # # X # X # % X # X # # # # . # # X . # # # # # #   # X # # # #   # # X # # # # # o # # # # X # # # # # . # # . X # # # . # # #   # X # X # # X X # # # . # . # X # # # # # #   X # # X # # # X # # # X # X # X X # # # X # X # X # X # X # X # X # X # X # # # X # X # X # X % X # # # X # # X # X # X X # # X X # # # X # # X # # X # X # # # # o # # # X # X # # # X # X # # X # X # # X # # X # # X # # # # # o X # # X # X # # X # X # X # # X # X # X # X # # # X # # # X # # # # o # # # X # X # # X # # # X X # # X # # X # # # # # X # X # # X # # # # X # X # X X # # # # # # # X # X # # # X # X # # # o X # X # # # X # # # X # # X # # X X # X # X # # X # # X # X # X # # # . o # # # X # X # # o # # # X # # # X X # # # X # X # # X # # X # # X # # # X # # # X X # # X X # X # # # # X X # # o # # X # # X # X # X # # X # X # X # X # # X X # X X # # X # # X # # # # X # # X # X # X # # # X # X # X # X # X # # # # # # X # X # X # # . # # # X # # X # X # X # X # X # X # # X # X # X # o # # # . # # X # # X # ",
"# X X # X # # X # X X # X # # X # # X # X # # X # # X # X # # X # X # # # # X # # # # X X X # # # X # # # X # # X # # X # # X # X # # X o # o o # X # X X # X # # # X # # # X # # X # # X o # # # X X # X # # X # # X # # . X # # # X # # # # X X # # X # # # X # # X # # X # X X # # X X X # X # X # X X # X # # X # # X # # X # # # # # # # # # X # # X # # X X # # X # X X # # X X # # # X # X # # X X # X # # # X # X # X # X # # X X # # X # # X # # X # # # X # # # X # # X # X # # # X # # o X # # X X # # # X # #   # # # X X # X # # X #   # # # # . # # X # # #   # # # X X # # # X # # # #   . # # X # #   # X # # X # # #   # # # X # . . # # X X # . # # #   # #   X # # X X # # X   # . # . # # X # # . # # # #   X # # X # # # # # # # # X # # X # X # # # #   # # X X # X X # # # # # . # . X # #   # # X # # X # # . # # # # # # . . # # # # X     # # # # # # X # # X X # # X   # . # . # X # X X # X   # . # X # # X o o # o # # # # X # # X # X # # #   # # X # # X X # X X # # . # . # # X #   # # X # X # # # #   X # # X # . . # # # # # # # # # . # # # X # X X # # #   # X X # # # X % #   . # # X # # #   # # . # X # X # X X # # #   # # # X X # X %   # . # # X . # . #   # #   # # # # X . # #   # X # X # # o # # #   . # # X X # #   # # # # # # X X # #   # # # # # # X X # # X # # # # X # # X #     # # # # # X # X . . # # . # X X # X # # X # X # # # X # # # X # # X # # X # X # # # X X # # # # X # X # X # X # X X # X # X # # X X # # # X X # X X # # X # # # X # o # # # X X # # # X # X # X # # X # # # X # # # X # X X # X # # o # # # X X # # # X # # X # X # X X # X # # # X # X # X # # X X # X # X # X # o # # X # X # # # o X # # X X # X X # X o # X # # X # # X # X X # X X # # X # # o o # o # X X # # # X # # # X # # X # # # # # X X X # X X # # X X # # X # # X # X # # X # X X # # X X # # o # # # # o # # X # # # # # X X # X # X # # X o # # # # X # . X X # X X # # X X # X # X # # # X # # # # X X # X # # X # # # . # X X # # # X # X # # X # # # X # X X # # X # # X # # X X # X # # X # X # X X # X # X X X # # # # X X # X # X X X # X # # X # # # # X # # X X # . # # X # X # # # X # # X # # X # # X # # # # . # X X # # X # # X ",
"# # # X # X # X # # # X # X # # # # # X # X # # X # # X $ # o % X # # X # # # X # . # # # X # . X # X # X # # X # X X # # # # X # X # X # # % # X X # # # # X # X # # # X # # X # # X # # X # # # # # X # X # X # # # X # # # # # # # X # X # # X # X # # . # # X # # # X # X # # X X # # X # # X X # # # # X # X # # X # X X # # X # X o # # # X # # X X # # # # X # # X # # X # # X # X # # X X # X # # # X X # # # X X # # # # X X # # X # # X # # X # # # # X # # X # X X # # # X # X # # # # # . # X # X # X # # # . # . # # # X # # X % % # # . # X # X # X # # . # # . # # # X # X # # # # # # . # # # # # # # . # X # # # # # . # X # # . # # # # # # % # # # # # # #   # X # # # X # # # # # # # X # # X # # # # # . # # X # X o # % #   # # # # X # # X # # X # # # # # # X # # X # X # # . # # # # . # # . # # X # # # # # # # . # # # # # X # X # % # # # # # #   # # X # # # X # # # # # # # # X # # X X # # # # . # X # X # # % #   # # # # X # # X # # . # #   # # X # # # X # # X # # . # # X # # # . # X # # # # # # . # . # # . # # # # X # %   # # # # # # X # X X # # # #   X # # # X X # X # # . # X # # X # # . # # # . # # X X # # # #   # X X # # X % X # # # # X # # # # # # # # # # # X # # # # # # . # # X X o # % #   # # # X # X # # # . # . # # X # X # . # #   # # X # # # X % %   # # # # . # # # # # # . # # X # X # # X # X # # # X # # X % % X # X # X # # X X # # X # X # # X # # X # X # X # X X # X # % % X X # # # # X # # X # # # X # X # X # # X # X # # X # X o # % # X # X # X # X # # # X # X # X # X # # X # X X # # # X X o # % # X # # X X # X # # # X # X # # # X # X X # X # # X # X # # # X # X # # X # # # % X # # X X # # X # # X # # X # # # X # X X # # X # X # # X # # X # # # X # # % # X # X # X # X # X # # # X X . # # X # # # X # # X # X # # X # X # # # X # X # # # # # X # # X # # X . # # # o % X # # X # X X # # # X # # X # # # X # X X # # # # X # # X # X # X # # # # X # o # X # X X # X # # X # # X # # . # # X # X # # X X # X # # X # X # # # X X # # # X # X # # X # # X # X # X # # # # X # # X # X # X # # # # X $ # # X # X X # X # X # # # X # # X # # X # X # # . X # # X # X # # X # # # X X X # # # X # X # # X # ",
"$ & & & & & & & $ & & & & # $ & $ & & & & # $ & & & $ 2 % % % % & & & % # 2 % 2 & & & & & & & & $ & & & & & $ # & & & $ $ & & & & # $ $ $ # % % $ $ & & & & & & $ # & & & & & $ & & & & $ $ 2 % # & & & & & & $ $ & & & & & # & $ & & & & & # & & & & & & & $ & $ # & & & 2 % % $ 2 & & & $ 2 2 $ $ & & & & & & & & & & & & $ $ & & & $ $ $ % % & & $ # & & & & & & & & & & $ $ & & & & & & & & & & & & & & & $ $ & % 2 2 # $ 2 & & $ # & # $ & & & $ 2 2 % % 2 & & & & & $ # $ & & & & & # & & # $ & & $ & & & & $ & & & & $ # % 2 2 % 2 2 % 2 # # # & $ & & & & & & $ # & # # & & & & & # & & # & & # & # # # # & & & & & $ & # * & # & & # & & & $ # 2 % % % # # & # # & & # & # $ & & & * & # # # # $ # & & & $ & # # & & # & & & $ $ $ % % # & # # $ & & & & & $ # # # # # & & & & & $ * & # & & # & & & $ # & & # & # $ * # # # # & & # & # & & & % % % % # # $ # # # $ # & # $ & & & * & # # # # $ # & & & & $ $ # * & & & & $ $ # $ % % # & # # $ & & & & & & $ # $ # # & & $ & & & & & & $ * # & & & # # & & # & $ # * # * & # & & $ & & & & # % % % % # # # # # & # $ & & $ $ # * # # $ 2 % % 2 2 % 3 # # # * & & $ # # # & & $ & & & & & $ # $ * # # & $ 2 2 2 2 2 % # # # # & & # & * $ # $ # # # # $ # * # # & & # & & & $ $ $ % % # # # * $ & & & # # # & & & $ # & & & $ # & # # & & % % 2 % 2 2 # # # # $ $ & & # # # # # & # $ & & & & & & & $ % 2 2 % 2 2 % 2 $ % & & & & $ # & & $ # & & & & & & & & & & $ $ 2 & & % 2 2 % 2 $ $ & & & & & & 2 2 % 2 2 $ & & & & & & & & $ # & & # $ $ $ % % $ $ & & & & & & & & & & & & & & & & & & & & $ $ & & & $ $ $ % % & & $ $ & & & & # & & & & $ $ & & & $ 2 2 # $ 2 & & # $ & & & & & & $ $ 2 % % % & & & & $ 2 $ $ & & 2 & & $ & 2 $ $ $ & & & & & & & & & & & & $ & & & # $ $ % % $ $ & & & & & & & & & & & $ $ $ & & # & & & & & & & & & & & & $ $ & & & & # $ & $ & & & & & & & & # $ $ 2 % % % & & & & & # $ $ & & & & & $ 2 2 $ $ $ & & & & & & & & & & & $ # 2 # $ % 2 % 3 % $ $ & & 2 2 & & & & & & & & $ $ & & & % 2 % 2 2 & & # $ & & & # $ & & & $ $ $ 2 & & # $ & & $ & & & & & $ $ $ % & & & & % 2 % # & $ $ & & & % 2 # $ $ & 2 & & & & # & & & & & $ & & & & & & & & & & $ # & & & & & & & & & $ $ $ & & & & & & & & # ",
"3 3 4 3 4 3 4 3 4 3 3 4 3 4 4 3 3 3 4 3 3 4 3 4 4 3 4 3 4 3 3 4 3 4 3 3 4 3 4 3 4 3 4 3 4 3 3 4 3 4 3 4 4 3 3 4 4 4 4 3 3 4 3 4 3 4 3 4 3 4 3 4 3 3 3 4 4 3 4 3 3 3 3 4 3 3 3 3 3 4 3 4 3 3 3 3 3 3 4 3 3 4 3 3 4 3 3 4 3 4 4 3 3 3 3 4 3 4 3 3 3 4 3 4 3 3 3 0 3 3 3 3 4 3 3 4 3 4 3 3 4 3 3 3 3 4 4 3 3 3 3 4 3 3 3 3 4 3 4 3 3 4 3 4 3 4 3 3 3 4 3 3 4 3 4 3 4 3 3 4 3 3 4 3 4 3 4 3 3 4 3 4 4 4 3 4 3 4 3 3 4 3 4 3 4 3 3 3 3 4 4 3 3 3 3 4 q 3 3 3 3 3 4 3 3 4 3 3 4 3 3 4 3 4 3 4 4 3 3 3 3 4 3 4 4 3 4 3 3 3 3 4 3 4 3 3 4 3 3 3 3 4 q 3 3 4 3 4 3 4 3 3 4 3 3 4 4 3 4 3 4 3 4 3 3 3 4 3 3 3 3 4 3 4 3 3 4 3 3 0 4 4 3 3 3 3 3 3 3 4 3 3 3 3 3 3 4 3 3 4 3 4 3 4 4 3 4 3 4 3 3 4 3 3 4 3 4 3 4 3 3 3 3 3 3 3 3 4 3 4 3 3 3 4 3 4 3 3 4 3 3 3 3 q 3 4 3 4 3 3 4 3 3 4 3 4 3 4 3 3 4 3 3 4 3 3 3 4 3 4 3 3 4 3 4 3 4 3 3 3 3 3 4 3 3 3 3 4 q 3 3 5 4 4 4 3 3 3 3 3 4 3 3 3 3 4 3 4 4 3 4 3 4 3 4 3 4 3 4 3 4 4 3 4 3 4 3 3 4 3 4 4 4 4 3 4 4 3 4 3 3 3 3 q 4 4 3 3 4 3 3 3 3 3 3 4 4 3 4 3 4 3 3 3 4 3 4 3 4 3 4 3 3 4 4 3 3 3 3 3 3 3 3 4 3 3 4 4 4 3 4 3 3 4 3 4 3 4 3 4 4 4 4 3 3 3 3 4 q 3 3 3 3 3 4 3 3 4 3 4 3 3 3 q 3 4 3 3 3 4 3 4 4 4 4 3 4 3 4 3 4 3 3 3 3 4 w 3 3 4 3 4 3 3 3 3 4 3 4 3 3 3 3 3 3 3 3 4 3 4 3 3 3 4 3 4 3 4 3 3 3 3 3 3 3 4 3 4 3 4 3 4 3 4 3 4 4 4 4 3 3 3 3 4 q 3 3 3 3 3 3 4 3 3 3 q 3 4 3 4 4 3 4 3 4 3 4 3 4 4 3 4 3 4 3 3 4 3 3 3 3 4 q 3 3 4 3 4 3 4 3 4 3 4 3 4 4 3 3 4 4 3 4 3 3 4 3 4 3 4 3 4 3 3 3 3 3 3 q 3 4 3 4 3 4 3 4 3 3 3 3 3 4 3 3 4 3 3 4 3 4 3 4 3 4 3 4 3 4 3 3 4 3 4 4 3 3 4 3 4 3 4 3 4 3 4 4 3 3 3 3 4 4 3 4 3 4 3 4 3 3 4 4 4 3 3 q 3 3 3 4 3 3 4 3 4 4 3 3 4 3 4 4 3 3 3 4 3 3 4 3 3 5 4 4 4 3 4 4 3 4 3 4 3 3 4 3 4 3 3 4 3 3 4 3 4 4 3 4 3 3 3 3 3 4 3 3 3 4 3 4 3 4 3 4 3 4 3 4 3 3 4 3 4 3 4 3 4 4 3 4 3 3 4 3 4 3 3 4 3 3 4 3 4 4 4 4 3 3 4 3 4 4 3 4 3 4 3 3 3 3 3 4 3 3 3 3 4 4 3 4 4 3 3 4 3 4 4 3 3 3 4 3 4 3 4 3 3 4 3 3 4 4 3 4 3 3 3 4 3 4 3 3 4 3 4 3 3 3 4 3 4 3 3 4 3 3 4 3 4 4 3 3 3 4 3 4 3 4 3 4 3 4 3 4 3 3 3 3 3 3 3 3 3 4 3 4 3 4 3 3 4 3 4 4 3 3 3 3 4 3 4 3 3 3 3 3 3 0 3 3 3 4 3 4 3 3 3 0 3 3 3 0 3 4 3 3 3 3 4 3 4 4 3 4 4 3 3 3 4 3 4 3 3 4 4 4 4 3 4 3 3 4 3 4 4 4 4 4 4 4 3 4 3 4 4 3 4 3 4 3 3 4 3 4 3 3 ",
"3 3 3 3 3 3 3 3 3 3 3 3 3 3 3 3 3 3 3 3 3 3 3 3 3 3 3 3 3 3 3 3 3 3 3 3 3 3 3 3 3 3 3 3 3 3 3 3 3 3 3 3 3 3 3 3 4 4 3 3 3 3 3 3 3 3 3 3 3 3 4 3 3 4 3 3 3 3 3 3 3 3 3 3 3 3 3 4 3 3 3 3 3 3 3 0 3 3 3 3 3 3 4 3 3 3 3 3 3 3 3 3 3 3 3 3 3 3 3 3 3 3 3 3 3 3 3 3 3 3 3 3 3 3 3 3 3 3 4 3 3 3 3 4 3 3 3 3 3 4 3 3 4 3 3 3 3 3 3 3 3 3 3 3 3 3 3 3 3 3 3 3 3 4 3 4 3 3 3 3 4 3 3 3 3 3 3 3 3 4 3 3 3 3 3 3 3 3 3 3 3 3 3 3 3 3 4 3 3 3 3 3 3 4 3 3 3 3 3 3 4 3 3 3 3 3 4 3 3 3 3 3 3 3 3 3 3 3 3 4 3 3 3 3 3 3 3 3 3 3 3 3 3 3 4 3 3 3 3 4 3 3 3 3 3 3 3 3 3 3 3 3 3 4 3 3 3 3 3 3 3 3 3 3 3 4 3 3 3 3 3 3 3 3 4 3 3 3 3 3 3 3 4 3 3 3 3 3 3 3 4 3 0 4 3 3 3 3 3 3 3 3 3 3 3 3 3 3 3 3 3 3 4 3 3 3 3 3 3 3 3 4 3 3 3 3 3 4 3 3 3 3 4 3 3 3 4 3 3 3 3 3 3 3 3 3 3 3 3 3 3 3 3 3 3 3 3 3 3 3 3 3 3 3 3 3 3 3 3 3 3 3 3 3 3 3 3 3 4 3 3 3 3 3 3 4 3 3 3 3 3 3 3 3 3 3 3 3 3 3 3 3 3 4 3 3 3 3 3 3 3 3 3 3 3 3 3 3 3 3 3 4 3 3 3 3 3 3 3 3 4 4 3 3 4 3 3 3 3 3 3 3 3 3 3 3 4 3 3 3 3 4 3 4 3 3 3 3 3 3 3 3 4 3 3 3 3 3 3 3 3 3 3 3 3 3 3 3 3 3 3 4 3 3 4 3 4 4 3 3 3 3 3 3 3 3 3 3 3 3 4 4 3 3 3 4 3 3 3 3 3 3 4 3 3 3 3 3 3 3 3 3 3 3 3 3 3 4 3 3 3 3 4 4 3 3 3 3 3 3 3 3 3 4 3 3 3 3 3 3 3 3 3 3 3 q 3 3 3 3 3 4 3 3 3 3 3 4 3 3 3 3 3 4 3 3 3 3 4 3 3 4 3 4 3 3 3 3 3 3 3 3 3 3 3 3 3 3 3 3 3 4 3 3 3 3 3 3 3 3 3 3 3 3 3 3 3 3 3 3 3 3 3 3 3 3 3 3 3 3 3 3 3 3 3 3 3 3 3 4 3 3 3 3 3 3 3 3 3 3 3 3 3 3 3 3 3 3 3 3 4 3 3 3 3 3 3 3 3 3 3 3 3 3 3 3 3 3 3 3 3 3 3 3 3 3 3 3 3 4 3 4 3 3 3 4 3 3 3 3 3 3 3 3 3 3 3 3 3 4 3 3 3 3 3 3 3 3 3 3 3 3 3 3 3 3 3 3 3 4 3 3 3 3 3 3 3 3 3 3 3 3 3 4 3 3 3 3 4 3 3 3 3 3 3 3 3 3 3 3 3 3 3 3 3 3 3 3 3 3 4 3 3 3 3 3 3 3 3 3 3 3 3 3 3 4 3 3 3 3 3 3 3 3 3 3 3 3 3 3 3 4 3 4 3 3 3 4 3 3 3 3 3 3 3 3 3 3 3 3 3 3 3 3 3 3 3 3 3 3 3 3 3 4 3 3 3 3 3 3 3 3 3 3 4 3 3 3 3 3 3 3 3 3 3 3 3 3 4 3 3 3 3 3 3 4 3 3 3 3 3 3 3 3 3 3 3 3 3 3 3 3 3 3 3 3 3 3 3 3 3 3 3 3 3 3 3 3 3 3 3 3 3 3 3 3 3 3 3 3 3 3 3 3 3 3 3 3 3 3 3 3 3 3 3 3 3 3 3 3 3 3 3 3 3 3 3 3 3 3 3 3 4 3 3 3 3 3 3 3 3 3 3 3 3 3 3 3 3 3 3 3 3 3 0 3 3 3 3 3 3 0 3 3 3 3 3 3 3 3 3 3 3 3 3 3 3 4 3 3 3 3 3 3 3 4 3 3 3 4 3 3 3 3 4 4 3 3 3 3 4 3 3 3 4 4 3 4 4 4 3 3 3 3 4 4 3 3 3 3 4 3 3 3 3 3 3 ",
"3 3 3 3 3 3 3 3 4 4 3 4 3 3 3 4 3 3 3 3 4 4 3 3 4 4 4 4 3 3 3 4 4 3 4 3 3 3 3 3 3 3 3 4 4 3 3 3 3 3 3 3 3 3 3 3 4 3 3 3 3 4 3 3 3 4 4 3 3 4 3 3 4 3 3 3 3 3 3 4 4 4 3 3 3 3 3 3 3 3 3 3 0 3 0 0 4 3 3 3 3 4 3 3 4 3 3 3 3 3 3 3 3 3 3 3 4 3 4 3 3 4 3 4 4 3 3 4 3 3 4 3 4 3 3 3 3 4 3 3 3 3 3 3 3 3 4 3 4 3 3 3 3 3 3 3 3 3 3 4 3 3 3 3 3 4 3 3 4 4 3 3 3 3 3 3 3 3 3 3 3 3 4 3 3 3 3 3 3 3 3 4 3 3 3 4 3 3 4 3 3 3 3 3 3 4 3 3 3 3 4 3 3 3 3 3 3 3 3 3 3 3 3 3 4 3 3 3 3 3 3 3 3 4 3 3 3 3 3 3 3 3 3 3 3 3 3 3 3 3 3 4 3 4 3 3 3 3 3 3 3 3 4 3 3 3 3 3 3 3 3 3 3 3 3 3 3 3 3 3 3 3 3 3 3 3 4 3 3 3 3 4 4 3 3 3 3 3 3 3 3 4 3 3 3 3 3 3 3 4 3 3 4 4 3 3 3 3 3 4 3 3 3 3 3 3 3 3 3 3 3 3 3 3 4 3 3 3 3 4 4 3 3 4 3 3 3 3 3 3 3 4 3 3 3 3 3 3 4 3 3 3 3 3 3 3 3 3 3 3 3 4 3 4 3 3 4 3 4 3 3 3 3 3 3 3 3 4 4 3 4 3 3 3 3 3 3 4 3 3 3 3 3 3 3 3 3 3 3 3 3 3 3 4 4 4 3 3 3 3 3 3 3 3 3 3 3 3 3 3 3 3 3 3 4 3 3 3 3 4 3 3 3 4 4 3 4 3 4 3 3 3 3 4 3 3 3 3 3 3 3 3 3 3 3 4 3 3 3 3 3 3 3 3 3 3 3 3 3 3 3 4 3 3 3 3 3 3 3 3 3 3 3 4 3 3 3 3 3 3 3 3 3 3 3 3 3 3 4 3 3 3 3 3 3 3 3 3 3 3 3 3 4 3 3 3 3 3 3 3 3 3 3 3 3 3 3 3 3 3 3 3 3 3 3 4 3 3 3 3 3 3 3 4 3 3 3 3 3 3 3 3 3 3 3 3 4 3 3 3 3 3 3 3 3 3 3 3 4 3 4 3 3 4 3 3 3 3 3 3 3 4 3 3 4 3 3 3 4 3 4 3 3 3 3 4 3 3 3 3 3 3 3 3 3 3 3 3 4 3 3 3 3 3 3 3 3 3 3 3 3 4 3 3 3 3 3 3 3 3 3 3 4 3 3 3 3 4 3 3 3 4 3 3 4 3 3 3 3 3 3 3 4 3 3 3 3 3 3 3 3 3 3 3 3 3 3 3 3 3 3 3 3 3 3 4 3 3 3 4 3 4 w 3 3 3 3 3 3 3 3 3 4 3 3 3 3 4 4 3 3 3 3 3 3 3 3 3 3 4 3 3 3 3 4 3 3 3 3 3 3 3 3 3 3 4 3 3 3 3 3 3 3 3 3 3 4 3 3 3 3 3 4 3 3 3 3 3 3 4 3 4 3 5 3 3 3 3 3 3 3 3 3 4 3 3 3 3 3 3 3 3 4 3 4 3 3 3 3 4 3 3 3 3 3 3 3 3 4 3 3 3 3 3 3 3 3 4 3 3 3 4 3 4 3 3 3 3 3 4 4 3 3 3 3 3 3 3 3 3 3 4 3 3 3 3 4 3 3 3 3 3 3 3 3 3 3 3 3 3 3 3 3 3 3 4 3 3 3 4 4 3 3 3 3 3 3 3 3 4 3 3 3 3 3 3 3 4 3 3 3 3 3 3 3 3 3 3 3 3 3 3 4 3 3 3 3 3 3 4 4 3 3 3 4 3 4 3 3 3 3 3 3 3 4 3 4 3 3 4 3 3 3 4 3 3 4 3 3 3 3 3 4 3 3 3 3 3 3 3 3 3 3 3 3 3 3 4 3 3 3 3 3 3 3 3 3 3 3 3 3 3 3 3 3 3 3 4 3 3 3 3 3 3 4 3 4 3 3 4 4 3 4 3 3 3 3 3 3 3 3 3 3 3 3 3 3 3 3 3 3 3 3 3 3 3 3 3 3 3 3 0 3 3 0 4 3 4 4 4 3 4 4 3 4 4 4 4 3 4 3 3 3 3 4 4 3 3 4 4 4 4 3 4 4 4 4 q 3 3 3 3 3 3 3 3 3 ",
"3 3 4 3 3 4 4 y I I I I I I I P I I P I I P 0 3 4 4 4 % 4 3 3 3 3 3 3 3 4 3 3 3 4 3 3 3 3 3 3 4 4 3 3 4 3 3 4 3 3 3 4 3 3 3 3 3 3 3 3 3 3 3 3 3 3 3 3 3 4 3 3 3 3 4 0 P I P I P I I P I P I P P I e 3 3 3 3 3 3 3 3 3 3 3 3 4 3 3 3 3 3 3 3 3 3 3 3 3 3 3 3 3 3 4 3 3 3 3 3 3 3 3 3 3 3 3 4 3 3 4 3 3 3 3 3 3 3 3 3 q I I I I I I I I I I P U I U e 3 3 3 3 3 3 3 3 4 3 3 3 3 3 3 3 3 4 3 3 3 3 4 3 3 3 4 3 3 3 3 4 3 3 3 3 3 3 3 3 3 3 3 4 3 3 3 3 4 3 3 3 4 3 3 3 3 3 4 3 3 3 3 3 3 3 3 4 3 3 4 3 3 4 3 3 4 3 4 3 3 3 3 3 3 3 3 4 3 3 3 3 3 3 3 4 3 3 4 3 3 3 3 4 3 3 3 3 4 3 3 3 4 3 3 3 3 3 3 3 3 3 3 3 3 3 4 3 3 3 3 3 3 3 3 3 3 3 3 3 3 3 5 3 3 3 4 3 3 3 3 4 3 3 3 3 4 3 3 3 4 3 3 3 3 3 3 3 3 3 3 3 3 3 4 3 3 3 4 3 3 3 3 3 4 3 3 3 3 3 3 3 3 3 4 3 3 4 3 3 3 3 3 3 3 4 3 3 3 3 4 3 3 3 3 3 3 3 3 3 3 3 3 3 4 3 3 3 3 3 3 3 3 3 3 4 3 3 3 4 3 3 3 4 4 3 3 3 3 3 4 3 3 3 3 4 3 3 3 4 3 3 3 3 3 3 3 3 3 3 4 3 3 3 3 3 3 3 5 3 3 3 3 3 3 3 3 3 4 3 3 3 3 4 3 3 3 3 3 4 3 3 3 4 3 3 3 3 4 3 3 3 3 3 3 3 3 4 3 4 3 3 3 3 3 3 3 3 3 3 3 4 3 3 3 3 4 3 3 3 3 4 3 4 3 3 4 3 3 4 3 3 3 3 3 4 3 3 3 3 4 3 3 3 4 3 4 3 3 4 3 3 3 3 3 3 3 3 3 4 3 3 3 3 3 3 3 3 4 3 4 3 3 3 3 3 3 3 3 4 3 3 4 3 3 3 3 3 3 3 3 3 3 3 3 3 3 3 4 3 3 3 3 3 3 3 3 3 3 3 3 3 3 3 3 3 3 3 3 4 3 3 3 4 3 3 3 3 3 3 3 3 4 3 4 3 3 3 4 3 3 3 3 3 3 4 3 3 3 4 3 3 3 3 3 3 3 3 4 3 3 3 4 3 3 3 4 3 3 3 3 3 3 3 3 4 3 3 4 3 3 3 4 3 3 4 3 3 4 3 3 3 3 4 3 3 3 3 3 3 3 3 3 3 3 3 3 3 4 3 3 3 3 3 3 3 3 3 3 3 3 3 3 4 3 3 4 3 3 3 3 4 3 3 3 3 3 4 3 3 3 3 4 3 3 3 3 4 3 3 4 3 3 4 3 3 3 3 3 4 3 3 3 3 3 4 4 3 3 3 4 4 3 3 3 3 4 3 3 3 3 4 3 3 3 3 4 3 3 3 3 3 3 3 3 3 3 4 3 3 3 3 3 4 3 3 3 3 3 3 3 3 3 4 3 3 3 3 4 3 3 3 3 3 3 4 3 3 3 3 3 3 3 3 3 4 3 3 3 3 3 3 4 3 3 3 3 3 3 4 3 4 3 3 4 3 3 3 3 3 3 4 3 3 3 3 4 3 3 3 3 3 3 4 3 3 4 3 3 3 3 3 3 3 4 3 3 3 3 3 3 3 3 3 3 4 3 3 3 4 3 3 3 3 4 3 4 3 3 3 3 3 3 4 3 3 3 3 4 3 3 3 3 3 3 3 3 3 3 3 4 3 3 3 4 3 3 3 3 3 3 3 3 3 3 4 3 4 4 3 3 3 3 3 4 3 3 3 3 3 4 3 3 3 4 3 3 3 3 3 3 4 3 3 3 3 3 3 4 3 3 3 3 3 3 3 3 3 3 3 3 3 3 3 3 3 3 3 3 3 3 3 3 3 4 3 3 3 0 3 3 3 3 3 4 3 3 3 3 3 3 3 0 u t H t H t H t H H t H t t t 3 3 3 3 3 3 q t t t H t t H t t H H t t t r 3 3 3 4 3 3 3 ",
"3 3 3 3 3 3 3 I ( i i i i i i i i i i i I T 0 4 3 3 3 4 3 3 3 3 3 3 3 3 3 3 3 4 3 3 4 3 3 3 3 3 3 3 3 3 4 3 3 3 3 3 3 3 3 4 3 3 3 3 4 3 4 % 3 3 3 3 3 3 3 3 3 3 4 3 w <.1.3.1.3.1.3.3.3.1.3.3.3.3.I 3 3 3 3 4 3 3 3 3 4 3 3 3 4 3 3 4 3 3 3 3 4 4 3 3 3 3 3 3 3 3 3 3 3 3 3 3 4 3 3 3 3 3 4 4 3 3 3 3 4 3 3 3 3 3 3 w ( P i i P i i i i i i i P T i 3 3 3 3 3 3 3 4 3 4 3 3 3 3 4 3 4 4 3 3 3 3 3 4 3 3 3 3 3 4 3 3 3 3 3 4 3 3 3 3 4 3 3 3 3 3 3 3 3 3 3 4 3 3 3 3 3 3 3 3 3 4 3 3 3 3 4 3 3 3 3 3 3 3 3 4 3 3 3 3 3 3 3 3 4 3 3 3 3 3 3 3 3 3 3 3 4 3 3 3 3 3 3 3 3 3 4 3 3 3 3 4 4 3 3 3 3 3 3 3 3 3 3 3 4 3 3 3 3 3 3 3 3 3 3 3 3 3 3 3 4 3 3 3 3 3 3 3 3 3 3 3 3 3 4 3 3 3 3 3 3 4 3 3 3 3 3 3 3 3 3 3 3 3 3 4 3 3 3 3 3 3 3 3 3 3 3 3 4 3 3 3 3 3 4 3 3 3 4 3 3 3 3 3 3 3 3 3 3 3 3 3 3 4 3 4 3 3 3 3 3 4 3 3 3 3 3 4 3 3 3 3 4 3 3 3 3 3 3 3 3 3 4 3 3 3 3 3 3 3 3 3 4 3 3 3 3 3 4 3 3 3 3 3 3 3 3 3 4 3 3 4 3 3 3 3 3 4 3 3 3 3 4 3 3 3 4 3 3 3 3 3 3 3 3 3 3 3 3 4 4 3 3 3 3 4 3 3 3 3 3 3 3 3 3 3 3 3 3 3 3 3 4 3 3 3 3 3 4 3 3 3 3 3 3 3 3 3 3 3 3 4 3 3 4 3 3 3 3 3 3 3 4 3 3 3 3 3 3 3 3 3 3 4 3 3 3 3 3 3 3 3 3 3 3 4 3 3 3 3 3 4 3 3 3 4 3 3 3 3 3 3 3 3 3 3 3 3 3 3 3 4 3 3 3 3 3 3 3 3 3 3 3 3 3 4 3 3 3 3 3 3 3 3 3 3 4 5 3 3 3 4 3 3 3 3 3 3 3 3 4 3 3 3 3 4 3 3 3 4 3 3 3 3 3 3 3 4 3 3 3 4 3 3 3 3 4 3 3 3 3 3 3 3 3 3 4 3 3 4 3 3 3 3 3 4 3 3 3 3 3 3 3 3 3 3 3 q 3 3 3 3 3 3 3 3 3 4 3 3 3 3 3 3 3 4 3 3 4 3 3 3 3 3 3 3 3 4 3 3 3 3 4 3 3 3 3 3 3 3 3 3 4 3 3 3 3 3 3 3 3 3 3 4 3 3 3 3 3 3 3 3 5 4 4 4 3 3 3 4 3 3 3 3 3 3 4 3 3 3 3 3 4 3 3 3 3 4 3 3 3 3 3 3 3 4 3 3 3 3 3 3 3 4 3 3 3 3 3 4 3 3 3 4 3 3 3 3 3 3 4 3 3 3 3 3 3 3 3 3 3 4 4 3 3 3 3 3 3 3 3 3 3 3 3 3 3 3 3 3 3 3 3 3 4 3 3 3 4 3 3 3 3 3 3 4 3 3 3 3 3 3 4 3 3 3 3 3 3 4 4 3 3 3 3 3 3 3 3 3 3 3 3 3 3 3 3 3 3 4 3 3 3 3 3 3 3 4 3 3 3 3 4 3 3 3 3 3 4 4 4 3 3 3 3 3 3 3 3 3 3 3 3 3 3 3 3 3 3 3 3 4 3 3 3 3 3 3 4 3 3 4 3 3 3 3 3 4 3 3 3 3 3 3 3 3 3 3 3 3 3 3 3 3 3 3 3 3 3 3 3 3 3 3 3 3 3 3 3 3 3 3 3 3 3 4 3 3 3 3 3 4 3 3 3 3 3 3 0 0 3 3 0 3 0 0 3 3 0 0 0 q 3 4 3 3 0 3 3 3 3 4 3 3 3 3 3 4 4 3 3 3 4 J H t t t t H H t t t t t J J 3 3 3 3 3 3 4 H J H H H H t t t t H t H K t 3 3 3 3 4 3 3 ",
"3 4 3 3 3 4 4 I i 4 e e e e e e e e e e P ( 0 4 4 3 3 3 3 4 3 3 3 3 3 3 4 3 3 3 3 3 3 3 3 3 3 3 3 3 3 4 3 3 3 3 3 3 4 3 3 3 3 3 3 3 3 3 4 4 3 3 3 4 4 3 3 4 4 3 3 3 e 4.9.4.3.3.1.1.1.1.3.1.1.3.4.I 3 3 3 3 3 3 4 3 3 3 3 3 3 3 3 3 3 3 3 3 3 3 3 3 3 3 3 3 4 3 3 3 3 4 3 4 3 3 3 3 3 3 3 3 3 3 3 3 3 3 3 3 3 3 3 3 w ( e q e e e y i e i e e y T P 3 3 3 4 3 4 3 3 3 3 3 3 3 4 3 3 4 4 3 3 3 3 3 3 3 3 3 3 3 3 3 3 4 3 3 3 3 3 3 3 3 3 3 4 3 3 3 3 4 3 3 3 3 3 3 3 3 3 3 4 3 3 4 3 3 3 3 3 4 3 3 3 3 4 3 3 3 3 3 3 4 3 3 3 3 3 3 3 3 4 3 q 3 3 3 3 3 3 3 3 q 3 3 4 3 3 3 3 4 3 3 3 3 3 3 3 3 3 3 4 3 3 3 3 3 3 3 4 3 4 4 3 3 4 3 3 4 3 3 3 3 3 3 4 3 4 4 3 3 4 4 3 3 3 3 3 4 3 3 4 3 3 3 3 3 4 3 4 3 3 3 3 4 3 3 3 3 3 3 3 3 4 3 3 4 3 3 3 3 3 4 3 4 3 3 3 3 3 3 3 4 3 4 3 3 3 3 3 3 3 3 4 3 3 3 3 3 3 3 3 3 3 3 3 4 3 3 3 3 3 3 3 3 3 3 4 3 3 3 3 3 4 3 3 3 3 3 3 3 3 0 3 3 3 4 3 3 3 3 3 4 3 4 3 4 3 3 3 3 3 3 3 3 3 3 3 3 3 3 3 3 q 3 3 3 4 3 3 4 3 4 3 3 3 3 3 3 3 3 3 3 3 3 4 3 3 3 3 4 3 4 3 3 4 4 3 4 3 3 3 4 3 3 3 3 3 3 3 3 3 3 4 3 3 3 3 4 3 4 3 3 3 3 3 3 3 4 3 3 3 3 3 3 3 3 4 3 3 3 3 4 3 3 3 3 3 3 3 3 4 3 4 3 4 3 3 3 3 3 4 3 3 4 3 3 3 4 3 3 3 3 3 3 4 3 4 3 3 3 3 3 3 3 3 4 3 3 4 3 3 3 3 4 3 3 3 3 3 3 3 3 4 3 3 4 3 3 3 3 3 3 3 3 3 3 3 3 4 3 3 3 3 4 3 3 3 3 3 3 3 3 4 3 3 3 4 3 3 4 3 3 3 4 3 3 3 3 3 3 3 4 3 4 3 3 3 3 3 3 3 3 3 3 3 3 3 3 4 3 4 4 3 3 4 3 3 3 3 3 3 3 3 3 3 3 4 3 3 3 3 3 3 4 3 3 3 3 3 3 3 3 3 3 3 4 3 3 3 3 3 3 3 3 3 3 4 3 3 3 3 4 3 3 3 3 3 3 3 3 4 4 3 3 3 3 4 3 3 4 3 4 3 3 3 4 4 3 3 3 3 4 3 3 3 3 3 3 3 3 4 3 3 3 3 3 3 3 3 3 3 3 4 3 3 3 3 3 3 3 3 4 3 3 3 3 3 3 4 3 3 4 3 3 3 3 3 4 3 3 3 3 3 3 3 3 4 3 3 3 3 3 3 3 3 3 3 3 3 3 3 3 4 4 3 3 3 3 4 3 3 3 3 4 3 3 3 3 3 3 3 3 4 4 3 3 3 3 q 3 3 3 3 3 3 3 3 3 3 3 3 3 3 3 3 3 3 3 3 3 4 4 3 3 3 3 3 4 3 3 3 3 3 3 3 4 3 3 3 3 3 3 3 3 3 3 4 3 3 4 3 4 4 3 3 4 3 3 3 3 4 4 3 3 3 3 3 3 3 3 4 3 3 4 3 3 3 3 3 3 3 3 3 3 3 3 3 3 3 3 3 3 3 3 3 3 3 3 e y 3 3 3 3 w y 0 4 4 3 3 3 w i i i y q 3 e e 3 3 3 e e q 3 3 3 4 3 3 3 3 0 3 3 3 4 8 z z s ; ; 3 0 3 7 z ; 8 3 3 = ; ; 4 3 3 3 3 4 3 4 3 3 3 3 3 3 3 4 J u 4 q q t H J t u q 4 4 t t 4 4 3 3 4 3 4 K t t J t r q 4 4 r H H t ^ t 4 4 3 4 3 3 3 ",
"3 3 3 3 3 3 3 I i e T 5.5.5.( ( 5.5.( ( <.<.q 4 3 3 3 3 3 4 4 3 3 3 3 4 3 4 q q 4 4 4 3 4 3 3 3 3 3 3 3 3 3 3 3 3 4 3 3 3 3 3 3 4 3 4 4 0 3 3 4 3 4 3 3 3 3 4 3 3 3 q 4.9.( i i P P P P P P P P [ I 3 3 3 3 3 3 3 3 4 3 4 3 3 3 3 4 q 4 3 4 3 3 3 3 3 3 3 4 3 3 3 3 3 3 3 3 3 3 4 3 3 3 3 4 3 3 3 3 3 3 3 3 3 3 3 3 w T q I 5.( ( ( ( ( ( ( ( ( 1.P 3 3 3 3 4 3 3 3 4 3 3 3 3 3 3 0 r 4 3 3 3 4 3 3 4 3 3 3 3 3 4 3 3 3 3 3 3 4 4 3 3 3 3 3 3 4 4 3 3 3 3 3 3 4 3 3 3 4 3 3 4 3 3 3 3 3 3 4 3 3 3 3 3 3 3 3 3 3 3 3 3 3 3 3 3 3 3 4 3 3 3 3 3 3 3 3 3 3 4 3 3 3 3 3 3 3 3 3 3 3 3 3 4 3 3 3 3 4 3 3 4 3 3 3 3 3 3 3 3 4 3 3 3 3 3 3 3 3 3 3 3 3 3 3 3 4 3 3 3 3 3 3 3 3 3 3 3 3 3 3 4 3 3 3 3 3 3 3 4 3 4 3 3 3 3 3 3 4 3 3 3 3 3 4 4 3 4 3 4 4 5 3 3 3 3 3 3 3 3 3 3 3 3 3 3 3 3 3 3 4 3 3 4 3 3 3 4 3 3 3 3 3 4 3 3 3 3 3 3 4 4 3 3 3 3 3 3 4 3 4 3 3 3 3 3 4 3 3 3 3 4 3 4 3 3 3 3 3 3 4 3 3 4 3 3 3 4 3 3 3 3 3 4 3 3 3 3 3 3 4 3 4 3 3 3 3 3 4 3 3 3 3 3 3 4 3 3 3 3 4 3 3 3 3 3 3 3 3 3 3 3 3 3 3 4 3 3 3 3 4 3 3 3 3 3 4 3 4 3 3 3 3 3 4 3 4 3 4 3 3 3 3 3 3 3 3 3 3 3 3 4 3 3 3 3 3 3 4 4 3 3 3 3 3 3 4 3 3 3 3 3 3 3 4 3 3 3 3 3 3 4 3 3 3 3 3 4 3 4 3 3 3 3 3 3 3 4 3 3 3 3 3 3 4 3 3 3 3 4 3 4 3 3 3 3 3 3 4 3 3 3 3 3 4 3 4 4 4 3 3 3 3 3 4 3 3 3 3 3 3 3 3 3 3 4 3 4 3 3 3 3 3 4 3 3 3 4 3 3 3 3 3 4 3 4 3 3 3 3 3 4 3 3 3 4 3 3 3 3 3 4 3 3 3 3 3 3 3 3 4 3 3 3 3 3 3 3 3 3 q 3 3 3 3 3 3 3 3 3 3 3 3 3 3 3 3 3 3 3 3 3 3 3 4 3 3 3 3 3 4 3 3 3 3 3 3 4 3 3 4 3 3 3 3 3 4 3 4 3 3 3 3 3 3 3 3 4 3 3 3 3 3 3 3 3 3 3 3 3 3 3 3 3 3 4 3 3 3 3 3 3 4 3 3 3 3 3 3 3 4 4 3 4 3 3 3 3 3 3 3 3 3 3 3 3 3 3 3 4 3 3 3 3 3 3 3 3 3 3 3 3 3 3 4 3 3 3 3 3 3 3 4 3 3 4 3 3 4 3 3 3 3 3 3 3 3 3 3 4 3 3 4 3 3 3 3 3 4 3 4 3 3 4 3 4 5 3 3 3 3 3 3 3 3 3 q 3 3 3 4 3 3 4 3 3 4 3 3 3 3 3 3 3 3 3 4 3 3 3 3 3 3 4 3 3 3 3 3 3 4 4 3 3 3 3 3 3 4 3 3 3 3 3 4 3 3 3 3 3 3 3 3 3 3 3 3 3 4 3 3 4 3 4 3 4 3 4 3 3 3 3 3 4 3 3 3 3 3 3 3 3 3 3 3 3 3 3 U <.4 3 3 3 U 3.i 4 3 3 4 q U 5.1.1.<.P q 5.T 4 3 q 5.T y 3 3 3 3 3 3 3 3 3 3 0 4 7 k h l.h l d ; 3 3 z l.l 7 3 0 ; d k ; 3 3 3 4 3 3 3 3 3 3 3 3 4 3 4 J r 3 q u _ _ _ _ _ r 4 4 t H 3 3 4 3 4 4 4 J K ^ ` ^ q 4 4 = t ^ _ ^ ^ t 4 4 3 3 4 3 3 ",
"3 4 4 3 3 4 4 I i i 4.4.4.4.4.4.4.4.4.4.9.1.0 4 3 3 4 3 3 3 3 3 4 3 3 3 3 q L ^ q 4 3 3 3 3 3 4 3 4 3 3 3 4 3 3 3 3 3 4 3 3 3 4 3 4 4 4 3 3 3 3 3 3 3 3 3 3 3 3 3 3 e 4.4.P 3 q q 0 4 w 0 4 q 4 U P 3 3 3 3 3 4 3 3 3 3 3 3 3 4 4 t / H 4 3 3 3 3 4 3 3 3 3 3 3 4 3 3 3 3 3 4 3 3 3 3 4 3 3 3 3 3 3 4 3 3 3 3 3 3 3 e ( q 5.6.4.4.4.7.4.4.4.4.4.9.U 3 3 3 3 3 3 3 3 3 3 4 3 3 3 3 t ^ t 4 3 3 3 4 3 3 3 3 4 3 3 3 3 3 4 3 3 3 3 3 3 3 3 4 3 3 3 3 3 3 4 3 3 3 3 4 3 3 3 3 3 3 3 3 3 3 4 3 3 3 3 3 4 3 3 3 4 3 3 3 4 4 3 3 3 3 4 3 3 3 3 3 3 4 3 3 3 4 3 3 3 3 4 3 3 4 3 3 4 3 3 3 3 3 3 4 3 3 3 4 3 3 3 3 3 4 3 3 3 3 3 3 3 3 3 3 4 4 3 3 3 3 4 3 3 3 3 3 3 3 3 3 3 4 3 3 4 3 3 3 3 3 3 4 3 3 3 4 3 3 3 3 3 3 4 3 3 3 3 3 4 3 3 3 3 3 3 3 3 4 4 4 3 3 3 3 3 4 3 3 4 3 3 3 3 3 4 4 3 3 3 3 3 3 3 4 3 3 3 3 4 3 3 3 3 3 4 3 3 3 3 3 3 3 3 4 3 3 3 3 3 3 4 3 3 3 3 3 0 3 3 3 3 3 3 3 3 4 3 3 3 3 3 3 3 3 3 3 3 3 3 4 3 3 3 3 4 3 3 3 3 3 3 3 3 3 3 3 3 3 3 3 3 4 3 3 3 3 4 3 3 3 3 3 3 4 3 3 4 3 3 3 3 3 3 3 3 3 3 3 3 3 4 3 3 3 3 3 3 3 4 3 3 3 3 3 3 3 3 3 3 3 3 3 3 4 3 3 3 4 3 3 3 3 3 4 3 3 3 3 3 3 4 3 3 3 3 3 4 3 3 3 3 3 3 3 3 3 4 3 3 3 3 3 3 3 3 3 3 3 3 3 3 3 3 q 3 3 3 3 3 4 3 3 3 3 4 4 3 3 3 3 3 3 4 3 3 3 3 3 4 3 3 3 3 3 3 4 4 3 q 3 3 3 3 3 3 3 3 3 3 4 3 3 3 3 3 3 3 3 3 4 3 3 3 3 3 3 3 3 3 3 3 3 3 3 3 3 3 4 3 3 3 3 3 3 3 3 3 4 3 3 3 3 4 3 3 3 3 3 3 3 3 3 3 3 3 3 3 3 3 3 4 3 4 3 3 3 4 3 3 3 4 3 4 3 3 3 4 3 4 3 3 3 3 3 4 3 3 3 3 4 3 3 3 4 3 3 3 3 3 3 4 3 3 3 3 3 3 3 3 3 3 4 3 3 4 3 3 3 4 3 3 3 4 3 3 3 3 4 3 3 3 4 3 3 3 3 3 4 3 3 3 3 4 3 3 4 3 3 3 3 3 3 3 3 4 3 3 3 4 4 3 3 3 3 4 3 3 3 3 3 3 3 3 3 4 4 3 3 3 3 4 3 3 3 4 3 3 3 3 3 3 3 3 3 3 3 3 3 4 3 3 3 3 3 4 4 3 3 3 3 3 3 4 3 3 3 3 3 3 3 3 4 4 4 3 3 3 4 3 3 3 4 3 3 3 3 4 3 3 3 3 3 3 3 3 3 4 3 3 3 3 4 3 3 3 3 4 3 3 3 4 3 3 3 4 3 3 3 3 3 3 3 3 4 3 3 3 3 3 4 3 3 3 4 3 3 4 3 3 3 3 4 3 4 3 3 3 3 3 3 3 3 3 3 3 3 3 3 3 4 3 3 3 3 4 3 3 3 3 3 3 3 3 3 3 3 ( <.q 3 3 e T 1.( q 4 3 q U 1.i q q e e 4 5.U q q U ( i 3 4 4 3 0 3 3 3 3 3 3 3 ; k h z 7 7 s h d 5 0 z l.l.d 5 3 5 d k ; 3 3 3 3 3 3 3 3 4 3 3 3 3 3 4 H r 3 r ^ ^ t q t _ K q 4 t < 3 3 3 3 4 4 4 J K / _ L q 4 4 4 r ^ _ / J t 4 4 3 3 3 3 3 ",
"3 3 3 4 3 3 3 I P y 4.4.( I I I U U U I T ( 4 0 4 4 4 3 3 3 4 3 3 3 3 3 3 r ^ ^ q 3 3 3 3 4 3 3 3 4 3 3 3 3 3 3 3 3 3 3 3 3 3 0 3 3 4 3 3 3 3 3 3 4 3 3 3 3 4 3 3 3 e 4.q.i 3 e T T T T T T T ( 1.U 3 4 3 4 3 3 3 3 3 4 3 3 3 3 3 H ^ K 3 3 3 3 3 3 3 3 0 3 3 3 3 3 4 3 3 3 3 3 3 3 4 3 3 3 3 4 3 3 3 3 3 3 3 3 3 3 w ( 5 <.9.1.I I 3.7.4.5.I I 4.I % w 3 3 3 3 3 3 3 3 3 3 3 3 4 H ^ L 3 3 3 3 3 3 3 3 3 3 3 3 3 3 3 3 3 3 3 3 3 3 0 3 3 3 3 3 3 3 3 3 3 3 4 3 3 3 3 3 4 3 3 3 q 3 3 3 3 3 4 3 3 4 3 3 3 3 3 3 3 3 3 3 3 3 3 3 3 3 3 4 3 3 3 3 3 q 3 3 3 3 3 3 4 3 3 3 3 3 4 3 3 3 3 3 3 3 3 4 3 3 3 4 3 3 3 3 4 3 3 3 3 4 3 3 3 3 3 3 3 3 3 3 3 3 3 3 3 3 3 3 3 3 3 4 3 3 3 3 4 3 3 3 3 3 3 3 3 3 3 4 3 3 3 3 4 3 3 3 3 4 3 3 3 3 3 3 3 3 3 4 3 3 3 3 3 3 3 3 4 3 3 3 3 3 3 3 3 4 3 3 3 3 3 4 3 3 3 3 4 3 3 3 4 3 3 3 3 3 0 4 3 3 4 3 3 3 3 3 4 3 3 3 3 3 3 3 3 3 3 3 3 3 3 3 3 4 3 3 3 3 4 3 3 3 4 3 3 3 3 4 3 3 3 3 3 4 3 3 3 4 3 3 3 3 3 4 3 3 3 4 3 3 4 3 3 3 4 3 3 4 3 3 3 3 3 3 3 3 3 3 3 3 3 3 3 3 4 3 3 3 3 4 3 3 3 3 4 3 3 3 0 3 3 3 3 4 3 3 3 3 3 4 3 3 3 4 3 3 3 4 3 4 3 3 3 4 4 3 3 3 3 3 3 3 3 3 3 3 3 3 3 3 3 3 4 3 3 3 3 3 4 3 3 3 3 3 3 3 3 3 3 4 4 3 3 3 3 4 3 3 3 3 3 3 3 3 3 3 3 3 3 3 3 3 3 3 4 3 3 3 3 4 3 3 3 3 3 4 3 3 3 4 3 3 3 3 3 q 3 4 4 3 3 3 3 4 4 3 3 3 3 4 4 3 3 3 3 3 3 3 3 3 3 3 3 3 3 3 3 3 3 3 3 3 3 3 3 3 3 3 3 3 3 3 3 3 3 4 4 3 3 3 3 4 3 3 3 3 3 3 3 3 3 3 3 3 4 3 3 3 3 3 3 3 4 3 3 3 3 3 3 3 3 3 3 3 3 3 3 4 3 3 3 3 3 3 3 3 3 3 3 3 3 3 3 4 3 3 3 3 3 3 3 3 3 3 3 3 3 3 3 3 4 3 3 3 3 3 3 4 3 3 3 4 3 3 3 4 3 3 3 3 3 3 3 3 3 3 3 3 4 3 3 3 3 4 4 3 3 3 4 3 3 3 3 4 3 3 3 3 3 3 3 3 3 3 q 3 3 3 3 3 3 3 3 3 3 3 3 3 3 3 4 3 3 4 3 3 3 4 3 3 3 3 3 4 3 3 3 4 3 3 3 4 3 3 3 3 3 3 3 3 3 3 3 3 4 3 3 3 3 3 3 3 4 3 3 3 4 3 3 3 3 3 4 3 3 4 3 3 3 3 3 4 3 3 4 3 3 3 3 3 3 3 3 3 3 3 3 3 3 3 3 4 4 4 3 4 3 3 3 4 3 4 3 3 3 4 3 3 3 3 4 3 3 3 4 3 3 4 3 3 3 3 3 4 3 3 3 4 3 3 3 3 3 4 3 3 3 3 3 4 3 3 3 3 3 U 5.4 3 3 I ( U 5.w 3 3 i <.I w 3 3 4 3 3 ( T e i <.i 3 3 i ( e 3 3 3 3 3 3 3 0 z h z ; 0 3 7 d l z 0 z l.k l z 3 7 d k 7 3 3 3 4 3 3 3 3 4 3 3 3 3 3 4 J r 3 u t t q 4 q Q / q 4 t J 4 4 3 3 3 3 4 J K t t J H u 3 r K J t t ^ t 3 3 3 3 3 3 3 ",
"3 3 3 3 3 3 3 I P y 7.3.i 4 q 4 4 4 4 4 i ( 0 3 4 4 3 3 3 3 3 3 3 3 3 3 3 r K ^ u 3 3 3 3 3 3 3 3 3 3 3 3 3 3 3 3 3 3 0 3 3 3 3 3 3 3 3 3 4 4 3 3 3 3 3 3 3 3 3 3 3 e 4.7.i 3 i 4.4.4.4.4.4.4.7.6.T 3 3 3 3 3 3 3 4 3 3 3 3 3 3 3 H ^ J 3 3 3 3 3 3 3 3 3 3 3 3 3 3 3 0 3 3 3 3 4 3 3 3 4 3 3 3 4 3 4 3 3 3 4 3 3 3 w ( q U <.U 5 w 1.9.4.T w e 5.I 4 0 3 3 3 3 3 3 3 3 3 3 3 3 3 K ^ H 3 3 3 4 3 3 3 4 3 3 3 3 3 3 3 3 3 3 3 3 3 3 3 4 3 3 3 3 3 4 3 3 3 3 3 3 3 3 4 3 3 3 3 3 3 3 3 3 3 3 3 3 3 3 3 3 3 3 3 4 3 3 3 3 4 3 3 3 4 3 3 3 3 3 3 4 3 3 3 3 4 3 3 3 3 3 3 3 3 3 3 3 3 4 3 3 4 3 3 3 3 3 3 3 4 3 3 3 3 3 4 3 3 3 3 3 3 3 4 3 3 3 3 3 4 3 4 3 3 3 3 4 4 3 3 3 3 4 3 3 3 3 3 4 3 3 4 3 3 3 3 3 4 3 3 3 3 3 4 3 3 3 3 3 3 3 3 3 3 4 3 3 3 3 3 4 3 3 4 3 3 3 3 4 3 3 4 3 3 3 3 3 3 3 3 3 3 3 3 4 3 3 3 3 3 3 4 3 3 3 3 3 3 3 3 3 4 3 3 3 3 3 3 4 3 3 4 3 4 3 3 4 3 3 4 3 3 3 3 3 3 3 3 3 3 3 3 3 4 3 3 3 3 3 3 4 3 3 3 3 3 3 3 3 3 4 3 3 3 3 3 3 3 3 3 3 3 3 3 3 3 3 3 3 4 3 3 4 3 3 4 3 4 3 3 3 3 3 3 3 3 4 3 3 3 3 3 4 3 3 3 3 3 3 4 3 3 3 3 3 4 3 3 3 3 4 3 3 3 3 3 3 3 3 3 3 3 3 3 3 3 3 3 3 3 4 3 3 3 3 3 3 3 3 3 3 3 3 4 3 3 3 3 3 3 3 3 3 3 3 3 3 3 3 3 3 3 3 3 3 3 3 4 3 4 3 3 3 3 3 3 4 3 4 3 3 3 3 3 3 3 4 3 3 3 3 3 4 3 3 3 3 3 3 3 3 3 4 3 3 3 3 3 3 3 3 3 3 3 3 3 3 3 3 3 3 3 3 3 3 4 3 3 3 3 3 3 3 3 3 4 3 3 3 3 3 3 4 3 3 3 3 3 4 3 3 3 3 3 3 3 3 3 3 3 3 3 3 4 3 4 3 3 3 4 3 3 3 3 3 3 4 4 3 3 3 3 3 4 3 3 3 3 3 q 3 3 3 4 3 3 3 3 3 3 3 3 3 3 4 3 4 3 3 3 4 3 3 3 3 3 q 3 3 3 3 3 4 3 3 3 3 3 3 3 3 4 3 3 4 3 3 3 3 3 3 3 4 3 3 3 3 3 q 3 3 3 3 3 4 3 3 3 3 3 3 3 3 3 3 3 3 3 3 3 4 3 3 3 3 3 4 3 4 3 3 3 3 3 3 3 3 3 3 3 4 3 3 3 3 3 3 3 3 3 3 3 3 3 3 3 3 3 3 3 3 3 3 3 3 3 3 3 4 3 3 3 3 3 4 3 4 3 3 4 3 3 3 3 3 q 3 3 3 3 3 3 3 3 3 3 3 3 3 3 3 3 3 3 3 3 3 3 3 3 3 3 3 3 3 3 4 3 4 3 3 3 3 3 4 3 3 3 4 3 5 3 0 3 3 3 3 3 3 3 3 3 3 3 3 3 3 3 3 3 3 3 3 3 3 3 3 3 3 3 3 3 3 4 3 3 3 3 3 3 4 3 3 3 3 4 3 3 3 3 3 3 3 % ( <.w 3 3 T T i <.i 3 3 I 3.w 3 3 3 3 3 3 5.T i 5.I q 3 3 i <.i 3 3 3 3 3 3 3 8 d l.; 3 3 3 3 z l.z 0 z l.z h k 7 7 d k 7 3 3 3 3 3 3 3 3 3 3 4 3 3 3 4 J r 3 4 r 4 4 3 r ^ ^ r 3 t t 4 4 3 3 4 3 4 J < 4 4 t K H t J J r 4 q H t 3 3 3 4 3 3 3 ",
"3 3 3 3 3 4 4 Y L i 3.4.w 3 q i i e i e I T w 3 3 3 3 4 3 4 3 4 3 0 u t r t _ / t t t r 4 3 3 4 4 4 3 r t u t t r t u r r 0 3 3 4 3 3 4 3 3 4 3 4 3 3 4 4 3 3 4 3 3 e 4.9.i 3 i 7.7.1.<.<.<.<.<.4.I 3 3 3 3 3 3 3 3 4 3 3 q t u u K _ K t t t w 3 3 3 3 3 3 q u e u t u r u u t 4 3 3 3 3 3 3 3 3 4 3 3 3 4 3 4 3 3 w U q e i q 3 4 5.9.4.U 0 0 ( P % 4 3 3 3 3 4 3 3 3 3 4 r t t K _ ^ t t t 4 3 3 3 3 3 3 4 r u u t t t t r u q 0 3 3 3 3 3 4 3 3 4 3 4 3 3 3 3 4 3 3 3 3 3 4 3 3 3 4 3 4 3 3 3 3 3 3 3 4 3 4 4 3 3 4 4 3 4 3 3 3 4 3 3 3 3 3 3 3 3 3 3 3 3 3 3 3 3 4 3 4 3 3 3 3 4 3 3 3 3 3 3 3 3 3 3 3 3 3 3 3 3 3 3 3 3 3 4 3 3 3 4 3 3 3 4 3 3 3 3 4 3 4 3 3 3 3 3 3 3 3 3 3 3 3 3 4 3 3 3 3 3 3 3 3 3 3 3 3 3 3 3 3 3 3 3 3 3 3 3 3 3 3 3 3 3 3 3 3 3 3 3 3 3 3 3 4 3 3 3 3 4 3 4 3 3 3 3 3 3 3 3 3 3 3 3 4 3 3 3 3 3 4 3 3 3 3 3 3 3 3 3 4 3 3 4 3 3 3 3 3 3 3 3 4 3 3 3 3 3 4 4 3 3 3 3 3 3 3 3 3 4 3 3 3 3 3 3 3 3 4 3 3 3 3 3 3 4 3 3 3 3 3 4 3 3 3 4 3 3 3 3 3 4 3 3 3 3 3 3 3 3 3 4 3 4 3 3 3 3 3 3 3 3 3 3 3 3 3 3 3 3 3 3 3 3 3 3 3 3 4 3 3 3 3 3 3 4 3 3 3 3 3 0 4 3 3 3 3 4 3 3 3 3 4 3 3 4 3 3 3 3 3 4 3 3 4 3 4 3 3 3 3 3 3 3 3 3 3 4 3 3 4 3 3 4 3 3 3 3 3 4 3 3 3 3 3 3 3 3 3 3 3 3 3 3 4 3 3 3 3 3 3 3 3 3 3 3 3 3 3 3 4 3 3 3 3 3 3 4 3 3 3 4 3 3 3 3 3 3 3 3 3 3 4 3 3 4 3 3 4 4 3 4 3 3 q 3 3 3 3 3 3 3 3 3 4 3 3 4 3 3 4 3 4 4 3 3 4 3 3 4 3 3 3 3 3 4 3 3 3 3 3 3 3 3 3 3 3 3 4 3 3 3 3 3 3 3 4 3 3 4 3 3 3 3 3 3 3 3 3 4 3 3 3 3 3 3 3 3 3 3 3 3 4 3 3 3 4 3 3 3 3 3 3 3 4 3 3 4 3 3 3 3 q 3 4 3 3 3 3 4 3 3 3 3 3 3 3 4 3 3 3 3 3 3 3 3 4 3 3 4 3 3 3 3 3 3 4 3 3 3 3 3 3 3 3 4 3 3 3 3 3 3 3 3 4 3 3 3 3 3 3 3 4 3 3 4 3 w 3 3 3 4 3 3 3 3 3 4 3 3 3 4 3 4 3 3 3 3 3 3 3 3 3 3 4 3 3 3 3 3 3 3 4 3 3 4 3 3 3 3 3 3 3 3 3 3 3 3 3 3 3 3 4 3 4 3 3 3 3 4 3 4 3 3 3 3 3 3 3 3 3 3 4 3 3 3 4 3 3 4 3 3 3 4 3 3 3 3 3 3 3 3 3 3 3 3 3 3 3 3 4 4 3 3 3 4 3 3 3 3 3 4 3 3 3 3 3 3 3 4 3 3 3 3 3 3 3 3 4 3 3 3 3 4 3 3 3 3 U <.w 4 e ( U 3 U U w 4 U 1.4 3 3 3 3 3 3 ( <.<.1.e 3 3 3 w I 4 3 3 3 3 3 3 3 7 d h 7 0 3 3 3 7 l.s 0 z l.; f l d 8 d k 7 3 3 3 3 3 4 4 3 3 3 3 3 3 3 4 J q 3 4 3 3 4 r K ^ K q 4 t H 4 3 3 4 4 4 4 J q 3 4 4 t K ^ K u 3 4 3 t t 3 3 3 3 3 3 3 ",
"3 3 4 3 3 3 3 I i i 4.3.e 3 y <.5.( ( 5.1.<.0 3 4 3 3 3 3 3 3 3 3 0 J ^ ^ / _ ` ^ ^ ^ H 4 3 3 3 4 4 4 t ^ ^ / ^ K ^ _ K L 0 3 3 3 3 3 3 3 3 3 3 3 3 3 3 3 3 3 3 3 3 w 4.q.i 3 i 4.7.U i i i i i ( P 3 3 4 3 3 3 3 3 3 3 3 r K K ^ _ ] _ / K K t 3 3 3 0 3 3 q / ^ W ^ ^ ^ W ^ ^ e 3 3 4 3 3 3 4 3 3 3 3 3 3 3 3 3 3 w 5.q 3 3 3 4 4 1.9.4.U 0 4 U P 4 4 0 3 3 3 3 3 3 3 3 r ^ / / ^ _ ^ / ^ ^ r 3 4 3 3 3 3 r / ^ ^ ^ ^ K K _ K u 3 3 3 4 3 3 3 4 3 3 3 3 3 3 3 3 3 3 4 3 3 3 3 3 3 3 3 3 3 3 4 3 3 3 4 3 3 3 3 3 3 3 3 3 3 3 3 3 3 3 3 3 4 3 3 3 3 3 3 3 3 4 3 3 3 3 3 3 3 3 4 4 3 3 3 3 3 3 3 3 4 3 3 3 3 4 3 3 4 3 3 4 3 4 0 3 3 3 3 3 3 3 4 3 3 3 3 3 3 3 3 3 3 3 3 3 4 4 3 3 3 3 3 3 3 3 4 3 4 3 3 3 3 4 3 3 4 3 3 3 3 3 4 3 3 q 3 3 3 4 3 3 4 3 3 3 3 3 3 3 3 3 3 3 3 3 4 4 3 3 3 3 3 3 3 3 4 3 3 3 3 4 3 3 3 3 3 4 3 3 3 3 3 3 3 3 3 4 3 3 3 3 3 3 3 3 3 3 3 3 3 3 3 3 4 3 3 3 3 3 3 3 3 3 3 4 3 3 3 3 3 3 4 3 3 3 3 3 3 4 3 3 3 3 3 3 3 3 4 3 3 3 3 3 3 3 3 3 3 4 3 3 3 3 3 3 3 3 4 4 3 3 3 3 3 4 3 3 3 3 3 4 3 3 4 3 3 3 4 3 3 3 3 3 3 4 3 3 3 3 3 4 3 3 3 3 3 3 4 3 3 3 3 3 3 3 3 3 3 4 3 3 3 4 3 3 3 q 3 3 3 3 3 3 3 3 3 3 3 3 3 3 4 q 3 3 3 3 3 3 3 3 3 3 3 3 3 4 3 3 3 3 4 3 3 3 4 4 3 3 3 4 3 3 3 4 3 3 3 3 3 4 3 3 4 3 3 3 3 3 3 3 4 3 3 3 3 3 3 3 3 3 3 3 3 4 3 3 4 3 3 3 3 3 3 3 3 3 3 3 3 3 3 3 3 3 4 3 4 3 3 4 3 3 3 4 3 3 3 3 3 3 3 3 3 3 3 3 3 3 3 3 3 4 3 3 3 3 4 3 3 3 4 3 3 4 3 3 3 3 3 3 3 4 3 3 3 3 3 3 3 3 4 3 3 3 3 3 3 3 3 3 q 3 3 4 3 3 3 4 3 3 3 3 3 3 3 4 3 3 3 3 3 3 3 4 3 3 3 3 3 3 3 3 3 3 3 3 3 3 3 3 4 3 3 3 3 3 3 4 3 3 3 3 3 3 3 4 3 3 3 3 3 3 3 3 3 3 3 3 3 4 3 3 3 3 3 4 3 3 3 4 3 3 3 4 3 3 3 3 3 3 3 4 3 3 3 3 3 3 3 3 3 3 3 4 3 3 3 4 3 3 3 3 3 3 3 3 4 3 3 3 3 3 3 4 3 3 3 4 3 3 3 3 3 3 3 3 4 3 3 3 4 3 3 3 3 4 3 3 3 3 3 3 3 3 4 4 3 3 3 3 3 3 3 3 3 3 4 3 3 3 3 4 3 3 3 4 3 3 3 3 3 3 3 3 3 3 3 3 3 4 3 4 3 3 3 3 3 3 3 3 3 3 3 3 3 3 3 4 3 3 3 3 3 4 3 3 3 3 3 3 4 3 3 3 3 3 3 3 3 4 3 3 3 3 4 3 T <.4 4 P T U i U <.i 4 T 5.4 3 3 3 3 3 3 ( 3.1.1.i 4 3 3 3 3 3 3 3 3 3 3 3 4 7 d h 4 3 3 3 0 7 l.s 3 z h 7 ; l j z f k 7 3 3 3 3 3 3 3 3 3 3 3 4 3 3 4 J r 3 4 3 3 t ^ / ^ r 0 3 t H 3 3 3 3 4 4 4 J r 3 4 4 q K ^ H 4 3 4 4 t J 3 3 3 4 4 3 3 ",
"3 3 3 4 3 3 4 I P i 4.4.e 2 I 4.7.9.4.4.9.1.w 3 3 3 3 3 4 3 3 3 3 3 H K ^ ^ / _ ^ K K H 4 3 3 3 4 3 3 t ^ K ^ K K ^ ^ ^ J 4 4 4 3 4 3 3 4 3 3 3 3 3 3 3 4 3 3 3 3 3 q 4.4.P 3 I 9.9.i 3 3 3 3 4 I P 3 3 3 3 4 3 3 3 4 3 3 r K K / ^ ` _ K ^ K u 3 3 3 3 3 3 q L K ^ ^ K K K K K t 3 3 3 4 4 4 4 3 3 3 4 3 3 3 3 3 3 e T q 3 3 4 4 4 <.9.4.U 3 3 U P 3 3 3 3 3 3 3 3 3 3 3 q ^ ^ ^ _ _ _ / K L r 3 3 3 3 3 3 r J K K K K K K K K y 3 3 3 3 3 3 4 3 3 3 3 3 3 3 4 3 3 q 3 3 3 3 3 3 3 3 3 3 3 3 3 4 3 3 3 3 3 3 3 3 3 3 3 3 3 3 4 3 3 4 3 3 3 3 3 3 3 3 4 3 3 3 3 4 3 3 3 3 3 3 3 3 3 3 4 3 3 3 3 3 3 3 4 3 3 3 3 3 4 3 3 3 3 3 4 3 3 3 3 4 3 3 3 3 3 3 3 3 3 3 3 3 3 3 3 3 4 3 3 3 3 3 3 4 3 3 3 3 3 3 4 3 3 3 3 3 3 3 3 4 3 3 3 3 3 4 3 3 4 3 3 3 3 3 3 4 3 3 3 3 3 3 3 4 3 3 3 3 3 3 3 3 3 3 4 3 3 3 3 4 3 3 3 3 4 3 3 3 3 3 3 3 3 3 3 3 4 3 3 3 3 3 3 4 3 3 3 3 3 3 3 4 3 3 3 4 3 3 3 3 3 3 4 3 4 4 3 3 3 3 3 4 3 3 3 4 3 3 3 3 3 3 3 3 3 3 3 3 3 3 3 3 3 3 4 3 4 3 3 3 3 4 3 3 3 3 3 4 3 3 3 3 3 3 3 3 3 3 4 3 3 3 3 3 4 3 3 3 3 3 3 3 3 4 3 3 3 3 3 3 4 3 3 3 3 4 3 3 3 3 3 3 3 3 4 3 3 3 4 3 4 3 3 3 3 3 4 3 3 3 3 3 3 3 3 3 3 3 4 3 3 3 3 3 3 3 3 3 3 3 3 3 3 3 3 3 3 3 3 3 3 3 3 q 3 3 3 3 4 3 3 3 3 3 3 3 3 3 3 3 4 3 3 3 3 3 3 4 3 3 3 3 3 3 3 4 3 3 3 3 3 3 4 3 3 3 3 3 3 3 3 4 3 3 3 3 3 3 3 3 3 3 4 4 3 3 3 3 3 4 3 3 4 3 3 3 3 3 4 4 3 3 3 3 3 4 3 3 3 3 3 3 3 3 3 3 3 3 3 3 3 4 3 3 3 3 3 3 4 3 3 3 3 4 3 3 3 4 3 4 3 3 3 4 3 3 3 3 3 4 3 3 3 3 3 4 3 3 3 3 3 3 3 3 4 3 3 3 3 3 3 3 4 3 3 3 3 3 4 4 3 3 3 3 3 3 3 3 3 4 3 3 3 3 3 3 4 3 3 3 3 3 3 3 4 3 3 3 3 3 3 3 q 3 3 3 3 3 3 3 4 4 3 3 3 3 3 3 4 3 3 3 3 3 3 3 3 3 4 3 3 3 4 3 3 3 3 3 3 3 4 3 4 3 3 3 3 4 3 3 3 3 3 3 3 3 4 3 3 4 3 3 3 3 3 3 4 3 3 3 3 3 3 3 3 4 3 3 3 3 3 3 3 3 3 4 3 3 3 4 3 3 3 3 3 3 3 3 3 3 3 3 3 3 4 3 4 4 3 3 3 3 3 3 4 3 3 3 3 3 4 3 4 3 3 3 3 3 3 3 4 3 3 3 3 3 4 4 3 3 3 3 3 3 4 3 4 3 3 3 3 4 3 3 3 3 4 3 3 3 3 4 3 3 3 4 3 3 3 3 3 3 3 3 3 3 3 % ( <.w 3 ( 1.1.1.1.4.i q U 1.q 3 3 3 3 3 4 ( ( i U <.w 3 3 3 3 3 3 3 3 4 3 3 4 4 d l.7 3 3 3 4 7 l.s 0 z h ; 4 d h j d k 7 4 3 4 3 3 3 3 3 3 4 3 3 3 3 0 J u 3 3 3 3 ^ _ J q 4 3 3 u J 4 3 3 3 4 3 4 K r 4 4 q K H H K H q 4 q t H 4 4 3 4 3 3 3 ",
"3 4 3 3 3 3 4 I i y 4.3.e 3 I 9.9.4.9.9.9.4.4 3 3 3 3 3 3 3 3 3 3 3 q 0 4 r ^ ^ u q r 0 3 4 4 3 3 3 4 4 q 0 q 4 0 4 4 4 4 4 3 4 3 3 3 3 3 3 3 4 3 3 3 3 3 3 3 3 3 3 e 4.9.I 3 i 4.7.e 3 3 3 3 3 I P 3 3 3 3 3 3 3 3 3 3 3 3 4 4 0 H _ J q q 0 0 3 3 3 3 3 3 q q 0 0 q 0 q q w 0 0 3 4 3 % 4 4 4 4 3 3 3 3 3 3 3 3 6 e ( q 3 3 3 4 0 <.9.4.( q 3 U i 3 3 3 3 3 3 3 4 3 3 4 4 4 4 q H ^ L q 0 q q 3 3 4 3 3 3 4 0 0 q q q w q r 0 q 3 3 3 3 3 3 3 3 3 3 4 3 4 3 3 3 3 3 3 3 3 4 3 3 3 3 3 4 3 3 3 3 3 4 3 3 3 3 3 3 4 3 3 3 3 3 3 3 3 3 3 3 4 3 3 3 4 3 3 3 3 3 4 3 3 0 3 4 3 3 3 3 3 3 3 3 4 3 4 3 4 3 3 3 3 3 4 3 3 3 3 3 3 3 3 3 3 3 3 3 3 3 3 3 3 3 3 3 3 3 3 3 q 3 3 3 3 3 3 4 3 4 3 3 3 3 3 3 4 3 3 3 3 3 4 4 3 3 4 3 3 4 3 3 3 3 3 3 3 3 3 4 3 3 3 3 3 q 3 4 3 4 3 3 3 3 3 3 3 3 4 3 4 3 3 4 3 3 3 3 3 4 3 3 3 3 3 3 3 3 4 3 3 q 3 3 3 3 3 4 3 3 3 3 3 3 3 4 3 3 3 3 3 3 3 3 3 3 4 4 3 3 3 3 3 3 3 3 3 3 3 3 3 3 3 3 3 3 4 3 3 3 4 3 4 3 3 q 3 3 3 3 4 3 3 3 3 3 3 3 3 3 3 3 4 3 3 3 3 3 3 3 3 3 3 3 4 3 3 3 3 4 3 3 3 3 3 3 4 3 4 3 3 3 3 3 3 3 3 3 3 4 3 3 3 3 3 3 4 3 3 4 3 3 3 3 3 3 3 3 3 3 3 3 3 3 3 3 4 3 4 4 3 3 4 4 3 3 3 4 3 3 3 3 4 3 4 4 3 3 4 3 3 3 3 3 4 3 3 4 3 3 3 3 3 3 3 3 3 3 3 3 3 3 4 3 3 3 3 3 3 3 3 3 3 3 3 3 3 3 4 3 3 3 4 3 3 3 3 3 3 3 3 3 4 3 3 3 3 4 3 3 3 3 3 3 4 3 3 3 3 3 3 3 3 3 3 3 3 3 3 3 3 3 3 3 3 3 3 3 3 3 3 3 3 3 3 3 4 3 3 3 q 3 3 4 3 3 3 3 3 3 3 3 3 4 3 3 3 3 3 3 3 3 3 3 3 3 3 3 3 3 4 3 3 4 3 3 3 3 3 3 4 3 3 3 3 3 3 3 3 3 4 3 3 3 3 3 3 4 3 3 3 3 3 3 3 3 3 3 3 3 3 3 3 4 3 3 3 3 3 3 4 3 3 3 3 3 3 3 4 3 3 3 3 3 3 3 3 3 4 3 3 3 3 3 3 4 3 3 3 3 3 3 3 3 3 3 3 3 3 3 3 3 4 3 4 3 3 4 3 3 3 3 3 3 4 3 4 3 3 3 3 3 3 3 3 3 3 3 3 3 q 3 4 3 3 0 3 3 3 3 3 3 3 3 3 3 3 3 3 3 4 3 3 3 3 3 4 3 3 4 3 3 3 3 3 4 3 3 3 4 3 4 3 3 3 3 3 3 4 3 4 3 3 3 3 3 3 3 3 3 3 3 3 3 3 3 3 3 3 3 3 3 3 3 4 3 3 3 3 4 3 4 3 3 3 3 3 3 4 3 3 3 3 3 3 3 3 3 3 3 3 3 4 3 3 3 3 3 4 3 3 3 4 3 3 3 4 3 4 4 3 3 3 4 3 3 U 5.w w 5.T w e i ( U w i 3.y 3 3 3 3 3 3 <.T q e <.U w 3 3 3 3 3 4 3 3 3 3 3 3 s l.z 4 3 3 4 z l.z 0 z h ; 4 8 k l.j j 7 3 4 3 3 3 4 4 3 3 3 3 4 3 3 4 J r 3 3 3 3 t J t 4 4 3 3 u H 3 3 3 4 3 3 4 J J t t K H u 3 r K H r t / t 4 4 3 3 3 3 3 ",
"3 3 4 3 3 3 3 I P y 7.4.e 3 i 9.4.9.9.9.4.4.q 3 4 3 3 3 3 3 3 4 4 3 4 4 3 q ^ ^ q 3 3 3 3 3 4 3 4 3 3 3 4 3 3 3 4 3 3 3 3 3 3 3 3 3 4 4 3 3 3 3 4 3 3 3 3 3 3 4 3 3 e 4.9.i 3 i 9.4.i 3 3 3 3 3 U P 4 3 3 3 4 3 4 3 3 3 3 3 4 3 3 H _ J 0 3 3 3 3 3 3 3 3 3 3 3 3 3 4 4 3 3 3 3 3 4 3 3 3 3 4 3 3 3 3 3 3 3 3 4 3 3 w T q 3 3 3 4 4 <.9.1.( 3 3 U P 3 3 3 3 3 3 4 3 4 3 3 3 3 3 4 J _ K 3 3 3 3 3 3 3 3 3 3 3 3 4 4 3 3 3 3 3 3 3 3 4 3 4 3 3 3 3 3 3 3 3 3 3 3 3 3 3 3 4 3 3 3 3 3 3 4 3 3 4 3 3 4 3 3 4 3 3 3 3 3 4 3 3 3 3 3 3 3 3 3 3 3 4 3 3 3 3 3 3 3 3 3 3 3 4 3 3 3 4 3 3 3 3 3 3 3 3 4 3 3 3 3 3 3 3 3 3 3 4 3 3 3 3 3 3 q 3 3 3 3 3 4 4 3 3 q 3 3 3 3 3 3 3 3 3 3 3 3 4 3 3 3 3 3 3 3 3 3 3 3 3 3 3 3 3 3 3 3 3 4 3 3 4 3 3 3 3 3 4 3 3 3 3 3 3 3 3 3 q 3 3 3 3 3 3 3 3 3 3 3 3 3 4 3 3 3 3 3 3 3 3 3 3 3 3 4 3 3 3 3 4 3 3 3 3 3 3 4 3 3 3 3 3 q 3 3 3 3 q 3 3 3 3 3 3 4 3 3 3 3 4 3 3 3 4 3 3 3 3 4 3 3 3 4 3 4 3 3 3 3 3 3 3 3 4 3 3 3 3 3 3 3 3 3 3 3 3 4 3 3 3 3 3 3 4 3 3 3 3 3 3 3 3 4 3 3 4 3 3 4 3 3 3 3 3 4 3 3 4 3 4 3 3 3 3 3 3 4 3 4 3 3 4 3 3 3 3 3 3 4 3 3 4 3 4 3 3 3 3 3 4 3 3 3 3 3 3 3 3 4 3 3 3 3 3 3 3 3 4 3 4 3 3 3 3 4 3 3 3 3 3 3 3 3 3 3 4 3 3 3 3 3 3 3 3 4 3 3 3 4 3 3 3 3 q 3 3 3 3 3 4 3 3 4 3 3 3 q 3 3 3 4 3 4 3 3 3 3 4 3 3 3 3 3 4 3 3 4 3 3 3 3 3 4 3 3 4 3 3 3 3 3 3 3 3 3 3 4 3 3 3 3 4 3 3 3 3 3 3 3 3 3 3 4 3 3 3 3 3 3 3 3 3 3 3 3 3 3 4 3 3 3 3 4 3 3 3 3 3 3 3 3 3 3 3 q 3 3 3 3 3 3 3 4 3 3 3 3 3 3 3 3 4 3 3 3 3 4 3 3 3 3 3 3 3 3 3 3 3 3 3 3 4 3 3 3 3 3 3 3 3 3 3 4 3 3 4 3 3 3 3 3 3 4 3 3 3 3 3 3 3 3 3 3 3 4 3 3 3 3 3 3 3 3 3 4 3 3 3 3 4 3 3 3 3 4 3 3 3 4 3 3 3 3 3 3 4 3 3 3 3 3 3 3 3 3 3 3 3 3 3 3 3 3 3 3 3 3 3 3 3 3 3 3 4 3 4 4 3 3 4 3 3 4 3 3 3 4 3 3 3 3 3 3 3 3 3 3 4 3 3 3 3 3 3 3 3 3 3 4 3 3 3 3 3 3 3 3 3 3 3 3 3 4 3 4 3 3 4 3 3 4 3 3 4 3 3 3 3 3 3 3 3 3 3 3 3 3 3 4 3 3 3 3 3 3 3 4 3 3 3 3 3 3 3 3 3 4 3 3 3 3 3 3 4 3 3 3 3 3 3 3 3 3 3 4 3 3 3 3 4 3 4 3 3 3 3 U <.w P ( i 3 4 4 P T i y 5.( y 3 3 4 0 3 ( U q q I <.P 3 w U w 4 3 3 3 3 3 4 3 ; l j ; 4 q z h k 7 0 s h 8 4 q z l.l.j 7 3 3 3 4 3 3 3 3 4 3 3 3 3 3 4 J r 3 3 3 3 t ^ t 3 3 3 3 t J 3 3 3 3 3 3 4 J K ^ ^ J q 4 3 4 t K ^ K ^ t 4 4 3 3 3 3 3 ",
"3 3 3 3 4 3 3 I i y 4.1.e 3 i 9.9.9.4.4.9.1.q 3 3 3 3 4 4 3 3 3 3 3 3 4 3 r K ^ r 3 3 3 3 3 3 3 3 3 3 4 4 4 3 3 4 3 3 3 3 3 4 3 4 3 3 4 3 3 3 3 3 3 3 4 4 3 3 3 3 3 w 4.9.i 3 P 4.4.i % 3 3 3 3 I P 4 4 3 3 3 3 3 3 3 3 4 3 3 3 3 H ^ J 4 4 3 3 3 3 3 3 4 3 3 3 3 3 3 4 3 3 3 3 3 3 3 3 3 3 3 3 3 3 4 3 4 3 3 3 3 3 e ( w 3 3 3 4 4 <.q.1.U 3 3 U P 3 3 3 3 3 3 3 3 3 3 3 3 3 3 4 H ^ H 4 3 3 3 3 3 3 3 3 3 4 3 4 4 3 3 3 3 3 3 3 3 3 3 3 3 3 3 4 3 3 3 3 3 4 3 3 3 3 3 3 3 3 4 3 3 3 3 3 3 3 3 3 3 3 3 3 3 3 4 4 3 3 3 3 3 4 3 4 3 3 3 4 3 3 3 3 3 4 3 3 4 3 3 3 4 3 3 3 3 3 3 3 4 3 3 3 3 3 3 3 3 4 3 3 4 3 3 4 3 3 3 3 4 3 3 3 3 3 4 3 3 3 3 3 3 3 3 3 3 3 4 3 3 3 3 3 4 3 3 3 3 3 3 3 3 4 3 3 3 4 3 3 4 3 3 3 3 3 3 3 3 3 3 3 3 3 3 4 3 3 3 3 3 4 3 3 4 3 3 3 3 3 3 3 3 4 3 3 4 3 3 3 3 3 3 3 3 4 3 3 4 3 3 3 3 3 3 3 4 3 3 3 3 3 4 3 3 3 3 3 3 3 4 3 3 3 3 3 3 3 3 3 3 4 3 3 3 3 3 3 3 3 3 3 3 3 3 4 3 3 3 3 3 3 3 3 3 3 3 3 3 3 3 q 3 3 3 3 3 3 3 3 3 4 3 3 3 3 3 4 3 3 3 4 3 3 3 3 4 3 4 4 3 3 3 3 3 3 3 3 3 3 4 3 3 3 3 3 3 3 3 3 3 3 4 4 3 3 3 3 3 3 3 3 3 3 3 4 3 3 3 3 3 3 3 3 3 3 3 4 3 3 3 3 4 3 3 3 3 3 3 3 3 3 3 3 3 3 3 3 3 3 3 3 3 3 3 3 3 3 3 3 4 3 3 q 3 3 3 3 3 3 3 3 3 3 3 3 3 3 3 3 4 3 3 3 3 3 3 4 3 3 3 3 3 3 3 3 3 3 3 3 3 3 3 3 3 3 3 3 3 3 3 4 3 3 3 3 3 3 4 3 3 3 3 4 3 3 3 3 3 4 3 3 3 4 3 3 3 3 4 4 3 3 3 3 4 3 3 3 4 3 3 3 3 3 4 3 4 4 3 3 3 3 3 3 3 4 3 3 3 3 3 3 3 3 4 3 3 3 4 3 3 3 3 3 3 3 4 3 3 3 3 3 3 3 3 4 3 3 3 4 3 3 3 3 3 3 3 3 4 3 3 3 4 3 3 3 4 3 3 4 3 3 3 3 4 3 3 3 4 3 3 3 3 3 4 3 3 3 3 4 3 3 3 4 3 3 3 3 4 4 3 3 3 3 3 3 4 3 3 3 4 3 3 3 3 3 4 3 3 3 3 4 3 3 3 3 3 3 3 3 4 3 3 3 3 3 3 3 3 3 3 4 3 3 3 3 3 4 3 3 3 3 4 4 3 3 3 3 3 3 3 3 3 3 3 3 3 3 3 3 3 3 3 3 3 3 3 3 4 3 3 4 3 3 3 4 3 3 3 3 3 4 3 3 4 3 3 3 3 3 3 3 3 4 3 3 4 3 3 3 3 3 3 3 3 3 3 3 3 3 3 3 3 3 3 3 4 3 3 4 3 3 3 3 4 4 3 3 3 3 3 3 3 4 3 3 3 3 3 3 3 3 q 3 3 3 3 4 3 3 3 3 3 3 3 4 3 3 3 3 3 3 3 3 3 3 3 3 3 3 3 3 3 4 3 % T <.w ( U w 3 3 4 w <.U 3 i ( ( T T U i 4 ( ( q 3 q ( ( i i <.i 4 3 3 4 3 3 3 0 8 z l j k k j j z 4 4 z l.7 5 q 8 d l.j 7 3 3 3 3 3 3 3 3 3 3 3 3 4 3 0 J r 3 3 3 3 ^ _ J 3 3 3 3 t t 4 3 3 3 3 3 4 J L _ _ / q 3 3 3 t / _ ^ ^ t 3 3 3 4 3 3 3 ",
"3 4 3 3 3 3 0 U I i 7.1.i 4 U 9.9.6.9.9.9.1.q 3 3 3 4 3 3 4 3 3 3 3 3 3 3 0 H t 0 4 4 3 4 3 3 3 3 3 3 4 3 4 3 3 3 3 3 3 3 3 3 3 3 3 4 3 3 3 4 3 4 3 3 3 3 3 3 3 3 3 e 4.9.I q I 9.4.i q q q 4 q T P 3 3 3 3 3 3 3 3 3 3 4 3 3 3 3 u H t 0 3 4 3 3 3 3 3 3 3 3 3 3 3 3 3 4 3 3 3 3 4 3 3 3 4 3 3 3 3 4 3 4 3 3 3 3 3 w ( y 4 q w q w 1.q.3.T q q T i 3 3 3 3 3 3 3 3 3 3 4 3 3 3 3 u H t 3 3 3 3 3 4 3 3 3 3 4 3 3 4 4 3 3 3 3 4 3 4 3 3 3 3 3 4 3 3 3 3 3 3 3 3 3 3 3 3 4 3 3 3 3 3 3 4 3 3 3 3 3 3 3 3 4 3 3 3 3 3 3 3 3 3 3 3 3 3 q 3 3 3 3 3 4 3 3 3 3 3 3 3 3 3 3 4 3 3 3 3 3 3 3 3 3 3 3 3 3 3 3 3 3 3 3 3 3 3 3 3 3 4 3 3 3 3 3 3 4 3 3 3 3 3 4 3 3 4 3 3 3 4 4 3 3 3 3 4 3 3 3 4 3 3 3 3 3 4 3 3 3 3 4 3 3 4 4 3 3 3 3 4 3 3 3 4 3 3 3 3 3 3 3 3 3 3 3 q 3 3 3 3 3 3 4 3 3 3 3 3 3 3 3 3 3 3 3 3 3 3 3 4 4 3 3 3 3 4 3 3 3 3 3 4 3 3 3 3 3 3 3 4 3 3 3 3 3 3 4 3 3 3 4 3 3 3 3 4 3 3 3 3 3 4 3 3 3 3 3 4 4 3 3 3 3 3 4 3 3 3 3 3 3 3 3 3 3 3 3 3 3 3 3 3 4 3 3 3 3 4 3 3 3 4 3 3 3 3 3 0 4 3 3 3 3 3 3 3 3 3 3 4 3 3 3 4 3 3 3 3 3 3 3 3 3 3 4 3 4 3 3 3 3 4 3 3 3 3 3 3 3 3 4 3 3 3 3 4 3 3 3 3 4 3 3 3 3 3 3 3 3 3 3 3 3 3 3 3 3 3 4 3 3 4 3 3 3 3 3 3 3 3 3 4 3 3 3 3 q 3 3 3 3 3 3 3 4 3 3 3 4 3 3 3 3 3 3 3 3 3 4 3 3 4 3 3 3 3 3 3 4 3 3 3 3 q 3 3 3 3 3 3 3 3 3 3 3 4 3 3 3 3 3 3 3 3 3 4 3 3 4 3 3 4 3 3 3 3 3 3 3 3 3 3 3 3 3 4 3 3 3 4 3 3 3 3 3 3 3 4 3 4 3 3 3 3 3 3 3 3 3 4 3 3 4 3 3 3 3 4 3 3 3 4 3 3 3 3 3 3 3 3 3 3 3 3 3 3 4 3 3 4 3 3 4 3 3 3 3 3 3 3 3 3 4 3 3 3 3 3 3 3 3 3 3 3 4 3 3 4 3 3 4 3 3 3 3 4 3 3 3 3 3 3 3 3 4 3 3 3 3 3 q 3 3 3 3 3 3 3 3 4 3 3 4 3 3 3 3 3 3 3 3 3 3 4 4 3 3 3 3 3 4 3 4 3 3 3 3 4 4 3 3 3 3 3 3 3 3 3 4 3 3 3 3 3 3 3 3 3 3 3 3 3 3 3 3 3 4 3 3 4 3 3 4 3 3 3 3 4 3 3 3 3 q 3 3 3 3 3 3 3 3 3 3 3 3 4 3 3 3 3 3 3 3 3 3 3 3 3 3 3 3 3 3 3 3 3 3 3 3 3 4 3 3 3 3 4 3 3 3 3 3 3 3 3 3 3 4 3 3 3 3 3 3 3 3 3 3 3 3 3 3 3 3 3 3 q 3 3 4 3 3 3 3 3 4 3 3 3 3 0 3 3 3 3 3 3 3 3 3 3 3 3 3 3 3 U <.w T i 4 3 3 4 4 U I 3 4 i T ( ( ( e 3 I P 4 3 3 i I i y U w 4 3 3 3 3 3 3 3 3 3 s k l j k ; 4 3 0 ; k 7 4 4 4 ; j s ; 3 3 3 3 3 4 3 3 3 3 3 3 3 3 4 J t q 4 q q L / J 4 q q q t J 4 4 4 3 3 3 4 J J L ^ ^ t q 4 u t ^ ^ H ^ t 4 4 3 4 4 3 3 ",
"3 3 3 3 3 3 3 U T U 3.3.U y U 4.4.4.4.3.4.1.q 3 3 3 3 3 3 3 3 3 3 3 3 4 3 3 4 4 3 4 3 3 3 3 3 4 4 3 3 3 3 3 3 3 3 3 3 3 4 3 4 3 3 3 3 3 3 4 3 3 3 3 3 4 3 4 3 3 3 3 e 1.4.U i U 4.3.U i i i i i T P 3 3 3 4 3 3 4 3 3 3 3 3 3 4 3 3 3 3 3 3 3 3 4 3 3 4 3 3 4 3 4 3 3 3 3 3 3 4 3 3 3 3 3 3 4 3 3 3 3 3 3 3 3 4 3 3 w ( P i i i i i <.4.1.( i i ( i 3 3 3 4 3 3 3 3 3 3 3 3 3 4 3 3 3 3 3 3 4 3 3 3 3 3 3 3 3 3 3 3 3 3 3 3 3 3 3 3 3 3 3 4 3 3 3 4 3 3 4 3 3 4 4 3 3 3 3 3 4 3 3 4 3 3 3 3 3 4 3 3 4 3 3 3 3 4 3 3 3 4 3 4 3 3 3 3 3 3 3 3 3 3 3 3 3 4 3 3 4 3 3 4 3 3 3 3 3 4 3 3 3 4 3 3 3 3 3 4 3 3 4 3 3 4 3 3 3 4 3 3 3 3 4 3 3 3 3 3 4 3 3 3 3 3 3 3 3 3 3 3 3 3 3 3 3 3 4 3 3 3 3 3 3 4 3 3 3 3 3 3 3 3 3 3 3 3 3 3 3 3 3 4 3 3 3 3 3 4 4 3 3 4 3 3 3 3 3 3 4 3 3 3 3 3 3 4 3 4 3 3 3 3 3 4 3 3 4 3 3 3 3 3 4 3 3 3 3 3 4 3 3 3 3 3 3 4 4 3 3 3 3 4 3 3 3 3 3 3 3 3 3 3 3 4 3 3 3 3 3 4 3 3 3 3 3 3 3 3 3 3 4 3 3 3 3 3 3 4 3 4 3 3 3 3 4 3 3 4 3 3 4 3 3 3 4 3 3 3 3 3 3 3 3 3 3 4 3 3 3 3 3 4 3 3 4 3 3 3 3 3 3 3 3 3 3 4 3 4 3 3 3 3 3 3 3 3 3 3 3 4 3 3 3 3 3 3 4 3 3 3 3 3 3 4 3 3 3 3 3 4 3 3 3 3 4 3 4 3 3 3 3 4 3 4 3 3 3 3 3 3 3 3 3 3 3 3 4 3 3 3 3 3 4 3 3 3 3 3 3 3 3 3 4 3 3 3 3 4 3 3 3 3 4 3 3 3 3 3 3 3 3 3 3 3 3 3 3 3 3 3 4 3 3 3 3 3 3 4 3 3 3 3 4 3 3 3 3 3 3 3 4 3 3 3 3 3 3 3 3 3 3 3 3 3 4 3 3 3 3 3 3 4 3 4 3 3 3 3 3 3 4 3 3 3 3 3 3 3 3 3 3 3 3 4 3 3 3 3 3 3 3 3 3 3 3 4 3 3 3 3 3 3 4 3 3 3 4 3 4 3 3 3 3 4 3 3 3 3 3 3 3 3 3 3 4 3 3 3 4 3 3 3 3 3 3 q 3 3 3 3 3 4 3 3 3 3 3 3 3 3 3 3 3 3 3 3 3 3 3 3 3 4 3 3 3 3 3 3 3 3 3 3 3 3 3 3 4 3 3 3 3 3 3 3 3 3 3 4 3 3 4 3 3 3 3 3 4 3 3 3 3 3 3 3 3 3 3 3 3 3 3 3 4 3 3 3 3 3 3 3 3 3 3 3 3 4 3 4 3 4 3 3 3 3 3 3 3 3 3 3 3 3 3 3 4 3 3 3 3 3 3 3 3 3 3 3 3 3 3 3 3 3 4 3 3 3 3 3 3 3 4 3 4 3 3 3 3 4 3 3 3 3 3 4 3 3 4 3 3 4 3 3 4 3 3 3 3 3 3 3 3 3 3 3 3 3 3 3 3 4 3 3 3 3 4 3 3 3 3 3 3 3 3 4 3 3 3 3 3 3 3 3 4 3 3 3 3 4 3 4 3 4 3 4 3 3 3 4 3 4 3 3 3 3 3 T <.3 3 3 4 3 3 3 3 3 3 3 3 3 3 3 % 4 4 4 3 3 4 3 3 3 3 3 4 3 4 4 3 3 4 3 4 3 3 4 3 3 3 3 3 4 4 3 3 3 3 3 3 3 3 4 3 3 4 4 3 3 3 4 3 3 3 3 3 4 4 3 3 3 4 ^ t t t t t t t t t t t t J H 4 4 3 3 3 3 4 ^ t t t t t t t t t t t t L t 4 4 3 3 3 3 3 ",
"3 3 3 4 3 3 3 i P U U U I P I I I I I P P P q 3 3 4 3 3 3 3 3 4 3 3 3 3 3 4 4 4 3 3 4 3 3 3 3 3 3 3 3 3 3 3 3 4 3 3 3 4 3 4 3 3 4 3 3 3 3 3 4 3 3 3 3 3 3 3 4 3 3 3 3 I I I P I U I P P I I P I I e 3 3 3 3 3 3 3 3 3 3 3 4 3 3 4 3 3 3 3 3 4 3 3 3 3 3 3 3 3 3 3 3 3 3 3 4 3 3 4 3 3 3 3 4 3 3 4 3 3 3 3 3 3 3 3 3 3 I P I P P P I I I I I i I I e 3 3 3 3 4 3 4 3 3 3 3 3 3 3 3 3 3 3 3 4 3 3 3 3 3 4 4 3 3 3 3 3 4 3 3 3 3 3 3 3 3 3 3 3 4 3 3 3 3 3 3 3 3 3 3 3 3 3 3 4 3 3 3 3 4 3 3 3 3 3 3 3 3 3 3 3 3 3 3 3 3 3 3 3 3 4 3 3 3 3 3 3 3 4 3 3 3 3 3 4 3 3 3 3 3 3 3 3 3 3 3 4 3 4 4 3 3 4 3 3 3 3 3 3 3 3 3 3 3 3 3 3 3 4 3 3 3 3 3 3 3 3 4 3 3 3 3 3 4 3 3 3 4 3 3 3 3 3 3 3 4 3 3 3 3 3 3 3 3 4 4 3 3 3 3 3 4 3 3 3 3 3 3 3 3 3 3 3 3 3 3 3 3 3 3 3 3 3 3 3 3 3 3 3 3 3 3 3 3 4 3 3 3 4 3 3 4 3 3 3 3 3 3 3 3 3 3 3 3 3 3 3 4 3 3 3 3 3 3 3 3 3 3 3 3 3 3 4 3 3 3 3 3 3 3 3 4 3 3 3 3 3 3 3 4 3 4 3 3 3 3 4 3 3 3 3 3 3 3 3 3 4 3 3 3 4 3 3 3 3 3 3 3 3 3 3 3 3 3 3 3 3 3 3 3 3 3 3 4 3 3 3 3 3 3 4 3 3 0 3 4 3 3 3 3 3 3 3 4 3 4 3 3 3 4 3 3 3 3 3 3 3 3 3 3 4 3 4 3 3 3 3 3 3 3 3 4 3 3 3 3 3 3 3 3 3 4 3 3 3 3 4 3 4 3 3 4 3 4 3 3 3 3 3 3 4 3 4 3 3 3 3 3 3 3 3 4 3 3 3 3 3 4 3 3 3 3 4 3 3 3 3 3 3 4 3 4 3 3 3 3 3 3 3 3 3 3 3 3 q 3 4 3 3 3 3 3 3 3 3 3 4 4 3 3 3 3 3 3 3 4 3 3 3 3 3 3 3 4 3 3 3 3 3 3 4 3 3 3 3 3 3 3 3 3 3 4 3 3 3 3 3 3 3 3 3 3 3 3 3 3 3 3 3 3 3 3 4 3 3 3 3 3 3 3 3 3 3 4 3 3 3 3 3 3 3 3 3 4 3 3 3 3 4 3 3 3 3 3 3 3 3 3 3 3 4 3 3 3 3 3 3 3 3 3 3 3 3 3 4 3 3 3 3 4 3 3 3 3 3 3 4 3 3 3 3 3 3 3 4 3 4 3 4 3 3 3 3 3 3 q 3 3 3 3 3 4 3 3 3 3 3 3 3 3 3 3 3 3 3 4 3 3 3 3 3 3 3 3 3 3 3 3 3 3 3 3 3 3 3 4 3 3 4 3 3 3 3 3 3 3 q 3 3 3 4 3 3 3 3 3 4 3 3 3 4 3 4 3 3 3 3 3 4 3 3 3 3 3 3 3 3 3 3 3 3 3 3 3 4 3 3 q 3 3 3 3 3 4 3 3 3 q 3 3 3 3 4 3 3 4 3 3 4 3 3 3 3 3 3 3 3 3 3 3 3 3 3 3 3 3 3 3 3 4 3 3 4 3 3 3 3 3 4 3 3 3 3 3 3 3 3 3 4 3 3 4 3 3 3 3 3 3 3 3 3 3 3 3 3 3 3 3 3 3 3 3 4 3 3 3 3 4 3 3 4 w T ( 3 3 3 3 3 3 3 3 3 3 3 3 3 3 4 3 4 3 3 3 4 3 4 3 3 3 3 3 4 4 3 3 3 3 4 3 3 3 3 4 3 3 3 3 3 4 4 3 3 3 3 4 3 3 3 3 3 3 3 0 3 3 3 4 3 3 3 3 3 3 3 4 3 4 t t t u t t t t t t t t t t u 3 3 4 3 3 3 4 t t t t t t t t t t t t t y t 3 3 3 4 3 3 3 ",
"4 3 3 3 3 3 4 4 4 q 4 4 0 4 w 4 q q 0 4 q q 3 3 3 3 3 4 3 3 3 3 4 3 3 3 3 4 4 4 3 3 3 3 3 4 3 3 3 3 3 3 4 3 3 3 4 3 3 3 3 3 3 3 3 3 3 4 3 3 3 3 3 3 3 3 3 4 3 3 3 3 3 q 4 q q 3 q q q q 4 q 4 q q 4 3 3 3 4 4 3 3 3 4 3 3 3 3 3 3 3 3 3 3 3 3 3 3 3 3 3 3 4 4 3 3 3 4 3 3 3 3 3 3 3 3 4 3 3 3 3 3 3 3 4 3 3 3 3 3 3 3 4 4 4 w 4 q q 0 4 q q q q 4 4 3 3 3 4 3 3 3 3 3 4 3 4 3 3 3 4 3 3 3 0 3 3 3 3 3 3 3 3 3 3 3 3 3 3 3 3 4 3 4 3 3 3 3 3 3 3 3 4 4 3 3 3 3 3 3 3 3 4 3 3 3 3 3 3 3 3 4 3 3 3 3 4 4 3 3 3 3 3 4 3 3 3 4 3 3 3 4 3 3 3 3 3 3 3 3 3 3 3 3 3 3 4 3 3 4 3 3 4 3 3 3 3 3 3 3 3 3 3 3 4 4 3 3 3 3 3 3 4 3 3 3 3 3 3 3 3 4 3 3 4 3 3 3 3 3 3 4 3 3 3 3 3 3 3 3 3 4 3 3 3 3 3 3 4 3 3 3 3 3 3 3 3 3 3 3 3 3 3 3 3 4 3 3 3 3 3 4 3 3 3 3 3 3 3 3 3 3 3 3 3 3 3 3 3 3 4 3 3 3 3 4 3 3 3 4 3 3 3 3 3 3 3 3 4 3 3 3 3 3 4 3 3 3 3 3 4 3 3 3 3 3 3 3 4 4 3 3 3 3 3 3 3 4 3 3 3 3 3 4 3 3 3 4 3 3 3 3 3 3 3 3 3 3 3 3 3 3 4 3 3 3 3 4 3 3 3 3 3 3 3 3 4 3 4 3 4 3 3 3 3 3 4 4 3 3 3 3 3 3 3 3 3 3 3 3 3 3 4 4 3 3 3 3 4 3 3 3 3 3 3 3 3 3 4 3 3 3 4 3 3 3 3 3 3 3 3 3 3 3 4 3 3 3 4 3 3 3 3 3 4 3 3 3 4 3 3 3 3 3 3 3 3 3 3 4 3 3 3 3 3 3 3 3 3 3 3 3 3 3 4 3 3 4 3 3 3 3 3 4 3 3 3 3 3 3 4 3 3 3 3 3 4 3 3 3 3 3 3 4 3 3 3 3 3 3 4 3 3 3 3 3 3 3 3 3 4 3 3 4 3 3 3 3 3 3 4 3 3 3 4 3 3 3 3 3 4 3 3 3 3 3 3 3 3 3 3 3 3 4 3 3 4 3 3 3 3 3 3 3 4 3 3 3 3 4 3 3 3 4 3 3 3 3 3 4 3 3 3 3 3 3 q 3 3 4 3 3 3 3 3 3 4 3 3 3 3 4 3 3 3 3 3 3 3 3 3 3 3 4 3 3 3 3 3 3 3 3 3 3 3 3 3 3 3 3 4 3 3 3 3 3 4 3 3 3 3 3 3 3 3 3 3 3 3 4 3 3 3 3 3 3 3 3 3 3 3 4 3 3 3 3 3 4 3 3 3 3 3 3 4 3 3 3 q 3 3 4 3 4 3 3 3 3 3 3 3 3 4 3 3 3 3 3 4 3 3 3 3 3 3 3 3 3 3 3 4 3 3 q 3 3 3 3 3 3 3 3 3 3 3 3 3 4 3 3 3 3 3 3 4 3 3 3 3 3 4 3 3 3 3 3 4 4 3 3 3 3 3 3 3 3 3 3 3 3 3 3 3 3 3 3 4 3 3 3 3 3 4 0 3 3 3 3 3 3 4 4 3 3 3 3 3 3 4 3 3 3 3 3 4 q 3 3 3 3 3 3 3 3 3 3 3 3 3 3 3 3 3 3 q 3 3 3 3 3 3 3 3 3 3 3 3 3 4 4 3 3 3 3 3 4 3 3 3 3 3 3 3 3 3 4 3 3 3 3 ( 5.( i 3 3 3 4 3 3 0 3 3 3 3 3 3 3 3 3 3 3 4 3 3 3 3 3 3 3 3 3 3 3 3 3 4 3 3 3 3 3 3 3 3 3 3 3 3 3 3 3 3 3 3 3 3 4 3 3 3 3 3 3 3 3 3 3 3 4 3 3 3 3 3 3 4 4 4 0 4 q q q q u q 4 q q q q 4 3 3 3 3 3 3 4 q 4 r 4 4 4 q q q q q q q q q 4 3 3 3 3 3 3 ",
"3 3 3 4 3 3 4 3 3 3 3 3 3 3 3 3 3 3 3 3 3 3 3 3 3 4 3 3 3 3 4 3 3 4 3 3 4 3 3 3 3 4 3 3 3 4 3 3 3 3 3 3 3 3 3 3 3 3 3 4 3 4 3 3 4 3 3 3 3 3 3 3 4 3 3 3 3 3 4 3 4 3 3 3 3 3 3 3 3 3 3 3 3 3 3 3 3 3 3 3 3 4 3 3 3 3 3 3 3 4 3 3 3 3 3 4 3 3 3 4 3 3 3 3 4 3 3 3 3 3 3 3 3 4 3 3 4 4 4 3 4 3 3 3 3 3 3 3 3 3 3 3 3 3 3 3 3 3 3 3 3 3 3 3 3 3 3 3 4 3 3 3 3 3 4 3 4 3 3 3 3 3 3 3 3 3 3 3 4 3 3 3 4 3 3 3 3 3 3 4 3 3 3 4 3 3 3 3 3 3 3 3 3 3 3 3 3 3 3 4 3 3 3 3 3 3 3 3 3 3 4 3 3 4 3 3 3 3 3 3 3 3 4 3 3 3 3 3 4 3 3 3 3 3 3 3 3 3 3 4 3 3 3 3 3 3 3 3 4 3 3 3 3 3 4 3 3 4 3 3 4 3 3 3 3 3 3 3 3 3 3 4 3 3 3 3 4 3 3 3 4 3 3 3 3 3 4 3 3 3 4 3 3 4 3 3 3 3 4 3 3 3 q 3 3 3 3 3 3 3 4 3 3 3 3 3 4 3 3 3 3 3 3 4 3 3 3 4 3 3 3 3 3 3 3 3 3 3 3 4 3 3 3 3 3 3 3 3 3 3 3 3 3 3 3 3 3 4 3 3 4 0 3 3 3 3 3 4 3 3 3 3 3 3 3 3 4 3 3 3 3 4 3 3 3 3 3 4 3 3 3 3 3 3 3 3 3 3 3 4 3 3 3 3 3 4 3 3 3 3 3 3 3 3 3 3 3 3 3 3 3 3 3 3 3 3 3 3 3 4 3 3 3 3 3 3 3 3 3 3 4 3 3 3 3 3 3 3 4 3 3 3 3 3 3 3 3 3 3 3 3 3 3 3 4 3 3 3 3 3 4 3 3 4 3 3 3 3 4 3 4 3 3 3 3 3 3 3 3 3 3 3 4 3 3 3 3 3 3 3 3 4 4 3 3 3 3 3 3 3 3 3 4 3 3 3 3 3 3 3 3 3 3 3 3 3 3 3 3 3 3 4 4 3 3 3 3 3 3 3 3 3 3 4 3 3 3 3 3 3 3 3 3 3 3 3 3 3 3 3 4 3 3 3 3 3 3 3 3 3 3 4 4 3 3 3 3 3 3 3 3 3 3 3 3 4 4 3 3 3 3 3 3 3 3 3 3 4 0 4 3 3 3 4 3 3 3 3 3 3 3 4 4 3 3 3 3 3 3 3 3 3 3 3 4 3 4 3 3 3 3 4 3 3 3 3 3 3 3 4 3 3 3 3 3 3 3 3 3 3 3 3 3 4 4 3 3 3 3 3 3 3 3 4 3 3 3 3 3 3 3 3 3 4 3 3 3 4 4 3 3 3 3 3 3 3 3 3 3 4 q 3 3 4 4 3 3 3 3 3 3 3 3 3 3 3 3 4 4 3 3 3 3 3 3 3 4 3 3 3 3 3 3 3 3 4 4 3 3 3 3 3 3 3 3 3 3 3 3 3 3 3 3 3 4 3 3 3 3 3 3 4 3 3 3 3 3 3 3 3 3 3 3 3 3 q 3 3 3 3 3 3 3 3 4 3 4 3 3 3 3 3 3 3 3 4 3 3 3 4 3 3 3 3 3 3 3 4 3 3 3 3 3 4 4 3 3 3 4 3 3 3 3 3 3 4 3 3 3 4 3 3 3 3 3 3 3 3 3 3 3 3 3 3 3 3 3 3 4 3 3 3 3 3 3 3 3 4 3 3 3 3 4 3 3 3 4 3 3 3 3 3 3 3 3 3 3 3 3 3 3 3 3 3 3 3 4 3 3 3 4 3 3 3 3 4 3 3 3 3 3 3 3 3 4 3 3 3 3 3 4 3 3 3 4 3 3 3 3 3 3 3 3 3 3 i i e 4 4 3 4 3 3 3 4 3 3 3 3 3 3 3 4 3 3 4 3 3 3 3 4 3 3 3 3 3 3 3 3 3 4 3 4 3 3 3 3 4 3 4 3 3 3 3 3 3 3 3 4 3 3 3 3 3 3 3 3 3 0 3 4 3 3 3 4 3 3 3 3 3 3 3 3 3 3 3 3 3 3 3 3 3 3 3 3 3 3 3 3 3 4 4 3 3 3 3 3 3 3 3 3 3 3 4 4 3 3 3 3 3 3 3 3 3 4 3 ",
"3 3 3 3 3 3 3 3 3 3 3 3 0 3 3 3 3 4 3 3 3 3 4 3 3 3 3 3 3 3 3 3 3 3 3 3 3 3 3 4 3 3 3 3 3 3 3 3 4 3 4 3 3 3 4 3 4 3 3 3 3 3 3 3 3 3 3 3 3 4 3 3 3 3 3 4 3 3 3 3 3 3 3 3 3 3 3 3 3 3 3 3 3 3 3 3 3 4 3 3 3 3 3 3 3 3 4 3 3 3 3 3 4 3 3 3 3 3 3 3 4 3 3 3 3 3 3 3 3 3 4 3 3 3 3 3 4 4 3 3 3 3 3 4 3 4 3 3 3 4 3 4 3 3 3 3 3 3 3 3 3 3 3 3 3 3 3 3 3 4 3 3 3 3 3 3 3 3 3 4 3 4 3 3 3 3 3 4 3 3 3 4 3 3 3 4 4 3 3 3 3 3 3 3 3 4 3 3 3 3 3 4 3 4 3 3 3 3 3 3 3 3 3 4 3 3 4 3 3 3 3 3 3 3 3 3 3 4 3 3 3 3 3 3 3 3 4 3 3 3 3 3 3 3 3 4 3 4 3 3 4 3 3 4 4 3 4 3 3 3 3 3 3 3 3 3 3 3 3 3 3 3 3 3 3 4 3 3 3 3 3 3 3 3 3 4 3 3 3 3 3 3 3 4 3 3 3 3 3 3 3 3 3 3 3 3 3 3 3 3 3 3 3 3 3 4 3 3 3 3 3 3 3 4 3 3 3 3 3 4 4 3 3 3 3 3 3 3 3 4 3 3 q 3 3 3 3 3 3 3 4 3 3 3 3 4 3 4 4 3 3 4 4 3 4 3 3 3 3 3 3 3 3 3 3 3 3 3 3 4 3 4 4 3 3 4 3 3 4 3 3 3 3 3 3 3 3 3 3 4 3 3 3 3 3 3 4 3 3 3 4 3 3 3 3 3 3 3 3 4 3 4 3 3 3 4 3 4 3 4 4 3 3 4 4 3 4 3 3 3 3 3 3 3 4 3 4 3 3 3 3 3 3 3 3 3 3 q 3 3 4 3 3 4 3 4 4 3 3 4 4 3 4 3 3 3 3 3 3 3 3 3 3 3 3 3 3 3 3 3 3 3 3 4 3 4 3 3 3 4 3 4 3 3 4 3 4 3 3 3 3 3 3 3 3 3 3 3 4 3 3 3 3 3 4 3 3 3 3 3 3 3 3 3 3 3 3 4 3 4 3 3 3 3 4 3 4 3 3 3 3 4 3 3 3 3 3 4 3 3 3 4 4 3 3 3 4 3 3 3 3 3 4 3 3 3 3 3 3 4 3 3 3 3 4 3 3 3 3 3 3 3 3 3 3 3 3 3 3 3 3 4 4 3 3 3 3 3 3 3 3 4 3 3 3 4 3 3 3 3 3 3 3 3 q 3 3 3 3 4 4 3 3 3 3 3 0 3 3 4 3 3 3 3 3 4 3 4 3 3 3 3 3 q 3 3 3 4 4 3 3 3 3 3 3 3 3 3 3 3 3 4 3 3 3 3 3 4 3 3 3 3 3 3 3 3 3 3 3 3 3 3 3 q 3 3 3 3 3 3 3 3 3 3 3 3 3 3 3 3 q 3 3 3 3 4 3 3 3 3 q 3 3 3 4 3 3 3 4 3 4 3 3 3 3 3 3 3 3 3 3 3 3 3 3 4 4 3 3 3 3 3 3 3 3 3 4 3 3 3 3 3 3 4 3 4 4 3 3 4 4 3 4 3 3 3 3 3 3 3 4 3 3 3 3 3 3 3 3 3 3 3 4 3 3 3 3 3 3 3 3 3 3 3 4 3 3 3 3 3 3 3 3 0 3 3 3 4 3 3 4 3 3 4 3 3 4 3 3 3 4 3 3 3 3 4 3 4 4 3 3 4 3 3 3 3 3 3 3 3 3 4 3 3 3 3 3 3 3 3 3 4 3 3 3 4 3 3 4 3 3 4 3 4 4 3 3 4 4 3 4 3 3 3 3 q 3 3 3 3 3 3 3 4 3 3 3 3 3 4 3 3 3 3 3 3 3 3 4 3 3 3 3 3 3 3 3 4 3 3 4 3 3 3 3 3 3 3 3 3 3 3 3 3 3 3 3 3 4 3 4 3 3 3 3 3 3 3 3 4 3 3 3 3 3 3 4 3 4 3 3 3 3 3 3 3 3 3 3 3 3 3 3 4 3 4 3 3 3 3 3 3 3 3 3 3 3 3 3 3 3 3 3 3 3 3 3 3 4 3 4 3 3 3 3 4 3 3 3 3 3 3 3 3 3 3 3 3 4 3 3 3 3 3 3 3 4 3 3 3 3 3 3 4 4 4 3 3 4 3 3 3 3 3 3 3 3 ",
"3 3 3 3 4 3 3 3 3 3 3 3 3 3 3 3 3 3 4 3 3 3 3 3 3 3 3 3 4 3 3 3 3 3 4 3 3 3 3 3 3 3 3 3 3 3 3 4 3 4 3 3 3 4 3 4 3 3 3 3 3 3 3 4 3 3 3 3 3 3 4 3 3 3 3 3 4 3 3 3 3 3 3 3 3 3 3 3 4 3 3 3 3 3 3 3 3 3 3 4 3 3 3 3 3 3 3 3 3 3 3 3 3 3 4 3 4 3 3 3 3 3 4 3 3 3 3 3 3 4 3 3 3 3 3 3 4 4 3 3 3 3 3 3 4 3 4 3 3 3 4 3 4 3 4 3 3 3 3 3 4 3 3 3 3 3 3 3 3 3 3 3 4 3 3 3 3 3 3 3 4 3 4 3 3 4 3 4 3 3 3 3 3 4 3 3 3 3 4 3 4 3 3 3 3 3 4 3 3 3 3 3 3 3 4 3 3 3 3 3 3 3 3 3 3 3 3 3 3 3 3 3 3 3 3 3 3 3 3 3 3 3 3 3 3 4 3 3 3 3 3 4 3 4 3 3 3 3 3 4 3 3 3 3 4 3 3 3 3 3 3 3 3 4 3 3 3 3 3 4 3 3 3 3 3 3 4 3 3 3 3 3 3 4 3 4 3 3 3 4 3 4 3 3 3 3 3 3 3 q 3 3 3 3 3 4 3 3 3 3 3 3 3 3 3 3 4 3 3 3 3 3 3 3 4 3 4 0 3 3 3 3 4 3 4 3 3 3 3 3 4 3 3 3 4 3 4 3 3 3 3 3 4 3 3 3 3 4 3 3 3 3 4 3 3 3 3 3 3 3 3 3 4 3 3 3 3 3 3 3 3 4 3 3 3 3 3 4 3 3 3 3 3 3 q 3 3 3 3 3 4 3 3 3 q 3 3 3 3 3 4 3 4 3 3 3 3 3 3 3 3 0 3 3 3 3 3 3 3 4 3 3 3 3 4 3 3 3 3 3 3 3 3 3 3 3 3 3 q 3 3 3 3 3 3 3 3 3 3 4 3 3 3 3 3 4 3 3 3 3 4 3 3 3 3 3 3 3 3 4 3 3 3 3 3 4 4 3 3 3 3 3 3 3 4 3 4 3 3 3 3 3 3 3 3 3 3 3 3 3 3 4 3 3 3 3 3 4 3 3 3 3 3 3 3 3 4 3 3 q 3 3 3 3 3 3 3 3 3 3 3 3 3 3 3 3 3 3 3 3 3 3 4 3 3 3 3 3 3 3 3 3 3 3 3 3 3 3 3 3 3 4 3 3 3 3 3 4 3 3 4 3 3 4 3 3 4 3 3 3 4 3 3 3 3 4 3 3 3 3 3 3 3 3 3 3 3 4 3 3 3 3 3 3 3 3 3 3 3 3 3 3 3 3 3 3 3 3 3 3 3 3 3 3 3 3 3 3 3 3 3 3 3 3 3 3 3 3 4 3 3 3 3 3 3 3 3 3 3 3 3 3 3 3 4 3 3 3 3 4 3 3 3 3 3 3 3 3 4 3 3 4 3 3 q 3 3 3 4 3 3 3 3 3 4 3 3 3 3 4 3 3 3 4 3 3 4 3 3 4 3 3 3 3 3 3 3 3 3 3 3 3 3 3 3 3 3 3 3 3 3 3 3 3 3 3 4 3 3 3 3 4 3 3 3 3 3 3 3 3 3 3 3 3 3 3 3 3 3 3 3 3 3 3 3 4 3 3 3 3 4 3 3 3 3 3 3 3 3 3 3 3 3 3 3 3 3 3 3 3 3 4 3 3 3 3 3 3 3 3 3 3 3 3 3 3 3 3 3 3 3 4 3 4 3 3 3 3 3 4 3 3 3 3 4 3 3 3 3 3 4 3 4 3 3 3 3 4 3 3 3 3 3 4 3 3 3 3 3 3 3 3 4 3 3 3 3 3 3 4 3 4 3 3 3 3 3 4 3 3 3 3 3 4 3 3 3 3 4 3 3 3 3 4 3 4 3 3 3 4 3 4 3 3 3 3 3 3 3 3 3 3 3 3 3 3 3 4 3 3 3 3 3 4 3 4 3 3 3 4 3 3 3 3 3 3 3 3 3 3 3 3 3 3 3 3 3 4 3 4 3 3 3 3 3 3 3 3 3 3 3 3 3 4 3 4 3 4 3 3 3 3 3 3 3 4 4 3 3 3 3 3 3 3 4 3 4 3 3 3 3 3 3 3 0 3 3 3 3 3 3 3 3 3 3 3 3 4 3 4 3 3 3 3 3 3 3 3 3 3 3 3 3 4 3 4 3 4 3 3 3 3 3 3 3 4 3 3 3 3 3 3 3 3 4 3 4 3 3 3 4 3 4 3 3 3 3 ",
"3 3 0 3 3 3 3 4 3 3 3 3 3 3 3 3 3 3 3 3 3 3 4 3 3 3 3 4 3 3 3 3 4 3 3 3 3 4 3 3 4 3 3 3 4 3 3 3 3 3 3 3 3 3 3 3 3 3 3 3 4 3 3 3 3 4 3 3 3 4 3 3 3 4 3 3 3 3 3 4 3 3 3 3 3 3 3 3 3 3 3 3 4 3 3 4 3 3 3 3 3 4 3 3 3 4 4 3 3 3 3 4 3 3 3 3 3 3 3 3 4 3 3 3 3 4 3 3 3 3 3 4 3 3 3 4 3 3 3 4 3 3 3 3 3 3 3 3 3 3 3 3 3 3 3 3 3 4 3 3 3 3 3 4 3 3 3 4 3 3 3 4 3 3 3 4 3 3 3 3 3 3 3 3 3 3 3 3 3 3 3 3 3 3 3 3 3 3 3 3 3 3 3 3 4 3 3 3 3 3 3 3 q 3 3 3 3 3 4 3 3 3 3 3 3 q 4 3 3 3 3 4 4 3 3 3 3 4 4 3 3 3 4 3 3 3 3 4 3 3 3 3 3 3 3 3 3 3 3 3 3 3 3 3 3 3 3 3 3 3 4 3 3 3 3 4 3 3 3 3 3 4 3 4 0 3 3 3 3 3 4 3 3 3 3 3 3 3 3 3 3 3 3 3 3 3 3 3 3 3 3 4 3 3 3 3 4 3 3 3 3 3 3 3 4 3 3 3 4 3 3 3 4 3 3 3 3 3 3 3 3 3 3 3 3 3 3 3 4 3 3 3 3 3 3 3 3 3 3 3 4 3 3 3 3 3 3 3 3 3 3 3 3 3 3 3 3 4 3 3 3 4 3 3 3 4 3 3 3 3 3 3 3 3 3 3 3 3 3 3 3 3 3 3 3 3 3 3 4 3 3 3 3 3 3 3 3 3 3 3 3 3 3 3 4 3 3 3 3 4 3 3 3 4 3 3 3 3 3 3 3 3 3 3 3 3 3 3 3 4 3 3 3 4 3 3 3 3 3 3 3 3 4 3 3 3 3 3 3 3 3 3 3 3 3 3 3 3 3 3 3 3 3 3 3 3 4 3 3 3 3 4 3 3 3 3 3 3 3 4 3 3 3 3 3 3 3 3 3 3 3 3 3 4 3 3 3 3 3 4 3 3 3 3 4 3 3 3 3 3 4 3 3 4 3 3 3 3 3 3 3 3 3 4 4 3 3 3 3 3 4 3 3 4 3 3 3 3 3 4 3 3 3 3 4 3 3 3 3 4 3 3 3 3 4 3 3 3 3 4 3 3 3 3 4 3 3 3 3 3 3 3 3 3 3 3 3 3 3 4 3 3 3 4 3 3 3 3 3 4 3 3 3 3 4 3 3 3 3 3 3 3 4 3 3 3 q 3 3 3 4 3 3 4 3 3 3 3 3 3 3 3 4 3 3 4 3 3 3 3 4 3 3 4 3 3 3 3 3 3 4 3 3 3 3 4 3 3 3 3 4 3 3 3 3 3 4 3 3 3 3 3 4 3 3 4 3 3 3 3 3 3 3 3 3 3 3 3 3 3 4 3 3 3 3 3 3 4 3 3 3 3 3 3 3 3 3 3 3 3 3 3 3 3 3 3 4 3 3 4 3 3 3 3 3 3 3 4 3 3 3 3 3 4 3 3 3 3 4 3 3 3 3 4 3 3 3 3 4 3 3 3 4 3 3 4 3 3 3 4 3 3 3 3 3 3 3 3 3 3 3 3 3 3 3 4 3 3 3 4 4 3 3 3 3 4 3 4 3 3 3 3 3 4 3 3 3 4 3 4 3 3 3 4 3 4 3 3 3 4 3 3 3 3 3 3 3 3 3 3 3 3 3 3 3 3 3 3 3 3 3 3 3 3 3 3 3 3 3 3 3 3 3 3 3 3 4 3 3 3 4 3 3 3 3 3 4 3 3 3 3 3 3 3 3 3 3 3 3 3 3 3 3 3 3 3 3 3 3 3 3 3 3 3 3 3 3 3 3 3 3 3 3 3 4 3 3 3 3 4 4 3 3 3 4 3 3 3 3 4 3 3 3 3 3 3 3 3 3 3 3 3 3 3 3 3 4 3 3 4 4 3 3 3 4 3 3 3 3 3 3 3 4 3 3 4 3 3 3 3 4 3 3 3 3 3 3 3 3 3 3 3 4 3 3 3 3 3 3 4 3 3 3 3 3 3 3 3 4 3 3 4 0 3 3 3 3 3 3 3 4 3 3 3 4 3 3 3 3 3 3 3 3 4 3 3 3 4 3 3 4 3 3 3 3 3 3 3 3 3 3 3 4 3 3 3 3 3 4 3 3 3 3 3 3 3 3 3 3 3 3 3 3 3 3 3 4 "
};
