/* XPM */
static char *comp_delay_x2_stereo[] = {
/* columns rows colors chars-per-pixel */
"582 256 245 2 ",
"   c #18120C",
".  c #0E0E13",
"X  c #111216",
"o  c #1B1515",
"O  c #15161D",
"+  c #1A161A",
"@  c #17181E",
"#  c #1C1A1C",
"$  c #1C1916",
"%  c #0E0C0C",
"&  c #221D1D",
"*  c #25191C",
"=  c #391F1F",
"-  c #28251D",
";  c #373617",
":  c #343817",
">  c #161621",
",  c #161C24",
"<  c #1B1C22",
"1  c #1C1D28",
"2  c #191726",
"3  c #111D2B",
"4  c #231E20",
"5  c #221C29",
"6  c #281E2E",
"7  c #1F2025",
"8  c #1F212B",
"9  c #1C2A24",
"0  c #1D2834",
"q  c #1D3532",
"w  c #232125",
"e  c #2A2326",
"r  c #25262E",
"t  c #2B2628",
"y  c #26282F",
"u  c #2D292D",
"i  c #2C2B25",
"p  c #322522",
"a  c #322B2E",
"s  c #382926",
"d  c #242530",
"f  c #262932",
"g  c #2A2B34",
"h  c #252A3B",
"j  c #2B2D3C",
"k  c #242638",
"l  c #342D30",
"z  c #372F33",
"x  c #25333C",
"c  c #2E303B",
"v  c #353135",
"b  c #3A3235",
"n  c #33333C",
"m  c #3E363A",
"M  c #3D383E",
"N  c #2E3527",
"B  c #1F201F",
"V  c #4D2C19",
"C  c #70251B",
"Z  c #472827",
"A  c #572926",
"S  c #41383C",
"D  c #4A3733",
"F  c #533C37",
"G  c #41312E",
"H  c #692D27",
"J  c #773027",
"K  c #15521B",
"L  c #39471D",
"P  c #0D6E10",
"I  c #1B4521",
"U  c #3B4728",
"Y  c #4A4708",
"T  c #565300",
"R  c #595602",
"E  c #4D5112",
"W  c #567019",
"Q  c #455221",
"!  c #676F13",
"~  c #1B314A",
"^  c #282D44",
"/  c #2E3142",
"(  c #253945",
")  c #323547",
"_  c #363944",
"`  c #3A3A45",
"'  c #333649",
"]  c #36394A",
"[  c #3B3C4B",
"{  c #393641",
"}  c #2A3754",
"|  c #3B3E51",
" . c #373B51",
".. c #172870",
"X. c #2E3A67",
"o. c #413D45",
"O. c #413F4B",
"+. c #1D4956",
"@. c #1A4954",
"#. c #25424D",
"$. c #3E404E",
"%. c #254956",
"&. c #3E4153",
"*. c #3E425A",
"=. c #27535B",
"-. c #1F5B68",
";. c #1D5375",
":. c #255A68",
">. c #2B4C72",
",. c #146877",
"<. c #246878",
"1. c #26606F",
"2. c #44424C",
"3. c #49444D",
"4. c #434454",
"5. c #494751",
"6. c #4C4954",
"7. c #42465A",
"8. c #46495C",
"9. c #4A4B5C",
"0. c #464858",
"q. c #514E59",
"w. c #54515E",
"e. c #58535F",
"r. c #464A61",
"t. c #4B4E63",
"y. c #474D67",
"u. c #4E5165",
"i. c #4E526A",
"p. c #535364",
"a. c #52556B",
"s. c #56596E",
"d. c #5C5C6C",
"f. c #595766",
"g. c #525771",
"h. c #555A73",
"j. c #5A5D73",
"k. c #5A5E79",
"l. c #565C7A",
"z. c #4F5471",
"x. c #615E6F",
"c. c #5D6176",
"v. c #5D617B",
"b. c #636274",
"n. c #63657C",
"m. c #6A6A7D",
"M. c #67677B",
"N. c #63606F",
"B. c #497247",
"V. c #872617",
"C. c #8F352A",
"Z. c #B93B29",
"A. c #A83829",
"S. c #C63E2A",
"D. c #DA3E38",
"F. c #E13D3F",
"G. c #D6412A",
"H. c #E7442A",
"J. c #F6524F",
"K. c #A9641C",
"L. c #048806",
"P. c #668915",
"I. c #6D9413",
"U. c #6F9812",
"Y. c #709813",
"T. c #689335",
"R. c #6BA245",
"E. c #8E8901",
"W. c #A9F13C",
"Q. c #9BE544",
"!. c #112B8E",
"~. c #0C2FB7",
"^. c #0B30BD",
"/. c #0F2EA7",
"(. c #0E529C",
"). c #17558F",
"_. c #364D8D",
"`. c #247688",
"'. c #296F8C",
"]. c #1256A2",
"[. c #195BAB",
"{. c #1D5FB1",
"}. c #3E54A5",
"|. c #2D70B1",
" X c #136E99",
".X c #5D6382",
"XX c #666A83",
"oX c #6B6D84",
"OX c #6A6E8A",
"+X c #646985",
"@X c #6D718C",
"#X c #6F7086",
"$X c #72748C",
"%X c #737389",
"&X c #6E7392",
"*X c #6D7499",
"=X c #727692",
"-X c #767994",
";X c #7A7C94",
":X c #757B9B",
">X c #7A7E9A",
",X c #717799",
"<X c #6E6E86",
"1X c #415AB6",
"2X c #4056AF",
"3X c #757CA3",
"4X c #486EBA",
"5X c #0B30C2",
"6X c #2C6CC8",
"7X c #3573D2",
"8X c #3474F6",
"9X c #4967D8",
"0X c #496DCA",
"qX c #4D6DE7",
"wX c #4E74F2",
"eX c #445FC3",
"rX c #24859A",
"tX c #328798",
"yX c #238DA3",
"uX c #2394AB",
"iX c #239CB4",
"pX c #239FB8",
"aX c #3495AF",
"sX c #23A2BB",
"dX c #36A1B7",
"fX c #058A99",
"gX c #7D819D",
"hX c #7C82A4",
"jX c #7E87B4",
"kX c #368AC8",
"lX c #3793D6",
"zX c #378FD0",
"xX c #23A8C1",
"cX c #5993FF",
"vX c #5287F1",
"bX c #4F80DD",
"nX c #81839D",
"mX c #8589A7",
"MX c #8D92B5",
"NX c #8F94B5",
"BX c #959CC2",
"VX c #9CA3CB",
"CX c #A5ACD6",
"ZX c #ADB6E6",
"AX c #BCC5F8",
/* pixels */
"r r y r y y r y r r y r y r y r r y r r y r y r r y y r r y r y r y r r r y r r y y r r y r r y r r y r r y r r r r y r r r r y r r y r r y r r r y r y r r r y y r y y r y r y r r y r y y r r y r y r y y r y y r y r r y r y r y r r w y y y y y y r y r r y r y r r y r y r y y r y y y y 9 f r y r y y r y y r r y r y r y r r y r r r y y r r r r y y r r r y r r y r r r y r y r y r y y r y r y w y y y y r y y r y r y r r y r w y y y y y y r r y r y r y r y r r y y y y 9 y y r y y r y r r y r r y y r r y r r y r y y r y r y r r y r r y r y r r r y r r r y r y r y r r r r y r r y r y r y y y r r y r r y r y r y r r r r y r y r y y y y y y r y r r r y r y r r r y r r y r y r y r r y r y y r y y r y r y r r y r y r y y r y r y r r y r r r y y r r r r y y r r y y r y r r y y y y r y r y r r y r y y r r y r y r y r r y y r y r y r r r r r r r y y y y r r r y r r y r r r y r y r y y r r y r r y r r y r r r y y r y y y r y r r r y r y r y r r r r r r r y r r r y y y y r y r r r y r r y r f r r r y y r y r r y r r r r r r r r r r y r r r y y r r r y r r y r y y r r y r y r y y r y r y r r y r r y r y r r r r y r y r r y r r y r y y y y y y y y y y y y y r y y ",
"r y r r r r y r y r r y y r r y y r r y r r r y y r r y y r r r r y r y r r y r r r r y r r y r r y r r y r r y r r f y y y y r y r r y r r r y r r r y r y r r r r r r y r y r y r w y y y r y r y r y r r y r r r r y y r r y y r r y y r y y r y r r r y y r y r y r r y r r r r y r w y y y r y r r r r r r r y y r y w y r y r r y y r r r r y y r r r r y y r y r r y y y r y y r r y r r r r y r y y y y r y r r y r y r y r r y y r y y r y r y y r r r r y y r r y y w y y y r r r r r r r y r r y y r r y y r r y r r r r r r r y y r y r r y y r r y r y r y y r r y y r r y y r r y y r r y y w y y y r r y y r r y y r r y y r r y y r w y y y r r r y r y r r r y r y r r y r r y y r r y y r r r r y r r y r y r y r r y r r r r y r y r y r r y y r r r r y y r r r y y y y y r y y y y y r y y y r r y y y y y y y y r y y r y y r y f y y r y f g f r r r y y y r y y y r y y y y y r y y y y y y y y r y y r y y y y y y r y y r y y y y y y r y y y y r r r f y y y y r y y y r y f r y y y r r r y y r r f r r r f y f y y y y r f r f y y f y y y y y y y r y y y y r r y r y r y y r r y r y r r r r r y y r r y r r y y y y r y y y y y y r y r r y w y y y f w d j d d 6 e y r r r ",
"r y r y y r r y r y y r r y r r y r r y r y r r r r r r r y y r y r r r y r r r y r y r r y r r r r y y r r r r r r r w r f u N r w r r y r y r y y r r r y y r r y r r r r y r y y y y y y y r r y r r y w r r r y y r r r y r y y y r r y y r y y r y y r r r y r y y y y r y y w r r y r r y y y r y r y y r y r r y y y y r r y y 9 y r y r r y r r y r r y y r y r y y y y y r r y r r r y y r y y r y y r r r r y r r y r w y y r r y y r r y r r r r y r y r r y y r r y y r r y r y r r y r r y r y r r r r r y y y r y r r y r r r y r r r y r r y y r r r y r r r r r r y y r r y y r r r y r r r y y r y y r r r y r r y y r r y y r r y r r r r y r y r r r y y r r r y y r r y y r r y r r y y y r r r r r r r y r r y y r r y r r r r y r w y y r r y r y r r y r r r r 9 7 8 r r r w 9 7 7 y w r y y y y r w r y r w y y r w y r r r r 9 8 w r y 9 w 7 r f f 8 w y y y r 9 f r 8 7 w r f w 7 9 w r w w r y r 8 y r w 9 w y y y 8 w f w 7 w 8 7 w y r 7 7 w y y r w 9 8 y y r y w r y y 9 r r w 8 8 r r r r r w 9 8 w w w w 7 9 w w 7 7 9 r 8 w 8 w f f 9 9 w w y y 8 7 7 r r y r r r g y r r y r y r r r y y r r r r r y r r w w r r r r w r w y y r y r y y r r y u I I I I I I I q y y r y ",
"y r y r y y y r r y r y y r r y r r y y y y r f y y y y y y r y r r r r y y y y y r y y y y y r y r r r y y y y r w ( :.1.,.;.).1.:.( r r r r y r r y r r r y r y r y y r y r y y y y y y y w y y r y r y y r y y r r y y r r y y y w y r y r y r r y r r y r y y y y y r r y r y y r y r r y r r r y r y r r y r r y r y y y y y r y y r y r r y r r y r r y r r y r r w y y y r y r r y r y r r y r r y r y r y r y r r y r y y r y r y r r y y r y r y y r y r r y r r y y r r y r r y r y y r y y r r r r y y r y y r r y r y y r y y r r r y r r y y r r y y r r y r y y r y r r y y r r y y r r y y y r y y r r y y r r y y r r y y r r y y r r y y y r y r r y y r r r y y r r y y r r y y r r y y y w y y r y y r y r y r r y r y r y y r y r y y r y r r y r r y r r y r r 5.a.a.] r r y 4.a.h.u.y *.` w y r y g 8.x w &.&.r w &.$.r y y r f 0.a.&.f w n u.u.c w r &.8.y y w &.0.8 _ u.s.*.y w &.a.h.a.h $.7.r r n 7.y y 4.a.&.y r y 7._ 9 ] h.p.u.h.4.w x 9.a.] r w ` a.a.$.r r y r 7.` 8 y 9.c y 7.i.M r y r y r _ i.u.c 7.h.t.a.h.) 4.s.h.u.y &.s.p.] w f 8.a.h.r.y w ` u.u.x w f r y r g g r y r y w %.( r w ( #.y r #.#.w r f %.:.x r r f %.=.( y r y r r r r y y r 9 P q I K K I I K e f r r ",
"y r r r r r r w y y r r r y r y r y f r w r r w r r w r r r r r r r r r r r w r r e r e w r 5 r r y y r r y y e 0 1.`.-.&.R.B.R.=.%.1.1.#.e y y y r r r y y r r y y y y r y r y r y r y r r y r y r y r y y y y r y r r r y y r y y r y r r r r y r r y r y r y r y r y r r y r y y y r r y r y r r r y r r y r y r y y y y w y r r y r r y r y r y y r r y r r r y r y y w y r y r y r r y y r r y r r r r y r r r y r r y r r y y r r y r y r r r y y r y r r y r y y y r r y y r r y r y y r r y y r y y r r y y y 9 y r r y r y y r r y r y r y r r r r y r y r r r r y y r r r r r y r y r r y y r r y r r r y r r r y y r r y r r y r y r y w y r r y r r y r r r r y r y r y r y r r y r r r y r y y r r r y r r y r r y y r y r y r y r r y r r y y y y r y r r y r r y r f &X+Xh.:Xj.r r &XOXa.a.w OXa.< y y w &.MX0.7 7.:Xf g >X&.w f w j @X@Xc.+Xx $.>Xv.v.:X] 7 +XmXc r f gX&X8 9.gXa.:Xs.< .X@Xa.h.g a.mX[ < 8.&Xw s.&Xh.oXc 9 _ mXc.7 ` s.@XgXh.&.c =X+Xj.gXt., a.:Xs.:Xa.w f 8 u.,X7 u.&Xw p.@Xv.,Xn r r 8 ` :Xj.XX9.4.h.gXOXs.n @X.Xs.u.r XXOXj.gX$.0 :Xv.s.u.w 8.gXj.+X,Xn w f r r c f r r y y w 1.1.w r <.:.w y `.<.r w :.<.1.`.x w <.<.:.<.f r y r y r y r r d q I I P L.P K q K d r y r ",
"r y e ( yXyXuX<.w y y r r r y r y r w %.`.yXyXyXyXyXyXyXyXyX:.w f e :.uXyXyXyXyXyXyXyXyXyXrX<.x r r r y r y w #.).;.T.R.R.W.W.W.R.R.R.=.;.=.e y r r y y r r r y y w y y r r y r r r y r r y r r r y r r y y r r y r r y y r r y y y y r r y y r r y r r y r y w y r y w y y r r y y r y y r r y y y r r y r r y r y r r y y y r r y r y y r y r y r r y y r r y r y y r y y r r y r r y y r r y r r y y r y r y y r r y y r y y y y y r r y r r y y r 9 y r r y r y r r r y r r y r y r r r r r y r r y r r r y y y r y r r y r r r r r r r r y y r y y y r r y r r y r r r r y r y y r r y r r y r r y y r r y y r r y y r r y r r y r r y r r y y r y y r r y r r y r r r y r r r y r r y r r y y r y y y r y y r r y r y r r r y r r r y r y y r y y y y r y r y r y r y r r r r @X$.@ n >X[ 7 @X$., r 9 +Xu.7 y y r v.,X.Xr 9 OXu.i.+X7 y y 7 v.OX7 7 r w $Xi.7 < h.@X7 v.hX9., 7.>X+X9 u.+X% &.gX7 +Xp.@ r 9 a.:XOXw 7.OX< @Xs.O w f 8 u.=XOXc w O u..X@ , c.+X7 < $.gXy a.v.% 8.:X9 y r r OXv.@X[ w c f 7 ,X7.9 f 9 7.:X9 7 f 7 , @X4.O r &X$.7 8 9 OX7.% XXv.r -Xc 7 w f :X7.< < n.n.9 f r r g l r r r y w ( `.x f `.( w %.`.`.( w x y w `.%.r `.#.* y y r r y r y r y y w N P P N L.K K P I d y r y ",
"y r w ( sXsXxX`.w y r y y r y r y w :.sXsXpXpXpXpXpXpXpXpXxX<.4 f 4 1.xXiXsXsXpXsXsXsXsXsXsXsXyXx r y r f w #.<.B.Q.W.W.Q.B.B.P.Q.Q.W.W.B.1.:.w y y y r r r r y r y r r y r y r y r y y y y r y r y r y r r y r r y y r r y y r r r y r y r r y y r r y y y y y y r y r r y r y y y r r r r y r r r r y y r r y r r r r y y r y y y r r r r y r r y y r r y y r y r r y y y r y r y r r w y y y y r y r r y r y r y y r r r y r y r r y y y r y r y r y y y y w r r y y y w r y r r y r y r r y r y y r r y y r y y r y y r r y y r r y y y r r r r y r r y y r r y r y y r r r y r r y y y r y r y y r r y y r r y y r r y r r y r y y y y r y y y r r r y y r r y y r y r y r y r y y y r r y r y r r r y y r r y y r r y r y y y r y r y r r r r y r r y y r r r r r r y y y r r &X4.9 r +Xu.9 OX:X@Xv.7 OXu.< g 9 n ,X_ &X_ < [ >X:X` 8 y y 8 OXu.7 g w x -X` w r $.,Xy n..Xc.9 c.v.OXw u.&X$.OX.X7 v.gX@XoX8 h.s.v.u.&.OX9 *.>X.X_ w f &X$.+X8.w 8 i.OXw y OXt.9 y x ,X_ u.@X] +Xc.w f y w c mXh.w g r 9 _ :Xn w r r g OX&X0.r y r &Xr.9 f @X,X@Xc.7 OXv.[ &X0.y ,X&X&Xi.c :Xc f 8 8.&Xr r y r g g r r y y r r `.#.%.<.r w <.=.:.-.w f w #.`.f r =.`.:.x w y r y r r r y r r 9 P P f P 9 I P K 6 y r r ",
"y r r ( sXpXxX`.w y y r r y r y e #.sXpXpXpXpXpXpXpXpXpXiXxX1.e h w :.sXiXiXiXpXpXpXiXiXpXiXiXsX`.r y y r ( <.#.R.W.Q.U d 5 1 8 < U R.W.R.x 1.=.e y r r y y r r y r y y r y r y r y r r r r y r y r y r y y r y r y r y r r r r r y r y r y y r y r y r r y y y r y r r y r y r y r r y y r r y r y r y r r y r y r y y r y r y r r y r y r r y r r r r y r r y r y r y y y y r y r r y y y y y w y r y r r y r y r r y r y r y y y y r r r y r y r y y y y y y y y y y y y y r y r r y r y y r r r r r y r y r y w y r r y r y r y y r r r r y r y r r y r y r r y r r r y y r r y y r r r y r y w r r y r r y r y r y r r y r r y r r r r y r y y y r y r r y y r r r y r r y r y r r r y y r y r y r y r r y r y r r y r y r r r y r y r y r r y r r y r y r y r y y r r r y r r &X4.7 r OXu.< &Xu.n _ 7 +Xu.9 f 8 u.hXv.hXa.w w OX+X7 f y y 8 OXa.< f r g :X] w 9 $.,Xr XXt.v.4.v.t.OXw r.hX.Xc.j 9 v.v.c _ 7 c.s.c &Xu.OXr 9 n v.:Xc [ hX+X:X+Xr 9 u.OXw 9 OXa.< w c :Xc u.:X&X:Xf f r y 7 7.hXXXf r w x ,Xr.w f f f w y 9.:Xa.9 w @X8.< g @Xu._ n 8 XX&X:Xn.7 c -X7._ c c gXc 8 9 u.@X8 r y r g g r y r r f w =.1.1.:.4 x `.<.<.`.f w x `.%.w r w ( <.`.f r y r y r y r r r q P P r d 6 K P K r y y y ",
"r f w ( sXiXsX`.w f y y r y r r w `.sXiXiXpXiXuXuXuXuXuXuXiX:.w f w :.xXiXpXuXuXuXuXuXuXiXiXiXiXsX( w y w <.B.Q.Q.R.8 1 r r u y r r 1 B.tXyX%.<.x w y y r r y r r y r y r r y r r y y r y r r y r r y r r y r r y y r y y r r y r y r y y r r r r y r y r r y w y r y y r y r y r r y r r y y r r r y r y r r y r r y r r r y r y y y y r y y r y r y r y r r y y r y r r y r y y r r r r y y r y y y y r r y r y y r y r y r r r r y r y r r y r r y r r y r y r y r r y r y r y r y r y r r y y r r y y y y y y r y r r r y r r r y r y r r r y r r r y r r y y r r y r r r y r y y r r y r r y y y y y r y r r y r y y r r y y r r y r r y r 9 y r r y r r y r y r r y r r r r y r r r y r y r r y r r r y r r y r r r r y r r y r y r r r r y r y y y r y r y r r y r r y r y y @X$.7 0.hXc w @X&.@ r w XXu.7 y 9 @Xv.9.v.OXy 9 v.c.7 f r f 9 s.&Xg r g r OXj.w r .X+X< +X4.u.-Xu.$.@X8 u.+X7 9 r 7 .Xi.# r 7 s.c.O p.hXn.y j w w :X&.s.@X9.s.,Xc 7 u.+X8 9 s.&Xf 9 t.:Xw a.v.r ,X7.7 f w g ,X$.+Xa., c OXu.7 r r r f c y @ s.@Xw r @X8.7 y &X$.# 8 r OX7._ gXx f :Xc 7 r r &Xa.w f OXc.7 y r r g g r r r y y w ( `.`.( w =.`.=.=.`.( 0 `.=.w r f x 4 x `.x r y r y r y y r t I I P P I P P I K u y r r ",
"y r w ( sXiXsX`.w y f w r y y r 4 `.sXiXpX`.x y f f f f f f f r f 4 1.xXiXsX:.w f f f r %.uXpXiXsX#.r w =.-.R.W.R.1 r k r y r y r e r < =.sXrX%.:.r y r y r r y r y y r r y r r y r r r r r y r y r r y y r r y r r r r r y y r r r y r r r y y y r y r r y y y r y r r y w r y y y r r r r r r y r r y r y y r y r r y y r r y y y y y y r r y r y r r r y y r r r r y y r r y r r y y r r r r y y y y y r r y r r r r r y y r y y r r r y r r r y r y y r r r y y r y y r r y r y r r r y r r r y y r w y y y y r r y y r r y y y r y r r y r r y y r r y y r r y y r r y r y y r r y r r y y y y r y r r r y y r r r r y y r r y r r y y r r y r y r r y y r y r r y y r y r y r y y r r y r r y w y y r r y y r r y y r r y r r y r r r f r r y y y y y r y r y y r r y r y w f =X*XOX-X9.r f &X,XOXv.r +XhX@X+Xu.:Xf 7 y gX8.@ .Xv.7 y r y r g XX,X@Xv.f n *X@X&X@Xn 7 @X8.c jX` &.=X9 i.@X7 y r 8 v.gX+XOXf c.c.7 h :X@Xf .X&X@X+X` :X] < 7 OXc.@ s.@X7 r f +X&X@X=X4.< h.OX+ 8.>Xc r r +Xv.# $.gX_ +XmXv.@Xu.8 f w 8.&XOX*X4.8 9 -X8.7 f $X,XOXv.r @Xu.O v.XXg >X&XOXj.9 $.*X@X&XOXg r y r r g g r r y r r y w `.<.r y `.%.w w :.<.1.rX1.`.%.x <.<.`.1.r r y y r r r r r r q K y P L.P q I K 6 y r r ",
"y y r ( sXiXsXrXw f y y y r y y 4 `.sXpXpXx w f r r f f y r r r f 5 1.xXiXxX=.* y y r f * `.sXiXsX#.e y ;.$.Q.Q.x r f r y r y r w <.=.w - `.xX%.<.x w y r y y r y r r y y r r y r r r y r y y r y y y w r y y r r y y r r r y r y r y r r y r r r r y r y r y y r r r y y y y r r y r y y r r y y r r y y r r y r y y r r y y r r y y w r y y r y y r y y r r y r y r r r r y r r y r r y r r y y r r y r y f 9 r y y r r r y r r y r y y r r y y y r r r y y r y y y w r y r r r y r y y r r y y r r y y r r y r y y r r y y r r y r r y r r r r r y r y y w y r r y r r y r r r r r r y r r r r r r y r y r y r r y r r r r r r y r y r r r r r r y r y r r r r y r r r r r y r r r r y r r r y y y y r r y r r r r y r r r r y r r r r r r r r r y w y r r y r r r y r y r r f y _ &.$.x 8 r r _ $.$.$.r c $.$.] / _ r f r _ c w n n w r r r r r r ] $.) y r g [ [ f r r _ j y _ r g ` r c _ r r r r ) $.&.$.f c c r r c _ r c $.[ y f $.r f 9 ) ) w c _ r r w f ` [ j w f c _ w y ` x r r [ f r 8 _ c _ [ &.&.n r y r g ] $.c w y r _ c r r _ $.&.[ r _ x r c ` f _ $.&.` r w c [ [ r 8 y r y y g g r r y y y r y x x r y ( r r r f ( x ( #.( x y x #.( r r r r y y y r r r r y K I I I I K K I 6 r r r ",
"r y e ( sXiXsX`.4 r y r y y y y 6 rXsXiXsX1.f w w r w e w r r y g 4 :.xXuXsX:.5 f y r f 4 <.xXuXsX#.w x `.,.@.#.6 w r r r y r r `.`.f r e #.yX#.:.%.w y y r y r r y r r r y y r r y r y r r r r y y y y r y r r y r r y y r r r r y r y r r y r r y r y r f 9 y y r y r y y y y y r y r y r y r r r y r r r y r y r y r y r r y r r r y r r r r r r y r r y r r y r y y y r r y r r y r y r r y r y r r r y r y y r r y y r r y y r y r y r r y r r y r y r r y y y y y y r r y y r y r y r y r r y r r r y r r y r y r y r r y y r y r y r r r y y y y y y y y y y y y y y y y y y y y y y y y y y y y y y y y y y y y y y y y y y r y y f r f y y y y y y y y y y y y y y y y y y y y y y y y y y y y y y f f y y y y r r f f y y y y y y r r y y y y y r y y y y y y y y y y y y w 8 9 w f f r w 8 w 8 r r 7 w 9 r 8 r r r r r f 8 r y r y r y y y w w 9 r r r w 9 f r y 9 r f 9 r r 8 r r w y y y y w w 9 8 y r 9 y r r w y r w 9 r r 7 y y f w w y r w f r f f w 8 w f r r 8 f r w r r d 9 y y y 8 r w 7 w 9 r y r y r w 7 r f r y 8 r r f 8 9 7 7 y w r r r w y 8 7 7 8 y f w w 9 y y y y y y y y y y y y y y y r r y y w r r r r r r w e w r y r r w r r y y y f y y y y r r f r r t y r d y f r f r ",
"r y w ( sXsXsX`.4 f r y r r r y w 1.sXiXpXpXyXrXrXrXrXrX1.x w f f 4 :.xXiXxX=.w r r r y 4 `.sXiXsX%.w y :.iXpXyXrX1.( w f r r y %.f w f r x yX`.%.:.w y r r y r y r r y y r r y r r y r r r y y y y y r r y r y r y y r r y r y y y r y y r y y r y y r y y r y y r y r r y r r r r y r r y r r y r y r y r r y r r y y y y y r y r y r y r r y y y y y r y r y r y r r r y y r y y r y r y r r y r y r r y y y r y y r y r r r r r y r y r r r r y y r r r y r r y r r r y y r r r y w y r y r y r y r r y r y r r r r y r y y r r y r r r r r r w w r r w r r r w r r w r r w w w r r r w r r w r w y r w w r 9 w w r r 8 r w r w r 9 w r r w w r r w w w r r w r 9 r y w r w w r w y w y w r r w 8 r 9 w r w r w w r r 8 r w r r 8 r r w r r r r w r 9 w r r r w r r r r w r w r r r r r w w r r r r r w r r r r r r w r w r r r r 8 r w r r w r r r r r w r r r r w w r r r w r r r r r w r w r w r r r r w r r r w r f r r r r r r r r r r r r r r r r 8 r r r r f r r r r y r r r 8 r r r y r r r r r y y r r r r w f r r r r w r r r w r y w r r r r r 9 w r r r r r r r r w r r r w r r r w r r w r w r r w w r r r r r r w r r r w f r r r w r w r r w w r r w r w r w r w r r w r 8 r r w r r w r ",
"y y w ( sXiXxX`.4 f y r r y r y r x yXsXiXiXpXsXsXsXsXsXsXyXx r f 4 :.xXuXxX=.& f r r r #.yXpXiXsX#.w y w r %.pXsXxX%.w f r r r r r r f r f rXyX%.1.4 f r y y r r y y r r r y r y r y r y r r r y 9 r y y r y r r r r r r r y r r r y r r r r r y r r y r r r r r r r y y r y y r y r y r y r y r y r y y r r y r y y y r y r r r y y r r y y r y y y w y r r r y r r y y r r y r r r r r y y r y r r y y r y y r r r r y r y r r y r y r r y r r r r r r y y r y r r y y r r y r y y y r r r y y r r y y r y r r y y r r y y y r y y r r r 7 , 7 , 7 # < < < , < # < , 7 < , < 7 , < < # < , < < , < < , 7 < < < < < < < < < < @ 7 < < < < < < 7 < < < 7 , , < < < < < < < , < < < < , < < 7 , @ 7 7 # < < < < < < < < , 7 # , < < , # < # < < , < < < < < < , < # < , , < < # < < < , < < 7 , # , < < , 7 < # < < @ < < < < < # < @ 7 < < , < < # , < < < < < < < , < < # < @ < < < < < # < , , < < < < < < < < 7 8 7 < 7 7 8 7 7 7 7 w 1 7 1 < 7 7 7 7 7 8 7 7 8 < w < 7 7 7 9 < 8 7 7 7 8 7 < 9 7 8 < 7 < 8 8 7 7 8 7 7 8 7 7 7 < , < < < < < < < < # < < < < < < < < # , # , < < < < # < , 7 B # < < , < < @ 7 < , < , < < , < < < < < , < , , 7 < < < < , < < , < , < < < # < < < < < 7 , < < < < < < ",
"y y w ( sXiXsX`.4 y y y r r y y y r ( uXsXpXpXpXsXpXiXiXiXsX`.y f 4 :.xXiXpXuXuXuXyXuXuXiXpXiXsXiX#.w y t j %.uXiXsX#.w y r r y y r r r r f yXuX%.1.4 f y r r y y r r y y r y r r y r r y r r y y y r r r r y r y r r y y y r r y r r r r y y r r r r r r r y r r y r r r r y r r y r y r r y r r y r r r y r r y y r y y y r y y r r y y r r y y r r y r r y r r y y r r y y r r y y r r r y r r y r r r r y w y r r y r y r r r y r y r y y r y r r y y r r y r y y r r y y r r y y y r y y r r y r r r r y r y r r y r y w y y r r y r 7 @ 7 @ 7 < < < < < < < < < < , < < < < < < < < < < < < < < < < < < < < 7 < < < < < < < < < < < < < < , < < < < < < < < < < < < < < < < < < < < < < < 7 < < < < < < < 7 < < < < < < 7 < < 7 # < < < < < < < # < < < < < < < < < < < < < < < < < < < < < < < < < < < < < < < < < < < < # , 7 @ < < < < < < < < < < < < < < < < < < < < < < < < 7 , < < < < < < < < < 7 8 7 7 w 8 7 7 w 8 7 8 7 7 7 7 8 8 8 8 7 8 7 7 7 < w 7 8 w 8 8 7 8 7 7 8 7 7 7 7 w 7 7 w 8 7 8 7 7 7 7 8 8 7 7 w 7 7 < < < < < < < < < < < < < < < < < < < < < < < < < 7 < < # , , < < < < < < < 7 , # # < < < < < < < < < < < < < < < < < < < 7 < < < < 7 < < < < < < < < < , # < < < < < < ",
"r y w #.sXuXsX`.5 g y y y r r r r y w ( `.yXuXuXiXuXiXpXpXiXpX#.r 5 :.xXiXiXiXiXsXsXiXsXiXiXiXxX`.y y r :.yXpXiXiXsX1.w f y y r y r r f r x yX`.%.:.w y r r y r r r y r y r r r y r r y r r y r r r y r r y r y r y y r r r r y r y r y y r r y r y y r y y r y y r y y r y r y r r y r y r r r y r y r y r r y r r y w r r y r r r y r r r y r y r y r y y r y r y r y r r r r y r y r y r r r y r r y y r r y r y y r y r r y r r y r r y r r y r r y r r y r r y r y r r r r y y y y y r r y y r r y y r r y r y y r y r y y r r y r 7 @ 7 @ 7 @ < < < < < < < < < < < < < < < < < < < < < < < < < < < < < < < < < < < < < < < < < < < < < < < < < < < < < < < 7 < < < < < < < 7 < < < < < < , < < < < < < < , < # < < < < # < < < < < < < < < < < < < < < < < < < < < < < < < < < < < < < # < < < < < < < < < < < < < < < < < 7 @ 7 < < < < < < < < < < < < < < < < < < < < < < < < # < < < < < < < < < 7 8 7 8 8 7 8 7 8 < 7 7 8 7 7 8 7 7 7 7 7 7 7 7 7 8 8 7 7 7 7 8 7 7 7 5 < 4 8 7 8 7 8 7 8 < 8 w 7 7 7 8 < w < 8 8 7 < < < < < < < < < < < < < < < < < < < < < < 7 < < < < , < , 7 7 , < < < < < < < @ 7 7 , < < < < < < < < < # < < < < < < < < < < < < < < < < < < < < < < < # 7 7 < < < < < < ",
"r y e #.sXiXsXrXw f r f r y r r r y y r w f x f f f x <.sXiXsX%.w 5 :.xXiXiXiXpXpXpXsXpXsXsXsXrXx r r f uXsXsXsXiXsXyXh w f f f r r r y w =.yXx :.%.e r r y r y r r y r y r r y y r r y r y y r y r r r r y y r r y r r r y y r r y r r y y r r y r y r y y r y r r y y r r r r y y r t y r r y r r r y y r r r r r y r y r r y y r y w y y y y r y r r r y r y r r r r y y r r r y r r r y r y r y y r r r r y y r r r r y y r y r y r y r y y r y r y r r y w r y r y r r r r y r r y r y r r y r r r r y y r r y y r y r y r r y r 7 , < < < < < < < < < , < < < < < < < < < < < < < < < < < < < < < < < < < < < < < < < < < < < < < < < < < < < < < < < 7 < # O O # < < # , 7 O O 7 , , < < < < < # < < < < # , # < < < < < < < < < < 7 @ 7 < < < < < < < < < < < < < < < < < < < < < < < < < < < < < < < < < < < < < < < < < < < < < < < < < < < < < < < < < < < < < < < < < < < < < < < < < < < < < 7 w 7 7 7 7 8 7 7 9 B 7 7 7 7 7 7 8 7 8 < 8 8 7 7 7 7 8 7 7 w 8 < w 8 9 q q 9 , 9 7 8 7 8 8 7 8 w 8 7 7 7 7 8 7 7 7 7 < < < < > # < < @ # @ < < , O # 7 , # @ < , O O O # @ 7 7 @ @ @ # , < < @ , 7 < < < < < # @ @ , # @ @ < < < < < @ < < < O O O < < < < O O , < < , < < < @ < O O @ X < < < < ",
"r r w x sXiXsX`.w f y f y y y r r r r y f y r r y y w x yXsXsX=.e 5 1.xXuXsXuXyXyXyXyXyXyXrX1.x r y y r <.uXrX<.uXsXsXrXx w w w y y r f r `.xX%.<.x w f r r y r r y r r r y y r r y y r r r r r r r y y r r r r y r y y y r r y y r r y y y r y r y r y r r y r y r r r r y y r r r y y r y y r y y r r r r y y y y r y r y r r r y r y y y y y r y r y r r r y r y y r r r r y y r r y r r r y r r r r y y r r r r y y y r r y r y y r r y r r y r y r r y y y r y y r r y y r r y r r y r r y r r y y y r r y y r r y r y r r y r 7 # < < < < < < < < < # O 7 < < # < < < < < < < < < < < < < < < < < < < < 7 < < < 7 < < < < < < < < < < < < < < < < < # < < O q n r < 7 7 7 X s.` O 7 B < < 7 < < B 7 < < < < 7 7 7 < < < < @ 7 < < < B 7 # , 7 < < 7 < w < < < < < < < < < < < < < # < < < # < < < < < < < < < # < < < < < < < < < < < < < < < < < < < , 7 + @ 7 < < < < < < # < < < < < < < < < < 7 1 8 7 7 8 7 7 < 7 L.K 1 7 8 7 8 7 7 7 7 7 7 7 8 7 7 < 7 7 7 7 7 8 w < q  X X X,.9 7 7 8 w < 7 < 7 7 7 7 8 7 7 8 7 < < < < < < 0 1 8 8 8 8 8 < < 7 f 7 # @ 7 f < w c n c 7 r @ @ 7 r 7 r 7 # < r 7 @ < < < < # 8 0 0 1 0 0 8 < < < < < 9 7 < < c n c < # < O c M < O 7 r 7 @ 7 r w n c c ` w # < < ",
"y y w #.iXiXsX`.* r w w w e e r y f r w w w e w w r r :.iXiXsX=.w 4 1.xXiXxX=.4 g w f y r r w r y r r r y x r r rXsXiXsXuX`.1.:.r y f w :.xX`.:.1.w y y y r y y y y r y y r r y y r r y y r y y r y r r y r r y r r y r r y r r r y y r y y y r r y r r y r r r y r r r y y r r y r y y r r r r r r r y r y r r r y r r r y r y r y r r y r r r y r r y y r r r r r y r y r r y r y y r y y r r y r r y r r y r r y y r r y r r y r r y r r r y r r y y r y y y y r r y y y r r y r y r r y y r r y r r r r r r r y y r r y r y r 7 , < < # < < < < < < + ~ #.@ < < < < < < < < < < < < < < 7 < < < < < < < < # < < < # < < < < < < < < < < < < < < < < < < < O 0.gXgXc.@ O # @ . $X9.X O O @ < X , X $.c.O < < , X @ O # < O O < @ @ O @ @ @ @ < # O @ X g n.9 @ < < < < < < < < < < < 7 < < < 7 < < < < < < < < < < < < < < < < < < < < < < < # < < # < < # < @.q O 7 # < < < < < < < < < < < < < < 8 8 7 8 7 8 7 7 7 1 I L.L.1 5 < 7 7 8 8 < 7 9 9 , 7 < w + 8 7 7 8 7 8 8 5 q fX, q fX@.O 7 7 7 8 7 w 8 8 7 8 7 7 w 7 < < < < < < < -.,.-.,.1.,.@.+ @ n VX0.O O d.VX< s.MXOXM.x BXp.X y gX@ @X7.X 7 -X_ O # < < , + =.+.@.<.=.@.-.< < < < < BX9.X n MX@XgXv.< @ n.-X#X-Xg y gXw X [ @Xn OXmXMX#Xg @ < < ",
"r y w x sXiXiXuXrXrXrXrXrXrXrXx r 4 =.yXrXrXrXrXrXrXrXsXpXiXpX%.r 4 1.xXuXxX:.4 f y y y r r y y r r r r r r f `.iXsXsXsXiXsXsXiXx r 4 %.rXyX%.<.( w y r r y r r r r y r r y r r r r y r r y r r r r y r y r r y r y r y r r y r y r r y y y w y y r y r w y r y r r y y r r r y r y r r y r y y r y r y r r y r y r y r y r y r y r r y r y r y r y r r r y y r y r r y r y r r r y r y r r y r y r r y r y r r r r r y r r y r r r y r y r y r r y r r y y y y r r y r r r r y r r y r r y r y y r y r r y y r r r r r y r y r 7 # < < < < < < < < < X ( `.q @ < < < < < < < < # < < < < < # < < < < # < < < < < < < < < < < < < < < < < < < < # 7 < < < < 7 X gX$.% y @ 8.gXXX@ oX7.r #XgX$.X s.gXc.$XBXc.8 X $.XXoX-Xt x n.XX8._ gX@Xr ` =X-Xn r OXgX[ p.VX$Xg @ < < < < < < < < < # < < < < < < < < < < < < < < < < < < < < < < < < < < < < 7 , < < < < < @ ~ `.q O 7 , < < < < < < < < < < < < 1 w 7 7 7 7 < 7 8 < 1 P P L.I 1 w 8 7 8 w w 7 < , 9 7 5 @.@.5 < 7 7 7 7 w # @.fX@.,.,.q , 7 7 8 7 7 7 8 1 w 7 7 8 7 < < < < < < < @ -.`.`.`.`.`.#.@ @ _ mX#XX 9 gXgX7 c.9.% % g gXmXr 8 -X7 #X4.O < -X_ O 7 < < 7 @ @.8 @ rXq X +.< < < O 4.mXm.O _ #X% 7 mX9 9.gX@ X s.=Xw gXr X [ ,X< % u.j.% < < < < ",
"y y w #.sXiXiXsXsXsXsXsXsXsXiX( e 4 1.xXsXsXsXsXsXsXsXiXiXsXrXf y w :.sXiXsX:.5 f r r y r y r y r r y r y w 1.sXsXuX<.uXsXiXsXpX=.r :.sX<.5 1.=.w y y y r y r r y r y r y y r y y r y r r y r y y y y y r y r r r r y r y r r y r y r y r r y r y r y r y y y y r y r r y r r y r y r y r r y r r r y r r r y y r r r y y r y r y r y r r y r y y r r y y r r y y r r y r r y r r y r r r r y r r y r r y r y y y y r r y r r y y r y r r y y r r y r r r r y r r r y r r r y r r y r y r r r r r r r y y r y y y r y r r y r 7 # < < < < < < < < < + ( `.0 # < < < 7 # < < < < < < < < < < < < < < < < # , < < # < < < < < < < < < < < < < < < < < < < < < 7 X p.hX4.X n hXf oXs.m.&.%X9.$.gX0.gXf w u.OX@ 7 X 4.NXr j.@Xc BX_ y mXc d.OX$Xu.r < #Xa._ gX4.=Xr < # < < < < # < < < < 7 # < < < < < < < < < < # < < < < < < # < < < < < < < < < < < < < < < < 7 o q `.~ # < < < < < # 7 < < < < < 7 8 7 8 7 7 7 w 7 7 1 9 L.K P P 5 8 w 8 8 7 < q ,. X,.,.,. XfX@.5 w < 7 7 8 5 ~ fX,.,. X0 < 7 7 < w w 8 7 7 7 8 8 < < < < < < < < < < -.-.-.-.-.-.#.# O _ #X$Xy _ #X=Xw s.mXn.w.x XXc.XX7 gX@ @X7.O < -X_ O < < < 7 + @.9 < yX( @ +.< < 7 o OX#.m.c c MXm.-Xc.% @Xu.X < w hX_ gX9 X [ $X7 X s.v.O 7 < < < ",
"r y w ( sXiXiXiXiXiXiXiXiXiXuX#.w 6 :.xXiXpXiXiXiXiXiXiXsXiX%.w y w 1.xXiXxX=.4 y r y r y r y r y r r y y w :.sXuX=.e `.sXiXrXiX<.:.xXuX:.:.1.w y r r r y r y y r y r r r r y r r r r y r r y r r t r y r y y r y r y r r y y r r r y r r y r r r y r r y y y y r y r y r r y r y r y r r y r y y r y r y r r r r y r r r r r y w y r r y r r r r y y r r r y r r y r r y r y r y r y r y y r r y r r y r r r r r r r y r y y r y r r y y r y y y r y y r y r y y r r y y y r r r r r y r y y r r y r r r y r r r y y r y y < < 7 < < < < < < < < < + +.`.# < < < < , < 7 # < < < 7 < < < < < < < < < < 7 < < < < < < < < # < < < < < < < < < < < < < < < < < < @ $.gXv.0.NXoXmXs.v.p.gXgXgX-XXXs.X X 9.m.@ 7 X 4.oXX g -X` ;XX n NX#XgXXX$.gXs.9 hX>X$XgX4.@X7 < 7 < < < < < < < < < < < < < < < < < < < < < < < < < < < < < < < < < 7 < < < < < < < < < < < < O > `.~ + < < < < < < < < < < < w 7 7 7 7 7 7 8 8 8 w 5 K L.P L.L.9 1 w < w 8 w 0 @.@.,.,.-.,.fXq < 8 8 8 7 w # q fXo o fX-.& 7 7 8 8 8 7 7 8 7 7 7 < < < < < < < < < # -.<.<.<.<.<.@.+ O $.v.c.9.s.u.$Xr s.@X$.` g &Xw gX0.@X7 #X4.$ < ;X_ O < < < < + @.0 < `.x @ =.< < @ f MX&.gXf.y hX0.s.-X, @Xw.X < 8 gX` -Xr X [ =XB . s.n.X < < < < ",
"y y e ( iXiXiXiXiXiXiXiXiXsXuX( r 4 :.sXiXiXiXiXiXiXiXuXrX%.w f y w :.sXuXsX=.4 f r y r r r y r r r r y y r r %.( w ( iXsXrXw <.rX( `.#.1.1.r r y r y r r r y r r y r y y r r r r y r r y r y r r y r y r r y r r r r y y r r y y r y y y r r y r y r y r r r r y r r y y r r y r r y y y y r r r r r y y r r r r y y r r y r r y y r y r r y r y r r y y r r y y r r y r y r r y r y r r y r y r y y r r y r y y r y r y r r y r y r r r y y y r r y r r y r y r y y r r y r y y r r r y r r y y r y r r r r r y y r y r < < < < < < < 7 < < < < < < + @.`.8 < < < < < < < < < < # < < < < < < < , < < < < < < < < < < < < < < < < < < < < < < < < < < < < < < @ % , gXs.gXX # X OX0.gXx X % f.XX% X 9.XX% B X &.gX% n -X_ -XO n mX, O , O X $Xc.;X` X X n -XO @ < < < < < < < < < < < < < < < < < # 7 < < # < < < < < < < < < # < < # < < < < < < < < < < < # 0 `.#.+ < < < < < < < < < < < 7 7 7 8 7 7 8 7 7 7 7 1 8 L.K 5 9 P K 1 < 5 8 7 8 < 5 # , O $ x q < < 7 7 7 8 8 & q fX@.@.fXq 5 7 7 8 7 7 8 7 8 8 w < < < # < < < < < < < -.-.,.,.,.<.@.$ X $.m._ gXm.g -X8 s.9.% % g =X# $.mX$X7 XXu.% , mXg @ < < < < + @.8 O ,.0 X +.< < X w.mXc.gXgXn #X% % mXn u.&XX % 4.gX9 gXf % 0.;X@ . s.v.X < < < < ",
"r r r r x x f x f x f h f h x y r r g x h h f x f x x f r w r f r r f x h j f r r r r y r y r y y y r r r r y w r w ( sXsX`.w :.sX=.=.<.%.w r d y r r y r y r r y r y r r y r y y r y y r y r y r r y r y r r r y y r r r r y r r y r r r y y r y r y r y y r y r r y r r y r y r y r r r r y r y y r r r r y y r r y r y r y y y y y r y y r y r r y r r y r y y r r u r r r y r y r r y r y r y r r y r y r r r r y r r r y r y r r y y w y y r y r y r r y r y r r y r r y r r y y r r y y r r r y r y r y y r y f w 7 < < < < < < , # < < < < < < , + @.+.# 7 # < < < < < < < < < < < < < < < 7 # < < < < < < < < < < < < < < < < < < < < # < < # < < < < 7 s.c.m.XX7 =XXXc.n $X&.u.gXd.u.x hXm.9.` mX9.9 O $.BXs.gX9.n gX, , @X@Xx.4.u.s.$X9.8.gXc.p.f gXc.w < < < < < < < < < < < < < < < # < < , < < 7 < < < < < < < < < 7 , < < < < # < < < < < < < < @ -.#.+ < < < < < < < < < < < 7 7 7 8 7 7 7 7 8 7 8 7 5 9 P 9 5 1 K K 5 7 7 7 7 7 8 7 8 7 9 9 w < 8 5 w 8 7 1 w < q ,.fX,.@.@ 8 7 8 w < 8 7 7 7 w < < < < < < < < < < < # 1.`.`.<.,.`.+.@ X $.=XX MXm., mXw c.mXs.9.c -Xr X #XVX@ ` gXs.$Xn.O < < < , 7 + +.@.x `.@.q -.< < , gX$.% % gXj.mXj.XX-X8 w -Xm.s.gX&.. c.=Xp.gX&.@ X c.XXX 7 < < < ",
"r y r r r r r w r r w r r w r r r r r t r r r r w y w y y r y r y y r r r w r r r r r y r r r y r r r y r r r y f r f 1.`.( w f `.<.=.h w y y y r r y r r y r y r r r y y r r r y y r y r y r r y r y r y y r y r r y r r y r y y r r y r y y r r y r y w y y y r y r r y r y r y r y r y r r y r y r y r r y r r y r r y r y r y y y r y r y r r y r y r r y r r r y r r r y r y y r y y r y y r r r y r r y r r r y r r y r y r y y r r r r r y w y r y y r y r r y r r y r y r y r r r y y r r y y r r r y r r y r 7 , < < < < < < < < # < < < < < < < $ # < , < < < < < < < < # < < < < # < < < 7 , # < < < < < < < < < < < < < < < < < < < < < 7 , < < < # ` u.9.8 O w 9.u.8 M g O $.p.` @ x p.&.# $.8.7 X 7.#X4.7.@ r _ # , B 0.u.g M a.&.# @ $.p.[ @ M u.r , < < < # < < < < < < < < < < < < < < < < < < < < < < # < < < < < < < < < < < < < < < < # < 7 # # < < < < < < < < < < < 7 8 7 8 < 7 7 w 7 8 < 7 7 7 w 5 1 8 7 , < 7 7 7 < w 7 7 7 w 1 7 7 8 8 7 7 7 7 8 7 7 7 5 & * # 5 7 7 7 7 7 w 8 < 7 7 < # < < < < < < < < < < < ~ 0 q x 0 ( x @ @ r ) O ) g # ` 7 x u.p.8.r _ 7 @ r 4.< @ x u.4.# , < < < < 7 O q ~ x x ~ ( ~ @ # 7 [ 7 7 , n ) 4.p.u.r , # 7 8.u.c O 7 @ $.p._ O 7 O c n @ < < < < ",
"y r r y r y y y y y f r r g y y r r r r r r r y y y y r y y r y r r r y r y y r y y r r y y r r r y y r r y y y y r r e w r f r 1 r 5 r y r y y y r y r r y y r r y r r r r y r r r r r y r r y r y r r r r r r y r r y y r r y r y r y y r r y r r y r y y y y y r r y r y r y r y r r r r y r y r y r y r r y y r y r r y r y y 9 r y r r r y y r r r y r r y y r r y y r r y r r y r r y r r r y r y r y y r y r r y y r r y y r r y r r r r y y r y r r y r y r r y y r r y y r y y y r r y y r r r y r y r r r 7 # < < < < < < < < < < < < < < < < < < < < < < < < < < < < < < < < < < < < # < < < < < < < < < # < < < < < < < < < < < < < < < # < < < < < X X X < < < X X , O @ 7 O . O < O . X < X X 7 X 8.@X% X 7 @ O < < < X X @ @ X X < < O . O < X X < < < < < < < < < < < < < < < < < < < < < < < < < < < < < < < < < < < < < < < < < < < < < < < , < < < < < < < < < < < < 7 7 7 7 8 w 8 7 8 7 8 w 8 7 8 < 8 5 w 7 9 7 7 7 8 7 8 8 7 8 8 7 8 7 < w 7 8 7 8 w < 8 7 7 8 8 1 8 7 7 7 8 7 7 8 w 8 < < < < < < < < < < < < < < + O # @ @ O # < < < O < + @ 7 X < @ . X X < X < 7 # X < 7 + X X 7 < < < < < @ 7 # + O @ + + @ B < < X < < < @ o X X X @ 7 < < X X @ < # < X X O < < < + O 7 < 7 < < ",
"r r r r r r r r r r r r r r r r r y r r r r r r y r r r y r r y r y y r r r y r r r r r r r r r r r r r r r r y r y r y f r r r r r r r r y r r r r r r r r y y r r y r r y r r r r r y y r r y r r y r r r y r r y y r r r r r r y w f r r y r y r r r y r r y y r r y r r y r r y r y y r r y r r r r y r r y r r r r r r y r y r r y r y y y r r y r r y r r r r r y r y y r r r r r r r r r y r y r r r r r r y y y r r r r r r r r y r r r y y y r r r r r r y y r r r r r r r r r r r y r r r r r r r r y r 7 @ < < < < < < < < < < < < < < < < < < < < < < < < # < < < < < < < < < < < < < < < < < < < < < < < < < < < < < < < < < < < < < < < < < < < < < 7 4 < < < 7 7 < < < < < < < < 7 7 7 , 7 7 < X 2.n.@ < # # 7 < < < 9 < < < < < < < 7 < < < < 7 < < < < < < < < < < < < < < < < < < < < < < < < < < < < < < < < < < < < < < < < < 7 < < < < < < < @ < < < < < < < < < w 8 7 7 8 7 7 8 1 7 7 7 8 7 7 8 7 7 7 7 7 7 7 8 7 7 7 1 8 < 8 7 7 8 7 < 8 7 8 7 7 7 8 w 1 8 8 7 8 7 7 < 8 < 7 8 7 8 < < < < < < < < < < < < < < < 7 < < 7 < < < < < < 7 # < < < 7 < < < w 7 < < < < < < < < 7 7 < < < # < < < < < 7 7 < 7 B < 7 , < < < < < < < < < 7 7 < # < < 7 < < < < < 7 < < < < < < 7 < < # < < ",
"y y y y y y y y y r r f r y y y y y y y y r y r y y y y y r y y y r y y f r y y y y y y y y y y y y y y y y r y y r y f f r r y y y y y r y y y y y y y y y y y y y y y r y y y y r y y r y y y y y y y y y y y y r y y y y y y y y y y y y y y y y y y y r y y r y y f y y y r r y y r y y y y y y y y y r y y y y y y y y y r y r y y y r y f y y y y r y y f y r y y r y y y y y y y y y y f y r u r y y y y y r y y y y y y y y y y r f f r y y y y y y y y r y y r y y y y y y y y y y y f y y y y y y y r 5 < < < < < # < < < # < < < < < < < < < < < < < < < < < < < < < < < < < < < < < < < < < < < < < < < < < < < < < < < < < # < < < < < < < < < < < < < < < < < < < < < < < < < < < # < < # < < < < < < < < 7 , , < < < < < < < < < < < < , < < < < < < < < < < < < < < < < < < < < < < < < < , 7 # < < < < < < < < < < < # < < < < < # < < < # < < < < < < < < < < < < < 7 8 7 7 5 8 7 w 7 7 8 7 7 8 7 7 w 7 8 7 8 w 7 8 7 8 8 w w w 7 w 8 8 w w w w 7 7 8 7 8 8 w 7 w < w 8 8 w w w 8 7 7 < < < < < < < < < < < < < < < < < < < < < < < < < < < < < < < < < < < < < < < < < < < < < # , < < < < < < < < < , < # < , < < < < < < < < < < < < < < < < < < < < < < < < < < < < < < < # , < < < < ",
"< 7 < 7 7 7 7 7 < < < < < < < < < < < < < < 7 < < 7 < < 7 < 7 < < 7 < < 7 < 7 < 7 7 7 < 5 7 7 7 < 7 < 7 7 7 7 7 < < < < w < 5 < 7 < w < 7 < 5 7 < 7 < 7 < 7 < < < 7 < 7 < 7 < 5 7 7 7 < 7 7 < w 7 < 7 7 7 7 7 7 < < < < 7 < 7 < 7 7 7 < < < 5 7 < < < < < 7 < 7 < < < < < < < w < 7 < 7 < 7 < 7 7 < 7 7 7 7 7 7 < w < < 7 < 5 < 7 < 7 < 7 < 7 < < 7 < 7 < 7 < < 7 7 7 7 7 < < 7 < 7 < 7 7 < < < < < < < 7 9 < < w < < < 7 7 < 7 7 7 7 7 7 < 7 7 7 7 7 7 < B 7 7 < < 5 7 < < w < < 7 < 7 w < 7 < 7 < 7 7 7 7 7 7 < < < < < < < < < < < < < < < < 7 # < < < < < < < < < < < < < < < < < < < < < < < < < < < < < < < < < < < < < < < < < < < < < < < < < < < < < < < < < < < < < < < < < < < < < < < < < < < < < < < < < < < < < < < < < < < < < < < < < < < < < < < < < < < < < < < < < < < < < < < < < < < < < < < < < < < < < < < < < < < < < < < < < < < < < < < < < < < < < < < < < < < < < < < < < < < < < < < < < < 7 < 5 < < < < < < < < < < < < < < < < < < < < < < < < < < < < < < < < < < < < < < < < < < < < < < < < < < < < < < < < < < < < < < < < < < < < < < < < < < < < < < < < < < < < < 7 < < < < < < < < < < , < < < < < < < < < < < < < < < < < < < < < < < < < < < < < < < < < < < < < < ",
"< @ , @ @ , @ @ < < < < < < < < < < < < < < < < < @ < , @ , @ < @ < < < < < @ < @ # @ , @ @ @ @ < @ < @ # @ , @ < < < < < @ @ > @ , @ @ < < @ @ # @ @ , @ < < @ # @ < @ @ < < @ @ # # @ @ , @ @ @ , @ , @ @ @ @ < < < < < @ < < @ @ @ , > < < @ < < < , @ , @ @ < < < < < < < @ < @ @ , @ , < @ @ , @ @ # @ @ @ @ < < < , < < < @ , @ @ @ < # @ < @ @ < < < < < @ @ @ # , @ , # # @ @ < < < < < < < < < @ @ < < @ @ < < @ @ , @ @ @ , @ , @ @ # @ @ @ @ @ , @ @ , < @ # < , < @ @ < < @ @ @ < @ @ , @ , # @ @ @ < < > < < < < < # , < < @ < < @ @ < , # @ < < @ # , @ , # < @ < # < < @ @ < < @ @ < < , # , @ < < < @ < < < < , # < , < < < @ < < , # < , # @ < < @ @ < @ < < , # < , < # @ < < @ < < , @ , < # < < @ < < @ < @ < # < @ < @ < < , # # @ , < @ , < # @ @ < < < @ < # # @ , < @ < < < , < # , < # < < < , < < @ < # < , < # @ < < @ < < , < , < # < < < < @ < < < < < < < < > < < < , < < < < , < < # < , @ , # @ , < < < < < < < < < < @ < < < < , < < < < < < < < < < < < < < < < < < @ < @ < < @ < < < # < @ , # , , # @ < < @ < @ < < # , # < < @ < @ < @ < < < # < < < < < < < @ < < # , < < # , < < < < < @ < < # < < < < < , < < < < # < < , < < < < < < < < # < , # < < , < < # , # , ",
"e w r e w e w r w t w r r w w w r w w r w w r w r w r e w e r e r w w r w w r w w e r w w r r w r w r w r w e w r w w w w r 5 6 r w r w w r w r w r r e r w w r r w r w r w w r w r e r w r w r r e e w e r w r r w w w w r r w w e r w w r e w w w 6 6 w w w r w w r w r w r w w r e w r e w e r e r e e r w r r w w w w r w w r e w r r w r w e w r w w w r w w r e r e r e r w r r w w r w w r w r w w w w r w r w r r w r e w e w r r e e r w r r e w e r w w e r w w r r w w r e w w r w r r w e w e r w r w r r w w w w w w r e w w r r w w r r w r w r w w r r e w r r w w r r w r w r w r e e w e r r e r w w r w w e w w r e w w w r w w r w r e r w r w r r w r w e w w r e w w r r w r w e w r r w w w w r w e r w w w r w r e r w w e r e r e r w e w r w r e e w r w w y r e w r w w r e w w r w w t w w w w r r w w w w r w r r w r w e w r r w w w w r w w r r w w w w r e r w w w w w t r w w w r w e r e w w w w r w w w r w w w r w r w r w w w w r w w w r w w r w w w w r w e w r w w r e w r w w e w r r e e r r e r w w r e w r w w e w r r w w r e w < < < 7 7 7 7 < 7 < 7 7 7 7 < 7 7 7 7 7 7 7 B 7 7 7 9 < 7 7 7 < 7 7 7 < 7 7 7 7 7 < 7 7 7 < 7 < 7 7 7 7 7 7 7 7 7 7 < 7 7 7 7 7 ",
"S M S M M S S S S S S S S S S S S S S S S S S S S S S S M S M m S S S S S S S S M S S S S S S S S S S S S S S M S S S S S S S S S S S S S S S S S S S m S S S S S S S S S S S S S S M m S S S S S m S M m S S m S S S S S S S S M S S S S S S S S o.{ o.Q S S S S S S S S S S S S M S S S S M S M m m S m m S S S S S S S S S S S S M S S S S S M S S S S S S S S S m M M m m m S S m S S S S S S S S S S S S S S S S S S S S m M S S S S m m S M m S S M S S M S S S S S S S S S S S M S S S S S S S S m S M m S S S S S S S S M S M S S S S S S S S S S S S S S S S m S S S S S S S S S S S S M m S M m S m m S S S S S S S S S S S M S S S S S S S m m S S S S S S S S S S S S S S M S S S S S S m S S S S S S S S S S S S S S S S S M S S S m M m S m M S S S S S S M S M S S S S S M S S S S S S S S S m o.S S S S S S S S S S S S S S S S S S m S S S S S S S S S S S S S S S S S S S S S S o.S S S S S S S M m S S M S S S S S S S S S S M S S S S S S S S S S S S S S S S M S S S S S S S M S S S S S M S S M S M S S m m S m m S S S S S M S S M M S S S S S S S M 7 , 7 f r r y y f y y y y y f y y r y y r y y r y y r r y y y y f y y y y y r y r f y y y y y y y y r f r r r f r r y f y y y y ",
"m m m m S m m m S S S m S m M S S S S G m m S S S S m m S m m m m m m S S m m m m S m m m S m S o.S S S S b b o.z b S b b o.b S m m S b m m m m m m m m m m m m m m b m m m m m m m m m m m m m m m m m m m m m m m m m m m m b S m m m m m m m m b m m b m m m m m m m m b m m m m b m b S m m m m m m m m m b m m b m m m m b m m m m m m m m m m m m m m m m S b m m S b m m m m m b m m m m S m m m m m m m m b m m b m m m m m b m m m m b S m m m m m m m m m b S b S m m m m m m m m m m m m m m m m m m m b S m m m b m b m m m b m m m m m b m m m m m m m m m m m m m m m m m m m m m m m m m m m m m m m m m m m m m m b S m m m m m m m m m m m m m m m b m m m m b m m m m b m m m m m m m b m m m m m m m m m m m m m m b m m m m m m m m m m m m m m m b m m S b m m m m m m m m m m m m m b m m m m m m m m m m m m b m m m m b m m m m m m m m m m b m b S m m m m b m m m m m m m m m m m m m m b S m b S m m m m m m m m S b m m m m m m m m m m m m m m m b m m m m m m m m m m m m m m m m m m m m m m m m b m m m m m m m m b m m b m m m m m m m m m < < w y y r r y r r r r r y r r r r r y w y y y r y r r r r r r r r y r r r y w y r y r r r r r y r r r y r y r r r y r r y r y ",
"m m m m z S m b a s b G s a z a b s z S m m z s z b b m G b m m z m S a G S m b S a m m b b b a l G z z S S S b S S G o.S b S b m m m m m m m m m m m m m m m m m m S m m m m m m m m m m m m m m m m m m m m m m m m m m m m m m m m m m m m m m S m m S m m m m m m m m S m m m m m S m m m m m m m m m m m S m m S m m m S m m m m m m m m m m m m S m m m m m m m m m m m m m m S m m m m m m m m m m m m m m S m m S m m m m m S m m m m m m m m m m m m m m m m m m m m m m m m S m m m m m m m m m m m m m m m m m m S m S m m m S m m m m m S m m m m m m m m m m m m m m m m m m m m m m m m m m m m m m S m m m m m m m m m m m m m m m m m S m m m m m m S m m m S m m S m m S m S m m m m m S m m m m m m m m m m S m m S m m m m m m m m m m m m m m m S m m m m m m m m m m m m m m m m m m S S m m m m m m m m m m m S m m m m m S m m m m S m m m m m S m m m m m m m S S m m m S b m m m m m m m m m m m m m m m m m m m m m m m m m m m m m m m m m m m m S S m m m m m m m m m m S m m m m m m m m m m m m m S m m m m m m m m S m m S m m m m m m m m m < < 7 f r y r y r y r y r r r y r y r y y y y y r y y y r y y r y y r r y y y y r r r r y r r y r r y y r r r r y y r y r r r r ",
"m m b 3.e.m S 3.oXm.e.6.m.m.d.m.m.%Xf.b m m x.%Xe.q.6.b 3.e.G S N.S b N.3.G q.3.S N.S m e.Q 3.m.<Xe.q.6.z S S S S b { S S S o.b m m m m m m m m m m m m m m m m m m m m m m m m m m m m m m m m m m m m m m m m m m m m m m m m m m m m S m m m m m m m m m m m m m S m m m m S m m m m S m m m m m m m m m m m m m m m m m m m m m m m m m m m m m S b m m m m m m m m m m m m m m m S m m S m m m m m m m S m m m S m m m m m m m m S m m m m m m m m S m m m S m m m m m S m m m m b m m m m m m m m m m m m m m m m m S m m m m m m m m m m m m S m m m m m m m m m m m m m m m b S m m m m m m m m m m m m m m m m m m m m S m m m m m S m m m m b m m m m m m m m m m m m m m m m m m m m m m m m m m m m m m m S m m m m m m m S m m m m m m m S m m m m m m m S m m m m m m m m m m m m m m m m m m m m m m m m S m m m m m m m m m m S m m m m S b m m m m m m m m m m m m m m m m m m m S m m m m m m m m m m m S m m m m m m m m S m m m m m m m m m m m m m m m m m m m m m m m m m m m m m m m m m m m m m m m m m m m m m S m m m m m m m m m m m m m S m m m < < 7 y r y r r r r y y r y r y y r r r r y r y r r r y y r r y r r y r y r y y r y y r r y y r y r r r r y y r r r r r y r r y ",
"m S z w.;Xm s b.nXe.3.%X;Xq.q.e.mXm.3.b b %X%Xf.q.m.M.p e.;Xz N.NX3.b NX;Xs N.m.S CXN.z =X6.N.nXp.Q %XN.l S S b b S S b b S b S m m m S m m m m m m m m m m m S m m m S m m m m m m m m m m S m m m m m m m m m m m m m m m S m m m m m b S m m m m m S m m m m m m m m m m m m m m m m m m m m m m m m m m m S S m m m m m m m m m S b S m m m m m m m m m S b m m S m m m m m m m m m m m b S S m m m m S b m m m m m m m m m m m m m m m S m m m m m b S m m m m m m m m m m m m m S m m m m m S m m m m m m m m m S m m m m m m m m S m m m m m m m m m m m m m m S b S m m m m S m m m m m m m m m m m m m m m m m m m m m m m m m m S b m m m m S m m m m S m m m m m m m m m m m m m m m m m m m m S m m m m m m m m m m m m m m m m S b m m m m m m m m m m m m m m m S m m m S m m m m m m m m m m m m m m m m b m m m m m S m m m m m m m m m m m m m m m m m m S m m m m m m m m m m m m m m m m m m m m m S m m m m b S m m m m m m m S m m m m m m m m m m m m m m m S m m m m m m m m m m m m m m m m m m m m S m m m m m b S m m m m S m m m m m m m m m m m < # 7 y r r y r y y r r y r y r r y y r y r y r r y r r r r y r y y y r r y y y r y r y r y r y r y r y y r r y y y y y r y y r ",
"m S b q.%Xb s N.m.z s m.f.Z G l %X6.s S 3.nXb z p m.M.s e.$XG m.m.N.b %XnXe.e.N.o.;XnXo.oXq.N.m.a s m.N.b S m m o.G b S b o.b S m S m m S m m m S m m m m m m m m S m m S m m m S m m m m m m m m m m m m m m m m m m m m m m m m S S b S m m m m m m m m m m m m m m m m S m m m m m S m m S m m m m m m m m m m S b m m m b S m S m m m m S m m m m S m m m S m m S m m m m m m m m m m m m m m m S m m m m m m m S m S m m m m m m m m m m m m S S b S m m m m m m m m m m m b S m m m b S m m m m m m m m m m m m m m S b S m m m m m m S m m m m S m S m m m b S m m S b m m m S b m S m m S m m m S m m m m S m m m m m m m m m m m m m m S b m m m b S m m m m m m m m m m m m m m m m m m m m m m m m m m m m m m m m m m m m m m m m S m m m m m m S m m m m m m m m m m m m m S m m m m m S m m m m m m m b S S m m m m m m m m S m m m m m m S b m m S m m m m m m m m m m m m m S b S m m m m m m m m m m m m S b S S m m m S m m m m m m m m m m S m S m m m m m m m m m m m m m m m m m S m m m m m m m m m m m m m S b S m m m m m m m m m m m m m m m m m m < < w f r y r y y r r y y r r r r y y r y r r y y y y r r y y y y 9 r y r r r r y r r y r r r y r r y w y y y y y y r y y y r r ",
"m m s e.%XS b d.NXnXe.m.NX;Xe.b %Xe.G S e.;Xb o.b N.NX%XmX$X3.nXm.nXD ;Xe.nXN.N.o.#XN.;XM.O.e.NXnXe.m.N.b S m m S { S S S b S b m m m m m m m m m m m m m m m m m m m m m m m m m m m m m m m m S m m m m S m m m m m S m m m S m m m m m m m m m S m m m S m m m m m m m m m m S m m m m m b S m m m m m m b S m m S m m m S m m m m m m m b S m m S b m m m m m m m m m m S m m m S m m m m m m m b S m m m m m m m m m m m m m m m m m m S m m m m m m m m m m m m m m m m m S m m m m S m m m m m m m m m m m m m m m m S m m S m m m m m m m m m m m m m m m S m m m m S m m m m S m m m m m m m m m m m m m m m m m m m m m m S b m m m m m S m m m S m m S m m m m m m m m m m m b S m S m m m m m m m m m m m m m m S m m m m S m S m m m m m m m m m m m m S m m m m m m m S m m m m m m m m m m m m m m m S m m m m m m m m m m m m m S m m m m S m m m m S m m m m S S m m m m m m S m m m m m m m m m m m m m m S m m m m m b S m m m m m m m m m m S b m m m m m m m m m m m m m S m m m m m m m m m m m S m m m S m m S m m m m m m S m m S m m m m m m m m S < < 7 y r y r r r y r r r r r y r r r r r y r y y y r y y r y y y y y r r y y r r y y r r y y r r y r y y y w y y y y r y f r y ",
"m m z e.%Xp p N.N.p p #Xd.s m b %Xq.z S o.mXS s s m.N.s e.m.N.nXm.mX3.;XG %XNXe.3.;Xl nXNXF N.N.= p m.f.e b m m b b o.b S b o.S m m m m m m m m m S m m m m m m m m m m m m m m m S m m m m m m m m m m S m m m m m m S m m m m m m m m m m S m m m m m S m m m S m m m m m m m m m m m m m m m m S m m m m S m m m m m m m m m m m m m m m m m m m m m m m S m m m m m m m m m m m m m m m m m m m m m m m m m m m m m b S m m m m m m m m m m m m m m m m S m m m m S m m S m m m m m m m m m m S m m m m m m m S b m m m m m m m m m m m S m m m m m m m m m m m m m m m m m S m m m m m m m m m m m m S m m m m m m m m m m m m m S m m m m m m m m m m m m m m m m S m m m m m m m S m m m m m m S m m m S m m m m m m m m m m m m S b m m m m m S m m m m m m m m m m m m m m m m m m m m m m m m m m m S m m m m m m S m S m m m m m m m m m m m m m m m m m m m m m m b m m m m S m m m m m m m m S m m m S b m m m m m m m S m m m m m m m m m m m S m m m m m m S m m m m m m m m S m m m m m m m S m m m m S m m m m m m m m m S m m m m m m S m m m m m m m m m < < 7 y y r y r y y y r r y r y y r r y r r y r y y y r r r y w r y r y y r r y y r r y y r y r r y r y y y y r r y r r y w y r ",
"m S z q.NXm.e.N.mXN.3.%XN.z S m ;Xq.b S D m.;Xb.3.m.m.s e.;X;X3.= d.%X;XS S BXm.o.nXZ e.CXo.N.mXN.6.%XnXN.q.b m S S b S b S b S m m m m m m m m m m m m m S m m m m m m m m m m m m m m m S m m m m m m m m m m m m m m m m m m m m m m m m m m m m m S b m m m m m m m m m m m m m m m m m m m m m m S m m m m m m m m S m m m S m m m m m m m S m m m m m m m m m m m S b S m m m m m m m S m m m m m m S m m m m m m S m m m m S m m m m m m m m m m m m m m m m m m m m b S m m m m m S m m m m m m m m m m m m S m m m m m S m m m m S b m m m m m m m m m m S m m m m m m m m m m m m m m m m m m m m m m m m m m m S m m m m m m S m m m m m m m m S m m m m m m m m m m m S m m m m m m m m m m m m S b m S m m m m m m m m m m m m m m m m m m m m m S m m m m m m S m m m m m m m m m m m m m m m m m S m m m m m m m m m m m m m m m m m m m m m m S m m m m m m m S m m m m m m m m m m m m m m m S m m S m m m m m m m m m m m m m m m S m m m m m m m S m m m m m m m S m m m m m m m m m m m m m m m m m m m m m m m m m m m m m m m m S b m m m S m m m m m < < 8 y r y r y w f y r r y r r y r y r y y r y w y r y r y r y r r y r r y y r r y r r y r r y r r y r y 9 r y r r r y r y r y ",
"m S m S N.M.f.3.N.N.q.O.O.G S S 6.o.m S m b f.M.6.3.3.b o.6.q.S S o.q.q.S b q.3.F q.b b e.o.o.N.b.q.3.M.m.q.m m m m m m m m m m S b m m m m m m m m m m m m m m S b m m m m m m m m m m m m m m m m m m m m m m m m m m m m m m m m m m m m m m m m m m m m m m m m S S m m m m m m m m m m m m m S m m m m m m m S m m m m m m b S m m m m m m m S m m m m m m m S m m m m m m m m m m m m S m m m m m m m m S m m m m S m m m m S b m m m m m m m m m m m m m m m m m m m m m m m m S m m m m b S m m m m m m m m m S m m m m m m m m m m m m S m m m m m m S m m m m m m m m m m m m m m S m m m m m S S b m m m m m m m m m m m m m m m m m m m m S m m m m m m S m m m m m m m m m m m m m S S m m m m m m m m m m m m m m m m m m m m m m m m m m m m m m m m m m m m m m m m m m m m S m m m m m m m m m m m m m m m m m m m m m m m m m m m m m m m m S m m m m m m b S m m S S b m m m m S m m m m m m m m m m m m m m m m m m m m m m m m m m m m m m m m m m m m m m m m m m m m m m m m m m m m m m m m m m m m m m m S m m m m S m m m m m m m m m m m m m m m < < 9 y r y r y y r r r y r y r y y r y r r r y r r r y r y r r y r r y r y y y r r y r y r r y r y y r y r r y r y y r r y r r ",
"m b S S s s z m s b b b D S m m b m m m m m l s b b m m S b b m S b z b S S b b S G m m z m G a a m G a s b m m m m m m m m m S m m m m m m m m m m m m m m m m m m m m m m m m m m m m m m m m m m m m m m m m m m m m m m m m m m m m m m m m m m m m m m m m m m b m m m m m m m m m m m m S b m m m m S m m m b m m m m m m m m m m m m m m m m m m b m m m m b m S m m m m m S m m b m b S m m m m m m m m m m m m m m m m m m S m m m m m b m m m m m m m b m m S m m m S m m m m m m m m S S m m m m m m m m m m m m m m m b m m m m m m m m m m m m m S m m m m m m m m m m m m m m m m m m m m b S S m m m m m m m m m m m m m m m m m m m m m m m m m m m m m m m m m m m m m m m m m b m m m m m m m m m m m m m m m b m m m m m m m m m m m m m m m b m m m m m m m m S m m m m m m m m m m m m m m m b m S m m m m m m m m m m m m m m m m m S b m m m m m m m S S S b b S S m m m m m m m m m m S m m m m m m m m b m m m m m m m m m m m m m m m m m m S m m m m m m m m m m m m m m m m m m m m m m m m m m m m m b m S m m m m m m m m m m m m m S m m m m 7 # 5 y r r r r r r y r r y r y r r y r r y y r r y y r y r r y y r y r y w y y y r r y r y y r r r r r r y y r y r r r y r y y ",
"S S S S o.S S S Q o.o.S S o.S S S S S S S S S o.S S S S S S S S S S S S S S S S S S S S S S o.o.S S S o.S S S S S S S S S S S S S S S S S S S S S S S S S S S S S S S S S S S S S S S S S S S S S S S S S S S S S S S S S S S S S S S S S S S S S S S S S S S S S S S S S S S S S S S S S S S S S S S S S S S S S S S S S S S S S S S S S S S S S S S S S S S S S S S S S S S S S S S S S S S S S S S S S S S S S S S S S S S S S S S S S S S S S S S S S S S S S S S S S S S S S S S S S S S S S S S S S S S S S S S S S S S S S S S S S S S S S S S S S S S S S S S S S S S S S S S S S S S S S S S S S S S S S S S S S S S S S S S S S S S S S S S S S S S S S S S S S S S S S S S S S S S S S S S S S S S S S S S S S S S S S S S S S S S S S S S S S S S S S S S S S S S S S S S S S S S S S S S S S S S S S S S S S S S S S S S S S S S S S S S S S S S S S S S S S S S S S S S S S S S S S S S S S S S S S S S S S S S S S S S S S S S S S S S S S S S S S S S S S S S S S S S S S S S S S S S S S S S S S S S S S S S S S S S S S S S S S S S S S S S S S S S S S S < < 7 y r y y r r y r y r y r r r y r y y r r y y r r r y y y r r y y r y r y r r y y y r r r y y r r y y y r r y r r y y r r y ",
"u u g u u u u u j u 6 a u u u u u u u u u u l u u a u u a t a g t a u u a t g u a a u a a u a 6 u u u u u u a u u u a g u u u u t a u u a g u u u a g u u u u u t a u u a g u u u g u u u u u u g u u t u u u u g u u u a g u u u u g u u u u u t u a u u u u u u g u u u u u u g u u u a t g u u u u u u u g u u u u u u g u u u u u u g u u u u u g u u u g a u u u u u u u u u u g u a u u g u u u u u u u y u u u u u u u u g u u u u u u u g u a g u u u u u a g u u u u u u u u u u u u u g u u u t u u l u u u u g u u u t a u u a g u u g u u u t u u g u u u u u u u u u u a y u u u g u u u t g u u u u u u u u u u u u u u a g u u u u u u u u u u u u g u u u u u u u u u a g u u u u u u u u u a y u u u u u a g u a u u u a g u u a g u u u u u u a u u u g u u u g u u u t u u u u u u a g u u u t a u g l u u t u a g u u u u u u u u u u u u g u u u u u u g u u u u g u u u u g u a u t u u g u u u a g u u u a u u u a g u u a g u u u u u u t u u u u u u u g u u u u u u u g u a t a g u u u u u u u a g u u u u g u u u u t u a u u u u u u u g u u u < < 7 y r r y r y r r r y r y r y r y r y r r y r y r y r r r y r r r y r r y y y r r r y r r r y r y y y y y r r y r r r y r r ",
"@ < < @ < @ , @ @ < < @ > # > @ < < @ < @ < @ < @ < @ < @ @ < # < @ < @ < , @ @ @ < @ < > # @ > < @ < @ , < @ < @ < @ < < @ < @ @ < @ < @ < @ @ < @ < @ @ < @ < , @ < < @ @ < @ # , @ < < @ # @ # < < @ < @ < , @ < @ < @ < < @ @ < @ < < @ < < @ @ , < < , @ @ < < @ < < @ < > @ < @ < < @ < @ > < < @ , @ < @ > < < > < @ > < @ < < > # > < @ < < > < @ < @ < @ < < > > < < > < < > < @ < # < < > < , # < < # > , < < < > < @ @ < @ < < < > < # < # > > < @ < < @ < @ @ < @ < < @ < @ > < < @ @ < @ < < @ < > < @ < @ < @ < @ < @ > < @ < @ < + @ # , # , < > @ < < # > < > < > < < # < @ < @ < # < @ < @ > < < # < > < @ < < < @ < @ < > < @ @ < @ @ > < > < < @ , # < @ < > > @ < @ @ < @ < > > < > @ < , # 2 , # < @ < < @ @ < @ < @ < @ < < @ , @ @ < @ < @ < @ < @ < @ < # , @ < @ < @ < < @ < @ , @ @ < @ < @ < , @ @ < , @ < @ @ < @ < < > < @ # > # > < < @ @ < @ < @ , < @ < > < @ < < @ , @ @ < @ < < @ < @ @ # , @ @ @ , < @ < @ < < @ , @ @ < @ < @ , @ < < @ < @ # < @ < , @ # @ @ @ < @ < @ < @ < @ < < @ , < @ < @ < @ < @ , @ @ < @ < < , @ @ < @ < @ # @ < < 7 y y y y r y r y r y r y r y r r r y y r r r r r r y r r y r r r y r y y r r y y r r y y r r y y r y y r y r y y r r y y r ",
"< < < < < < < < < < < < 2 < < < < < < < < < < < < < < < < < < < < < < < < < < < < < < < 5 < < < < < < < < < < < < < < < < < < < < < < < < < < < < < < < < < < < < < < < < < < < < < < < < < < 7 < < < < < < < < < < < < < < < < < < < < < < < < < < < < < < < < < < < < < < < < < < < < # 5 < < < < 4 < < < < < < < < < < < < < < < < < < < < < < < < < < < < 4 < < < < < < < < < < < < < < < # < < < < < < < < < < < < < < < < < < < < < < < < < < < < < < < < < < < < < < < < < < < < < < < < < < < < < < < < < < < < # 5 < < < < < < < < < < 5 < < < < < < < < < < < < < < < < < < < < < < 4 < < < < < < < < < < < 4 < < < < < < < < < < < < < < < < < < < < < 4 < < < < < < < < < < < # < < < < < < < < < < < < < < < < < < < < < < < < < < < < < < < < < < < < < < < < < < < < < < < < < # < < < < < < < < < < < < < < < < < < < < < < < < < < < < 5 2 < < < < < < < < < < < < < < < < < < < < < < < < < < < < < < 7 # < < < < < < < < < < < < < < < < < < < < < < < < < < < < < < < < < 7 < < < < < < < < < < < < < < < < < < < < < < < < < < < < < < < < < < < < < < < < 7 f r y r r r y r y r y y r r y r y y y r y y r y y r y y r r y r y y r r y r r r r y r r y y r r r w y r r y r r y r r r y ",
"a a a a a l l a a a a a a a a l a a a l a a a a a a a a a a a a a a a a a a a a a l a a l a a a a a a a a a a a a a a a a a a a a a a l a a l a a a a a a a a a a a a a a a a l a a a a a a a a a a a a a a a a a a a a a a a a a a a a a a l a a a a a a a l a < < 4 e e w e e e e e e 4 e e e e e 5 e e e e e e e e e e e e e e e e e e e e e e 4 e e e e 5 e e w e e e e e e w < < 4 e w e e - 6 e 5 5 e e e e e e 4 e e e e e e e 5 e 5 e w e e e e e e 5 e w e e e 5 e e e e e e e 5 e e e e e 5 e e e e e w e e e 4 e e e e e e e w e e e 5 e e e w e e e e e 5 e e e e e e e e e e w 5 e t w e e e e w e w 5 e e e e w e e e e e e e e e e e e e 5 e e e e e 4 e e e e e e e t e e e e e e e e e e e < < 5 a a a a a a a a a a a a a a a a a l a a a a l a a a a a a a a a a a a a a a v w < < a a l a l a a l a a a a a a a a l a a l a a l a a a a a a l a a l a a a a a a a a a a a a a a a a a a a a a a a a a a a a a a a a a a a a a a l a a a a l a a a a a l a a a a a a a a a a a a a a a a a a a a a a a a a a l a a a a a l a a a a l a a l a a a a a l u < < 7 y r y r y y r y y r r r y r r y w y y y r r y r y r r r r r y y r r y r y r y y r r y y r r y r y r r y r y r y r y r r r ",
"l l l l l l l l l l z l l l l l l l l l l l a v l l l a z a z a l l l l l l l l l l l l l l l l l l l l l a l l l l l l a z l l l l l l l l l l l l l l a v l l l a l l l l l l l l l l a v l l l l l l l l l l a z a z l l l l l l l l l l l l l l l l l l l a < < w e e e e e e e e e e e e e e e e e e e e e e e e e e e e e e e e e e e e e e e e e e e t e e e e e e e e e e < < 4 t e e e e e i e t e e e e e e e e e e e p e e e e i e e e e e e t e p e t e e e e e e e e e e e t e e e e e e e e e t e e e e e e e e e e e e e e e e e t e e e e e e e e e e e e e e e e e e e e e p e e e t e e e t e t e e e e e e e e e e e e e e e e e e e t e e e 5 t t e e e e e e e e e e e e e e e e e e e 4 < w a v a l v a l l l l l l l l l l l l l l l l l l l l l l l l l a v l l a v s z w < < l l l l l l l l l l l l l l l l l l l l l l l l l l a z l l l l l l l l l l a l l l l l l l l l l a v l l a v l l z l a z l l l l l l l a l l l l l l l l l l l l l l l l l a v a a v l l b a l l v a l l l l l l a l l l l l l l l l l l l l l l l l l l l l l a v l < < 7 y r r y r r y r r y r y r r y r y y y r y y r y r y r y y r r r y r r y r y r r y r y r y r r y r y y r y r y r r y r y r ",
"l l z a z a t a a a l l l l l l l l l l l l l p l l l l l l a z l l a l l l a l l a l l l l a z a a l l l a l l l a z b a a a l l l l l b a a z a a a a l l l a a z a a z a l l l l l a l l l a a v z a z a a z l a l l z a a z l l a l a a a a z a z a a s v a < < 4 t e 5 p 6 * e e e p 6 e e e e t t 6 e e 6 e e 4 p e e p * e e e e e e e 5 t t e e e e t 6 e e e e 5 p e e e < < e e e e e * e p t 5 e e e 5 e p e e e e e e e e e e e e e e e e e e e e e e e e e e e p e t 6 p e e e e e e e 6 p e e e e e e e e t 6 e e e e e e e e e e t 5 5 e t e e e e e e e e e 6 e e e e e e e e e e p e e e e e e e e e e e e 5 p e e e 5 p e e e e 5 e e e e e e 5 e e e e e e e e e e e e e e e e e e e e e < @ 5 s a z l s u s a a a a a l l a l l a l a a l l a a a l a b b a a b a a z a a z w < 5 a a l a a l l l a l l l l l l l l l l u l l l l l l l a l l l a a l a l a l l l a l l l l l l z a l a z a a z a a s v l l l l l l a v a a z a s v a a a z l l a l l l l l a l l l l a l l v s l l l a l l a l l l l l a l l a l l a l l a v a a z a a z a a l l l l a 7 # 8 y y r r y r r r r y r y r y r r y r y w y r y r r y r y r y y r y r y r r y r r r y r y r y r r y r y r y r r r y r y r r ",
"l l a a s o.2.l e.b a l z l l l l l l z l l o.b.p z a l l a a z l l l l l l l l l a l l l l z a a z l l l l l l a a a a a l a b l l l a a l l a a b a b l l a b a z z a a z l a l l l l l l l l a s a a a a z a l l l l a a z a l l l l b a v a a z a z z a a a < < w t e p 4 u M a e e 6 p e e e e 6 p e e p 6 e u t.* t e t 6 e e e e e t e e e e e e e e e e e e e e t e e e 5 # < w p e 5 a n z 4 e O.a e e p 6 5 p e t e t p e e e e e e e e 6 e e e e e e e e 5 t e e 5 t e e e e e e e e e e e e e e e e e e e e e e p 6 e e e e e e p e e e e e e e t e e 6 e e e e e e e p e e e e e e e e e e e 6 t e e 5 e t t p e e e e e e e e t e e t e e e e 6 e p 6 p e e e e 6 e e e e e e e 6 e e e e e e < < w z l a n O.o.O.o.p.a z z a l z l l z l z l l l b a z a a a a l l a l a a z a z w < < l l l b m l s l m z l l l l l l l l z f.a a l l l l l z z l a p.z l z l z l l l z l l l l l l a l l l a z z a a z l a l l l l l l a a z a a z a z a v a a l l l l l l l l l l l l l l l l l l l a l l l l z l l l l l l l l l l l l l l l z a a z z a a z a v l l l l < < 7 y r y r y y r y y r y r y r r r r y r y r y r r y r y r y r r y w r y y r r y y r r y y r r y y r r r y r y r r r r y r y ",
"l l l u f.$X%XO.a l a a u a a a a a l l s 6 o.-Xe z l l l l l a l l a l a z l l s v a z l a l l s l l l s l l l a b b a b l a a l l l l a a l l a b a a b a a l z a l l z z a l l l l l l l v s l l a z z a z a l l a s z a z a l l l l l l a l a z a a b a v a < < 4 e e 5 z a.a.6.e 4 6 4 6 * 6 * 5 4 e - 4 p 4 u v.6 4 e 6 6 6 e 5 e e e 5 t e 6 p e e e e e e t e e e e e 6 e < < 4 e e 4 j.h.g.t.5 e 6 4 e 4 O.z 6 5 4 e 5 4 6 * e e 5 e 5 4 p 4 e e e 6 e e 5 p e p e e e e e e 5 e e 6 e e e e e e e e e e e e e e e e e e e e e 5 e p 5 e p e e e e 6 p e e e e e e e e e e e e e e e e e e e 6 e e e e e p p e 5 e e e e e e e e e e e e e e p e e e e e t e t e e e t e e e e e e e p e e t 6 t e 4 < w z z u 3.%XmX-X6.s a a l a s a a l s a s l l l a l l a a a l a a b l l a a a z w < < l v p 5.BXS 6 9.NXm u s s l u u s u z a z f.a a a a l l p a a l l u a s l l a a p l l l l l l l l l l a z z a z a l l a l a z a z a b b a a z a a a a z a l l l l l a z v l l l l s v l l l l l l l l l l a l l l l l s v l l l a l l z a a z a a l l s v a s a a l a w < 7 y r r y r r y r y r r r y y y y r y r y y y r r y r y r r r y y y y r r y y r r y y r r y r r r y y r y r y y y r r r r y ",
"l l l a >X3.* a oXz q.-X<Xw.O.$X$XN.6 e.>Xx.o.=Xt b a l l l a z l l l l a a z a a z a a a z z a v l l a v l l l l a a l a a z a l a l l b a l l l a a l a a z a a l l l a a s v l l l l a l l l a l z a a z a v a l z a a z a z l l l a l l l l z a z a a a a a < < w e t 4 O.g.* 5 u t.l.b o.g.h.6.a.p.4 o.a.g.O.p k.4 O.k.O.a a.a.v e p e e e e e e e 6 e e e p 5 e e e e e t w < < w 6 p 6 j.p * j.{ 9.a 0.j.O..Xv.b 5.k.O.z g.a.p.e m j.9.z a.a.z e e e p e e t e e e e e e e e t e e e e e e e e e e e 6 e e e e e e e e e e e e e e t e p e e t e e e e e e e p e e e e e e e 6 e e e e 6 e e e e e e e e t e e e e e e e e t e e 5 e t p e e t 6 e e e e e e e e e e e e e e 6 e e e e 6 e e e e e e < < w l l s u u OXl b M.n %X<XXXb.>Xo.a j.-Xp.a l l a b a z b a a z a a l l z a a z r < < l l t 5.MXe.6 b.MXn w.:XXXa w.@X-Xf.z n.q.BXb.o.<X-XO.b <XXX3.M.m m.oX-X{ n $XoXoXl l l l s a l l l z s a a z a a l l l l z a l a l a a l z a a z z z a z l l a l l l a s l l l a l l l l a l l l l l l l v s a l l l a z a l l l l s a z z a a z l l a a z a z z l l < # 7 y r y r y r r y r y r y r y y r y y y y y r y r r y r y r y r y y y y y r y r y r r y y r r y y r r y y y y y r y y r y r ",
"z a z p w.mXf.e >Xo.>Xb oXx.p.:Xa gXb b m =Xq.$Xt z l l a z a a b a v s z a a z z a z z a l l s l l l l a l l l l a l l z a z a l l l a b a a l a l b a a a b a v a a l a a z a a z l l l l l l z a l l a b a a l z a a a z a a a z a z a a l l a z a a a a z a < < 5 e t 5 u g.a.l 6 u O.9.9.t.z +Xu i.{ O.g.6 k.v g.v l.a a.i.p.e p t 5 e e p e e e e e e e e 5 e p t e e e e e < @ w t e 4 j.v * r.O.a.{ l.v * i.o.* u n g.O.v.4 l.{ a.n * a.O.O.y.* e e e 6 5 t e e t e e e p e e e t e e e e e 5 e e e e e e e 6 e e e e e 6 e e e e t e e e e e e e e 6 e 6 e e e t e e e e e e e e e e e 6 e e e 6 p e e e e e 5 e e e e e e e e e e e e e e e e e e e e e e e 5 e e e 5 e e e e e e e e e e e e e t 5 < w z l l l n $Xo.` -Xo.mXa hXq.e.n.O.-X{ :Xo.s a a b a a l a l l l a l l l a a z w < < l l p 6.$Xn.S XX%X5.-Xz n.f.d.%Xb gXS -Xb >Xt XXd.m ;Xn MXo.u >Xm mXo.d.x.d.x.o.MXl l l l l l a l l l l l z a a z a z a z a a a a z a a a a l l l a z a a a a z v z l l a l l l l l l l a l l l l v l l l l l l a a z a a l l a z a z a a l l a z l l a z a z a a l a < < 7 f f y y r r y r r y w y w y y y y r y r y r r y r y r y r y r r y y y r r y r r y r r y r r r r y r y r r w y y r y r r r ",
"a l l z u m -Xw.<X6.<X* w.x.w.x.* ,XO.N.=X>Xw.$Xt z a l z a z z a a a a a z z a a z a a v l l a l a l l l l l l l l l l a z a a a l l l l a l a b a a a l l l a s a l l z z a z l a l l l l l l a z z a l a a l l l a b z a z a a a z a a z l l a a z z a v a a < < w t t p 4 4 O.a.{ i.k.t.r.O.t a.4 9.] O.O.* g.{ a.{ +Xy.h.z 4.a.l 4 p e e e e e e e e e e e p e e e e e e e e < < w t e 4 h.l * t.O.a.a { j.{ i.{ 6 u.h.g.O.t.o i.O.a.6 e j.j.g.9.6 e e e t t e e e e 5 p e e e t e 5 p e e p e e t e e e e e e e e e e e e e e e e e 6 e e 6 e e e e e e e e e e e 6 e e t e e e e p 6 e e e e e e e e e e e e e p e 6 e e t e e e e e e e e e e e e e e e e e e t p e e t p e e e e e e e e e e e e e < @ w z l l a b %XS m $Xo.@X* @Xo.O.b.q.mX<X-Xo.a l l a a l l l l l a b l l a b a b w < < l v t w.n.j.b.f.m.f.oX* w.x.d.f.4 -Xo.=Xm -Xp <XO.4 -X3.=Xp z -Xm -Xe w.b.n.6.* -Xz l l l l l l l l l l l a z z a a a z a a z z a a z b a z l l l z a a z z a a s a l l l l l l l a l l l l l l l s l l a l l l l a z z a l l z a a a z a a v s a l l l a z a a z l a 7 @ 7 y w y r y r y r y y y r y y y r r y r y r r y r y r y y r r y y r r y r y r y r y r y r r y y r r y r r y y r r y r r r y ",
"l l a z o.z n.d.-Xo.-Xo.@Xj.p.M.* >Xw.>Xo.>Xp.-Xp z a v a a z a a l a z z a a z a a a z a a a z l l l l l l l l l l l s a z a z l l l l a a l a a a b a l a a b a z z a a z a a l l l a l a l l z a a z b a a b z a a a a l l l z a z z z z a s z a z a a z z a < < 4 t 6 e l l v i.g.O.O.i.9.O.t j.4 u.{ O.h.a k.l l.l g.a u l t u.0.* u e e e e e e e 6 e e e e e e e t 6 e e 4 < < w e t 4 j./ { k.a l.v 6 o.z.t.O.O.a.v j.O.a.o l.{ a.o.t u.O.6 u p e e e e e e t e e e e t e e e p e e 5 e e t e e e e e e e e p 5 e e e e e e e e e e e e p e e e e e e e e e e e e e e e e e e e e e e e e e e e e e e e e e t e e t e t 6 e e e e p e e 6 e e e 6 e e e t e 5 e e t e e e e e e e e e e e e 6 p e e < , w l l l a b ;X` o.-Xo.>X4 -Xo.6.XXo.-Xb m z a a b a l l l l a l a b a a a b a a w < 4 a z e w.n.6.BXb =X5.-Xo.XXw.x.x.* >Xo.>Xv >Xv n.x.3.-Xm >Xu a >X{ nX6 f.n.f.M.O.mXl l l l a z l l a l l l a a l l z a z a z a a z a s v l a z l l a l s v a z a z l l l l l a l l l l l l l l l l l l l a l l l l z a l l l l l l z a a z l l z a z a l l a z z a l l 7 < 7 y y r r y r r r y y y y r r y y r r r y r y r y y r r r y r r r y y y w y r y r r y r y r r r y r y y y r r y r y r y y r ",
"l l a z x.-Xn.l b.z 5.oX=Xx.3.p.6 x.{ b.<Xx.O.x.i b a s a z a z b a a z a z a a z a z a a z z a s l l l l a l l a l l a z a z a l l a l b a a b a l a a z l a a a z a a z a z a s v l l l l l l a a z a a l a a a a a b z a l l a z a a a a z a a z a z a a a a < < 4 t p * n a.g.{ z g.t.{ O.{ t 6.6 O.z O.h.i.o.6 9.5 O.h.9.o.h.t.a 6 5 e e e e e e e e e e p e e e e e e e e e < < 5 p e 5 u.h.i.{ * 9.a t.g.{ z g.{ t.i.O.{ O.* O.l v h.9.u u.j.{ 4 e e e e e e e p 5 e e e 5 e t e e e t e e e p 5 p e e e t e e p e e 6 e e e e e e e e e e e e e e e e e e e e e e e e e e e e e e e e e e e e e e e t 5 t e e e e e e e e e e e p 5 t 5 e e e e p e e e e p e e e e e e e e e 6 e e e e e e e e t e < < w l l l a z j.b n x.S x.p x.o.O.a.= e.,Xb.v a l a l l l a l l l l a a l l a a b w < 5 a a u 3.w.m XXa x.S 5.-Xb.p p.q.6 x.o.b.u x.oXb oX@Xo.b n.a a b.m b.u 5.e.a M.M.hXl l l s l a l l l l l l v a l l l s a z a z z a z a a a l a l l l l l a z a l a z a a a s v l l l l l l l l a l l l l l l l l l a z a l l a l l a z z a l l a z a l l l a z a a v a < @ 8 y y y y r r y r y y y r r y r r y r y r y r r r r y r y r r y r r y y y r y r y r r r y r y r r y r r r y y r y r y r r y ",
"l l l a u p p a u a O.b XXf.e s s u a p t p a a a a l l a v a a a l a b a z a z a a z a z a z a v l l l l a v z a z a a z a z a a a z a a l l a l l a l l a a b l l l l a l a z a z a a a z a a z a l l l l l l l l a l l l l l l a a l b a l a s v l l l l l a < < 5 e e e e 4 * e e * * e 4 e 6 * e 5 * t.O.* 5 e * e * - 4 4 4 4 e e e e e e e e e e t e e e e e e e e e e e e < < w e e t * 4 4 6 e 4 e * 4 4 5 * e & * e e 4 t 4 6 e & 4 4 * 4 e e e e e e e p e e e e e t e e e t e e e e e 5 e e e e e 5 e e e t e e e t e e e e e e e e e e e e e e e e e e e e e e e e e e e e e e e e e e e e e e e e e e e e e e e e e 5 e e e e e e e e e e e e e e e e e e e e e e e e e e e e e e e e e e e p < < w v l l a l p l a u s u z i a a u l u p u a z a a z a z a z l l a z a a a z a z w < < a a b a i a p l t a a t p l u u z u a p l t u a p t a a p a l p l t l a u S o.5.$Xa a z a a z a s l l l l l a l l a a z a z a a a l l l l a z a z a a z a l l a l l l a v l l l l l l l l l l l l l l l l a v a a v a l l a a z a a a v a l l l l l l l l l l l l l a 7 < 9 y r r r y r r y r y r y r r y y r r y r y r y y r r y r r y r y r y r y y r y r r y r y r y r r y r r r y y r r r y r y r ",
"l l l l l z z z z u f.-Xx.l a z l z l z v v l l a l l l a b z a a l a a a v z a z a a z a z a z l l l l l a a a z a a z a z a z z z a z z l l z a z a b l z a a a l l l l l a z z a z z z a z v v s l l l l l l l l l l l l l l l a b l a a z a l a l l l l l a < < w t e e e e t e t e t e e e e u e t - ` { * t e u e u p t e u e e e t e e e e e e p 6 e e e e e e e e e e e w < < w e t e t 6 = e e t e t t u p p t e e t t = 6 e p e t u e u p t e e e t e t 6 e e e e e e e e e 6 e e e e e t p e e e e t e p e e e e e e e e e e e e e e e e e e e e t e e e t e t e e e e e e t e e e e e e e e e e e e e e e e 6 t e e e t e e t e e e e e e e t e 6 t e e e e e e e e e e e e e e e e e e e e e e < < w l l l l l z z z l l z a v l l l l l z z a z s a z z a z a l l z a z z z a a z r < < l a v a b l z l z l l z z l z z a l l z l z z l l l l z z z a z z l l l a o.@X%XO.a z a z z a l z l l l l l l l l z a a z a a v v l l l l z a z a z a a z l l l l l l a v l l l l l l l l l l l v l l l l a v a l z a a z z z a z z z a a l l l l l l z l l l l l v l < < 7 y r y y r y y r y r r r y y r r y y r r r y r r r y r y y r r r y r y r r y r y r r y y r r r y r y y y r r y y r r y r y ",
"a a l a a l a a a a p 6 p a a a l a l a a a a a l a a a a a a a l a a a a a a a a a a a a a a a l a a a a a a a a a a a a a a a a a a a a a a a a a a a a a a a a a a a a a a l a a a a a a a a a a a a a a a l a l a a a a a a a a a a a a a a a a l a a a l a < < 4 e e e e e e e e e e e t e e e e e e 4 e e e e e t 5 e e e p 5 e e e 5 e e 4 p t 5 e e e e e e e e e e e e e < < 4 e e e e e t e e e e e e e e e e e e e e e e 6 e e w e e e t 6 e e e e t e e 5 e e e e t e e e e e e e e e e e 5 e e e e e e 5 e e e e t e e e e e 5 e e e e e e e e 5 e e e e e 6 e e e e e e 5 e e e e 4 p e 6 e e e e e e e e e t e e e e e e e 5 e e e t e e e e e e e e e e e e 5 e e e e e e e e e 6 e e t e e 5 < w l l l a a a a a a a a a l a a l l a a l l l l a a a a s a a a a a a a a a l z w # 5 a a a a a l a l a a a a a l s a a a a a l l a l l a a a a a l a a l a l l a e 4 l l a a a l l l l l a l l l a a a a a a a a a a a a a l u a a a a a a a a a l a v a a a a a a a a a a l a a a a s l a a a a a l l a a a a a a a a a a a a a a a l a a a a a a a a a a < # 8 r r r r r y r y y r y y r r y y r r y y r y y r y y r r y r y r y r r y w r r r y y r r r r y r r y r r y y r r y y r r r ",
"t t t t t t t t u t t t u t t e t t t t t t t t t t t t t t t t t t t t t t t t i t t t t t t t t t t t t t t t t t t i t t t t t t t t t t t t t t t t t t t t i t t t t t t t t i t t t t t t t t t t t t t t t t t t t t t t t t t t t t t t t t t t t i t t < < 4 4 & 4 & 4 4 4 4 4 4 4 & 4 * & 4 4 4 4 4 & 4 4 4 4 & 4 4 4 - * 4 4 4 & & 4 4 4 4 4 4 4 & * 4 4 & 4 4 4 5 & 5 < # 5 4 4 4 & & * & & 4 4 & 4 & & 5 4 & 5 4 4 & & & & 4 4 & 4 & & * & 4 & & 4 5 4 - * 4 4 & & & 4 & * 4 4 4 4 4 4 4 4 4 4 4 4 4 4 4 & 4 4 & & 4 4 4 4 4 4 4 4 * 4 4 4 * 4 4 4 4 4 & 4 * & & 4 4 * 4 4 4 4 4 4 4 4 4 4 4 4 4 * 4 4 4 4 * & & & 4 & - & w * 4 4 & * & 4 4 & & * & & 5 4 4 4 * - 4 4 & & & 5 4 4 & & & & & & < < < t t t t t t t t t t t t t t t 6 p t t t e t e t t t t t t t t t t t t t t t t w < < t t t t t t t t t t t t t t e t 6 t t t e t t t t t t t t e t t e t t t t e t u p t t t t e t e e t t e t t t t t t t t t t t t t t t t t i t t t t t t p t e i t t t t t t t t t t t t t t t t t i t t t t t t t t t t t t t t t t t t t t t t t t t t i t t t t t t < < w y r y r y r r r r y r r y r r r r y r r y r r r r r y r r y r y r y r y y r y r y r r r y y r r y r y r r r r y r y r y r ",
"t t t t t t t t t t t t t t t t t t t t t t t t t t t t t t t t t t t t t t t t t t t t t t t t t t t i t t t t u t t t t t t t t t t t t t t t t t t t t t t t t e t t t t t t t t t t t t t t t t t t t t t t t t t t t t t t t t t t t t t t t t t t t t t t < < 4 4 4 4 4 4 4 4 4 4 4 4 & 4 4 4 4 4 4 4 4 4 4 4 4 4 4 4 4 4 4 4 4 4 4 4 4 4 4 4 4 4 4 4 4 4 & w & 4 4 4 4 4 & < < # 4 4 4 4 4 4 4 4 4 4 4 4 & & w & & w 4 4 4 4 4 4 4 4 4 4 4 4 4 4 4 4 4 4 & & 4 4 4 4 4 4 4 4 4 4 4 4 4 4 4 4 4 4 4 4 4 4 4 4 4 4 4 4 4 4 4 4 4 4 4 4 4 4 4 4 4 4 4 4 4 4 4 4 4 4 4 4 4 4 4 4 4 4 4 4 4 4 4 4 4 4 4 4 4 4 4 4 4 4 4 4 4 4 4 4 4 4 4 4 4 4 4 4 4 4 4 4 4 4 4 4 4 4 4 4 4 4 4 4 4 4 4 4 4 4 4 4 4 4 4 4 < < w t t t t t t t t t t t t t t t t t t t t t t t t t t t t t t t t t t t t t t t w , < t t t t t t t t t t t t t u t t t t t t t t t t t t t t t u e t t t t t t t t t t t t t t t t t t t t t t t t t t t t t t t t t t t t t t t t i r t t t t t t t t t t t t t t t t t t t t t t t i t t t t t t t t t t t t t t t t t t t t t t t t t t t t t t t t t t < < 8 y r r y r r y r y r r y y y y y r y y r y y r y r r y y r y y r y y r y y y y y r r y y y r y y y y y y y y y r r r r y r ",
"t t t t t t t t t t t t t t t t t t t t t t t t t t t t t t t t t t t t t t t t t t t t t t t t t t t t t t t t t t t t t t t t t t t t t t t t t t t t t t t t t t t t t t t t t t t t t t t t t t t t t t t t t t t t t t t t t t t t t t t t t t t t t t t t < < < & 4 4 4 4 4 4 4 4 4 4 w & 4 4 4 4 4 4 4 4 4 4 4 4 4 4 4 4 4 4 4 4 4 4 4 4 4 4 4 4 4 4 4 4 4 4 4 4 4 4 4 4 & < < 4 4 4 4 4 4 4 4 4 4 4 4 4 4 4 & & 4 & 4 4 4 4 4 4 4 4 4 4 4 4 4 4 4 4 4 4 4 & 4 4 4 4 4 4 4 4 4 4 4 4 & 4 4 4 4 4 4 & 4 4 4 & 4 4 4 4 4 4 4 4 4 4 4 4 4 4 4 4 4 4 4 4 4 4 4 4 4 4 4 4 4 4 4 4 4 4 4 4 4 4 4 4 4 4 4 4 4 4 4 4 4 4 4 4 4 4 4 4 4 4 4 4 4 4 4 4 4 4 4 4 4 4 4 4 4 4 4 4 4 4 4 4 4 4 4 4 4 4 4 4 4 4 4 4 < < < t t t t t t t t t t t t t t t t t t t t t t t t t t t e t t t t t t t t t t t w < < t t t t t t t t t t t t t t t t t t t t t t t t t t t t t t t t t t t t e t t t t e t t t t t t t t t t t t t t t t t t t i u t t t i t t t t t t t t t t t t t t t t t i t t t t t i t t t t t r t t t t t t t t t i t t t t t i t t t t t t t w t t t t t t t t t t < < 7 y y r r y y r r r y y w y y y r r r r r r r y r y r r r r r r y r r y y y y 9 r y y r r 9 y r w y y y y y y r r y y r r y ",
"t t t t t t t t t t t t t t t t t t u t t t t t t t t t t t t t t t t t t t t t t t t t t t t t t t t t t t t t t t t t t t t t t t t t t t t t t t t t t t t t t t t t t t t t t t t t t t t t t t t t t t t t t u i t t t t t t t t t t t t t t t t t t t t t < < 4 4 4 4 4 4 4 4 4 4 4 4 4 4 w 4 4 4 4 4 4 4 4 4 4 4 4 4 4 4 4 4 4 4 4 4 4 4 4 4 4 4 4 4 4 4 4 4 & w 4 4 4 4 4 < < < 4 4 4 4 4 4 4 4 4 4 4 4 4 4 4 w w - 4 4 e & 4 4 4 4 4 4 4 4 4 4 4 4 4 4 4 4 4 4 4 4 4 & 4 4 4 4 4 4 4 4 4 4 4 4 4 4 e 4 4 & 4 4 4 4 4 & 4 4 4 4 4 4 4 4 4 4 4 4 4 4 4 4 4 4 4 4 4 4 4 4 4 4 4 4 4 4 4 4 4 4 4 4 w & 4 4 4 4 4 4 4 4 4 4 4 4 4 4 4 4 4 4 4 4 4 4 4 4 4 4 4 4 4 4 4 4 4 4 4 4 4 4 4 4 4 4 4 4 4 4 4 4 < < 4 t t t t t t t t t t t t u t t t t t t t e t t t t t t t t t t t t t t t t t t 7 < < t t t t t t t t t t t t t t t t t t t t t t t t t t t t t e t t t t t t t t t t t t t t t t t t t t t t t t t t t t t w r e e e t w e e e e r w e e e t t e w e e e r r e w e t e e w e t e r e e w e t e e w e t w t e r e t t e e r e r t w e e e t t e t e t t t t < < 7 y r r y r r y y r y r r y 9 y r y r r y r r r y r y r r y y r r y r r r r y r y r r y y r r y y r y y y y y r y r r y r y ",
"t t t t t t t t t t t t t t t t t & * * t t t t t t t t t t t t t t t t t t t t t t t t t t t t t t t t t t t t t * t t - t t w t t t t t t t t t t t t t t t t t t t t t t t t t t t * & - t t t t t t t t t t & - t e e t e e t t t t t t t t t t t t t t t w < < < & 4 4 4 4 4 4 4 4 & w & 4 * o * 4 4 4 4 4 4 4 4 4 4 4 4 4 4 4 4 4 4 4 4 4 4 4 4 4 4 4 4 4 4 4 4 & 4 4 4 4 4 < < 4 4 4 4 4 4 4 4 4 4 4 4 4 4 4 4 * * & 4 # * & 4 4 4 4 4 4 4 4 4 4 4 4 4 4 4 4 4 4 4 4 & w 4 4 4 4 4 4 4 4 4 4 4 4 4 4 o o * w 4 4 4 4 4 w 4 4 4 4 t 4 4 4 4 4 4 4 4 4 4 4 4 4 4 4 4 4 4 4 4 4 4 4 4 4 4 4 4 4 & 4 $ * + o & 4 4 4 4 4 4 4 4 4 4 4 4 4 4 4 4 4 4 4 4 4 4 4 4 4 4 4 4 4 4 4 4 4 4 4 4 4 4 4 4 4 4 4 4 4 # < 4 t t t t t t t t t t e $ * e t t t t e a y t t t t t t t t t t t i t t t t t t w @ < t t t t t t t t t t t t t t t t t t t t t t t t t t t t t u e t t t t t t t t t t t t t t t t t t t t t t t t t t t e 7 7 7 7 w < 7 7 7 7 7 7 7 7 7 7 7 7 7 7 7 < 7 7 7 7 7 7 7 7 7 7 7 < 7 7 7 7 7 7 7 7 7 7 7 7 < 7 7 < 7 7 w < 7 w < 7 9 w 7 7 7 < 7 7 7 < t t t t < < 7 y r y r r y r r y r y r r y r y r y y r y y r r r y r y r r y r r y r y y r y r r y r r y r y r y r r w y r r r y y r y r ",
"t t t t t t t t t t t t t t t t e 5.x.f.l - t e w e t t t t t t t t t t t t t t t t t t t t t t t t t t t t t t l 3.i v 3.- b 2.i e e e t i t t t t t t t t t t e t t t t t t t t t u f.j.6.e t e - t i t w t t 6.3.e n 5.- b 2.t e e e t t t t t t t t t t t t < < < & & w 4 4 4 4 4 4 w & w & M 7.n * & * 4 # & * 5 $ 4 4 4 5 * & t s.* 4 $ 4 4 & * & 4 4 4 4 & 4 4 4 4 4 4 4 4 < < < 4 4 4 4 4 4 4 4 4 4 4 4 4 & * n n # & v n 4 # * & 4 & 5 4 $ 5 4 & & & & $ & 4 4 4 4 4 4 4 4 4 4 4 4 4 4 4 4 4 4 & w [ 4.z & * 5 & & * * * 4 4 * ` w & & & 5 o 4 4 4 # & 5 w * 4 4 # 4 5 & * & $ & 4 4 4 4 4 4 * { 4.O.4.u # & 5 4 * & 4 * & 4 4 & & & 4 5 * * & & # 4 5 * & & 4 & 4 4 4 & 4 4 & & 4 + & 4 4 4 4 4 4 < < < t t t t t t t t t t M d.d.o.- t e e & M.6.& w e t t t t e t t t t t t t t t t w < w t t t t t t t t t t t t t t t t t t t t t t t t r t t r t t t t t t t t t t e t t t t t t t t t t t t t t t t t t w e 7 7 7 7 7 7 7 7 7 7 7 7 w 7 7 7 7 7 7 7 7 < w w 7 7 7 7 7 7 7 7 w 7 7 7 7 7 7 7 7 7 w 7 7 7 7 7 7 7 7 7 7 7 7 7 7 7 7 7 7 7 w 7 7 7 7 7 e t t t < < 7 y y y y r r r y r y r r r y r y y y y r y r y r r y r y r y y r y r y r y 9 y r y r r y r y r y r r y y r r y y r r y r y ",
"t t t t t t t t t t t t t t t t & nXb.d.;Xv t v M l t t l t t t t t t t e t t t t t t t t t t t t t t t t t t t v ;Xt f.NX& c.b.* b M - b.w.t t t t t t t t t t t t t t t t t t i & 5.mX6.$Xd.e a n b t t l t v gXgXi d.NXo b.b.$ b M w m.w.t t t t t t t t t t < < & w & & 4 4 4 4 4 4 & & * b s.[ [ 4 g l & w u g & u t & w e g & t j.o e n 4 * g z w 4 4 4 4 4 4 4 4 4 4 4 4 4 < < 4 4 4 4 4 4 4 4 4 4 4 4 4 4 w o j.n.* + XXj.+ e z $ 4.5.4 4 l w 4 w u e w n t & 4 4 4 4 4 4 4 4 4 & 4 4 4 4 4 4 4 & p.9.2.{ $ g u & e y g * [ 9.e 4 4 e g u 4 z 4 & 4 l e e p.z # u l * 4 t y 5 l g 4 4 4 4 4 w & n w.XXO.e e g * 4 u g 4 g t * 4 t g 4 & 4 z w & e u w e v & g p.u w 4 4 t 4 w u e & n e & 4 4 4 4 4 4 < w t t t t t t t t u * d.;Xw.gX6.& v o.$ #X6.- o.v t g i a a t t t t t t t t t t 7 # < t t t t t t t t & t t t t t t t t t t t t t t t i t t t t t t t e t t t t t t t t t t t t t t t t t t t t t t t t t e 7 7 7 7 7 7 7 7 7 7 7 7 7 7 7 7 7 7 7 7 , 9 7 , 7 7 7 7 7 7 7 w 7 , 7 7 7 7 7 7 7 7 7 7 7 7 7 7 7 7 7 7 7 , 7 w 7 7 7 7 7 , 7 7 7 7 7 7 e t t t < < 7 y y y r r y r r y r r y r r y y y y y r r y r r y y r r y r r y w r y y r r y y r y r r y r r r y y r r y y r r y r r r r ",
"t t t i t t t t t t t t t t t t - $Xv   oXw.m.-Xf.$Xt w.M.w t t t t t t i r t t t t t t t t e t t t t t t t t t & #X2.N.;X` b.3.` %X#X5.mXgXM e t t t t t t t t t t t t t t t t t & 5.m.  l ;X2.mXd.m.d.- $Xn f.w.m.2.b.-X` m.o.2.%X#X5.mX;Xb e t t t t t t t t < < w * w w & 4 4 4 4 4 & w * ` j.o o t 4.j.{ 4.j.d.a.p.h.& 4.j.a.9.w h.& t.a.5.M s.9.g # 4 4 4 4 4 4 4 4 4 4 4 w < < < & 4 4 4 4 4 4 4 4 4 4 4 4 w + p.h.z e k.u.t a.a.` s.+Xz 4.a.9.l n.t.n a.p.[ & 4 4 4 4 4 4 4 4 4 4 4 4 4 4 4 4 $ n j.o * $ [ p.f.u j.a.j.n 9.OXn j.e j.p.j.p.d.9.+ 4.a.t.` &X4.n p.a.v 0.j.{ O.a.9.t & 4 4 4 & w o y u.  u p.s.M 4.j.s.a.p.h.& 4.j.a.u.* t.a.0.l +X9.u o.p.t.[ &X[ p.{ 4 j.t n.9.g 4.a.t.e & 4 4 4 4 < < 5 t t t t t t t t t - d.p.% 5.%Xm #X$X2.M.5.M m.%Xd.m.# m.q.& t t t t t t t t t w , < t t t i t t e t 6.a t t t t u t t t u t t t t e i t t e t t t t a u t e i t t t t t t t t t t t t t t t t t t t t t t 7 7 7 7 7 7 7 7 B 7 B 7 7 7 7 7 B 7 7 7 7 7 w Z t < 7 7 7 7 7 , p Z w 7 7 7 7 7 7 7 7 7 7 7 7 7 7 7 e s Z Z s < 7 7 7 7 7 t Z 7 7 7 7 7 r t t t < @ 7 y y r r y r y r r y y r r r y y w r y y r y y y r r y r r r r y y y r r y y r y r y r y y r y y r r r y r r y r y r y y r ",
"t t t t t t t t t t t t t t t t & -X` & f.x.-X6.  oX2.M.5.- t t t t t t t t t t t t t t t t t t t t t t t t t t # d.M.d.f.b.m.a %Xd.s.#XM.o.# t t t t t t t t t t t t t t t t t t & 5.#X- a oXf.nX* v $Xn ;Xe oXb f.b.d.f.b.m.a %Xd.d.#Xm.` & y t t t t t t t t < < 4 & & & - 4 4 4 4 4 & & 5 4 9.n.n & u 6.9.9.O.w n.o p.g 9.5.o j.b a.n k.z k.9.i.e & w 4 4 4 4 4 4 4 4 4 4 4 & < < & 4 4 4 4 4 4 4 4 4 4 4 4 4 4 + 9.p.` ` t.8.5.p.{ j.0.[ 4 +Xz j.7.j.* e j.n * 4 4 4 4 4 4 4 4 4 4 4 4 4 4 4 4 & * O.u.+ 4 4 j.` 9.u.h.e n 9.n 9.  k.e c.& 0.0.& a.u c.n d.5.u.o p.9.O.g.a.4.  0.p.4 & 4 4 4 4 4 4 * n p.$ 9.p.{ h.p.O.4 n.o t.n 5.5.o h.{ k.z j.9.j.$ $ y n s.M p.  a.n 4 h.t +X+ e n.z j.2.+ 4 4 4 4 # < 7 i t t t t t t t u $ d.d.& m #X#XM.q.;Xm.5.e M %Xf.%Xm -Xg t i t t t t t e t t w @ < t t w n $XnXgXd.v t - & & - * w i e * 4 t t e d.M * & - - & t t & o ` d.e t t t t t t t t t t t t t t t t t t t t t t 7 7 7 7 7 7 7 7 7 7 7 7 7 7 7 7 7 7 7 7 7 A S.Z.S.J < 7 7 7 5 C.S.Z.Z.Z 7 7 7 7 7 7 7 7 B 7 7 B w , A G.Z.Z.J , w 7 w < H G.Z.A.p , w < e t t t 7 , 7 y r y r y r r y r r r y y r r r y r r r y r r r r y r y r y y y y y y y r r y r y r r r r y r r y r y r r y r r r r y r y ",
"t t t t t t t t t t t t t t t t 4 ;Xv   oXw.oXM & 3.%Xm.l t t t t t t t t t t t t e i t t t t t t t t t t t t t w o.nXx.v -X$X& ;X%Xd.3.#X2.- t t t t t t t t t t t t t t t t t t w 5.m.  v ;X6.m.& i b.%Xe.v $X& 2.mXd.b ;X#X& -X%Xd.3.#X$.- t t t t t t t t e < < < w 4 4 4 4 4 4 4 4 4 4 4 &   l g.4.p.a.9.9.{ t a.+ t.z 5.O.  s.n a.M +X4.4.w n h.n * 4 4 4 4 4 4 4 4 4 4 & 4 < < < - 4 4 4 4 4 4 4 4 4 4 4 4 4 * t.{ p.9.` 9.0.k.5.{ 9.o.e XX4.4.{ a.$ & t p.7.* 4 4 4 4 4 4 4 4 4 4 4 4 4 4 4 4 & n j.o * 4 k.u.5.n g.& { 0.` 9.  k.t h.* 4.O.w p.g n.5.4.n g.+ p.h.5.n p.n * # ` h.u & 4 4 4 4 & # z a.$ 9.j.4.M 9.{ r a.# 9.z 4.4.  a.O.n.5.O.` t.o l a.9.k.` s.  a.z * j.u a.o l XX0.5.g * 4 4 4 4 < < < t t t t t t t t t & d.p.  6.%XM.;Xf.6.m.6.d.m.gXw.f.;XN.w t t t t t t t t t p w , < t t t t e #X6.w w.t w.b.f.5.oXM & M #Xw.- w M %Xv f.M.6.e.b.t u N.m.M %XM e t t t t t t t t t t t t t t t t i t r i e 7 7 7 7 7 7 7 B 7 7 B 7 7 7 7 7 7 7 7 7 7 Z H e H G.i < w 7 7 H Z w Z.A., 7 7 7 7 7 7 7 7 7 7 7 9 , J Z.e p e < 7 7 7 e G.H w G.J , w 7 e t t t < < 7 y y r y r y r r y y r r r r y y r r y y r r y y r y r y r y r y r r y r r y r r y r y y r r y r y y r r y r y y y r r r y ",
"t t t t t t t t t t t t t t t t * nXx.f.gXt ;Xo.w e mXm.& t t t t t t t t t t t t t t t t t t t t t t t t t t t t i NXf.* mXm.o f.M.2.a b.oXu e t t t t t t t t t t t t t t t t t - 3.mX5.-Xf.o.gX# t 3.NXl f.x.& t NXf.* MXM.o d.b.2.a m.m.u e t t t t t t t e < < < & 4 4 4 4 4 4 4 4 4 4 < z o.4.9.p.9.4.t.p.` t j.* p.n 4.j.O.s.u j.4 a.{ z v { p.O.$ 4 4 4 4 4 4 4 4 4 4 4 4 < < 4 4 4 4 4 4 4 4 4 4 4 4 4 4 e o d.y h.a.l s.v p.n y [ h.u p.` z v j.o y { 4.p.$ 4 4 4 4 4 4 4 4 4 4 4 4 4 4 4 4 4 4 d.t.` g 6.5.n t c.4 { p.z k.g k.t k.& 0.4.4 j.4 p.[ n t j.` o.t.n e g.M + n M d.n * 4 4 4 & e # n s.o { p.n e p.[ t j.+ p.n O.k.2.h.e a.` j { h.o n k.m j.n j.z 4.p.7.n.u k.* 5 p.[ n t & 4 4 4 4 < < 4 t t t t t t t e a * N.$X6.gX2.3.#X5.a #Xw.%Xw.%Xf.a NX5.- t t t t t t t t t t w < < t t t t e m.5.& mXa MX6.gXoXf.#Xt $X3.#X2.* e.d.` NX3.MXe.m.e.6.-XM g d.p.# t t t t t t t t t t t t t t t t t t t r e 7 7 7 7 7 7 7 7 7 7 7 7 7 7 7 7 7 7 7 7 7 , 7 e H G.e < 7 7 7 , w e A.J , 7 7 7 7 < 7 7 7 7 7 w < 3 C.A.w < , w 7 7 , 7 G.J e S.H 3 w 7 e i t t < < 7 y r r y r r y y r r r r y r r r y y r r r y r w y r r r y r y r y r r r y r y r y y r r y r r y r y y y r r y r r r y r y ",
"t t t t t t t t t t t t t t t t e 6.b.d.z 4 5.a t $ $X5.& t t t t t t t t t t t t t t t t t t t t t t t t t t t t t 6.M - 5.` w e q.M.o.l d.m e t t t t t t t t t t t t t t t t t t l d.b.6.w v 3.e & M -Xe 2.v t e 6.v - 3.M w i w.b.M l N.m i t t t t t t t e < < 4 4 4 4 4 4 4 4 4 4 4 4 & u 7.5.t w 7.o.u v t w n & n 4 5.t.O.u 4 { * g 9.` l 9.[ & 4 4 4 4 4 4 4 4 4 4 4 4 4 < < < 4 4 4 4 4 4 4 4 4 4 4 4 4 4 # M w z l t n o { t.M 4 4.n e 9.O.f M + w 2.7.t 4 4 4 4 4 4 4 4 4 4 4 4 4 4 4 4 4 4 & w 4.0.l 4 O.9.y M & u n * O.{ n w { & z g # M 4 e 9.5.e n O.& ` 9.l v r $ n 9.{ & 4 4 & 4 w & & t M & & { t.n z u 5 { & n 4 4.w.2.u & g 6.O.t n * & ` 7.n w { O.e O.[ n w { & & e 5.4.w 4 4 4 4 4 < < < t t t t t t t t t w M b.b.o.4 e 6.M.2.2.z M c.6.v t ;Xl e t t t t t t t t t u w < < t t t t - m.3.& ;Xl ;Xo b.w.t #X` mXM.mXw.$ d.q.2.#X  ;Xl 5.b.a $Xd.- f.b.& i t t t t t t t t t e t t t t t t t t t e 7 7 7 7 7 7 7 7 7 7 7 7 7 7 7 7 7 B 7 7 7 7 J G.H.H , w 7 7 7 p A.G.G.i 7 7 7 7 7 7 7 7 7 7 7 7 7 , J G.Z.A.A 7 7 7 7 7 H G.G.A.7 7 7 7 t t t t < < 8 y y y r y r r r r r y r y y r y r r y y r r y y y y y r y r r y r r y y r r y y r r y y r r y r y y y r r y r y r y r y r ",
"t t t t t t t t t t t t t t t t i & * & e t - i t d.%Xt t t t t t t t t t e t t t t t t t t t t t t t t t t t t t t & t t & e t t - $ w t & e t t t t t t t t t t t t t t t t t t t e * $ & t t - e m -Xq.& e e i t w e t & e t t & & e e $ e w t t t t t t t e < < 4 4 4 4 & & 4 4 4 4 4 4 4 & o + * 4 o + & & 5 4 $ & & o u.[   4 5 o 4 & o * & o $ 4 4 4 4 4 4 4 4 4 4 4 4 4 < < < & 4 4 4 4 4 4 4 4 4 4 4 4 4 4 4 $ & & & & * 5 * o $ & o * 4 o + * * 4 & * o & 4 4 4 4 4 4 & 4 4 4 4 4 4 4 4 4 4 4 4 * o + & 4 o + & * 4 & # 4 $ $ * & * 4 & # 4 * & 5 o + 4 & + 4 * o # & & 4 * o + 4 4 4 w & & & & 5 * & 4 + o * # & & $ 4 * o w.[ % 5 4 & o o 5 $ - 4 + o * & * o 4 + + & & + 4 4 & o o 4 4 4 4 4 4 < < w t t t t t t t t t t e $ * e t i & $ w - e w * & u #Xb.& u t t t t t t t t t i w # < t t t t e #X6.* nXl nX& b.p.l %Xb nXM v u - d.w.2.m.* -Xv 6.b.w - oXf.w.d.& u t t t t t t t t t t t t t t t t t t t e B 7 7 7 7 7 7 7 7 7 7 7 7 7 7 7 7 7 7 7 7 7 p Z J Z.s < w 7 7 w Z A Z.C.7 7 B 7 7 7 7 7 7 7 7 7 7 7 p A Z A.S.w 7 7 7 7 A.C.J G.A 7 7 7 t t t t < < 7 y y r y r r y r y r y r r r y r r y r y r r y y y y y y r y r y r r y r r y r r r y r y r r y y w y y y r r y r r y r r r ",
"t t t t t t t t t t t t t t e t t t t u t t t t t p.b t t t t t t t t t t t t t t t t t t t t t t t t t t t t t t t u t t t t t t t u t t i t t t t t t t t t t t t t t t t t t t t t u t t t t t w o.q.t t t t t t a t t t t t t t t t t t t t t t t t t i r t < < < & & w & e 4 4 4 4 4 4 & w 4 4 4 4 e 4 4 4 4 4 w & e & l t 4 4 & w 4 4 w 4 4 4 4 4 4 4 4 4 4 4 4 4 4 4 4 4 4 < < 4 4 4 4 4 4 4 4 4 4 4 4 4 4 4 4 w & 4 4 4 4 & w w & w e & 4 w w e & 4 4 w w 4 & 4 4 4 4 4 4 4 4 4 4 4 4 4 4 4 4 4 4 4 4 w 4 4 w w 4 4 4 4 4 4 4 4 w & w w & w - 4 4 4 4 4 & w w 4 4 e & w 4 4 4 w 4 4 4 4 4 4 4 4 4 4 w & 4 4 4 e w 4 4 4 4 w & l l & 4 4 4 4 4 4 4 4 4 4 4 4 4 w 4 4 w 4 4 4 w 4 4 4 w e 4 4 4 4 4 4 < < w t t t t t t t t t t t u u u t t t u t t t u u e m w.t e t t t t t t t t t t t 5 # < t t t t t b.5.& ;Xv $X- d.w.u oXe f.$Xm.b & 5.M.` m.& %Xv 6.f.o.-X%X` m.5.4 t t t t t t t t t t t t t t t t t t t t e 7 7 7 7 7 7 7 7 7 7 7 7 7 7 7 7 7 7 7 7 7 7 , 3 B G.A , 7 7 7 7 3 3 H S.w < w 7 7 7 7 < 7 7 7 7 7 7 , , 3 s G.Z , w , Z G.7 3 C.A.7 7 7 e r t t < # 7 y r y y r r y y r r y r y r y r r y r y y y y r y r r r y y r r y r y r r r y y r y y r r r r r r y r y y y y r y r y r r ",
"t t t t t t t t t t t t t t t t t t t t t t t t t & e t t t t t t t t t t t t t t t t t t e t t t t t t t t t t t t t t t t t t t t t t t t t t t t t t t t t t t t t t t t t t t t t t t t t t t t - & t t t t t t t t t t t t t t t t t t t t t t t t t t t t < < & w & & 4 4 4 4 4 4 4 4 & 4 4 4 4 4 4 4 4 4 4 4 4 4 4 4 $ 5 4 4 4 4 4 4 & 4 4 4 4 4 4 4 4 4 & 4 4 4 4 4 4 4 < < < < 4 4 4 4 & 4 4 4 4 4 4 4 4 4 4 4 4 4 4 4 4 4 4 4 & 4 4 & 4 4 & & 4 4 4 4 4 4 4 4 4 4 4 4 4 4 4 4 4 4 4 4 4 4 4 4 4 4 4 4 4 4 & 4 4 4 4 4 4 4 4 4 4 4 & & w * 4 4 4 4 4 4 4 4 & 4 & 4 4 4 4 4 4 4 4 4 4 4 4 4 4 4 4 4 4 4 4 4 & 4 & 4 4 4 4 4 4 $ & 4 4 4 4 4 4 4 4 4 4 4 4 4 4 & 4 & 4 4 4 4 4 4 & 4 4 4 4 4 4 4 4 * < < 7 t t t t t t t t t t t p e t t t t t t t t e t t e & i t t t t t t t t t t t t w , < t t t t t t t t t t t t t i t t t w v v t t u #XM e t t t t t t v t b -Xt t t t t t t t t t t t t t t t t t t t t t e 7 7 7 7 7 7 7 7 7 7 7 w 7 7 7 7 B 7 7 7 7 H H Z C.G.s 7 7 7 p J A A S.A.7 7 7 7 7 7 s A.s 7 7 7 7 7 H H Z A.A.7 7 w < s G.J V Z.C., 7 7 e i t t < < 7 y r r r r y r r y y r r y y r r y r y y w y y y r y y y r r y r r r y r y r r r y r r r y y r y y r r y y y w r r r y r y ",
"t t t t t t t t t t t t t t t t t t t t t t t t t u t t t t t t t t t t t t t t t t t t t t t t t t t t t t t t t t t t t t t t t t t t t t t t t t t t t t t t t t t t t t t t t t t t t t t t t t t t t t t t t t t t t t t t t t t t t t t t t t t t t t t e < < w * w w & 4 4 4 4 4 4 4 4 4 4 4 4 4 4 4 4 4 4 4 4 4 4 4 4 4 4 4 4 4 4 4 4 4 4 4 4 4 4 4 4 4 4 4 4 4 4 4 4 4 & < < 4 4 4 4 4 4 4 4 4 4 4 4 4 4 4 4 4 4 4 4 4 4 4 4 4 4 4 4 & 4 4 & & 4 4 4 4 4 4 4 4 4 4 4 4 4 4 4 4 4 & 4 4 4 4 4 4 4 4 4 4 4 4 4 4 4 4 4 4 4 4 4 4 4 4 & & 4 4 4 4 4 4 4 4 4 4 4 4 4 4 4 4 4 4 4 4 4 4 4 4 4 4 4 4 4 4 4 4 4 4 4 4 4 4 4 4 4 4 4 4 4 4 4 4 4 4 4 4 4 4 4 4 4 4 4 4 4 4 4 4 4 4 4 4 4 4 4 4 4 4 4 4 4 4 < < < t t t t t t t t t t t t t t t t t t t t t t t t t t t t t t t t t t t t t t i 7 < < t t t t t t t t t t t t t t t t t t w t t t e v v e t t t t t t t e v b e t i t t t t t t t t t t t t t t t t t t t r 7 7 7 7 7 7 7 7 7 7 7 w 7 7 7 7 7 7 7 7 7 H Z.Z.Z.A 7 7 7 7 e A.Z.S.C.w 7 7 7 7 w , Z Z.Z , w 7 w , J Z.Z.A.s , 7 7 w 7 A Z.Z.C.e 7 7 7 t t t t < < 7 y r y y r y r y r r y y r r y y y r y r y r r r r y r r y y r y r r r r y y r r r r r r r y r r y r y 9 y r y y y r r r r ",
"t t t t t t t t t t t t t t t t t t t t t r t t t t t t t t t t t t t t t t t t t t t t t t t t t t t t t t t t t t t u t 6 - = i t u t t t t t t t t t t t t t t t t t t t t t t t t t t t t t t t t t t t t t e e t t t t t t t t t t t t t t t t t t t t t e < < 4 & & & 4 4 4 4 4 4 4 4 4 4 4 4 4 4 4 4 4 4 4 4 4 4 4 4 4 4 4 4 4 4 4 4 4 4 4 4 4 4 4 4 4 4 4 4 4 4 4 4 4 4 4 < < 4 4 4 4 4 4 4 4 4 4 4 4 4 4 4 4 4 4 4 4 4 4 4 4 4 4 4 4 4 & & e w 4 & 4 4 4 4 4 4 4 4 4 4 4 4 4 4 4 4 4 4 4 4 & 4 4 4 4 4 4 4 4 4 4 4 4 4 4 4 4 4 & w & & 4 & 4 4 4 4 4 4 4 4 4 4 4 4 4 4 4 4 4 4 4 & 4 4 4 4 4 4 4 4 4 4 4 4 4 4 4 4 4 4 4 4 4 4 4 4 4 4 4 4 4 4 4 4 4 4 4 4 4 4 4 4 4 4 4 4 4 4 4 4 4 4 4 4 4 4 4 4 < < w t t t t t t t t t t t t t t t t t t r t t e t t t t t t t t t t t t t t t t t w @ < i t t t t t t t t t t t t t t t t t t t t t i e e t t t t t t t t e e e i e t t t t t t t t t t t t t t e t t t t t e 7 7 7 7 B 7 7 7 7 B 7 < 7 7 7 7 7 7 7 7 7 7 < 7 7 , 7 7 7 7 7 , , 7 7 7 7 7 7 7 7 7 7 , 7 < 7 7 7 7 7 7 7 7 < w 7 7 7 7 7 7 7 , 7 7 7 7 e t t t < @ 9 y r r y r r y r y r r r y r r y w y r y r y y r y r y r r r r r y y r r r r y y r y y y r r y y r y r r y y r r r r y y y ",
"t t t t t t t t t t t t t t t t t u e t i p i i - r i t t t t t t t t t t t t t t t t t t t t t t t t t t t t e t u t p u ^ / ( / v - - t t t t t t t t t t t t t t t t t t t t t t t t t t t t t t i t 5 s N N N N i 5 t t t t t t t t t t t t t t t t t t t e < < < w 4 4 & e 4 4 4 4 4 4 4 4 4 4 4 4 4 4 4 & 4 4 * 4 4 e & & 4 4 * 4 4 4 4 4 4 4 4 4 4 4 4 4 4 4 4 4 4 4 4 4 4 < < < 4 4 4 4 4 4 4 4 4 4 4 4 4 4 4 4 4 4 4 4 4 & 4 & 4 4 w * & & 4 & 4 4 4 4 4 4 4 4 4 4 4 4 4 4 4 4 4 4 4 4 4 4 4 4 4 4 4 4 4 4 4 4 4 4 4 4 4 4 4 4 & 4 e e e 4 4 4 4 4 4 4 * 4 4 4 4 4 4 4 4 4 4 4 4 4 4 4 & 4 4 4 4 4 4 4 4 4 4 4 4 4 4 4 4 4 4 4 4 4 * 4 4 e t e & & & - 4 4 4 4 4 4 4 4 4 4 4 4 4 4 4 4 4 4 4 4 4 - < < w t t t t t t t t e t t t t p 6 r t s s s = u w t t t t t t t t t t t t t t t t w @ < t t t t t e i t t t t t t t t t t t t t t t t t t t t t t t t t t w t i t t t t t t t t t e t t t t t t t t t t t t e 7 7 7 7 7 7 7 7 7 7 7 7 7 7 7 7 7 7 7 7 7 7 7 7 7 w 7 7 7 < 7 w 7 7 7 7 7 7 7 7 7 7 7 w 7 7 7 7 7 7 7 7 7 7 w 7 7 7 7 7 w w w 7 7 7 7 < t t t t < < 5 y r y r y r r y r r y r y r y y y y r y r y r y r r y y r r y y r r y y y r r r y r r y r r y r r y r y r y y r y r y r y ",
"t t t t t t t t t t t t t t t t t i ; Y T T T T T L ; t e t t t t t t t e t t t t t t t t t t t t t t t t t t t p - g 1.|.aXkXzXkX|.'.%.t - t t t t t t t t t t t t t t t t t t t t t t t t t t t t 5 i W W P.U.I.I.W W ; t e t t t t t t t t t t t t t t t t e < < < & 4 4 & & 4 4 4 4 4 4 4 4 4 4 4 4 4 4 & & * e p - p p p e e - 4 4 4 4 4 4 & 4 4 4 4 4 4 4 4 4 4 4 4 4 4 & 4 < < 4 4 4 4 & 4 4 4 4 4 4 4 4 4 & 4 4 4 4 4 4 4 & e p p p p p p p w & 4 4 4 4 4 4 4 4 4 4 4 4 4 4 4 4 4 4 4 4 4 4 4 4 4 4 4 4 4 & 4 4 4 4 4 4 4 4 < e b D D F F G * - e 4 4 4 w - 4 4 4 4 4 4 4 4 4 4 4 4 4 4 4 4 4 4 4 4 4 4 4 4 4 4 & 4 4 4 4 4 4 4 4 4 - p p s F D G b t & 4 4 4 4 4 4 4 4 4 4 4 4 4 4 4 4 4 & 4 4 4 & < < < t t t t t t t t t t t t e e = C C C V.V.V.C A s r t t t t t t t t t t t t t t w < < t t t t t t t t t t t t t t t t t t t t t t t t t t t t t t t t t t t t t t t t t t t t t i t t t t t t t t t t t t e 7 7 7 B 7 7 7 7 7 7 7 7 7 7 7 7 7 7 7 7 7 7 7 7 7 7 7 7 7 7 w < 7 7 7 7 7 < 7 7 7 7 7 7 7 7 7 7 7 < 7 7 7 7 7 < 7 7 7 7 7 < 7 7 7 7 7 7 t t t t < < 7 f r r y r r y y r r y y r y r y y r r r y r y r y y r r y y r r y r r r r r y y r r y r y r r r y y r r y r r r r y r y r ",
"t t t t t t t t t t t t t t i i ; T T R T T R R R R T Y s t y t t t t t t t t t t t t t t t t t t t t t t t t e p >.|.zXlXlXlXlXlXlXlXzX|.$.4 t t t t t t t t t t t t t t t t t t t t t t t t t t a Q P.I.Y.Y.Y.Y.U.U.I.I.W b e t t t t t t t t t t t t t t t r < < 4 4 4 4 4 4 4 4 4 4 4 4 4 4 4 4 4 4 4 4 4 e p p p p p p p p p p p 4 & & 4 4 4 4 4 4 4 4 4 4 4 4 4 4 4 4 4 4 4 < < < 4 4 4 4 4 4 4 4 4 4 & 4 4 4 4 4 4 4 4 4 e p p p p p s p p p p - 4 4 4 4 4 4 & 4 4 4 4 4 4 4 & 4 4 4 4 4 4 4 4 4 & 4 4 4 4 4 4 4 4 4 4 4 4 4 s F F F F F F G p p p p & - 4 4 4 4 4 4 4 & 4 4 4 4 4 4 4 4 4 4 4 4 4 4 4 4 4 4 4 4 4 4 4 4 4 4 4 & e p p p p G F F F F F G e & 4 4 4 4 4 4 4 4 4 4 4 4 4 4 4 4 4 4 & w < , w t t t t t t t t t t t t s C C V.V.V.V.V.V.V.V.C C t t t t t t t t t t t t t t w < < t t t t t t t t t t t t t t t t t t t t t t t t t t t t t t t t t t t t t t t t e t t t t t t t t t t t t t t t t t r t t t t t t t t t t t t t t t i e e t t t t t t t t t w i e i t t r e t t t t t t t t t e t t t e t r t e e t t t t t e t t t t e t t t t t t t < < 7 y r y y r r y r y r r r r y r y y r y r y r r y r r y y r r y y r r y y r r y y r y r r y r y y r r y r r r y y r y r y r ",
"t t t t t t t t t t t t t r i V T T R Y ; ; ; ; V Y R R R ; e t t t t t t t t t t t t t t t t t t t t t t i e g |.lXlXzXaX_.=.>.>.'.0XzXzXkX>.- t t t t t t t t t t t t t t t t t t t t t t t t N W Y.U.I.W E L L Q W P.I.I.I.Q t t t t t t t t t t t t t t t i < < 4 4 4 4 4 4 4 & w & & 4 4 4 4 4 4 4 4 4 e p p p p - & & & - p p p p e 4 4 4 4 4 4 4 4 4 4 4 4 4 4 4 4 4 4 4 4 < < 4 4 4 4 4 4 4 4 4 4 4 4 4 4 4 4 4 4 4 * - p p p - - & & & * p p p p w 4 4 4 4 4 4 4 4 4 4 4 4 4 4 4 4 4 4 4 4 4 4 4 4 4 4 4 4 4 4 4 4 4 & e D F F F G s a u * - p p p p * 4 4 4 4 4 4 4 4 4 4 4 4 4 4 4 4 4 4 4 4 4 4 4 4 4 4 4 4 4 4 4 4 4 4 w p p p p - & e p a G F F F D p 4 4 4 4 4 4 & 4 4 4 4 4 4 4 4 4 4 4 & w # < 4 t t t t t t t t t t e Z C V.V.V.C A V = V C V.V.V.C s r t t t e t t t t t t t 4 < < t t t t t t t t t t t t t t t t t t t t t t t t t t t t t t t t t t t t t t t t t t t t t t t t t t t t t t t t t t i t t t t t t t t t t t t t t t t t t t t t t t t t i t t t e t t t t i t t t t t t t i t t t t t t i t i i r t t t t t i t t t t t i t t t t t t < < 7 y y r r y r r y r r y r y r y r r y r y r y r w y r r r r y r y r y r r y r r r y r r y r y r r y r r y r y r r y r y r r ",
"t t t t t t t t t t t t t i Y T T Y : 7 , , < < < < ; T R R ; e e t t t t t t t t t t t t t t t t t t t t t u |.lXkX|.=.7 # + + + @ 0 '.kXzXzX>.- i t t t t t t t t t t t t t t t t t t t t t s W U.U.W L < , O > > < w W P.U.P.Q e t t t t t t t t t t t t t e < < < w & & & e & 4 4 4 4 4 4 4 4 4 4 4 & p p p e < @ O O O O O # & - p p - 4 4 4 4 4 4 4 4 4 4 4 & 4 4 4 4 4 4 < < < < - 4 4 4 4 4 4 4 4 4 4 4 4 4 4 4 4 & - p p e * O O X O O O @ w p p p * 4 4 4 4 4 4 4 4 4 4 4 4 4 4 & 4 4 4 4 4 4 4 4 4 4 4 4 4 4 4 4 4 w D F F G e @ O > . X @ @ - p p p 4 4 4 4 4 4 4 4 4 4 4 4 4 4 4 4 4 4 4 4 4 4 4 4 4 4 4 4 4 4 4 4 4 & p p p * # @ O O O O O 4 b F F D i & 4 4 4 4 4 4 4 4 4 4 4 4 4 4 4 4 4 4 < < w t t t t t t t t t r Z V.V.V.C 5 < < , < , < = C V.V.C p r t t t t t t t t t t 7 < < t t t t t t t t t t t t t t t t t t t t t t t t t t t t t t t t t t t t t t t t t t t t t t t t t t t t t t t t t t t w e w t e w e w w w e e e w w w e e w r e w e w e w e e w e w w e e w w e e r w w e e r w w e e w e w e r w e e w w r e w e w r t w e w i t t t < < 7 f y r y y y y y r r y r y y r y r r y r y r r y y y r r y r y r y r r y r r r y r y r y y r y y y y y y r y r y y r y r y ",
"t t t t t t t t t t t t e V T T Y - > # < @ # < < < , - Y T R ; e t t t t t t t t t t t t t e t t t t t t - '.lXkX|.k * < < 7 < 7 < @ o } aXzXkX] p t t t t t t t t t t t t t t t t t t t t 5 W Y.I.W w > < < 7 < 7 # < > L P.P.P.N e t t t t t t t t t t t t e < < 4 & & w 4 4 & 4 4 4 4 4 4 4 4 4 4 4 e p p 4 + O O @ O O O @ O @ * e p p 4 4 4 4 4 4 4 4 4 4 4 4 4 4 4 4 4 4 4 < < & 4 4 4 4 4 4 4 4 4 4 4 4 4 4 4 4 4 e p p 4 @ O @ @ @ O @ O O @ $ i p p - 4 4 4 4 4 4 4 4 4 4 4 4 4 4 4 4 4 4 4 4 4 & 4 4 4 4 4 4 4 4 4 D F F z @ X , X 8 l.7.@ O O & p p p 4 4 4 4 4 4 4 4 4 4 4 4 4 4 4 4 4 4 4 4 4 4 4 4 4 4 4 4 4 4 4 4 p p p - @ @ O O O O @ @ O O a F G p * 4 4 4 4 4 4 & 4 4 4 4 4 4 4 4 4 4 4 < < w t t t t t t t t i p C V.V.V , O > < < < < # , @ A V.V.C t t t t t t t t t t t w , < t t t t t t t t t t t t t t t t t t t t t t t t t t t t t t t t t t t t t t t t t t t t t t t t t t t t t t t t t t t < w 7 < 7 7 7 7 9 w 7 < 7 7 7 9 7 7 7 7 7 7 7 7 < 9 7 7 7 7 7 9 < 7 9 7 7 7 7 7 7 7 < < 9 7 7 < 9 7 4 7 7 7 7 7 7 7 7 7 7 7 9 < < 7 7 7 e r t t < < 7 y r y f w r r r r y r r r r r r r y r y r y y y y r y y r r r y r y r w y y r r y r y r r y r y w y y r y r y r r y r y r ",
"t t t t t t t t t e i e N T T Y B , 7 < < < < < < < # < - T R Y i t t t t t t t t t t t t t t t t t t t e [ kXlX|.1 # < < < < < < < 7 7 X } kXlX|.- t t t t t t t t t t t t t t e t t t t t L I.U.W < < < < < < < < < @ , > L P.I.W t t t t t t t t t t t t t t < < 4 4 4 & 4 4 4 4 4 4 4 4 4 4 4 4 4 4 p p 4 # O @ @ O O O @ O @ @ O @ p p p 4 4 4 4 4 4 4 4 4 4 4 4 4 4 4 4 4 4 < < 4 4 4 4 4 4 4 4 4 4 4 4 4 4 4 4 4 4 p p - O O @ @ @ @ @ O @ O @ O & p p e 4 4 4 4 4 4 4 4 4 4 4 4 4 4 4 4 4 4 4 4 4 4 4 4 4 4 4 4 4 # t F F a O O , @ X j 3X.X@ @ @ X & p p e 4 4 4 4 4 4 4 4 4 4 4 4 4 4 4 4 4 4 4 4 & 4 4 4 4 4 4 4 4 4 e p p & @ @ @ O O O O @ O @ 2 X 4 p p e & 4 4 4 4 4 4 4 4 4 4 4 4 4 4 4 4 4 4 @ < t t t t t t t t w C V.V.V > < < < < < < < < < @ , C V.V.A e t t t t t t t t t 4 < < t t t t t t t t t t t t t t t t t t t t t t t t t t t t t t t t t t t t t t t t t t t t t t t t t t t t t t t t t t r 7 7 w 7 7 7 7 7 w 7 7 7 w 7 w 7 7 7 7 7 7 7 7 7 8 w 7 7 7 7 7 7 7 7 w 7 7 7 7 7 7 7 w w 7 7 7 7 7 7 7 7 w w 7 7 7 7 7 7 7 7 w 7 w 7 w 7 t t t t < < 7 y r r r y y r r y y r y r r y y r r y r r y r y y r r r r y r y r y r y y y y r y r r y r r r r y y r r y r r y r r r r y ",
"t t t t t t t e t t t r L R T - 2 # < < < < < < < < < < > : R T ; r t t t t t t t t t t t t t t t t t t e '.lXkX( + < < < < < < < < @ O < X >.|.)./ e t t t t t t t t t t t t t t t t t t t W U.P.: > < < < < 7 < < < < < < O W I.I.U e t t t t t t t t t t t t < < < 4 & w 4 4 4 4 4 4 4 4 4 4 4 4 * - p p # O + O O O @ O O O @ O O O * p p 4 4 4 4 4 4 4 4 4 4 4 4 4 4 4 4 4 4 < < < 4 4 4 4 4 & 4 4 4 4 4 & 4 4 4 4 p p p # O @ O O @ @ O @ O @ @ @ + * p p e 4 4 4 4 4 4 4 4 4 4 4 4 4 4 4 4 4 4 4 4 4 4 4 4 4 4 4 4 - D F F # + @ @ @ . ' 3Xi.X > @ @ O e p p 4 4 4 4 4 4 & 4 4 4 4 4 4 4 4 4 4 4 4 4 4 4 4 4 4 4 4 4 4 & p p 4 @ O @ O @ O O O O O 7.+Xd + - p p 4 4 4 4 4 4 4 4 4 4 4 4 4 4 4 4 4 4 < < w t t t t t t t e Z C V.C , , < < < < < < < < < # < * C V.C p t t t t t t t t t w < < t t t t i t w t t t t t t t t t t t t t t t t w w t t t t t t t t t t t t t t t t t t t t t t t t t t t t t t t t t t 7 7 7 7 7 7 7 7 7 7 7 7 7 7 7 7 7 7 7 7 7 7 7 7 7 7 7 7 7 7 7 7 w 7 , 7 7 7 7 7 7 7 7 , 7 7 7 7 < 7 7 7 7 , 7 7 7 7 7 7 7 7 7 7 w 7 7 < t t t t < # 7 y r y y r r y r r r r y r y r r y r y r y r y y y r y y y r y r y r r y y y y y r y r w y r y y r r y y r y r r y r y r y ",
"t t t t t t t t t t t i Y R Y > 7 < < < < < < < < < < < < - T R Y t t t t t t t t t t t t t t t t t t i x 7XlX'.o < < < < < < < @ X j OXmXd 3 ;.1.%.u t t t t t t t t t t t t t t t t t u N P.I.Q > 7 , < < < # < < < < < 7 @ i P.Y.W t t t t t t t t t t t t e < < < 4 4 4 4 4 4 4 4 4 & 4 4 4 4 4 4 p p - @ @ @ @ @ @ O O @ @ O O @ O # p p - 4 4 4 4 4 4 4 4 4 4 4 4 4 w & 4 4 < < 4 4 4 4 4 4 4 4 4 4 4 4 4 4 4 4 & p p & @ O O @ O @ O O @ O @ O @ O @ p p - & 4 4 4 4 & 4 4 4 4 4 4 4 4 4 4 4 4 4 4 4 4 4 4 4 4 4 4 t F F t X @ @ @ @ . &.jXr.. > O @ O @ p p - & 4 4 4 4 4 4 4 4 4 4 4 4 4 4 4 4 4 4 4 4 4 4 4 4 4 4 4 w p p * X O @ O O O O X , y.3X3Xj X < p p - & 4 4 4 4 4 4 4 4 4 4 4 4 4 4 4 4 < < 4 t t t t t t t e Z V.V.= 2 < < < < < < < < < < < < , V V.V.Z t t t t t t t t t w , < t t t t e t t t t t t t u a t t t t t u i a - 6.o.- t t t t u t t t t t i t t t t t t t t t t u t t t t t t t t i t e 7 7 7 7 7 7 7 7 7 7 B 7 7 7 7 B 7 7 7 7 7 B 7 7 7 7 7 7 7 7 7 7 7 w Z w 7 7 7 7 7 7 w A Z w 7 7 7 7 w 7 & Z e < 7 7 7 7 7 Z Z 7 7 7 7 7 e t i t < , 7 f r r y r y r y y r r r y r r r y r y r y r r y r y r r y r r r y r y y r r y y r r y y y y y r y r r r r y r r y r y r y ",
"t t t t t t t t t t t s T R ; > < < < # < < < < < < < < < , ; R T p t t t t t t t t t t t t t t t t t e %.kXzX%.@ < < < < < < @ c +XBXZXVX[ > %.).>.f t t t t t t t t t t t t t t t t t 6 L I.I.L @ 7 @ < < < < < < < < < < < < W Y.W i t t t t t t t t t t t t < < 4 & & 4 4 4 4 4 4 4 4 4 4 4 4 4 * p p & O @ @ @ @ O @ O O O @ @ O O @ e p p 4 & 4 & 4 4 4 4 4 4 4 4 4 & 4 4 4 < < < 4 4 4 4 4 4 4 4 4 4 4 4 4 4 4 - p p # + @ @ O @ O @ O O O O O @ @ @ - p p 4 4 4 4 4 4 4 4 4 & 4 4 4 4 4 4 4 4 4 4 4 4 4 4 4 4 4 4 s F F w O @ @ O @ . r.jX} X @ O @ O @ p p e & 4 4 4 4 4 4 4 4 4 4 4 4 4 4 4 4 4 4 4 4 4 4 4 & 4 4 * - p p @ @ O @ @ O > O < l.jX*Xh X @ # p p e & 4 4 4 4 4 4 4 4 4 4 4 4 4 4 4 4 < < < t t t t t t t r C V.C 4 < < < # < < < < < < @ < < > = C V.A e t t t t t t t t 4 < < t t t t 6.;X;X` & & - t & & & - * e p & - 4 o m.f.* & & t w & w t w o.b.& & w t - & t w & & - * w u 4 - & & 6.f.& t e 7 7 7 7 7 7 7 7 7 7 7 7 7 7 7 7 7 7 7 7 7 7 7 7 7 7 7 7 B 7 7 7 e A.G.w 7 7 7 7 , Z Z.Z.A.s 7 7 7 7 7 7 C.H.s 7 7 w 7 w A.Z.Z.A.e 7 w 8 r t t t < < 7 y y r r y r r r r r y r y r y y r r r y r y r r y r r y r r y r y y r r y r r r r y r y y 9 y y r r y y y r y y r y r r r ",
"t t t t t t t t t t w ; R T - , < < < < < < < < < < < < < < ; R T i t t t t t t t t t t e t t t t t s - >.lXkXx @ < < < < < 7 O j.ZXVX@Xj < < ~ ;.;.g e t t t t t t t t t t t t t t t a 5 W I.P.i < < < < < < < # 7 < < < < < 2 E Y.P.N t t t t t t t t t t t t < < & w 4 4 4 4 4 4 4 4 4 4 4 4 4 4 e p p + > X X X X @ O @ @ O O O O @ O & p p e & 4 4 4 4 4 4 4 4 w - 4 4 4 & 4 < < 4 & 4 4 4 4 4 4 4 4 4 4 4 4 4 4 e p p # @ O O O @ @ O @ O @ @ O O @ @ 4 p p 4 4 4 4 4 4 4 4 4 4 4 4 4 4 4 4 4 4 4 4 & 4 4 4 & 4 4 & b F D @ O @ @ O @ @ < j < O @ O O O O * p p & 4 4 4 4 4 4 4 4 4 4 4 & 4 4 4 4 4 4 4 4 4 4 4 4 4 4 4 p p e O @ @ O O @ , X 1 *X.X8 X @ @ @ * s e & 4 4 4 4 4 4 4 4 4 4 4 4 4 4 4 4 < < w t t t t t t t t C V.C < < < < < < < < < < < < < < 2 5 C V.C r t t t t t t t p < < < t t t t nXb e u 5.$Xf.t d.m.d.w.#XM t f.b.M.& M.q.w oXm.t 6.%Xf.t & oX5.3.$Xf.v m.m.t q.b.m.6.#Xw.& q.c.#Xb l -Xv r w 7 7 7 7 7 7 7 7 7 7 7 7 7 7 7 7 7 7 7 7 7 7 7 7 7 7 7 7 7 7 7 7 A.G.S.t 7 7 7 7 w Z.C.e e w 7 7 7 7 7 C.S.S.Z , w 7 , e J s w G.H , w < t t t t < < 7 y y r y y r y y r r y r r y r r y y r y r y r r y y y y y y r y r r y y r r y y r r y y r y y r y y r r y r r r r y r y r ",
"t t t e t t t t t t e ; R Y - < < < < < # @ < < < < < < < > - R T p t t t t t t t t t t t t t t t t i - _.lXkX8 # < < < < < < @ f OX[ X + 1 # ~ ).;.g t t t t t t t t t t t t t t t t t 6 E I.P.< , # < < < < < , O < < < < < > Q Y.P.N t t t t e t t t t t t r < < 4 4 4 4 4 4 4 4 4 4 4 4 4 4 4 4 - p i @ > f ) *..Xi.@ O O O O @ O @ O * p p 4 4 4 4 4 4 4 4 4 4 * 4 4 4 & w < < < 4 4 4 4 4 4 4 4 4 4 4 4 4 4 4 & * p e @ @ @ O @ @ O X O @ O O @ O @ X 4 p p & 4 4 4 4 4 4 4 4 4 4 4 4 4 4 4 4 4 4 4 4 4 4 4 4 4 4 & G F D @ O @ O @ @ @ @ X O @ O O > O O - p p & 4 4 4 4 4 4 4 4 4 4 4 4 4 4 & 4 4 4 4 4 4 4 4 4 4 4 4 e p - O O O O @ @ @ > X d 1 X @ O O @ - p p 4 4 4 4 4 4 4 4 4 & 4 4 & 4 4 4 4 < < 7 t t t t t t t p C V.A > < < < < < + < < < < < < < < @ C V.C t i t t t t t t t w < < t t t e b.;Xo.4 M b %X3.MX2.nXb.p.oXt NX2.#Xq.x.6.b.w.f.m.;X3.v i a #Xm ;X6.v v v m.w.-XN.d.mXo.;Xt -Xb.6.;X& m.3.- t < w 7 7 7 7 7 7 7 7 7 7 7 7 7 7 7 7 7 7 7 7 7 7 7 7 7 7 7 7 7 7 s A S.w < 7 w , A S.J C.A < 7 7 7 7 7 s Z S.Z , < w 7 7 3 7 , G.H , w w w t t t < # 7 f r y r r y r r r y r y r r y r r r y r y r r y r y y y y w y r y r r y r y r y r r y r r y r r y r y r r y y r y r y r y ",
"t t t t t t t t t t u ; T T - < < < < @ n f , < < < < < < > ; T T ; w t t t t t t t t t t t t t t t u - >.lXkX0 @ < < < < < < < , X @ < < < < ~ ).;.g e t t t t e t t t t t t t t t e i e Q Y.P.9 # < < < < < < < ) w < < < < > Q Y.P.N e e t t t t t t t t t t < < 4 w & & 4 4 4 4 4 4 4 4 4 4 4 & * p - o < *XjXjX3X.X, O O @ @ @ O @ O & p p & 4 4 4 & & 4 4 4 4 4 4 4 & 4 4 4 < < 4 4 4 4 4 4 4 4 4 4 4 4 4 4 4 & p p p O O @ @ X h z.1 O @ O @ O O @ O & p p 4 4 & 4 4 4 4 4 4 4 4 4 4 4 4 4 4 4 4 4 4 4 4 4 4 4 4 5 G F D @ O O @ O O O @ @ @ O @ O @ @ O - p p 4 4 4 & 4 4 4 4 4 4 4 4 4 4 4 4 & 4 4 4 4 4 4 & 4 4 4 & p p - @ @ @ @ O O @ O @ X @ > O @ @ + * s p & & w 4 4 4 4 4 4 4 4 4 4 4 4 4 4 < @ 4 t t t t t t t p C V.C , < < < O c i.< < < < < < < < < C V.C t t t t t t t t t w < < t t t t w w.gX2.6.#XnX6.-X  m.3.l OXu gX  6.c.N.w.%X-X;Xm.6.-XO.4 M #Xa 6.;Xo.m M.nXd.#Xv o.m.* #Xv #XM - ;Xw m.6.- r 7 w - 7 7 7 7 7 7 7 B 7 7 7 7 7 7 7 7 7 7 7 7 7 7 B 7 7 7 7 7 7 , A G.w 7 7 7 , A H.C.C.G.V , < 7 7 5 3 t G.s , 7 7 7 7 w , H G.p , 7 7 e t t t 7 < 9 y r y w y r r r y y r y y r y r y r r y r r y r r y r y y y y r y r y y r y r r r y r r y r r y r r y y y y y r y y r y y ",
"t t t t t t t t t i t ; T T ; 2 < < < @ hXVX` X 7 < < < < @ ; T Y s y t t t t t t t t t t t t t t t t * >.lXkX%.$ < < < < < < < < < < < < < @ } <.;.y e t t t t t t t t t t t t t t t t t Q Y.I.: , < < < < 7 O v.CXg.X 7 < < < W Y.! N t t t t t t t t t t t e < < < & & w 4 4 4 4 4 4 & 4 4 4 4 4 e s G e @ y.g.&.^ < + @ @ O O O @ O @ & p p & 4 4 4 e & 4 4 4 4 4 4 4 4 4 4 4 < < < 4 4 4 4 4 4 4 4 4 4 4 4 4 4 & e p p # O O X k OXjX*.. @ O O @ @ @ @ * p p 4 4 4 4 4 4 4 4 4 4 4 4 4 4 4 & 4 4 4 4 4 4 4 4 4 4 4 5 Z F o.< O @ O O @ @ O @ O O O O O O O * p e 4 4 4 4 4 4 4 & 4 4 4 4 4 4 4 4 4 4 4 4 4 4 4 4 4 4 4 4 - p p @ @ @ O O @ O @ O @ @ @ @ O O O - p e & & & 4 4 4 4 4 4 4 4 4 4 4 4 4 & < < 7 t t t t t t t e C V.C < < < # w hXZX8.+ < < < < < , 4 C V.A e t t t t t t t t w < < t t t t z o d.#X-Xm ;Xq.;X& m.6.m %Xi mXt b.f.b.q.m.f.t v e o.nXt g %Xb - M gXgX5.n.d.%XM 3.oX& $Xv #Xf.b nX- #X5.& e 7 7 < 7 7 7 7 7 7 7 7 7 7 7 7 B 7 7 7 7 7 B 7 7 7 7 7 7 7 7 B 7 , Z S.e 7 8 7 , H G.9 O A.C., w 7 7 w 1 p G.Z 7 w 7 7 w , Z G.H , 8 7 7 e i t t < @ w y r r y r y y r r r y r r y r y r r y r y r r r y r y y y y y y r r r y y r y y r r y y r r y r y y r w y y y y r r y y y ",
"t t t t t t t t t t t i T R ; @ < < O i.CXMXf < < < < < < < Y T Y t t t t t t t e t t t t t t t t t t e $.kXlX_.o < < < < < < < < < < < < < # >.).%.t t t t t t t t t t t t t t t t t t r L P.Y.Q @ 7 < < < # O 4.CXMXr @ < < - P.I.E r t t t t t t t t t t t t < < 4 4 & & 4 4 4 4 4 4 4 4 4 4 4 4 t F F z O O X . X O @ @ O O @ O O O O - p p 4 4 4 4 4 4 4 & 4 4 4 4 4 4 4 4 4 < < 4 4 4 4 4 4 4 4 4 4 4 4 4 4 4 4 4 p p & @ O / *X3Xh.< @ @ @ O @ O O @ p p e & 4 4 4 4 4 4 4 4 4 4 4 4 4 4 4 4 4 4 4 4 4 4 4 4 4 4 * s F Q p O @ @ O O O O @ O O @ @ O O # p p - * 4 4 4 4 4 4 4 4 4 4 4 4 4 4 4 4 4 4 4 4 4 4 4 4 4 4 4 e p p * @ @ O O @ O O @ O @ O @ O O @ p p 4 - w & 4 4 & e 4 4 4 4 4 4 4 4 4 4 < < 7 t t t t t t t t A V.V.= > > < >XZXgXr < < < < < # , = V.V.Z e t t t t t t t t w < 7 t t t u b.;Xm.v oX%Xm.3.#X* c.3.v M.t mX#X;Xt d.5.v $X$X6.b.;Xf.t w #X2.N.;Xf.w.;XOX6.M.m o.b.& m.l m.;X;X6.e $Xm w t < 7 7 7 7 < 7 7 7 7 7 7 7 7 7 7 7 7 7 7 7 7 7 7 7 7 7 7 7 7 7 7 , Z S.e < w 7 3 A G.7 3 A.C.7 7 7 7 7 7 p G.Z , 7 7 7 < p S.H 3 7 7 7 7 r t t t < < 7 y r y y y y r y y r r y r r r y r r y y f r f y y r y y y y y y y y r y y y y r y y r r y y r y r r y y r r y r r y r y y ",
"t t t t t t t t t t t t Y R Y - < < r MXCX*.X < < < < < # - T T V e i t t t t t t t t t t t w t t t t t t |.lXaX8 < < < < < < < < < < < 7 < 0 ;.).( e t t t t t t t t t t t t t t t t t u u ! Y.W 9 # < < < < < O *XZX+X@ 7 , L I.I.Q 6 i t t t t t t t t t t t < < < 4 e & 4 4 4 4 4 4 4 4 4 4 4 4 & D F D @ O @ > > O O O O @ O O @ O * p p e 4 4 4 4 4 4 4 w 4 4 4 4 4 4 4 4 4 < < < 4 4 & 4 4 4 & 4 4 4 4 4 4 4 4 4 - p e # > .XjXi., X @ @ @ O O @ O & p p e & 4 4 4 4 4 4 4 4 4 4 4 4 & 4 4 4 4 4 4 4 4 4 4 4 4 4 & 4 D F G @ O O @ @ O @ O @ O O O @ O 4 p p e 4 4 4 4 4 4 4 4 4 4 4 4 4 4 4 4 4 4 4 4 4 4 4 4 4 4 4 4 4 p p - X @ O @ O @ O O @ O @ O @ O 4 p p 4 w * 4 4 4 & & 4 4 4 4 4 4 4 4 4 4 < < < t t t t t t t w s V.V.V > < XXZXMXc O < < < < < < < C V.C p t t t t t t t t t w @ < t t t t t a t e i t w i e t t t t e v gXw t e t t t t i t t a e t - q.b.w a e e u i e e i e i t t & $X3.w & 6.m.& t t 7 7 w 7 7 7 7 7 7 7 7 7 7 7 7 7 7 7 7 7 7 7 7 7 7 7 7 7 7 7 7 7 7 A H.e < w 7 7 e Z.A.H G.Z , 8 7 7 7 7 p G.Z , w 7 < i S.Z.A H Z 7 7 7 t t t e < < 7 y y y y y r y r r y r r y r y r y r f 9 r r w r y y r y y w y y y y y y y y f y r y y r y r r r y r r r y r r r y r r y r ",
"t t t t t t t t t t t t ; T T ; 4 o a.ZX-XO < < < 7 < < 9 Y T T N e i r t t t t t t t t t t t t t t t t = >.lXzX'.+ < < < < < < < < < < # 8 >.).>.u t t t t t t t t t t t t e t t t t t t w Q Y.U.Q > 7 < 7 < < @ j VXVXx O w P.I.P.N e t t t t t t t t t t t w < < < 4 4 4 4 4 4 4 4 4 4 4 4 4 4 4 < s F F a O @ O O @ @ @ X @ O @ @ @ - p p & 4 4 4 4 4 4 4 & 4 4 4 4 4 4 4 4 4 < < 4 4 4 4 4 4 4 4 4 4 4 4 4 4 4 4 4 * p p & X k y., X @ @ + O @ O O # p p - & 4 4 4 4 4 4 4 4 4 4 4 4 4 4 4 4 4 4 4 4 4 4 & 4 4 4 4 4 & b F F t O @ O O @ O O O @ O @ # $ p p - * 4 4 4 4 4 4 4 4 4 4 4 4 4 4 4 4 4 4 4 4 4 4 4 4 4 4 4 4 4 - p p # O O O O O @ O O @ O # @ # p p p 4 4 4 4 4 4 4 4 4 4 4 4 4 4 4 4 4 4 < < w t t t t t t t t t C V.V.p O i.MX) X < < < < < < > = V.V.A e t e t t t t t t a 7 < < t t t t t i t t t t t t t t t t t t a m.w t t i t t t e t t t t t t t v t t t t t i t t t t t t a & b.` - t v u t t r < 7 7 7 7 7 7 7 7 B 7 B 7 7 7 7 7 7 7 w 7 7 7 7 B 7 B 7 7 7 7 w 7 Z A.w 7 7 7 7 7 s A.A.H 7 7 7 7 7 7 , i A.s # 7 w , Z Z.A.Z.Z.C.7 7 7 e t t t < < 7 y r r r y r r r r y r r y r y y y y w p.;X-X9.9 7 w f 7 r $.< w 7 9 9 r < y w 7 ` x w y y r y y r r y r y r y y r r y y y ",
"t t t t t t t t t t t t e Y R R ; 2 r h._ O 7 < < # , B V T T L r i t t t t t t t t t t t t t t t t t t e 6 |.lXzX>.+ # < < < < < < < @ 1 +.;.).( i t t t t t t t t t t t t t t t t i t t t u P.U.I.L , , # < < < @ 8.4.> - W I.P.L 6 i t t t t t t t t t t t t < < & 4 4 4 4 4 4 4 4 4 4 4 4 4 4 4 4 4 D F F i O @ @ O @ @ @ @ O O + - p p e 4 4 4 & w 4 4 4 4 4 4 4 & 4 4 4 4 4 < < & 4 4 4 4 4 4 4 4 4 4 4 4 4 4 4 4 e p p s t X X @ @ @ @ @ @ O O @ * p p e & 4 4 4 4 4 4 4 4 4 4 4 4 4 4 4 4 4 4 4 4 4 4 4 4 4 4 4 4 4 * F F F w X O @ @ O @ O O @ O # - p p e 4 4 4 4 4 4 4 4 4 4 4 4 4 4 4 4 4 4 & 4 4 4 4 4 4 4 4 4 4 4 e p p p # O O O O @ @ O O @ O # i p p * 4 4 4 4 & w 4 4 4 4 4 4 4 & 4 4 4 4 < < 4 t t t t t t t t e Z V.V.C & X 0 @ < < < < < < < = V.V.V.s t t t t i t t t t t 4 , < t t t t t t t t t t t t t t t t t t t e t t t t t t t t t t t t t t t e t t t t t t t t t t t t t u w e t t e t t i e 7 w 7 7 7 7 7 7 7 7 7 7 7 7 7 7 7 7 7 7 7 7 7 7 7 7 7 7 7 7 7 7 7 7 7 7 7 7 7 7 7 7 7 , 7 7 7 7 7 7 7 7 7 < 7 7 7 7 7 7 7 , 7 , 7 7 7 7 e t t t < < 7 f r r y r y r y y r y y r r r y y 7 $.gXg c gX_ 8.` y u.7.BXs.4.s.m.x g a.< 0.$.-XnX$.w y y r y r r y y r y r r y y r w y ",
"t t t t t t t t t t t t t i T T R R - . @ < < < @ < - Y T T Y t t t t t t i t t t t t t t t t t t t t t t - ) aXlXlX).w < < < < < < @ f ;.;.).%.t t t t t t t t t e t t t t t t t t t t t t r ; P.I.I.E 7 < < < < < @ X : P.I.I.W t t t t t t t t t t t t t t t < < 4 4 4 4 4 4 4 4 4 4 4 4 4 4 4 4 4 & e D F F s < O @ O O @ @ O # e p p e & 4 4 4 4 & 4 & 4 4 4 4 4 4 4 4 4 4 4 < < < 4 4 4 4 4 4 4 4 4 4 4 4 4 & 4 4 < - p D F s , @ @ @ @ O @ @ # i p p i & 4 4 4 & 4 4 4 4 4 4 4 4 4 4 4 4 4 4 4 4 4 4 4 4 4 4 4 4 4 4 & t F F F t @ @ O O @ @ O O # p p p e 4 4 4 4 4 4 4 4 4 4 4 4 4 4 4 4 4 4 4 4 4 4 4 4 4 4 4 4 4 4 4 & e p p p & @ O @ O O O O @ * p p p e & 4 4 4 4 4 & 4 4 4 4 4 4 4 4 4 4 4 4 < < 7 t t t t t t t t i w A V.V.Z.A , < < < < < < < Z V.V.V.V t t t t t t t t t t t w < < t t t t t t t t t t t t t t t t t t t t t t t t t t t t t t t t t t t t t t t r t t t t t t t t t t t t t t t t t t e 7 7 7 7 7 7 7 7 7 7 7 7 7 7 B 7 7 7 7 7 7 7 7 7 7 7 7 7 7 7 < 7 7 7 7 7 B 7 7 7 7 7 w w w 7 < w 7 7 7 7 7 w 7 7 7 7 7 7 7 w 7 7 7 7 7 7 t t t t < < 7 y y r y r y r r y r r r r y r 9 f 7 x.c., B n.u.m.9.y gXn mXf oX$X&.gX` gXX XXu.n.n.y y y y y r r y r r r y r y r r y y r ",
"t t t t t t t t t t t t t t p Y ! E.i r w < < < w w i T T Y i t t t t t t t t t t t t t t t t t t t t t t t e  .aXlX|.u w 4 < & w w w x ;.).%.l t t t t i t t t t t t t t t t t t t t t t t t 5 L P.Y.W i w < 7 < < w w U P.I.W t e t t t t t t t t t t t t t t < < < 4 4 4 4 4 & 4 4 4 4 4 4 4 4 4 4 - # e F F D 4 # @ @ @ # < # w p p p & & & 4 4 4 4 & w 4 4 4 4 4 4 4 4 4 4 < < < 4 4 4 4 4 4 4 4 4 4 4 4 4 4 4 4 4 4 & p F F D & # @ @ @ @ @ & * p p p & 4 4 4 & w 4 4 4 & 4 4 4 4 4 4 4 4 4 4 4 4 4 4 4 4 4 4 4 4 4 4 4 & a D F D # < @ @ # @ $ 5 4 p p e & 4 4 4 4 4 4 4 4 4 & 4 4 4 4 4 4 4 4 4 4 4 4 4 4 4 4 4 4 4 4 & & & * p p e # < @ @ @ # # < 4 p p - 4 4 4 4 4 4 4 4 4 4 4 4 4 4 4 4 4 4 4 - < @ w t t t t t t t t t e e A Z.H.C.w w w < < < w < C V.C A e t t t t t t t t t t t w < < t t t t t t t t t t t t t t t t t t t t t t t t t t t t t t t t t t t t t t t t t t t t t t t t t t t t t t t t t t t 7 7 7 7 7 7 w 7 7 7 w 7 7 7 7 7 w 7 7 7 7 B 7 w 7 7 w 7 7 7 w 7 7 7 7 7 7 7 7 7 7 7 7 7 7 7 7 7 7 w 7 7 7 7 7 7 7 7 w 7 9 < 7 7 7 7 w < t t t t < < 7 y r y r y r r y r y r y y r y y y 7 c.j.< < n.p.c.4.9 gXc ;XX m.8.$ gX8.$XO c.0.s.9.< y y r r y r r y r y r y r y r r r r ",
"t t t t t t t t t t i t t t e i ! E 5 p t t t t t t e ; Y t t t t t t t t t t t t t t t t t t t t t t t t t t - / |.%.e u t e t t t t t } %.t t t e t t t t t t t t t t t t t t t t t t t t t t w N ! U r t t t t t t t t W W u 6 t t t t t t t t t t t t t t t < < 4 w & & 4 4 4 & e & 4 4 4 4 4 4 4 4 4 & e D p 4 4 4 4 4 4 4 4 & * e 4 4 4 4 4 4 4 & 4 4 4 4 4 4 & 4 4 4 & w 4 < < 4 4 4 4 4 4 4 4 4 4 4 4 4 4 4 4 4 4 w 4 t D t & 4 4 4 4 4 4 4 4 e - 4 4 4 4 4 4 4 4 4 4 4 & 4 4 4 4 4 4 4 4 4 4 4 4 4 4 4 4 4 4 4 4 4 4 4 & t D e 4 4 4 4 4 4 4 4 4 e - * 4 4 4 4 4 4 4 4 4 * w - 4 4 4 4 4 4 4 4 4 4 4 4 4 4 4 4 4 4 4 4 4 4 4 e p & 4 4 4 4 4 4 4 4 4 i * 4 4 4 4 4 4 4 4 4 4 4 4 4 4 4 4 4 4 4 4 4 < < 4 t t t t t t t t t t t e J A.t t t t t t t t i s C Z t t t t t t t t t t t t t 4 , < t t t t t t t t t t t t t t t t t t t t t t t t t t t t t t t t t t t t t t t t t t t t t t t t t t t t t t t t t t t e r t t t t t t t r t t t t t t t t t t t t t i r t t t t w t t t t t e t t r t t t y t t t t t t t t t t t w t t t t t t t t t t t t t t t t t < < 7 y y r y r r r y r y r r r y r y y w 0.gX9 g gXn m.9.n mXx gXO XXc.9 gX$.gX@ :X9.c.f.< y y r r r r y r r r y r y w y r y y ",
"t t t t t t t t t t t t t t t t s i t t t t t t t i t t u e t t t t t t t t t t t t t t t t t t t t t t t e t t e t i p t t t t t t t t y t t t t t t t t t t t t t t t t t t t t t t t t t t t t t t t t t t t t t t t e t e e e t t t t t t t t t t t t t t e @ < < & & w 4 & 4 4 4 & 4 4 4 4 4 4 4 4 4 4 & & 4 4 4 4 4 4 4 4 4 & e 4 4 4 4 - 4 4 4 4 4 4 4 4 4 & w 4 4 4 4 & 4 < < < 4 4 4 4 4 4 4 4 4 4 4 4 4 4 & 4 4 & 4 & & & 4 & 4 4 4 4 4 4 4 & 4 4 4 4 4 4 4 4 4 4 4 4 w & 4 4 4 4 4 4 4 4 4 4 4 4 4 4 4 4 4 4 4 4 4 4 & & & & 4 4 4 4 4 4 4 4 4 4 4 4 4 4 4 4 4 4 4 4 4 4 4 4 4 4 4 4 4 4 4 4 4 4 4 4 4 4 4 4 4 4 4 4 4 4 4 4 & & 4 4 4 4 4 4 4 4 4 4 4 4 4 4 4 4 4 4 4 4 4 4 4 4 4 4 4 4 4 4 4 & < < 5 i t t t t t t t t t t t t t t t t t t t t t t t t t t t t t t t t t t t t t t 4 < < t t t t t t t t t t t t t t t t t t t t t t t t t t t t t t t t t t t t t t t t t t t t t t t t t t t t t t t t t t t t i t t t i t t t i t t t t t t t t t t t t t t t i t t i t t t t t t t t i t t t t i t t t t t t t t t t t t i t t t t t t t t t t t t t t t t < # 8 y r y r r y r y r r r y r y r r y r w d.-X-Xa.7 &.gX@X$Xw %Xv.c.gX;Xs.7 oX$XgX$.$.gX4.w y y y y y r r y y r y y y r y r r ",
"t t t t t t t e t t t t t t t t t t t t t t t t t t t t t t t t t t t t t t t t t t t t t t t t t t t t t t t t t t t t t t t t t t t t t t t t t t t t t t t t t t t t e t t t t t t t t t t t t t t t t t t t t t t t e t t t t t t t t t t t t t t t t t t t < < 5 - 4 4 4 w 4 4 4 4 4 4 4 4 4 4 4 4 4 4 4 4 4 4 4 4 4 4 4 4 4 4 4 4 4 4 * w 4 4 4 4 4 4 4 4 4 4 4 4 4 & 4 4 < < < 4 & e 4 4 4 4 4 4 4 4 4 4 4 4 4 4 4 4 & 4 4 4 4 4 4 4 4 4 4 4 4 4 4 4 4 4 4 4 4 4 4 & w 4 & w 4 4 4 4 4 4 4 4 4 4 4 4 4 4 4 4 4 4 4 4 4 4 4 4 4 4 4 4 4 4 4 4 4 4 4 4 4 4 4 4 4 4 4 4 4 & 4 4 4 4 4 4 4 4 4 4 4 4 & 4 4 4 4 4 4 4 4 4 4 4 4 4 4 4 4 4 4 4 4 4 4 4 4 4 4 4 4 4 4 4 4 4 4 4 4 4 4 4 4 4 & 4 4 4 4 4 4 4 < < < t t t t t t t t t t t t t t t t t t t t t t t t t t t t t t t t t t t t t t t 7 , < t t t t t t t t t t t t t t t t t t t t t t t t t t t t t t t t t t t t t t t t t t t t t t t t t t t t t t t t t t t w e w r e w w t w e e e r w w w 9 w r e e w w t w w r e w e e w w r e w e w w w e e w w w e t w e w r w e w w e w e w w t e r w e w w e r t t t < < 7 y r r r y y r r r y y y r r y y r r r 8 g g 9 y 9 g f r r y w XXu.w y r 8 c w y 9 f y r y y r r r r y r y r r y y y r r y ",
"t t t t t t t t t t t t t t t t t t t t t t t t t t t t t t t t t t t t t t t t t t t t t t t t t t t t t t t t t t t t t t t t t t t t t t t t t t t t t t t t t t t t t t t t t t t t t t t t t t t t t t t t t t t t t t t t t t t t t t t t t t t t t t t t < < & & 4 4 4 & 4 4 4 4 4 4 4 4 4 4 4 4 4 4 4 4 4 4 & 4 4 4 4 4 4 4 4 4 4 4 4 4 4 4 4 4 4 4 4 4 4 4 4 4 & w 4 4 4 < < 4 & & 4 4 4 & 4 4 4 4 4 4 4 4 4 4 4 4 w & 4 4 4 4 4 4 4 4 4 4 4 4 & 4 4 4 4 4 4 4 4 4 & 4 w * w & 4 4 4 4 4 & 4 4 4 4 4 4 4 4 4 4 4 4 4 4 4 4 4 4 4 4 4 4 4 4 4 4 4 4 4 4 4 4 4 4 4 4 & w 4 4 4 4 4 4 4 4 4 4 4 4 4 4 4 4 4 4 4 4 4 4 & 4 4 4 4 4 4 4 4 4 4 4 4 4 4 4 4 4 4 4 4 4 4 & 4 4 4 4 4 4 4 4 4 4 4 4 4 4 4 4 < < 5 t t t t t t t t t t t t t t t t t t t t t t t t t t t t t t t t t t t t t t t w < < t t t t t t t t t t t i t t t t t t t t t t t t t t t t t t t t t t t t t t t t t t t t t t t t t t t t t t t t t t e 7 7 w < 7 7 7 < 7 7 7 7 7 7 7 7 7 7 7 7 7 7 7 < , 7 7 7 7 7 7 7 7 7 7 7 7 7 7 7 7 7 7 7 7 7 7 7 7 7 7 7 7 7 7 7 7 7 w 9 < 8 7 7 7 7 7 < t t t t < < 7 y r y r y r r y r r r r y r r r y r y y r r y y f w r y y g # j.0.< y r y w r y f r r y r r y r y r y r r y r y y y r y r ",
"t t t t t t t t t t t t t t t t t t t t t t t t t t t t t t t t t t t t t t t t t t t t t t t t t t t t t t t t t t t t t t t t t t t t t t t t t t t t t t t t t e t t t t t t t t t t t t t t t t t t t t t t t t t t t t t t t t t t t t t t t t t t t t t w < < < w 4 4 4 4 4 4 4 4 4 4 4 4 4 4 4 4 4 4 4 4 4 4 4 4 4 4 4 4 4 4 4 4 4 4 4 4 4 4 4 4 4 4 4 4 & 4 4 4 4 4 4 4 4 < < < 4 4 4 4 4 4 4 4 4 4 4 4 4 4 4 4 4 & 4 4 4 4 4 4 4 4 4 4 4 4 4 4 4 4 4 4 4 4 4 4 4 4 4 4 & * 4 4 4 4 4 4 4 4 4 4 4 4 4 4 4 4 4 4 4 4 w & 4 4 4 4 4 4 4 4 4 4 4 4 4 4 4 4 4 4 4 4 4 4 4 4 4 4 4 4 4 4 & 4 4 4 4 4 4 4 4 4 4 4 4 4 4 4 4 4 4 4 4 4 4 & 4 4 4 4 4 4 4 4 4 4 4 4 4 4 4 & 4 4 4 4 4 4 4 4 4 4 4 4 4 4 & w < < w i t t t t t t t t t t t t t t t t t t t t t t t t t t t t t t t t t t t t t t 5 < < t t t t t t t t t t t t t t t t t t t t t t t t t t t t t t t t t t t t t t t t t t t t t t t t t t t t t t t t t i e 7 7 7 7 7 7 7 7 7 7 7 7 7 7 7 7 7 7 7 7 7 7 7 7 7 7 7 7 7 7 8 w w 7 7 7 7 7 7 7 9 < 7 7 7 7 7 7 7 7 7 7 7 7 7 7 7 7 7 7 7 7 w 7 7 7 7 7 e t t t < < 7 f r r y r r y r r y r r y r y y r y r r y r y r y r y y y y y w y y y y y r y y r y r r y r r r r y r y r y y y r y r r r ",
"t t e t t t t t t t t t t t t t t t t t t t t t t t t t t t t t t t t t t t t t t t t t t t t t t t t t t t t t t t t t t t t t t t t t t t t t t t t t t t t t t t t t t t t t t t t t t t t t t t t t t t t t t t t t t t t t t t t t t t t t t t t t t t t t < < < & 4 4 4 4 4 4 4 4 4 4 4 4 4 4 4 4 4 4 4 4 4 4 4 4 4 4 4 4 4 4 4 4 4 4 4 4 4 4 4 4 4 4 4 4 w & 4 4 4 4 4 4 4 < < 4 4 4 4 4 4 4 4 4 4 4 4 4 4 4 4 4 4 4 4 4 4 4 4 4 4 4 4 4 4 4 4 4 4 4 4 4 4 4 4 4 4 4 4 4 - w 4 4 4 & 4 4 4 4 4 4 4 4 4 4 4 4 4 & 4 4 & 4 4 4 4 < 4 4 4 4 4 4 4 4 4 4 4 4 4 4 4 4 4 4 4 4 4 4 4 4 4 4 4 4 4 & 4 4 4 4 4 4 4 4 4 4 4 4 4 4 4 4 4 & 4 4 4 4 4 4 4 4 4 4 4 4 4 4 4 4 4 4 4 4 4 4 4 4 4 4 4 4 4 4 4 4 & & < @ < t t t t t t t t t t t t t t t t t t t t t t t t t t t t t t t t t t t t t t t w < < t t t t t e t t e w t t t t t t t t t t t t t t t t t t t t t t t t t t t t t t t t t t t t t t t t t t t t t t t t t < 7 7 7 7 7 7 7 B 7 7 7 7 7 7 8 7 7 7 7 7 7 7 7 7 7 7 7 7 7 w < , , , 7 7 7 7 7 7 w 7 < 7 7 7 7 7 7 7 7 7 7 7 7 7 7 7 7 7 7 , 7 7 7 7 7 e i t t < # 7 y r y y r r y y y r r y r r r r r r y r r y r y r r f y y r r y y y y y y y r y y r y r y y r y r y r r r r r w y r r r y ",
"t t t t t t t t t t t t t t w w u t t t t t * t t t t t 4 t u t t t t t t t t t t t t t t t t t t t t t t t t t t t t t t u t t t t t t t t t e w t t t t t t t t t t t t t t t t t t t t t t t t t t t t t t t t t t i t t t t t t t t t t t t t t t t t t t t < < 4 4 4 4 4 4 4 4 4 4 4 4 4 4 4 4 4 4 4 4 4 4 w 4 4 4 4 4 4 4 & & 4 & 4 4 4 4 4 4 4 4 & 4 4 4 4 4 4 & 4 4 4 4 4 < < < 4 4 & e 4 4 4 4 4 4 4 4 4 4 4 4 4 4 4 4 w & & - 4 4 4 4 4 4 4 4 4 4 4 4 4 4 & 4 4 4 4 4 4 4 4 4 4 4 4 4 4 4 4 4 4 4 4 4 4 4 & - w * 4 4 w w & - 4 4 4 4 4 4 4 4 4 4 4 4 & 4 4 4 4 4 4 4 4 4 4 4 4 4 4 4 4 4 4 4 4 4 4 4 4 4 4 4 4 4 4 4 4 w w & w w 4 4 & 4 w 4 4 4 4 4 4 4 4 w w 4 4 4 4 & 4 4 4 4 4 4 4 4 4 4 w & < < w t t t t t t t t t t t t a t t t t t t t t t t t t t t t t i t t t t t t t t t 7 # 4 t e i t a v t w b 6.e u t t t t t t t t t t t t t t t t t t t t t t t t t t t t t u t u t a t t t t t t t t t t t t e 7 7 7 7 7 7 7 7 7 7 7 7 7 , p A 7 7 7 7 7 7 , 7 Z p 7 7 7 7 < s A H H s 7 7 w w < w A Z 7 < 7 7 7 7 7 7 7 7 B 7 7 7 7 7 w A A w 7 7 7 7 t t t t < < 7 y y r r r r r r y r y r r y r r y r r y r r y y y w w y y y x u u w w w y r r r r r y r r y r r r r r r y y 9 y y r y r r ",
"t t t t t t t t t t t t t e M _ 5 u p t t v p.v t t t a 2.e 4 - & e t t t t t t i t t t t t t t t t t t t t 4 & e t t w - & t i & e t t t t e ` M - & - e t t t t t t t t t t t t t t t t t t i w & t t - & e t & & r t t e & t e w t t t t t t t t t t t t t t < < 4 4 4 4 4 4 4 4 4 4 & $ 4 4 & + & 4 & $ 4 & + $ 4 4 4 4 4 4 4 e 4 w 4 4 w & e 4 & w 4 w 4 4 4 4 & w 4 4 4 4 4 < < & & 4 & & 4 4 4 4 4 4 4 & 4 4 4 4 4 4 & & * * w # + & 4 4 4 4 e 4 4 4 4 4 4 4 4 4 4 4 4 4 4 4 4 4 4 4 4 4 4 4 4 4 4 4 4 & 4 4 4 w # * o 5 * $ * & 4 & 4 & * 4 4 4 4 w 4 4 4 w 4 w 4 4 4 4 4 4 4 4 4 4 4 4 4 4 4 4 4 4 4 4 4 4 4 4 4 4 4 & $ $ & & o * & & 4 & * $ 4 4 4 $ * 4 4 $ * $ 4 4 4 4 4 4 4 4 4 4 4 4 4 - w * < < < t t t t t t t e & - t w & & t t t e & w t t t t u t t t t t t t t t t t t t t 7 < < t t & 2.MX#X;X` t t e & - t 6.- e 4 & t w w & t t - & e e & w t i a m.v & - e 4 & - 4 & 4 5.b.& t t t t t r t t t t e 7 7 7 7 w 7 7 7 7 7 7 7 7 Z G.A., 7 7 7 7 7 7 C.H.H , w 7 w , C.S.A.Z.A 3 w w < s Z.Z.Z.A.9 B 7 7 7 7 7 7 7 7 7 7 w < t S.Z.Z.Z.p 7 7 7 t t t t < < 8 y y y r y y r y r y r y y r y y r y y r y r r w g #.:.<.tXtXtXtX'.1.=.( r r f y y r r y r r r y y r y y r y y y y y r y y ",
"t t t t r t t t t t t t t t v M - w $ t - b.c.l t t * e nXt %X-X#Xv i t t t t t t t t t t t t t t t t t t u m.%Xn e e 3.-XM.t t oX2.- t t t   M.w.2.;X$Xf.e t t t t t t t t t t t t t t t t t e 2.%Xt i b.-Xb a oX#Xl t e f.m.- 5.5.w t t t t t t t t t t t t w < < < & w & 4 4 4 4 4 & u a.e # n h.O.* O.9.o n a.p.w 4 4 & o * & o + 4 & o o & o * w * $ o & 4 4 4 4 4 4 w & 4 4 < < 4 & w & w 4 4 4 4 4 4 4 4 4 4 4 4 4 4 5 t a.l # l a.e & 4 & * + * o + & w 4 4 4 4 4 4 4 4 4 & 4 4 4 4 4 4 4 4 4 4 4 4 4 4 4 4 w * n j.s.z n s.t.4 4 4 * g u.& 5 & * o & # + * $ o 5 & 4 4 4 4 4 4 4 4 4 4 4 4 4 4 4 4 4 4 4 4 4 4 4 4 & u u.f.g 4 w.a.t 5 & g s.8.4 4 5 5.8.4 4 5.g.9.w 4 4 4 4 4 4 4 4 4 4 4 4 4 4 4 < < < t t t t t t e w.;XM.i d.;Xd.t t t 2.%XN.i t t - * w & & i t & * t t t t t t i 7 < < t t & q.m.  q.-Xm f.u #Xm.N.NXj.M #X%Xt e.m.$Xo.- f.;XO.5.;Xw.t - 9.M.w b.-X5.b.%Xb.d.$Xv t %Xv t t t t t t t t t t r 7 7 7 7 7 7 7 7 7 7 9 < p Z.S.A.7 7 7 7 7 , H S.S.H 3 7 7 7 7 C.C.> w w 7 7 7 7 p H 7 s G.Z 7 7 7 7 7 7 7 7 7 7 7 7 7 e A 5 7 G.J 3 w 7 e t t t < < w y r y r r y r r r y r r r y r y y r y y y w y =.'.aXaXdXdXdXdXdXdXdXdXtX#.x w r y r y r r y r r y r r y r y r y y r r y y ",
"t t t t t t t t t t t i t t M b n 6.x.b M MXe.t t t w.f.;Xt nXe d.m.w t t t t t t t t t t t t t t t t a - d.d.6.#Xe i 3.b m.f.3.NXw.& t e ` f.#X5.d.d.t nXM w t t t t r t t t t t t t t t t t u M.mX* f.m.6.m.b.d.e.M.& v b.M.6.b.b w i t t t t t t t t t t t t < < 4 4 4 4 4 4 4 4 4 4 5.OXy e s.a & u a.k.$ M l 4.7.* < z 9.n e 9.O.# n O.[ l 7.z $ n ` 4.w & w * 4 4 4 & 4 4 & < < < & & 4 4 4 4 4 4 4 4 4 4 4 4 4 4 4 4 & ` OXn & 4.OXu # & t ` 4.z [ O.& & 4 4 4 & 4 4 4 4 4 4 4 4 4 4 4 4 4 4 4 4 4 4 4 4 4 4 w o 0.4.* & m u t.4.$ 4 * p.+X& 4 & g 6.n n 2.` v 0.t & 4 4 4 4 4 4 4 4 4 4 4 4 4 4 4 4 4 4 4 4 4 4 & 4 & g n { u.9.4.o.9.$ & a.M 9.[ o l 0.9.u 0.p.e z e & 4 4 4 4 4 4 4 4 4 4 4 4 4 4 < < w t t t t t t t 3.a m.f.` i -X3.- a %X` t t t v 6.d.M f.w.w a f.d.l t t t t t i w @ < t t - 6.oX& l #Xd.m.e.%Xt 2.gXt v a M.w.;Xf.6.#X2.-Xa o.-Xb -Xo.* b.6.6.%Xt 5.mXb mXq.f.M.* M.6.- a t t t t t t t t e 7 7 7 7 7 7 7 7 7 7 7 7 w p J Z.7 7 B 7 7 7 p p Z.J , < 7 7 , A.C.p w , 7 7 7 7 7 7 7 w G.Z @ 7 7 7 7 7 7 7 7 7 7 7 7 7 4 s A S.Z , w 7 e t t t < , 9 y r r y y r r r y r y y y r y r r r y y w #.tXdXdXaXaXtX<.<.<.<.`.tXdX<.:.-.@.y r y r r y r y y r r y r y r y y y r y y y ",
"e t t t t t t t t t t e &   b.f.f.nXf.-Xv mXw.t & d.#Xx.mXp gX` M.e.w t t t t t t t t t t t t t t t e $ * m.2.w gXt t e $ b.f.o x.e.& t a gX6.mX3.f.M.o.%Xa t t t t t i t t t t t t t t t t e t t -Xt b.6.4 $X;Xb l -X- m f.w.#X#Xm.v e t t t t t t t t t t t t < < 4 & 4 4 4 & 4 4 4 w + a.u { j.p.[ & y f.$ & o 3.5.# t j.[ n g n a.M j.9.a.j.2.h.* j.t.9.u.* e 4 4 4 & & 4 & w < < < w w & 4 & 4 4 4 4 4 & 4 4 4 4 4 4 4 - * 9.{ & $ a.u & * ` XXO.+X2.s.o.* & 4 4 4 4 4 4 4 4 4 4 4 4 4 4 4 4 4 4 4 4 4 4 4 4 4 & $ 4.n.p.g & + 6.O.# $ ` 0.a.w & u j.O.z +X4.j.p.9.p.& 4 4 4 4 4 4 4 4 & 4 4 4 4 4 4 4 & 4 4 4 4 4 4 4 4 4 o n w.u.l 5 d.& u a.# M t.o w 9.t.5 j.y $ 5 4 4 4 4 4 4 4 4 4 4 4 4 4 4 4 4 < < < t t t t t t t t ` %X` t 6.%Xb 4 3.gXoXd.t & f.nXf.MXp.-X2.f.#X3.v e t t t t t w < < t t & 6.m.* a $Xp.m.e #Xb.m -X$ 3.#XmXf.#Xb n #Xf.f.  5.mXoXnXO.# M.3.c.6.  2.%X  %Xb o.m.o m.w.$ t t t t t t t t t e 7 7 7 7 7 B 7 7 7 7 7 7 , 3 J Z.1 w 7 7 7 7 7 , S.H , 9 7 7 , A.S.Z.Z.Z , w 7 7 7 7 , C.Z.e 7 7 7 7 7 7 7 7 7 B 7 7 7 , Z Z.G.A.e 7 7 7 r t t t < # 5 y r y r r r y r y r y y y y w r r y y - =.aXaXdXtX1.( 0 < - o O < 0 #.=.-.-.-.=.0 r r y r r y r y y r r y r r r y y r w y ",
"i t t t t t t t t t e b m.2.f.w.f.f.  ;Xa #Xa w t #X` e gXi mX#XgX6.e t t t t t t t t t t t t t t e M m.3.5.gXM.gXt t w 3.;Xt $ N.e.& e 5.#X  m.6.e.mX#X#Xu t t t t t e t t t t t t t t t t t t e ;Xa b.6.- ;X$X{ a ;Xw e M.-XgXb.d.d.& t t t t t t t t t t t t < < < 4 4 4 4 4 4 4 & * * h.t 2.p.e h.u t h.& * g h.e 5 4 6.u.w t 2.j.O.s.e n u.o a.e a.u & j.4 & & 4 4 4 e & w & < < 4 & & 4 4 4 4 4 4 4 4 4 4 4 4 4 4 4 4 4 o t.{ * o s.g & $ [ 9.  j.4 { 0.+ e 4 4 4 4 4 4 4 4 4 4 4 4 4 4 4 & 4 4 4 4 4 & 4 4 4 4 & 4 4 O.a.o n h.4 * y p.t d.4 $ O.9.  4 j.o 5.[ & a.4 & 4 4 4 4 4 4 4 4 4 4 4 4 4 4 4 4 4 4 4 4 4 4 4 4 & 6 j.v 9.j e h.* y p.& M u.* 4 4 * 6 j.w - & 4 4 4 4 4 4 4 4 4 4 4 4 4 4 4 4 4 < w t t t t t i t b #X;Xm m -X#Xb * w.$Xu -Xo.o f.x.* ;X- f.f.m -X5.w t t t t t t w < < t t & q.oX# N.oX3.$Xe t #Xb.$Xi gX3.b.N.$XM b $X6.$X- 2.nXl l t - b.6.f.m.- 3.%X* -X` 5.m.$ oX6.& t t t t t t t t i e 7 7 7 7 7 7 7 B 7 7 7 B < 3 J S., 7 7 7 7 7 7 7 S.H , 7 7 7 9 p s p A.Z.7 7 7 7 7 7 H G.Z # 7 7 7 7 7 B 7 7 7 7 7 7 7 7 w s Z S.J 7 w < t t t e 7 , 7 y r r r y r y r r y r y y y y y y y w 1.aXaXaX1.r * + # < < 7 7 < @ X @ 0 =.-.-.-.f r y r y r r y r y y r y r y r r y y r ",
"e t t t t t t t t t e l 0.g d.f.f.f.* ;Xz $Xn t e #X2.y nXa -X% M gXe t t t t t t t t t t t t t t t l 5.M w a d.b.l i n #Xi & * b.w.& w 2.;X  #X5.d.5.% -X6.& t t t t t t t t t t t t t t t t t e ;Xt d.f.t $X#X2.M %Xw t t d.d.f.6.b.& t t t t t t t t t t t t < < < 4 4 4 4 4 4 4 4 w $ h.t [ r.  s.u t h.* r p.t o 4 4 * { j.s.` p.4.a.y ` 9.& a.w h.z t j.& 4 4 4 4 & 4 4 4 4 < < 4 4 4 4 & 4 4 4 4 4 4 4 4 4 4 4 4 4 4 w o t.{ * + g.l & o O.9.o h.w O.4.$ w & & 4 4 4 4 4 4 4 4 4 4 4 4 4 4 4 4 4 4 4 4 4 4 4 4 4 w o g p.e p.4 + e { n.h.=X2.o ` a.o 4 j.* 7.[ w p.w 4 4 4 4 4 4 4 4 4 4 4 4 4 4 4 4 4 4 4 4 4 4 4 4 4 & 9.{ % u.n u a.t 5 d.4 O.9.o 4 4 - * h.{   & 4 4 4 4 4 4 4 4 4 4 4 4 & & & & # < w t t t t t t t t % f.m.o % m.d.e 6.oX  oX5.o f.N.w ;Xt f.f.& t -X6.& t t t t t w @ < t t w o.mX-Xm.t o.x.o.;Xm.v M.m.w.-Xm.3.b.v v M.e M.>X2.q.;Xm.l & e.b.e #X-X6.b.& b.M ` d.e %XM w t t t t t t t t t e < w w < 7 7 7 7 7 7 7 7 7 , J Z.7 7 7 7 7 7 7 , S.H , 9 7 7 B , 3 3 H S.w 7 7 7 7 A S.Z 3 , B 7 7 7 7 7 w w 7 7 7 7 9 e , 3 3 C.A.# 7 7 e t t t < < 7 y y y y r r r y r y r y r y r r y - =.aXaXaX#.+ @ 7 < < < < 7 , w >X3X8 O 7 #.-.-.=.x r y r y r y r r y r y r r y r y r r ",
"t t t t t t t t t t t e - * d.p.f.f.& ;Xz $Xv t - 6.;XoXgXe mXm.;Xp.- t t t t t t t t t t t t t t t t & & M m.$Xb b.w.$XmXoXf.o b.f.& t t #Xm.mX2.f.mX#X%Xv t t e t t t t t t t t t t t t t t t e ;Xu b -X;X6.o.;X;X3.e t t b.v f.nX2.e t t t t t t t t t t t e < < 4 4 4 4 4 4 4 4 4 4 o h.u 4 a.s.9.& t h.o a.XXt.4.# w 9.p.9.9.p.a.[ f.e { t.$ a.e a.h.h.$.* w 4 4 4 4 4 4 4 4 < < < 4 4 4 4 4 4 4 4 4 4 4 4 4 4 4 4 4 4 w o p.{ * $ d.g & + ` t.o d.e [ 5.* w 4 4 4 4 4 4 4 4 4 4 4 4 4 4 4 4 4 4 4 4 4 4 4 4 4 4 & [ p.s.M j.n.u.[ a.l & w j.w 4 e a.a.[ d.$ 9.O.e a.w & 4 4 4 & 4 4 4 4 4 4 4 4 & 4 4 4 4 4 4 4 4 4 4 * 4.OXw.5.n d.j.n t.b ` j.h.u & 4 4 & & v j.a.4.4 4 4 4 4 4 4 4 & 4 4 4 e & w w < < < t t t t t e u b.%X$X6.M.%X#X2.$Xa #X-Xm.t & f.b.& ;Xe d.e.2.oX$X2.- t t t t t w < < t t t t e t - t t w t t t e - e w t e t w t e e t e e t - w t t t a oXv & e e w i - t t & 3.m.- t t t t t t t t t t e 7 7 7 w 7 7 7 7 7 7 7 7 9 , J Z., 7 7 7 7 7 7 7 G.H , 7 7 7 B C.J J G.C.7 7 7 7 Z G.A.H J Z < 9 7 7 w , C.A.7 7 7 7 < V C.J C.G.A 7 7 7 e i t t < < 7 f y r r r y r r y r r r y r y y w #.aXdXtX( O 7 7 @ < < < < < @ [ CXMX# 7 , + @.-.-.+.r r y r y r y r r y r r r r y r r y ",
"t t t t e t t t t t t t t t i u u u t l t l t t t e b M a e m 2.m e e t t t t t t t t t t t t t t t t t t t 2.l e u v v M o.n e l u t t e u o.l t a o.` a e t t t t t t t t t t t t t t t t t t i l t w v M e w n M w t t t v e u b e i t t t t t t t t t t t t < < 4 4 4 4 4 4 4 4 4 4 4 e w * 5 l w & w t 4 t g z g & & g v & 4 v e 4 e 4 4 t 4 t * a.M y & 4 & 4 4 4 4 4 4 4 4 < @ 5 4 4 4 4 4 4 4 4 4 4 4 4 4 & 4 4 4 4 4 & e w & 4 e 4 4 & e w & r 4 w w 4 4 4 4 4 4 & 4 4 4 4 4 4 4 4 4 4 4 4 4 4 4 4 4 4 4 4 4 & e v y # y l z u r 4 & & e 4 4 & 4 n e e 4 w e 4 t & 4 4 4 4 4 4 4 4 4 4 4 4 4 4 4 4 4 4 4 4 4 4 4 4 & t g v g * u u & e w & l e & 4 4 4 4 4 & w v u 4 & 4 4 w & 4 4 w & 4 4 & 4 & & < < w t t t t t t t b 2.v e M o.a e l e t o.t e e a a t l t a t a 2.v t t t t t t t 7 < < t t t t t t t t t t t t t t t t t t t t t t t t t t t t t t t t t t u a t t t t t t t t t g t t t t t t t t t t t t r 7 7 7 7 7 7 7 B 7 7 7 7 7 , H C., 7 7 7 7 7 7 7 C.A , 7 7 7 7 J A.A.H 7 7 7 7 7 A A.A.A.A.H 7 7 7 7 7 , H C.7 7 7 7 8 p C.A.A.A 7 7 7 7 t t t t < < 7 y r r r y y r y y r y r y r y y f tXdXaX#.+ 7 , # < < < < < < X &XZXc.O 7 7 , O @.-.-.#.w y r y r r y r y r y y r y y y y ",
"t t t t t t t t t t t t t t t t i e t e t e t t e t - e e t e - w t t t t t t e t t t t t t t t t t t t t t - w t t e e w - e t t t t t t e - t t t 4 - i t t t t t t t t t t t t t t t t t t t t t t t e - t t e - t t t t t t t w t t t t t t t t t t t t t e < < 4 4 4 4 4 4 & 4 4 4 4 & 4 4 & * & & & & 4 & * $ * & & & * & 4 & & & 5 4 4 * 4 4 $ a.u o 4 & e & 4 4 4 4 4 4 & < < 4 4 4 4 4 4 4 4 4 4 4 4 4 4 4 4 4 4 4 4 4 # & 4 4 & 4 4 4 4 & 4 & 4 4 & 4 4 4 4 4 4 4 4 4 4 4 4 4 4 & 4 4 4 4 4 4 4 4 4 4 4 4 4 4 & * * 4 & + * & & & 4 & 5 4 & & 5 $ & 4 4 & & 4 & 4 4 4 4 4 4 4 4 4 4 4 4 4 4 4 4 4 4 4 4 4 4 4 4 4 4 & # $ * 5 & & 4 & & 4 $ 5 4 4 4 4 4 & w & * & 4 w & 4 & 4 4 4 4 4 4 & w 4 & w < < w t t t t t t t w & e i w - t t e t t w i t i e r t e t t i t & t t t t t t t t w @ < i t t t t t t t t t t t t t t t t t t t t t t t t t t t t t t t i t t t t t t t t t t t t t t t t t t t t t t t t t e 7 7 7 7 7 7 7 7 7 7 7 7 7 7 7 7 7 7 7 7 7 7 7 7 7 7 7 7 7 7 7 7 , , , 7 7 7 7 7 7 , , 3 , 7 7 7 7 7 7 7 , , 7 7 7 7 8 < , , , 7 B 7 7 7 e t t t < < 7 y r y r y r r r r y r y r r y w =.aXaX:.$ 7 < < < < < < < 7 @ f NXVXc O , # < O 7 -.-.=.y r y r y r r y r y r r y r r r r ",
"t t t t t t t t t t t t t t t t t t t t t t t t t t t t t t t t t t t t t t t t t t t t t t t t t t t t t t t t t t t t t t t t t t t t t t t t t t t t t t t t t t t t t t t r t t t t t t t t t t t t t t t t t t t t t t t t t t t t t t t t t t t t t t t w < < < & & w 4 4 4 4 4 4 4 4 4 4 4 4 4 4 4 4 4 4 4 4 4 4 4 4 4 4 4 4 4 4 4 4 4 4 4 4 4 4 4 4 4 4 & w & 4 4 4 4 4 4 < < 4 4 4 4 4 4 4 4 4 4 4 4 4 4 4 4 4 w & 4 4 w 4 4 4 4 4 4 4 4 4 4 4 4 4 4 4 4 4 4 4 4 4 4 4 4 4 4 4 4 4 4 4 4 4 4 4 4 4 4 4 4 4 4 4 4 4 4 4 4 4 4 4 4 4 4 4 4 4 4 4 4 4 4 4 4 4 4 4 4 4 4 4 4 4 4 4 4 4 4 4 4 4 4 4 4 4 4 4 4 4 4 4 4 4 4 4 4 4 4 4 4 w & 4 4 4 4 4 4 4 4 4 4 4 4 4 4 4 4 4 4 4 4 4 4 4 4 4 4 4 & 4 4 4 < < 4 t t t t t t t t t t t t t t t t t t t t t t t t t t t t t t t t t t t t t t t 7 # < t t t t t t t t t t t t t t t t t t t t t t t t t t t t t t t t t t t t t t t t t t t t t t t t t t t t t t t t t t e 7 7 7 7 7 7 7 7 7 7 7 < 7 7 7 w < 7 7 7 7 7 7 7 w 7 7 7 7 7 7 w 7 w w 7 7 7 7 7 w w 7 w w 7 7 7 7 < 7 7 7 9 7 7 7 7 7 7 7 w w w 7 7 7 7 e t t t < < 7 y y y r r y y y r r y r r r r r tXdXtX8 @ < < < < < < < < 7 X r.ZXOXX < < < < < O q 1.-.#.r r r r y r y r y y r y y r y r ",
"t t t t t t t t t t t t t t t t t t t t t t t t t t t t t t t t t t t t t t t t t t t t t t t t t t t t t t t t t t t t t t t t t t t t t t t t t t t t t t t t t e t t t t t t t t t t t t t t t t t t t t t t t t t t t t t t i t t t t t t t t t t t t t t t < < & w - & 4 4 4 4 4 4 4 4 4 4 4 4 4 4 4 4 4 4 4 4 4 4 4 4 4 4 4 4 4 4 4 4 4 4 4 4 4 4 4 4 4 4 4 4 4 4 & 4 4 4 4 < < < 4 4 4 4 4 4 4 4 4 4 4 4 4 4 4 & & 4 4 4 4 4 & 4 4 4 4 4 4 4 4 4 4 4 4 4 4 4 4 4 4 4 4 & 4 4 4 4 4 4 4 4 4 4 4 4 4 4 4 4 4 4 4 4 4 4 4 4 4 4 4 4 4 4 4 4 4 4 4 4 4 4 4 4 4 4 4 4 4 4 4 4 4 4 4 & 4 4 4 4 4 4 4 4 4 4 4 4 4 4 4 4 4 4 4 4 4 4 4 4 4 4 4 4 4 4 4 4 4 4 4 4 4 4 4 4 4 4 4 4 & 4 4 4 4 4 4 4 4 4 4 4 4 4 < < 7 t t t t t t t t t t t t t t t t t t t t t t t t t t t t t t t t t t t t t t t w , 7 t t t t t t t t t t t t t t t t t t t t t t t t t t t t t t t t t t t t t t t t t t t t t t i e t t t t t t t t t t t 7 < 7 w 7 7 7 7 7 w 7 w 7 7 w 7 7 w 7 7 7 w 7 7 w 7 7 7 w 7 7 7 7 w 7 7 7 7 w 7 7 < 7 w 7 7 7 w w 7 7 7 w < 7 7 7 w 7 7 w 7 7 7 7 7 w 7 e t t w < < 7 y y r y r r r r y r r r r f w #.aXaX1.+ 7 < < < < < < < < # 7 mXCX7.X 7 < < < 7 @ 8 +.-.@.r r r y y r r y r r y r r y r y ",
"t t t t t t t t t t i e t t w i t t t t t t t t t t t t t t t t t t t i t t t t t t t t t t t t t t t t t t w i t t t t t t t t t t t t t t t t t t t t t t t t t t t t t t t t t t t t t t t t t t t t t t t t t t t t t t e t t t t t t t t t t t t t t t t t < < w * 4 4 4 4 4 4 4 4 & 4 4 4 4 4 4 4 4 4 4 4 4 4 4 4 4 4 4 4 4 4 4 4 4 4 4 4 4 4 4 4 4 4 4 4 4 4 & w e 4 4 4 < < < 4 4 4 4 4 4 4 4 4 4 4 4 4 & e & w 4 4 4 4 4 4 w & 4 4 4 4 4 4 4 4 w & 4 4 4 4 4 4 4 4 4 4 4 4 4 4 4 4 4 4 4 4 & 4 4 4 4 4 4 4 4 4 4 4 4 4 4 4 4 4 4 4 4 4 4 4 4 4 4 4 4 4 4 4 4 4 w & 4 4 4 4 4 4 4 4 4 4 4 4 4 4 4 4 4 4 4 4 4 4 & 4 4 4 4 4 4 4 4 4 4 4 4 4 4 4 4 4 4 4 4 4 4 4 4 4 4 4 4 4 4 4 4 4 4 4 4 4 4 4 4 4 < < 7 t t t t t t t t t t t t t t t t t t t t t t t t t t t t t t t t t t t t t t t 7 < < t t t e t t t t t t t t t t t t t t t t t t t t t t t t t i r t t t t t t t t t t t t t t t t t t t t t t t t t t t t t t t i t t t t t t i t t t t t t t t t t t e t t t t t t t t e t t t t t t t t t t i t t t t t t t t t t t t t t t t t t t t t e i t t t t t t 7 , 7 y r r y r r r r y r y y r y e 1.dXaX( # 7 < < < < < < < < O $.ZXMX7 , < < < < < 7 @ ~ -.-.x r y r r y r r r y r r r r r y ",
"t t t t t t t t t r u u u u u u t u u y u u t y t u t a t u u u t u y u t t t t t t t i t t t t t t i u u u u u a t u u t u t y u t u t i u t y u u u u t t t t t t t t t t t t t t t t t t t t t t t t t t t t t t t t t t t t t t t t t t t t t t t t t t t t < < 4 & 4 4 4 4 4 4 4 4 4 4 4 4 4 4 4 4 4 4 4 4 4 4 4 4 4 4 4 4 4 4 4 4 4 4 4 4 4 4 4 4 4 4 4 4 4 4 4 & & & 4 4 4 < < 4 4 4 4 4 4 4 4 4 4 4 4 4 & & 4 4 4 4 4 4 4 4 4 4 4 4 4 4 4 4 4 4 & 4 4 4 4 4 4 4 4 4 4 4 4 4 4 4 4 4 4 4 4 4 4 4 4 4 4 4 4 4 4 4 4 4 4 4 4 4 4 4 4 4 4 4 4 4 4 4 4 4 4 4 4 4 4 4 & 4 4 4 4 4 4 4 4 4 4 4 4 4 4 4 4 4 & 4 4 4 4 4 4 4 4 4 4 4 4 4 4 4 4 4 4 4 4 4 4 4 4 4 4 4 4 4 4 4 4 4 4 4 4 4 4 4 4 4 4 4 4 4 4 & < < 4 t t t t t t t t t t t t t t t t t t t t t t t t t t t t t t t t t t t t t t t < < # t t t t t t t t t t t t t t t t t t t t t t t t t t t t t t t t t t t t t t t t t e t t t t t t t t t t t t t t t t t t t t e t t t t t t t t t t t t t t t t t e i t t t t t t t t t t t t t t t t t t t t t t t t t t t t t t t t t t t t t t t t t t t t t t t t t 7 # 7 y r y r r y y y r y r r y r r <.dX`.7 < < < < < < < < < < O $.VXz.X < < < < < , 7 < q -.-.( w y y r r y r y r r y y r y r ",
"t t t t t t t t t t n ` ` ` ` ` ` ` ` ` ` ` ` ` ` ` ` ` ` ` ` ` ` ` ` n e t t t t t t t t t t t t t t n ` ` ` ` ` ` ` ` ` ` ` ` ` ` $._ _ _ ` ` _ _ ` ` t t t t t t t t t t t t t t i t t t t t t t t t t t t t t t t t t t t t t t t t t t t t t t t t t t t t < < 4 w 4 4 4 4 4 4 4 4 & w 4 4 4 4 4 4 4 4 4 4 4 4 4 4 4 4 4 4 4 4 4 4 4 4 4 4 4 4 4 4 4 4 4 4 4 4 4 4 4 4 4 4 4 < < < w & 4 4 4 4 4 4 4 4 4 4 4 4 4 4 4 4 4 4 & w 4 4 4 4 4 4 4 4 4 4 4 4 4 4 4 4 4 4 4 - & w 4 4 4 4 & 4 4 4 4 4 4 4 4 4 4 4 4 4 4 4 4 4 4 4 4 4 4 4 4 4 4 4 4 4 4 4 4 4 4 4 4 4 4 4 4 4 4 4 4 4 4 4 & 4 4 4 4 4 4 4 4 4 4 4 4 4 4 4 4 4 4 4 4 4 4 4 4 4 4 4 4 4 4 4 4 4 4 4 4 4 4 4 4 4 4 4 4 4 4 4 4 4 4 & 4 4 & 4 4 & 4 < 7 t t t t t t t t t t t t t t t r t t t t t t t t t t t t t t t t t t t t t t t w @ < t t t t t t t e t t t t t t t t t t t t t t t t t t t t t t t t t t t t t t t t t t t t t t t t t t t t t t t t t t t t t t t t t t t t t t t t t t t t t t t t t t t t t t t t t t t t t t t t t t t t t t t t t t t t t t t t t t t t t t t t t t t t t t t t t t t < # 7 f r y r y y r r r y r r y r f tXdX1.- < < < < < < < # < < < O x w @ < < < < < # 7 # 8 -.-.#.r y r y r y r y r y y r y r r ",
"t t t t t t t t i e _ c r f f f f g y y f f f f f f f f f f f f f f c _ e t t t t t t t t t t t t t t _ c y f f f f f f f f f f f f f f u y f f y y h ` u t t t t t t t t t t t t t e t t t t t t t t t t t e t t t t t t t t t t t t t t t t t t t t t t t t w < < < & 4 4 4 & 4 4 & w 4 & 4 4 4 4 4 4 4 4 4 4 4 4 4 4 4 4 4 4 4 4 4 * 4 4 4 4 4 4 4 4 4 4 4 4 & w 4 4 4 4 4 4 4 < < 4 - 4 4 4 4 & 4 4 4 4 4 & 4 4 4 4 4 4 4 4 4 & 4 & & 4 4 4 4 4 4 4 4 4 & 4 4 4 4 4 4 w * & 4 4 4 4 4 4 4 4 4 4 4 4 4 4 4 4 4 4 4 4 4 4 4 4 4 4 4 4 4 4 4 4 4 4 4 4 4 4 & 4 4 4 4 4 4 4 & 4 4 4 4 4 4 4 4 4 4 4 4 4 4 4 4 4 4 4 4 4 4 4 4 4 4 4 4 4 4 4 4 4 & 4 4 4 4 4 4 4 4 4 4 4 4 4 4 4 4 4 4 4 4 4 4 4 4 4 4 4 4 4 < < w t t t t t e e t t t t t t t t t i t t t t t t t t t t t t t t t t t t t t t t w < < t t t t t t t t t t t t t t t t t t t t t t t e t t t t t e t t t t t t t t t t t t t t t e t t t t t t t t t t t t t t t t t t t t t t t t t t t t i t t t t t t t t t t t t t t t t t t t t t t t t t t t t t t t t t e t t t t t t t t t t t t t t t t t t t t t t 7 < 7 y r y r r r r r y y r r r r g aXdX1.o < < < < < < < < < < < 7 @ < < < < < < < < < , 7 =.:.@.w y y r r r y r y r r y r y r ",
"t t t t t t t t t e M x w f r f r r y r r f r f r y y y r f y y y w c _ w t t t t t t t t t t t t t t M c w r f f r r r r r r f y r r y y y y f y r g ` t t t t t t e t t t t t t t t t t t t t t t t t t t t t t t t t t t t t t t t t t t t t t t t t t t t t < < 4 4 4 4 4 4 5 & & & 4 & * - & w 4 4 4 4 4 4 4 & * & 4 4 & 5 4 4 4 e 4 4 4 4 4 4 4 4 4 4 4 4 4 & 4 4 4 4 4 4 4 < < # 4 4 4 4 4 4 4 4 4 4 4 4 4 4 4 4 4 4 4 4 4 4 4 w e 4 4 4 4 4 & & 4 4 w & 4 & 4 4 4 4 * w 4 4 4 4 4 4 4 4 4 4 4 4 4 4 4 4 4 4 4 4 4 4 & - 4 4 4 4 & * 4 4 4 4 4 & 4 w e & 4 4 4 4 4 - w & 4 4 4 4 4 4 4 4 4 4 4 4 4 4 4 4 4 4 4 4 4 4 4 4 4 4 4 4 & 4 4 4 4 4 4 4 4 4 4 4 4 4 4 4 4 4 4 4 4 4 4 4 4 4 4 4 4 4 4 4 4 4 < < 5 t t t t t 6 e p t i u t t t t e e t t t t i t t u u t t t t t t t t t t t t t w < < t t t t t t t t t t t t t t t t i t t t t t t t t t t t t t t t t t t e t t t t t t t t t t t t t t e t t t t t t t t t t t t t t t t t t t t t t t t t t t t t t t t t t t t t t t t t t t t t t t t t t t t t t t t t t t t t t t t t t t t t t t t t t t t t t t t < < 7 y y r y r y y y r r y r r r x aXdX:.* 7 < < < < < # < < < < < < < < < < < < < < < @ , -.-.+.e y y r y r y r r r r r r y y ",
"t t t t t t t t t w M n r f w w y r 7 y r 9 w w r 9 8 w f w 9 w y w c _ i t t t t t t t t t t t t t e ) j r y w w 9 r y 9 r r 7 w f w 8 y 9 7 w y y g ` t t t t t e i t t t t t t t t t t t t t t t t t t t t t t t t t t t t t t t t t t t t t t t t t t t t t < < < 4 4 4 4 4 & & w & 4 w w y g g g g g y & 4 4 < M w & 4 & & 4 4 4 [ & 4 4 & 4 & & 4 4 4 4 4 4 4 4 4 4 4 4 4 4 < < < 4 4 4 4 4 4 4 4 4 4 4 4 4 4 4 4 4 4 4 4 4 4 4 & & & 4 4 4 4 e & 4 4 4 4 4 4 4 4 4 4 w & 4 4 4 4 4 4 4 4 4 4 4 4 4 4 4 4 4 4 g g g g g g r & 4 & w n 4 4 4 # & 4 * u { + 4 4 & 4 & * w 4 4 4 4 4 4 4 4 4 & 4 4 4 4 4 4 4 4 4 4 4 & 4 4 4 4 4 4 4 4 4 4 4 4 4 4 4 4 4 4 4 4 & 4 4 4 4 4 4 4 4 4 4 4 4 4 4 4 4 4 4 4 4 < < w t t t w G J.J.J.J.J.J.F w t e b o.e t t w e u & 2.o.& t t e i e t t t t t t a < < 7 t t t t t t t t t t t t t t t t t t t t t t t t t t t t t t t t t t t i e t t t t t t t t t t t t t t t t t t t t t t t t t t t t t t t t t t t t t t t t t t t t t t t e t t t t t t t t t t t t t t t t t t t t t t t t t t t t t t t t t t t t t t t t t t t t t t < < 8 y r y r y r r r r y r r r r g tXdX:.+ < < < < < < 7 , < < < < < < < 7 < < # < , 7 @ 7 -.-.%.w y r y r y r y r y y r y 9 y ",
"t t t t t t t t t t { c r 8 &.i.w x c.f h a.j.` g v.l.&.7 u.v.*.r r c n i i t t t t t t t t t t t t t n c r 9 &.v.i.x w y.` 7 s.] 7 *.y.y k.l.] w y f ` t t t t t t t t t t t t t t t t t t t t t t t t t t t t t t t t t t t t t t e t t t t t t t t t t t t t < < 4 4 4 4 4 4 4 4 4 4 4 4 & y g r y r h y - 4 * g @XM $ 4 u e 4.O.w 4 e 4 * e 4 w l 5 * w & & 4 4 4 4 4 4 4 4 4 < < < 4 4 4 4 4 4 4 4 4 4 4 4 4 4 4 4 4 4 4 4 4 4 w & 4 4 4 4 4 4 4 4 4 & 4 4 4 4 4 & 4 4 4 4 4 & & 4 4 4 4 & 4 4 4 4 4 4 4 4 4 4 g f r r r h t 4 4 & o.OXu * 4 l e r.{ 4 4 e 4 4 e 5 t u & 4 4 4 4 4 4 4 4 4 w 4 4 4 4 4 4 4 4 4 4 4 4 4 4 4 4 4 4 4 4 4 4 4 4 4 4 4 4 4 4 4 4 4 4 4 4 4 4 4 4 4 4 4 4 4 4 4 4 4 4 4 4 4 < < w t t t w D J.J.J.J.F.J.H 8 t w m.mXe e t M m #XM t t l t t g e b v e t t t t t w < < t t t t t i t t t t t t t t t t t t t e t t t t t t t t t t t t t t t t t t t t t t t t t t t t t t t t t t t t t t t t t t t t t t t t t t t t t t t t t t t t t t t t t t t t t t t t t t t t t t t t t t t t t t t t t t t t t t t t t t t t t t t t t t t t t t t < < 9 y y r r y r r y r r y r y r y tXdX<.& 4 < < < < < < < < < < < < < # < < < < < < < < 8 -.-.#.8 y y r y r y r r r y r r y r ",
"t e t t t t t t t i n c r w 7.*Xr ] *Xc a.*.c g.&.h.r v.c h._ f r r c n t t t t t t t t t t t t t t i _ c r < i.$.r.*.9 ,Xt.7 +Xg.# v.v.g j.x v.r y f ` u i t t t t t t t t t t t t t t t t t t i e t t t t t t t t t t t t t t t t t t t t t t t t t t t t t w < < < & 4 4 4 4 4 4 4 4 4 4 & g g w 8 8 y u & 5 * 4.9.4.+ 4.j.0.k.n.{ p.9.[ 4 a.z u.a.O.* & & w 4 4 4 4 4 4 4 4 4 < < 4 & 4 4 4 4 4 4 4 4 4 & 4 4 4 4 4 4 4 4 4 4 4 & 4 & 4 4 4 4 4 4 4 4 4 4 4 4 4 & w 4 4 4 4 4 & e 4 4 4 4 w 4 4 4 4 4 4 4 4 4 4 g f 8 w 8 j w 4 4 & 9.t.{ + 9.h.5.+Xa.O.p.r.l g u.l a.s.n * 4 4 4 4 4 4 4 4 & 4 4 4 4 - 4 4 4 4 & 4 4 4 4 4 4 4 4 4 4 4 4 4 4 4 4 4 4 4 4 4 4 4 4 4 4 - 4 4 4 4 4 4 4 4 4 4 4 4 4 4 4 4 < < 4 t t t t Z J.J.D.F.J.J.F w t l m.m.` t %X%Xb.NXd.b.b.m.i w.x.5.$X%Xm e t t t t 7 # < t t t t t e t t t t t t t t t t t t e i t t t t t t t t t t t t t t t t t t t t t t t t t t t t t t t r i t t t t t t t t t t t t t t t t t t t t t t t t t t t t t t t t t t t t t t t t t t t t t t t t t t t t t t t t t t t t t t t t t t t t t t t t t t t t t t < @ 7 y r r y r y y y r y r y r y r <.dXtXp < < < < < < < < < < < < < < < < < < < < < < # 0 -.-.x e y r y r y r y y r r y r r y ",
"t t t t t t t e t t n c r w &.+Xc u.g.] a.c 7 t.i.u.@ u.&.g..X*.r r j M e t t t t t t t t t t t t t e n x r w y.r.i._ ] r.y.f g.a./ j.u.c l.[ g.9 r g ` t t t t t t t t t t t t t t t t t t t t e t t t t t e t t t t t t t t t t t t t t t t t t t t t t t t t < < 4 4 4 4 4 4 4 & 4 4 4 4 & g g 8 r w g y & - 4 g.O.a.t h.t   9.M 4 h.z t.z t.[ a.n n.t & w & 4 4 4 4 4 4 4 4 4 < < 4 4 4 4 4 4 4 4 4 4 4 w & 4 4 4 4 4 4 4 4 4 4 4 4 w & 4 4 4 4 4 4 4 4 4 4 4 4 4 4 4 w & 4 4 4 4 4 & w 4 & 4 & 4 4 4 4 4 4 4 4 g r 8 r 8 g y & & u h.O.i.a h.+ o a.4 n u.` 5.` 4.9.6.[ j.& 4 4 4 4 4 4 4 4 4 4 4 & * w w * 4 4 4 4 4 4 4 4 4 4 4 4 4 4 4 4 4 4 4 4 4 4 4 4 4 4 4 4 * w 4 4 4 4 4 4 4 4 4 4 4 4 4 4 4 4 # < w t t t r D J.F.F.J.F.J.A r e q.%XN.x.5.oXo t ;X  b.f.b.3.M.5.;X6.M.oX# t t t t w < < t t t t t t t t t t t t t e t t t t t t t t t t t t t t t t t t t t t t t t t t t t t t t t t e t t t t t t t t t t t t t t t t t e t t t t t t t t t t t t t t t t t t t e t t t t t e i t t t t t t t t t t t t t t t t e t t t t t t t t t t t t t t t t t t t t t # , 7 y r y r r y r r r y r r y y w :.dXaX#.@ < < < < < < < < < < < < < < < < < < < < < X @.-.-.x r r r y r r r y r y r y y r y ",
"t t t t t t t t t i n n r 9 *.i.i.8.i.` a.x # y.i.r.X i.$.i.c 9 r 8 c ) t t t t t t t t t t t t t t e _ z f w 9..Xv.7 c..X&X) u.u.i.r.y.g OXt.c r y f ` y t t t t t t t t t e t t t t t t t t t t t t t t t t t t t t t t t t t t t t t t t t t t t t t t t t t < < < 4 4 4 4 4 4 4 4 4 4 4 & y d 8 8 8 f f & + z n.u.n.{ a.4   t.{ 4 h.4 p.u.n O.n.4.4.w & w & 4 4 4 4 4 4 4 & < < < 4 4 4 4 4 4 4 4 4 4 4 4 4 4 4 4 4 & 4 4 4 e & 4 4 4 4 4 4 4 4 4 4 4 4 4 4 4 4 4 4 4 & 4 4 4 4 4 4 4 & 4 4 4 4 4 4 4 4 4 4 4 4 g r 8 w 8 g e 4 + [ v.p.c.` p.* o h.e z u.e a.t.l t.h.4.2.& 4 4 4 4 4 4 4 4 4 4 & w & w & w 4 4 4 4 4 4 4 4 4 4 4 4 4 4 4 4 4 4 4 4 & 4 4 4 4 4 4 4 4 4 4 4 4 4 4 4 4 4 4 4 4 4 4 4 4 4 < < w t t t g o.J.J.F.F.F.J.F w * m.;X%X%Xf.N.  a gXo c.w.3.m.m.v gXoXb.3.e t t t t w , < t t t t t t t t t t t t t t t t t t t t t t t t t t t t t t t t t t t t t t t t t t e t t t t t t t t t t t t t t t t t t t t t t t t t t t t t t t t t t t t t t t t t t t t t t t t t t t t t t t t t t t t t t t t t t t t i e t t t t t t t t e t t t t t t t t t < < 7 y r y r y r y y r r y y y f w #.tXdX<.+ < < < < < # 7 < < # < < < < < < < < < < , 9 =.-.+.r r r y r y r y r y r y r r y r ",
"t t t t t t t t t e ) c r 8 8.7.+X*.i.n r.u.&.g.$..X$.v.g k.8.) r r c M e t t t t t t t r t t t t t i _ j f 7 i.` 8.i.l.] u.i.u.*.OX_ a.c h.< r y r f ` t t t t t t t t t t t t t t t t t t t t t t t t t t t t t t t t t t t t t t t t t t t t t t t t t t t t < < < 4 4 4 4 4 4 4 4 4 4 4 & g j g j g j y & * t.`   n p.t.8.z 5.a.l k.o 7.=X& n i.z l & 4 4 4 4 4 4 4 4 4 4 4 4 < < < 4 4 4 4 4 4 4 4 & 4 4 4 4 4 4 4 4 4 4 4 & 4 4 4 4 4 4 4 4 4 4 4 4 4 4 4 4 4 4 4 4 4 4 4 4 4 4 4 w & 4 4 4 4 & 4 4 4 4 4 4 4 g j g g g j y * w s.l   5.9.a.2.l p.4.` a.o h.n.o O.9.z g & 4 4 4 4 4 4 4 4 4 4 & 4 4 4 4 & 4 4 4 4 4 4 4 4 4 4 & 4 4 4 4 4 & 4 4 4 4 4 4 4 4 4 4 4 4 4 & 4 4 4 4 4 4 & 4 4 4 4 4 4 4 4 < < 4 t t t e D J.J.J.J.J.J.q.t S $Xi $ m.b.-Xw.M gX3.M.d.& NXoXo M.d.M v t i t t t w < 4 t t t t t t t t t t t t t t t t t t t t t t t t t t t e t t t t e t t t t t t t t t t t t t t t t t t t t t t t t i r t t t t t t t t t t t t t t t t t t t t t t t t t r t t t t t t t t t t t t t t t t t t t t t t t t t t t t t t t t t t t t t t t t t t t t t t < < 7 y r y r y r r y r y r r r y y w '.dXtX0 @ < < < < < < < < < < < < < < < < < < 7 O ( -.-.x w y y r r y r y r r r r y r r r ",
"t t t t t t t t i e n c r w _ / ] c _ c r 8.u.x f u.y./ 9 &.u.&.f r x M e t t t t t t t i e t t t t e _ c w w _ c h 7.` 7 f $._ x $.x ] g [ r y y r f ` u t t t t e t t t t t t t t t t t t e i t t t t t t t t t t t t t i e t t t t t t t t t t t t t t t t t < < 4 4 4 4 4 4 4 4 4 4 4 4 4 t r w r t r w & & ` e 5 e { t 8.2.e 7.n { # z [ & $ M u.{ & 4 4 4 4 4 4 4 4 4 4 4 4 < < 4 4 4 4 4 4 4 4 4 w & 4 4 4 4 4 4 4 4 4 4 & 4 4 4 4 4 4 4 4 4 & 4 4 4 4 4 4 4 4 4 4 & 4 4 4 4 4 4 & 4 4 4 4 & w 4 4 4 4 4 4 4 w y r t y t w & w { 4 & g n t u.{ y 7.v M + n { & 4 [ t.n & 4 4 4 4 4 4 4 4 w & w & 4 4 4 4 4 4 4 4 4 4 4 4 w & w & 4 4 4 4 4 4 4 4 4 4 4 4 4 4 4 4 w & w & 4 4 4 4 4 4 4 4 4 4 4 4 4 4 < < 7 t t t e s C.C.C.C.J C.G w n 5.t e 2.M 2.m.S 2.d.2.o.& w.o.- a d.M.M e t t t t 7 < < t t t t t t t t t t t t t t t t t t t t t t t t t t t t t t t t t t t t t t t t t t t t t t t t t t t t t t t t t t t t t t e t t t t t t t t t t t t t t t t t t t t t i t t t t t t t t t t t t t t t t t t t t t r i t t t t t t t t t t t t t t t t t t t t t t t < < 8 y r r y r y r r y r r y r r y r #.aXdX`.< < < < < < < < < < < < < < < < < # 7 + 0 -.-.=.y y y r y y r y r y r y y r r r y ",
"t t t t t t t t i t n c r y 9 w r w 8 r r 7 7 r r 7 7 w f 7 < w y w g ) e i t t t t t t t t t t t t e n c r f 8 r r 8 w f r 8 r r w r w r 9 y r y r g _ t t t t t t t t t t t t t t t t t t t t t t t t t t t t t t t t t t t t t t t t t t t t t t t t t t t t < < 4 4 4 4 4 4 4 4 4 4 4 4 4 & & & & & & 5 w & & 4 4 4 $ 4 * o 4 + * $ w * $ 4 4 # o * 4 4 4 4 & 4 4 4 4 4 4 4 & < < 4 4 4 & 4 4 4 w - & w 4 4 4 4 4 & 4 4 4 4 4 4 4 4 4 4 4 4 4 4 4 4 4 4 4 4 4 4 4 4 4 4 4 4 4 4 4 4 4 4 & w 4 4 4 4 & w 4 4 4 4 & 4 & & & & 4 4 4 * 4 4 & # * o * & o & & 4 * $ w 4 + o * 4 4 4 4 4 4 4 4 4 & 4 4 4 4 & 4 4 4 4 4 4 4 4 4 & & 4 4 4 4 - 4 4 4 4 4 4 4 4 4 4 4 4 4 4 & 4 4 4 4 4 4 4 4 4 4 4 4 4 4 & 4 4 < < < t t t t t 7 7 0 1 7 7 t t e e t t w e - * w w # e - t & e t t - # e t t t t t 4 , < t t t t t t t t t t t t r t t t t t t t t t t t t t t t t t t t t t t t t e t t t t t t t t t t t t t t t t t t t t t t t t t t t t t t t t t t t e t t t t t t t t t t e t t t t t t t t t t t t t t t t t t t t t t t e t t t t t t t t t t t t t t t t t t t t t t < < 7 y r y y r r y r y r y r r y r y r `.dXaX:.o , < < < # < < < < < < < < < < < < 7 +.-.-.#.9 y r y r r y y r r r r y r y y r ",
"t t r i e t t t u i n c 8 r r r r r r r r r r r 9 r y f w r f r r e x M t t t t t t t t t t t t t t i n c r r r r r y r r 9 r r r r y w r r r r r w g ` t t t t t t t t t t t t t t t t t t t t t t t t r t t t t t t t t t t t t t t t t t t t t t t t t t t w < < 4 & 4 4 4 4 4 4 4 4 4 4 4 & w & 4 & & 4 4 - 4 4 4 4 4 4 4 w 4 4 4 4 4 4 4 4 4 4 w w 4 4 4 4 4 4 4 4 4 4 4 4 4 < < < 4 4 4 4 4 4 * & w * w & 4 4 4 4 4 4 4 4 4 4 4 4 4 4 4 4 4 4 4 4 4 4 4 4 4 4 4 4 4 4 4 4 4 4 4 4 4 4 4 & 4 4 4 4 4 & 4 4 4 4 4 4 4 4 4 4 4 4 4 4 4 4 4 4 4 w 4 4 4 4 4 4 4 4 4 4 4 e & & 4 4 4 4 4 4 4 4 4 4 4 4 & w 4 4 4 4 4 4 4 4 4 4 4 4 4 4 * w 4 4 4 4 4 4 4 4 4 4 4 4 4 4 4 4 4 4 4 4 4 4 4 4 4 4 4 4 4 4 4 4 < < w t t t t t t t g u t u t t t t t t t t t t t t t t t t t t t t t t t t t t t t 4 < < t t t t t t t t t t t t t t t t t t t t t e t t t t t t t t t t t t t t t t t t t t t t t t t t t t t t t t t t t t t t t t t t t e t t t t t t t t t t t t t t t t t t t t t t t t t t t t t e t t t t t t t t t t t t t t t t t t t t t e t t t t t t t t t t t t t < < w y r r r y r r y r y r y y r y y i v tXaXaX%.o < < , 7 < 7 # < < < < < < < @ 7 +.-.-.+.r r r y r y r r r r y y r r y r r y ",
"t t t t t t t t t t n ) g g c g g j g c g c h g c c g c g g c c g g n _ w t t t t t t t t t t t t t t M n g c c g c g g c g c g c g c c g l c g c g c $.u t t t t t t t t t t t t t t t t t t t t t t t t t t t t t t t t t t t t t t t t t t t t t t t t t t w < < & 4 4 4 4 4 4 4 4 4 4 4 & 4 4 4 4 4 4 4 4 4 & 4 4 4 & 4 4 4 4 4 4 4 4 4 4 4 4 4 4 4 4 4 4 4 4 4 4 4 4 4 4 & w < < < & & w & 4 4 4 4 4 4 4 4 4 4 4 4 4 4 4 4 4 4 4 4 4 4 4 4 4 4 4 4 4 4 4 4 4 4 4 4 4 4 4 4 4 4 4 4 4 4 4 4 4 4 4 4 4 4 4 4 4 4 4 4 4 4 4 4 4 4 4 4 4 4 & 4 4 4 4 4 4 4 4 4 4 4 4 4 4 4 * & 4 4 4 4 4 4 4 4 & 4 4 4 4 4 4 4 w & 4 4 4 4 4 4 4 4 4 4 4 4 4 4 4 4 4 4 4 4 & 4 4 4 4 4 4 4 4 4 4 4 & w 4 4 4 4 4 4 4 4 4 4 < < w t t t t t t t t t t t t t t t t t t t t t t t t t t t t t t t t t t t t t t t 7 < < t t t t t t t t t t t t t t t t t t t t t t t t t t t t t t t t t t t t t t t t t t t t t t t t t t t t t t t t t t t t t t t t t t t t t t t t t t t t t t t t t t t t t t t t t t t t t t t t t t t t t t t t t t t t t t t t t t t t t t t t t t t t t t t t t t t < < 7 y y y r y r r r y r y r r r y r y w #.aXaXaX:.- # 7 < < < < < < < < < < # 9 +.-.-.+.r r r y r y r r y r y r r y r y y y y ",
"t t t t t t t t t t v _ _ _ _ M { ` ` _ _ n ` { n ` _ n _ _ M _ n _ ` n i t t t t t t t t t t t t t t c _ _ n _ ` n _ _ _ _ ` n ` n n _ _ _ _ _ n ` n n t t t t t t t t t t t t t t t t t t t t t t t t t t t t t t t t t t t t t t t t t t t t t t t t t t t t < < < 4 4 4 4 4 4 4 4 4 4 4 4 4 4 4 4 4 4 4 4 4 4 4 4 4 4 4 4 4 4 4 4 4 4 4 4 4 4 4 4 4 4 4 4 4 4 4 & 4 4 4 4 4 & < < 4 w & e & 4 4 4 4 & 4 4 4 4 4 4 4 4 4 4 4 4 4 4 4 4 4 4 4 4 4 4 4 & 4 4 4 4 4 4 4 4 4 4 4 4 4 4 4 4 4 4 & 4 4 4 4 4 4 4 4 4 4 4 4 4 4 4 4 4 4 4 4 4 4 4 4 4 4 4 4 4 4 4 4 4 4 4 4 4 - w w & 4 4 4 4 4 4 4 4 4 4 4 4 4 4 4 & 4 4 4 4 4 4 4 4 4 4 4 4 4 4 4 4 4 4 4 4 & w 4 4 4 4 4 4 4 4 4 4 4 4 & & 4 4 4 4 4 4 4 4 - < @ w t t t t t t t t t t t t t t t t t t t t t t t t t t t t t t t t t t t t t t a < < < t t t t t t t t t t t t t t t t t t t t t t t t t t t t t t t t t t t t t t t t t t t t t t t t t t t t t t t t t t t t t t t t t t t t t t t t t t t t t t t t t t t t t t t t t t t t t t t t t t t t t t t t t t t t t t t t t t t t t t t t t t t t t t t t t t t < # 8 y y y r y r y y r r y r y y r r y f w #.aXaXdX1.< < < , < < < < < # < < 0 -.-.-.=.x r r r r r r y y r y r y r r y y w y y ",
"t t t t t t t t t t t t t t i i t t i t i t t t t t i i t t t t i t t t t t t t t t t t t t t t t t t t t t t t i t t t t i i t t t t t w t t t t r i u t t t t t t t t t t t t t t t t t t t t t t t t t t t t t t t t t t t t t t t t t t t t t t t t t t t t < < 4 & 4 4 4 4 4 4 4 4 4 4 4 4 4 4 4 4 4 4 4 4 4 4 4 4 4 4 4 4 4 4 4 4 & 4 4 4 & & 4 4 4 4 4 4 4 4 4 4 4 4 & & 4 < < < 4 4 & & 4 4 4 4 4 4 4 4 4 4 4 4 4 4 4 4 4 4 4 4 4 4 4 & 4 4 4 4 4 4 4 4 4 4 4 4 & & 4 4 4 4 4 4 4 4 4 4 4 4 4 4 4 4 4 & 4 4 4 4 4 4 4 4 4 4 4 4 4 4 4 4 4 4 4 4 4 4 4 4 4 4 4 4 4 4 & & w & 4 4 4 4 4 4 4 4 4 4 4 4 4 4 4 4 4 4 4 4 4 4 4 4 4 4 4 4 4 4 4 4 & & 4 4 & 4 4 & 4 4 4 4 4 4 4 4 4 4 w & 4 4 4 4 4 4 4 4 < < < t t t t t t t t t t t t t t t t t t t t t t t t t t t t t t t t t t t t t t t w < < t t t t t t t t t t t t t t t t t t t t t t t t t t t t t t t t t t t t t t t t t t t t t t t t t t t t t t t t t t t t t t t t t t t t t t t t t t t t t t t t t t t t t t t t t t t t t t t t t t t t t t t t t t t t t t t t t t t t t t t t t t t t t t t t t t t < < 7 y r r r r y r r r r r r y r r r r y y e #.tXaX=.e w 8 7 < < < < 7 7 8 w f +.-.#.f r y y y r y y r r r y r y r y y r y r r ",
"t t t t t t t t t t t t t t t r t t t t i t t t t t t t t t t t t t t t t t t t t t t t t t t t t t t t t t t t i t t t t t t t t t t t i t t t t t i i t t t t t t t t t t t t t t t t t t t t t t t t t t t t t t t t t t t t t t t t t t t t t t t t t t t t < < & w 4 4 4 4 4 4 4 4 4 4 4 4 4 4 4 4 4 4 4 4 4 4 4 4 4 4 4 4 4 4 4 4 4 4 4 4 e & 4 4 4 4 4 4 4 4 4 4 4 4 4 e 4 < < 4 4 4 4 4 4 4 4 4 4 4 4 4 4 4 4 4 4 4 4 4 4 4 4 4 4 4 4 4 4 4 4 4 4 4 4 4 4 4 4 4 e & 4 4 4 4 4 4 4 4 4 4 4 4 4 4 4 4 4 4 4 4 4 4 4 4 4 4 4 4 4 4 4 4 4 4 4 4 4 4 4 4 4 4 4 4 4 4 4 4 w & 4 4 4 4 4 4 4 4 4 4 4 4 4 4 4 4 4 4 4 4 4 4 4 4 4 4 4 4 & 4 4 4 4 4 e & 4 4 w & 4 4 4 4 4 4 4 4 e & 4 4 4 4 4 & 4 4 4 4 4 4 < < w t t t t t t t t t t t t t t t t t t t t t t t t t t t t t t t t t t t t t t t w < < t t t t t t t t t t t t t t t t t t t t t t t t t t t t t t t t t t t t t t t t t t t t t t t t t t t t t t t t t t t t t t t t t t t t t t t t t t t t t t t t t t t i t t t t t t t t t t t t t t t t t t t t t t t t t t t t t t t t t t t t t t t t t t t t t t t < < 7 y r y y r r r r y y r r r r y y r y r y e x :.f y y y r r r w w y r r f r x ( r r r y r r y r r y r y r y r r r r y r y y ",
"t t t t t t t t t t t t t t t t t t t t t t t t t t t t t t t t t t t t t t t t t t t t t t t t t t t t t t t t t t t t t t t t t t t t t t t t t t t t t t t t t t t t t t t t t t t t t t t t t t t t t t t t t t t t t t t t t t t t t t t t t t t t t t t t < < < - 4 4 4 4 4 4 4 4 4 4 4 4 4 4 4 4 4 4 4 & 4 4 4 4 4 4 4 4 4 4 4 4 4 4 4 4 & 4 4 & & & 4 4 4 4 4 4 4 4 & & 4 < < 4 4 4 4 4 4 4 4 4 4 4 4 4 4 4 w & 4 4 4 4 4 4 4 4 4 4 4 4 4 4 4 4 4 4 4 4 4 4 4 4 4 4 w & 4 4 4 4 4 4 4 4 4 4 4 4 4 4 4 - 4 4 4 4 4 4 4 4 4 4 4 4 4 4 4 4 4 4 4 4 4 4 4 4 4 4 4 4 4 4 4 & 4 & 4 4 4 4 4 4 4 4 4 4 - 4 4 4 4 & 4 4 4 4 4 4 4 4 4 4 4 4 4 4 4 4 4 4 4 4 4 & 4 4 4 4 4 4 4 4 & 4 4 4 & w & & 4 4 4 4 4 4 < < w t i t t t t t t t t t t t t t t t t t t t t t t t t t t t t t t t t t t t t t w < < t t t t t t t t t t t t t t t t t t t t t t t t t t t t t t t t t t t t t t t t t t t t t t t t t t t t t t t t t t t t t t t t t t t t t t t t t t t t t t t t t t t t t t t t t t t t t t t t t t t t t t t t t t t t t t t t t t t t t t t t t t t t t t t t t t t < @ 7 y r y r r r y y r y r y y r r y r y y r f r w r y r r y y y y y y y r r r r r r y r r y r r r r y r y r y r y y r r y r y ",
"t t t t t t t t t t t t t t t t t t t t t t t i t t t t t t t t t t t t t t t t t t t t t t t t t t t t t t t t t t t i t t t t t t t t t t t i t t t t t t t t t t t t t i t t t t t t t t t t t t t t t t t t t t t t t t t t t t t t t t t i t t t t t t t t < < 4 4 4 4 4 - 4 4 4 & 4 4 4 4 4 4 & 4 4 4 4 w 4 4 & w w & 4 4 4 4 4 4 4 4 4 4 w & & w w w 4 4 4 4 4 & 4 4 w & 4 < < & 4 4 & 4 & & 4 4 4 4 4 4 * 4 & & 4 - 4 - 4 4 4 4 4 4 4 4 4 & 4 4 & 4 4 - & 4 4 & 4 4 & & 4 4 4 4 4 4 4 4 4 4 4 4 & 4 4 w 4 4 4 4 4 4 & & 4 4 4 & 4 4 4 4 & 4 4 4 4 - 4 4 4 4 & 4 4 4 4 w & w & 4 & 4 4 4 4 4 4 4 & w 4 4 & w w * 4 4 4 4 4 4 4 4 4 4 4 4 4 4 4 4 4 4 4 w 4 4 4 4 & 4 4 4 & 4 4 4 & w & e & 4 4 4 4 4 < < 5 t t t t t t t t t t t t t t t t t t t t t t t t t t t t t t t t t t t t t t t 7 < < t t t t t t t t t t t t t t t t t t t t t t t t t t t t t t t t t t t t t i t t i t t t i t t t t t t t t t t t t t t t t t t t t t t t t t t t t t t t t t t t t t t t t t t t i t t t t t t t t t t t t t t t t t t t t t t t t t t t t t t t t t t t t t t t t t t < < 7 y r y r y y r r y r r r r r y r y r r r r y y r r y r r r y r r r r r r f r y r y y r r r y y y r r y y r y r r r y r y r ",
"4 w w w w w w w w w w w 7 w w w w 7 5 w w w w 5 w w w < w w w w w w 7 w w 7 w w w w w w w w w w w w w 7 w w w w w w 7 w 5 4 w w w w w 5 w w 5 w 4 < w w w w w w w w 7 w w 7 5 w w 4 w w w w w 7 w 7 w w w w w 4 w w w 7 7 w w w < w w 7 w w w 5 w w w 4 w 7 w w < < < < < < 5 < 4 < 4 < < < < 4 < & < < 4 4 < < 4 < < # 4 # 4 < < 4 < 4 < < 4 < 4 < < < & 4 < < 4 < < 4 < < & < < < < < < < 4 4 < < 4 < 4 < < < w < 4 < < < 5 < < 4 < 4 < < 4 < & < < < 4 < < < 4 < 4 < 4 < < < 4 < # < 4 < 4 < # 4 < < 4 < < < < 4 < # 4 < < < 4 < 4 < # < 4 < & < < < < 4 5 < 5 < 4 < < # 4 < < < 4 4 < 4 < < < < < 4 # < 4 < & < 4 < 4 < < < 4 < 4 < < # 4 < & < 4 < < 4 < < 4 < 4 < < 4 # < 4 < 4 < < < 4 < < < 4 < < 4 < < < w w w 4 < w w < w w w w 4 w 4 w w w w 4 7 w w w w w w w 4 w w w w w w 4 7 w w < < < w w 7 w w w w 5 w w w w w w w w w w w w w w w 7 w w 7 w w w w w w w w < w 5 w 7 w w < w 5 w w w < w w 4 w w < < w w w 7 w w w w 4 w w 7 w w w w w w 7 w w w w w 5 w w < w w 4 5 w w 4 w 4 w w 4 7 w w w w w w w w w w w w w w 7 w w w 7 w w w w w w 7 w w w w w 7 w w < < 7 y y r y y r r r y r y y r y r r r r y y r r y y r r y r y r r y r r y y y r y r r r r r y r r r r y r r r y r y r y r y r ",
"< @ , @ < < @ < @ < @ , < < # @ # , # < @ , < < , @ < < < < @ < < @ < < @ < < < @ < < @ , < < < , @ < < @ < @ < @ , < < @ < , < , < # @ , < < < < < < @ < < @ < , < < # , # < @ < @ , @ < < < < < < @ < < @ < , < @ < < @ < < @ < @ < < @ < , < < # , < < < , @ < < # < < < @ # < < < < @ < < < < < < < < < < < < < < < < < < < < < < # < < < < < @ < < < < < < < < < < < < < < < < < < < < < < < < < < < < < < < < < < < < @ # < < < # < < < < < < < < < < < < < < < < < < < < < < < < < < < < < < < < < < < < < < < < < < < < < < < < < < < < < < < < < @ < < @ < < < < < < < < < < < < < < < < < < < < < < < < < < < < < < < < < < < < < < < < < < < < < < < < < < < < < < < < < < < < < < < < < < < < < # < < @ , < < , < < < < < < @ , < , < @ < < < , < , , @ < < , < @ < @ < < @ < , < < # < < @ < < # < , < # @ , < , < @ # , # < , < @ , < # < @ < < @ @ < < @ < < < < @ < # , < < < < < < < < @ < @ , < < < < @ < < < # < < , < < @ < < < @ , < # < @ @ < @ < < < < < , < @ < , < , < < < < @ < < @ , @ < < @ , < < < @ < @ < < < @ < @ < @ , < < # @ @ < @ < < < < < 8 y y y r r r y y r y r r r y r y r y r r y y r r y y r y r r y r y y r r y y r y r y y r r y r y r r y r y r y r y r y r r ",
"< < 7 < < < < 7 < 7 < < < < < 8 < < < < < 1 < 1 < < < < < < < < < 7 < 7 < < 7 < < < < 8 < 8 < < < < < < < < < < < < < < < < < w < < < < < 1 < < < 1 < 1 1 < < 1 < < < 7 < < 1 < < < < 7 < < 1 < 7 < < 1 < < < < < 7 < < 7 < < 8 < < 7 8 < < < 7 7 5 < < < < 1 2 < < < < < 1 < 2 < < < < < < < w < 1 < < < 7 < < < 1 < 1 < 1 < 2 < < 7 < < < < < 5 7 < < < 7 < < < < < < < < < < < < < < 8 < < 7 1 < < < 1 < < < < < 1 < < 1 < 1 < < < < 1 < 1 1 < < < < < < 5 < 7 < 1 < < 1 1 2 < < < < < < < 7 < < < < < 5 < < < < < < < 1 1 2 < < < < < < < 8 1 < 1 < < 1 < < < 7 < < 7 < < 7 2 < 1 < < 1 < 7 < < < < < < 5 < < < 1 < < 7 < < < < < < < < < 8 2 1 < < 1 < < < < < < < < < < 7 < < 5 < < 7 < < < 5 < < 7 < < 7 1 1 < < < 1 < < < 7 < < < < 7 < 2 < 1 < 1 < 1 < < < < < 7 < < 8 < < 1 < < 8 < < < < 7 < < 7 < < < < < 8 < 1 < < 7 < < < 5 < < < < < < < 8 < < 7 < < 1 < 7 < < 8 7 < 1 < 1 < < 1 < < 7 < < 1 < < < < < 8 < < 8 < < < < < < < < < < < < < 7 < < 1 1 < 1 < 1 < 1 < < < 1 < 1 < < < < < < 8 < < 8 < < < 7 < < < 1 < 7 < 7 < 5 < < < 7 < < < 7 < < 8 < < 1 < 7 < < < w y r y r r r y r r y r y r y r r y y y r r y y r r y y y f y r y r r r y 7 w f r y y r r r r y r y y r y r r y r y r y y r ",
"' ) ' ) ' ' ' / ) ) ) ) ' ' ) ) ) ) ' ' ) ' / ) ' ) ' ) ' ) ' ) ) ) ) ) ' / ' ) ' ' ) ) / ) ) ) ' ' ' ' ' ' ' ) ) ' ) ) ' ' ' ' ) ) ' ' ) ' ) ) ' / ' ) ' ) ) ) ) ) ) ) ' / ' ) ' ' ) ' ) ' ' ) ' ) ' / ' ' ' ' ) ) ) ) ' ) ) ) ' ' ' / ) ' ' / ) ) ) ) ' ) ) ) ' ) ) ) ) ) ) ) ) ' ) ) ' ' ' ' / ' ' ' ) ' ' / ' ) ) ) ) ) ) ) ) ) ) ' ) ) ' ' ) ) ) ' ' / ' ' ' ) ' ) ' ) ' ) ) ' ' / ) ) ) ' ) ) ' ) ' ' ) ) ' ) ) ) ' ) ) ) ) ) ' ' ) ) ) / ' ' ' ' ) ) ) ) ) ) ) ) ' ) / ) ) ' ) ) ' ' ) ' ) ) ' ' ) ) ) ) ' ' ' ' ' / ) ) ) ' ) ) ' ' ) ) ) ) ) ) ) ' ) ) ) ) ) ) ' ) ) ' ) ) ) ) ) ' ' / ) ) ) ) ' ' ) ) ) ' ' ) ) ' ) ' ) ) ) ) ' ' ) ) ) ) ) ) ' ' ) ' ) ' ) ) ' ' ) ' ) ) ) ) ) ) ) ) ) ) ) ) ) ) ) ' ) ^ ' ) ) ' ) ) ) ) ) ) ' ' ' ' ) ) ) ) / ' ) ) ) ) ) ) ' ) ) ) ) ' ' ) ) ) ) ) ' ) ' ' ' / ' ' ' ' ) ) ) ) ' ) ) ' ' ) ) ) ' ) ) ) ) ) ) ) ) ' ' / ) ) ' ' / ' ' ) ' / ' ) ' ) ) ) ) ' ) ) ' ) ' ' ) ) ) ' ) ) ' ' ' ) ' ' ' ' ) ) ) ) ' ) ) ' ' / ) ) ) ) ) ) ' ) ' ) ) ) ) / ) ) ) ) ) ' ) ) ' ) ' ' ' / ) ) ' ) ) ) ) ) ' ) ) ) ) ) ' ) ) ) ' / ) ) ' ' < < 9 y r r y y r r y r r y r r r y y w y y 9 7 w f y r w 9 r w 7 9 r y r f r [ [ 7 7 9 9 r r y r y y r r y r r y r y r r r r y ",
"' ) ) ) ' ' ' ' ' ) ) ) ' ' ' ) ' ) ) ) ' ' ' ' ' ' ) ' ' ' ) ' ' ' ' ' ' ' ' ' ' ' ) ) ' ' ) ' ' ' ' ' ' ' ' ' ' ) ) ) / ' ' / ' ) ) ' ) ) ) ) ' ' ) ) ) ) ) ' ) ) ' ) ' ) ' ' ) ) ' ) ' / / ' ' ) ) ) ' ' ' / ) ) ' ) ) ' ) ) ' / / ' ' ) ' ) ) ) ) } ) ) ) ) ' ) ) } ) ) ) ' ' ) ' ) / ' ) ' ' ' ' ' ' ) ' ) ' / ) ) ' ) ' ) ) ) ' ) ) ) ) ) ' ) ) ' ' ' ' ' ' ' ' ) ' ' ) ) ) ) ) ) ' ' ) ) ) ' ' ) ) ) ' ) ' ' ) ) ' ) ) ) ) ) ' ) ' ) ) ' ' / ' ) ) ) ) } ) ) ) ) ' ) ' ) ) ' ) ' ) ) ' ) ) ) ) ) ' ) ' ) ' ' ' / ' ' ' ) ' ) ' ) ) ' ) ) ' ) ) ) ) ' ) ) ) ) ) ) ) ' ' ) ) ' ' ) ' ' ' ' ) ' ) ' ' ) ) ' ' / / ' ' ) ) / ' ) ' ) ) ) ) ) ) ) ) ) ) ' ' / ) ' ) ' / ' ' ) ) } ) ) ) ) ) ) ) ) ) ) ) ) ' ) ) ' ' ) ' ) ) ) ) ) ' ) ) ' ' ) ) ' ' ) ] ) ) ) ) ) ) ) ) ' ) ) ' / / ' ) ) ) ) ' ) ) ' ' ' ' / ) ' ) ) ) ) ) ' ' ) ) ) ) ) ) ) ' ' ) ) ) ) ) ) ) ' ' ) ' ) ) ' ) ' ' ' ' / ) ) ' ) ) ' ) ) ) ' ) ) ) ) ' / / ' ' ' ' ' ' ) / ' ' ) ) ) ) ) ) ) ) ' ' ) ' ) ) ) ' ' ) ) ' ) ) } ) ' ) ) ' / / ' ' ) ) ' ' ' ' ' ' / ) ) ) ) ) ) ' ) ' ) ) ) ) ) ' ' ) ' ' ) < < 5 y y r r r y r r y y r r y r r r r r u n.gX$.e r _ $X$Xf $.gXM.y r r r % c.s.$.hXgXx.y y y y r r r r r y r r y y y y r r r ",
"' ) ) ) ^ j / ) / / ) ' ^ j / ) / ) ) ) / j / j / ' ) ' / j ) / / ' / / ' / / ' / / ) ) / ' / / ' / / ' / j j / ) ) ) ) ' ) ' ' ) ) ) ) ' ) ) ' ) ) ) ) ) ) ) ) ) ' ) ) ' ' / ' ) ' ) ) ) ' ' ) ) ) ) ' ) ) ) ' ) ) ) ) ) ) ) ) ) ' ' ) ) ) ) ) ) ) ) ) ) ) ' ) ' ) ) ) ) ) ) ) ) ) ) ) ' ' ' / / ) ' / ) ) ) ) ) ] ) ) ) ) ) ) ) ' ) ) ) ) ) ) ) ) ) ) / ' ) / ) ) ) ) ) ) ) ) ) ' ) ' / ' / ' ) ) ) ) ) ) ) ) ) ) ) ) ) ) ) ' ) ) ' ) ) ) ) ) ' ' ) ) ) ) ) ) ) ) ) ) ) ) ) ) ) ) ) ) ) ' ) ) ' ) ) ) ) ) ) ) ) ) ) ' ' / ) ) ) ) ) ) ) ) ) ) ) ) ) ) ) ) ) ) ) ) ) ) ) ) ) ) ) ) ) ) / ' / ' ) ) ) ) ) ) ) ) ) ' ' ' ) ) ) ' ) ) ) ) ) ' ) ) ' ) ) ' ' / ) ' ) ) ) ) ' ) ) ) ) ) ) ) ) ) ) ' ) ) ) ) ) ' ) ) ) ) ) ) ) ) ) ' ) ) ) ) ) ) ) ) ) ) ) ) ) ) ) ) ) ' ) ' ) ) ) ) ) ' ' ) ) ) ' ) / ' ' / / ' ' ' ) ) ) ) ) ) ) ) ) ) ' ) ) ) ) ) ) ) ) ) ' ) ' ) ' ' / ' ) ) ' / ) ) ' / ' ' ) ) ) ) ) ) ) ) ) ) ) ' ) ) ) ' ' ) ) ) / ) ) ' ' ) ) ) ) ' ) ) ' ) ) ) ) ) ) ) ) ) ) ) ) ) ) ) ) ) ) ) ) ) ) ' ' ) / ) ) ) ' / ' / ' ' ' ) ) ) ) ) ) ) ) ) ) ) ' ) ' / ' ' ) ) < < 7 y r r r y r r y r y r y r y y r r 9 f.n.$.@Xy 7 XX9.p.c.@X$.c.p.9 w $.c.$X9.u.x.@ gX$.8 y r y r y y r y r r y y y w y y r ",
") ) ) ' u.a.&.' y.8.' / t.s.7.' 4.' ) | 8.g.u.a.&.) ) / y.a.| &.[ / | | / | *.) [ 7.' ) &.[ [ 7./ ' &.' &.i.g.&.&.] / ' ' / ' ' ) ) ' ) ) ) ) ) ) ) ) ) ) ) ) ) ) ' ' ) ) ' ' / ) ' ' / ' ' ' ' ) / ' ' ' ) ) ' ' ' ) ) ) ' ' ) ) ' / ) / ) / ' ) ) ) ) ) ' ) ) ) ) ) ' ' ) ) ' ) ) ) ) ' ) ' / ) ) ' ) ) ) ) ) ) ) ) ) ) ) ) ) ) ' ) ) ) ) ) ) ) ) ' / ' ' ) ' ) ) ) ) ) ) } ) ) ) / ' ' ) ' / ) ) ) ) ) ) ) ) ) ) ) ) ' ) ) ) ) ) ) ) ) ) ) ) ' / / ' ' ) ) ) ) ) ) ) ) ) ) ) ) ) ) ) ) ) ) ) ) ) ) ) ) ) ) ' ) ' ' ) ) ) ) ) ' ' ) ' ) ) ) ) ) ) ) ) ) ) ) ) ) ) ) ) ) ) ) ' ) ) ) ) ) ) ) ' ' ' ' / ) ) ' ) ' ) ) ' ' ' ) ) ) ' ' ' ) ) ) ) ' ) ) ) ) ) ) ) ' / ' / ' ' ' ) ) ) ) ) ' ' ) ) / ' ' ) ' ' ) ) ) ) ) ) ) ) ) ) ' ' ) ' ) ' ' ) ) ) ) ' ) ) ) ) ) ) ) ' ) ) ) ) ) ) ' ' / ' ' ) ' ' ) ' / ' ' ) ) ' ' ' ) ' ) ) ' ) ) ' ) ) } ) ' ' ) ) ) ) ) ' / ' ' ' / ' / ' ) ' / ' ) ) ) ) ) ) ' / ' ' ) ) ' / ' ) ) ' ' ' ) ' ' ) ) ' / ) ' / / ' ' ) ) ' ) ) ) ) ) ) ) ) ) ) ) ) ' ) ) ' ) ' ' / ' ' ' ' ' ' ' / ' ' ) ' ) / ' ' ) ) } ) ) ' ' ) ' ' ) ' / ' ' / ) ) < < 7 y y y y r r y r r y r y r y r r f 9 n.9.7 $Xx y @Xc c gXOXr 0.m., x gX0.hXu.9.$X8.=Xx r y y r r r y r r y r r y y r y r r ",
") ' ^ t.MX+XhX&.hX&X/ +X-XOXv.&.hX' ' :Xk.@XNX@Xr./ ' OX-X$Xt.:Xi.h +X+Xk +XmXj &.VXi.j @Xr.a.VX .[ :X' =XhXOX7.>Xr./ ' ) ' ) ) ) ) ) ) ) ) ) ) ) ' ) ) ) ) ) ' ) ) ' / ' / ' ' ) ) ' / / ' / ' ) ' ' ) ' / ' / ) / ' ' ' / / ' ' ' ' ' ' ' ' ) ) ) ) ) ) ) ) ) ) ) ) ) ) ) ) ) ) ) ) ) ) ) ' ' ) ) ) ) ' ) ) ) ) ) ) ) ) ' ' ) ' / ) ) ) ) } ) ' ) ) ' ' / ) ' ' ) ) ) ) ) ) ) ) ' ' ) ' ) ' ' ) ) ) ) ) ) ) ) ) ) ) ) ) ) ) ) ) ) ) ) ) ) ) ' ' ' ' ) ) ) ) ) ) ) } ) ) ' ' ) ) ) ) ) ' ) ) ) } ) ) ) ) ) ) ' ' / ' ) ) ) ' ) ) / ' ' ' ) ' ) ) ) ) ) ) ' ) ) ) ' ) ) ) ) ) ) ' ) ) ' ) ) ) ) ' / ' ' ) ) ) ) ' / ' / / / ' ' ) ' / ' ' ) ) ' ) ) ) ) ) ) ) ) ' ' ' ' ' / / ' ) ) ) ) ) / ' ' ' ' / ' / ' / ' ) ' ) ' ) ) ) ) ) / ' ' ' / / ' ' ) ) ) ) ) ) ' ' ) ) ' ) ' ' ) ' ' / ' ' ' / ) ) ) ' ' ) ' ' / ' / / ' ' / ) ) ) ) ' / ) ) ) ) ) / ' ) ) ) ) ) ' ) / ' ' ' ' ' ) ) ) ' ' ) ) ) ' ) ) ' ' ) ) ' ' ' ' / ' / / ' ' / ' ) ' ' ' ' ' ' ' ) ) ) ' / ) ' ) ' ) ' ) ) ) ) ) ) ) ) ) ) ) ) ' ' / ' / ' ' ) ) ' ' / ) ' ) ' ' / ) ) ) ) ) ' / ) / ' ' / ' ) ) ' ' ) 7 @ 8 y r y r r y r r y r r r y r y r r w c.9.7 ;Xc w @Xn n gXXXy 0.oX$ $.OX% c.p.9.gXc.#Xn w y r r y r y r y r r y 9 y y r r y ",
") ) j u.@X> gXt.c.i.r.mX^ d k &.:Xj j =X| / -X/ ^ / i.hXh ^ j :X7.8 l.v.) @X:X&.&.mX>X' OX8.i.MXOX) &X' @X8.1 k >X7./ ' / ' ' / ) ) ) ) ) ) ) ) ) ) ' / ) ) ) ) ) ) ) ' ' ' / / ) / ' ' ' / ' ) ' / / ' ' ' ' ' ' / / ' ' / ' ' ' / / ' ' ' ' ' ) ) ) ) ' ) ) ' ) ) ) ) ) ) ) ) ) ) ) ) ) ' ) ) ' ) ) ' ) ) ) ) } ) ) ) ) ) ) ) ' / ' ) ) ) ) ) / ) ) ' ' ' ' ' ) ) ' ) ) ) ) ) ) ) ' ) ) ' ) ) ) ) ) ' ) ) ) ) ) ) ) ) ) ) ) ) ' ) ) ) ) ' ) ) ) ' ' ) ) ) ) ) ) ) ) ) ) ) ' ) ) ' ) ) ) ) ' ) ) ) ) ) ) ) ' / ' / / ' ) ' ' ) ) ' ' / ' / / ' ) ) } ) ) ' ' ) ) ' ) ) ) ) ) ) ) ) ) ) ) ) ) ) / ' ' ) ) ) ) ' ) ' ' ' ' ' / ' ' / ' / ' ' ) ) ) ) ) ) ) ) ' ) ' / / ' ' / ' ' ) ) ' ) ' / / ' ' ' / ' ' ' ' ' ) ) ) ) ) ) ) ) ' / ' / ' ' ' ' ) ) ) ) ) ) ) ) / ' ' / ) ' ) ) ' / / ' ' ' ' ' ' ' ) / / ' / ' ' / ' ) ' ' / ) ' ' ' ) ) ) ) ) ) ) ' ' ) ' ) ) ' ' ) ' ' ) / ' ' ) ' / ) ) ) ) ) ) ) ' / ) ) ' ) / ' ' ' ' ' ' ' / / ' ' / ' / ' / ' ' ) ' ' ) ) ) ) ) ) ) ) ) ) ) ) ) ) ) ) ) ) ' / / ' ' / ) / ) ) ' ' ' ' ' / ' ' ' ) ) ) ) ) ) ' ' ' ' ' ) ' ) ) ) ) ) 7 < 7 y r y r y r y y r r y r y r r r r 7 s.s.x -X_ x oX$.&.OX#Xg s.c.9 $.gX, #Xp.p.t.% @Xf.7 y r y r r r r y r y r y r y y y y ",
") ' / r.NXhX=X/ OXa.j.+Xj @X=X*.MX-X=XNX*.| :X| ) / n.+Xj  .j >XmX@XMXj.r.$Xc.+X*.@X+X+Xv.r.g.v.,Xh.@X] @XmX:X*.:Xr./ ' ' ) ' ' ) ) ) ) ) } ) ) ) ) ' ' ) ) ) ) ) ' ) ) ) ) ' ' ) ' ' ) ' ' ' ) ' ' ) ' ' / ' / ' ' ' ) ' ' ) ) ) ' ' ' ' / / ' ) ) ) ' ) ) ) ) ' ) ) ' ) ' ) ) ' ) ) ) ) ) ) ) ) ) ) ) ) ) ) ) ) ) ) ) ) ) ) ) ) ' ' ) ) ) ) ) ' ' ' / ' / ' / ) ) ) ) ) ) ) ) ) ) ' / ' ' / ' ) ) ) ) ) ) ) ) } ) ) ) ) ) ) ) ) ) ) ) ) ) ) ) ' / ) ) ) ) ) ) ) ) ) ) ) ) ) ) ) ) ) ) ) ) ) ) ) ) ) ) ) ) ) ) ' ' ) ' ) ) ) ) ' / ) ) ' ' ) ' ) ) / ) ) ) ) ) ) ) ) ) ) ) ) ) ) ) ' ) ) ) ) ) ' ' ' / ' ) ) ) ' ' / ' / ' ' ) ' ' ' ' / / ' ) ' ) ) ' ) ) ) ) ' ' ' ) ' ' ) ) ' ' / ) ' ' ' ' ' / ' ) ) / ' ) ) ) ' ) ) ' ) ) ' ' ' ' / ' / ) ) ' ) ) ) ) ) ) ) ' ' ' / ) ) ) ) ' ' ' ' / / ' / ' ) ' ' ' ' ' ) ' ' ) ) ) ' ' / / ' ) ) ) ) ) ) ) / ' ) ' / ' / ' ) ' / ' ' ' / ) ' ' ) ) ) ) ) ) ' / ' ' ' / ) ' ' ) / ' / ' ' ' ) ' ) ) ' ' ' ' / ' ) ' / ' ) ) ' ) ) ' ) ) ) ' ) ) ) ' ) ) ) ) ' ' ' ) ' ' ' ' ' / ' / ' / ' ' ' / ) ) ) ) ) ) / ' ) / ' ) ' / ' ) ) ) < < 7 y r r r y r r r y y r y r y r r f 8 c $XgX4.d.p.n gXgXn 8.gX$Xc 9 9 M.#XgX0.0.MX$X$Xx r y y r y y r y r y r r r y r r r r ",
"' ' / y.=Xj.*Xd +Xi.a.&Xk | >Xu.>X*.&.>X7.[ :X[ ) ^ j.=Xk / j -Xa.' OXh.+XmXhX>X7.=X) mX:X7.h.c.4.MX@X' OXj.] / :X&.j ) ' ' ) ) ) ) ) ) ) ) ) ) ) ' ) ) ) ) ' ) ) ) ) ) ) ) ' ) ) ) ) ) ) ) ) ) ) ) ) / ' / ' ' ) ) ) ) ) ) ) ) ) ) ) ) ) ) ) ) ) ) ) ) ) ) ) ) ) ) ) ) ) ) ) ) ) ' / / ' ' ' ) ' / ) ' / / ' ' ) ' / ) ) ) ) ) ) ) ) ) ) ) ' ) ) ) ) ) ) ) ' ) ) ) ) ) ) ) ) ) ) ) ) ) ) ) ) ) ) ) ) ) ) ) ) ) ' ) ) ) ) ) ) ) / ' ' / ' ) / ' ) ) ) ) ' ) ) ) ) ) ' ) ) ' ) ) ) ) ) ) ) ) ) ) ) ) ) ) ) ) ) ) ) ) ) ) ) ) ) ) ' ) ) ) ' ' ' ' ' / ) ' / ) ' / ) ) ) ) ) ) ) ' ) ) ' ) ) ) ) ) / ) ) ' ' ' ) ' ' / ' ' ) / ' ' ) ) ) ) ) ) ) ) ) ) ) ) ) ) ) ) ) / ' ' ' / ' ' / ' ) ' / ) ' / ) ) ) ) ) ) ) ' ) ) ' ) ) ) ) ) ) / ' ' ) ) ) ) ) ) ) ) ) ) ) ) ) ) ' ) ) ) ) ) ) ) ) ) ) ' / ) ) ) ) ) ' ) ) ) ) ) ) ) ) ) ' ) ' / ' ' ) ) ' ' ) ) ) ) ) ) ) ) ) ) ) ) ) ) ) ) ) ' ) ) ) ) ) ) ) ' ' ) ) ) ' ) ) ) ) ) ) ) ) ) ) ) ) ) / ' / ' ) ) ) ) ) ) ) ) ) ' ) ' ) ) ) ' ) ) ) ) ) ) ) ' ) ) ) ) ) ) ) ' ) ) ) ) ) ) ) ) ' ' / ' ) ) ) ) ) ) ) ) ) ) ) ) ) ) ) ) ) ) 7 < w y r r r y r r r y y r r r y r r y r r c c r y y 9 c c w r c c w y y r n y y y n n f w f r y r r r y w y y r y r y r r y r ",
") ) j i.>Xg mXy.&Xn.' mXh.7.gXi.hX/ ^ gX7. .hX ./ ) | mXh.r.] gXy.k n.@X-X[ j @X+X-Xk k.CX7.k.XXd >XBX/ =X+X&.' mXk.8. ./ ' ) ) ) ) ) ) ) ) ' ) ) ) ) ) ) ) ) ) ) ) ) ) ) ) ) ) ' ) ) ) ) ) ) ) / ' ' ' ' ' ' ) ) ) ) ) ) ) ) ) ) ' ) ' ' ) ) ' ' ) ) ) ) ) ) ) ) ) ) ' ) ) ) ) ) ) ' ' / ' ' / ' ' ) ) ' ' / ' ) ) ' ' ) ) ) ) ) ) ) ) ) ) ) ) ) ) ) ) ) ) ) ) ) ) ) ) ) ) ) ' ) ) ) ) ) ) ) ' ) ) ) ) ) ) ) ) ) ) ) ' ) ) ) ) ' ) ' ' / ' ' ) ' ) ) ) ) ) ) ) ) ) ) ) ) ) ) ) ) ' ) ) ) ) ) ) ' ) ' ) ) ' ' ) ) ) ) ) ) ) ' ) ) ) ) ) / ) / ' ' ' ) ' ' ' ' ' ) ) ) ) ) ) ) ) ) ) ) ) ) ) ) ) ' ' ' / / ' ' / ' ' / ' ) ' ' ) ) ) ) ) ' ) ' ) ) ' ' ) ) ) ) ) ) ' ' ) ) ) ' ) / ' ' ' ' ' ' ' ) ) ) ) ) ) ) ) ) ) ) ) ) ) ) ) ) ' ) ) ' ) ) ' ) ) ) ) ) ) ) ) ) ) ) ) ) ) ) ) ) ) ' ) ) ) ' ' ' ) ) ) ) ) ) ' ) ) ) ) ' ) ) ) ' ' / ' ' ' / ' ) ) ) ) ) ) ) } ' ) ) ) ) ) ) ) ) ) ) ) ' ) ) ) ) ' / ) ' ) ) ) ' ) ) ) ) ) ' ) / ' ' ' ' ' ' ' ) ) ) ) ) ) ) ) ) ) ) ) ) ) ) ) ) ) ) ) ) ) ) ) ) ) ) ) ) ) ) ) ) ) ) ) ) ) ) ) ) ) ) ' ) ) ) ) ) ) ) ) ' ) ) ' ) ) ) ) ) ) < @ 8 y r r y r r y y r r y y y r y r r r y r w y r y y r w r r w 9 y r y y r y r r r 9 r f r r r y y r r y y y y r y r y y r y ",
") ' / *.j.j t.j.+X+X/ *.#X,Xc.| j.) ) j. .[ j.[ / ' / 7.=X=X7.h.*.j y.j.g.) / y.h.a./ ' XX[ r.i.^ &.OX/ g.-X=Xr.j.>X:X8./ ' ) ) ) ) ) ' ) ) ) ) ) ) ' ) ) ) ) ) ) ) ) ) ) ) ) ) ) ) ) ) ) ) ) ) ' ' ' ' ) ' / ' ) ' ) ) ) ) ) ) ) ) ) ) ) ) ) ) ) ) ) ) ) ) ) ) ) ' ) ' ) ) ) ) ) ) ' ) ' ) ' ' ) ' ' ' ' ' ' ' ) ) ) ) ' ) ) ) ) ) ) ) ) ) ' ) ) ) ) ) ) ) ' ) ) ) ) ) ' ) ) ) ) ) ) ) ' ) ) ) ' ) ) ) ) ) ) ) ' ) ) ) ) ) ) ' ' ) ' ' ' ' ) ) ) ) ) ) ) ) ) ) ' ) ) ) ) ) ) ) ) ) ) ) ) ) ) ) ) ) ) ) ) ' ) ) ) ) ) ) ) ) ) ) ) ) ) ) ' ) ' ) ) ' ' ' ' ' / ' ) ) ) ) ) ' ) ) ) ) ) ' ) ' ) ) / ' ' ) ' ' / ' ' ' ) ' ) ' / ' ' ) ) ) ) ) ) ) ) ) ) ) ) ) ) ) ) ' / ' ) ) ) ' ' ' / / / ' ) ' ' ) ' ) ) ) ) ) ) ' ) ) ) ' ) ) ) ) ) ) ) ) ) ) ) ) ) ) ) ) ) ' ) ' ) ) ) ) ) ) ) ) ) ) ) ) ' ) ) ) ) ) ) ) ) ) ) ) ) ) ) ) ) ) ' ' ' ' ' / ) ) ) ) ) ) ) ) ) ) ) ) ) ) ) ) ) ) ) ) ) ' ) ) ) ' ) ) ' ' ) ) ' ) ) ) ) ) ) ) ) ) ' ' ' ' ) ' / ' ' ) ) ) ) ) ) ) ) ) ' ) ' ' ) ) ) ) ) ) ) ) ' ) ) ) ) ) ) ) ) ) ) ' ) ) ) ) ' ) ' ' ' / ' ) ) ) ) ) ) ) ) ) ) ) ) ) ) ) } ) < < 7 y y r y r r r r y y r r y r r y r y r r r y r y y y y y r f y r y y r y y r y r r y y y r r y r y y r y r y r r r y r r y ",
") ) ) / ^ ) / ^ j j ' / j h / / ^ ) ) j / ) ^ / ) ' ' / k j / ^ / ' / j / ) ' / j / ) ) j ) / / ] / j ) / h h / j h k ) ) ) ) ) ) ) ) ' ) ) ) ) ) ) ) ) ) ) ) ) ) ) ) ) ) ) ' ' ) ) ) ) ) ) ' ' ' / ) / ) ' / ' ) ) ) ) ) ) ) ) ) ) ) ) ) ) ) ) ) ) ) ' ) ) ) ) ) ) ) / ) ) ) ) ) ) ) ) ' ) / ' / ' / ' / ' / ) ) ) ) ) ) ) ) ) ) ) ) ) ) ) ) ' ) ) ) ) ) ) ) ' ) ) ) ) ) ) ) ' ) ) ) ) ) ) ) ) ) ) ) ' ) ) ) ) ) ) ) ) ) ) ) ' / ) / ' ' / ' ' ) ) ) ) ) ) ) ' ) ) ) ) ) ) ) ) ) ) ) ) ) ) ) ) ) ) ) ) ) ^ ) ) ) ) ) ) ) ) ) ) ) ) ) ) ) ' / ) ) / ' / ' / ) ' ) ) ) ' ) ) ) ) ^ ) ) ) ) ) ) ) ' ' ' / / ' ' ) / ' / ' / ' / ' / ) ) ) ) ) ) ) ) ) ) ) ) ) ) ) / ' / ' ) ) ) ) ' ) ' ' ' ) ' / ) ' / ' ) ) ) ) ) ) ) ) ) ) ) ) ) ) ) ) ) ) ) ) ) ) ) ) ) ) ) ) ) ) ) ' ) ) ) ) ) ) ) ) ) ) ) ) ) ) ) ) ) ) ) ) ) ) ) ) ) ) ' ' / ' / ) ' ' / ' ) ) ) ) ) ) ) ) ) ) ) ) ) ) ) ) ) ) ) ) ) ) ) ) ) ) / ) ) ) ) ) ) ) ) ) ) ) ) ) ' / ) / ) ' / ' ) ) ) ) ) ) ) ) ) ) ) ) ) ^ ) ) ) ) ) ' ) ) ) ) ) ) ) ) ) ) ) ' ) ) ) ) ) ) ) ' / / ' ' ) ) ) ' ) ) ) ) ) ) ) ) ) ) ) ) ) ) < < 7 y r y r r y y r r r r y r y r r y r r r r r y y r r r r r y r r y r y r r y r r r r r r r y r y r r y 9 f r y r y r r y r ",
"' ' ' ' ] ' ] [ ] ] ' ' ' [ ] ' ' ' ' ] ' ' [ ' ] ' ' ' ] ] ' [ ] ' ] ] ' ' ' ' ' ] ' ' [ ' ] ] ) ] [ ' ' ' [ ' ] ] [ ] ' ' ' ' ' ' ' ' ' ' ' ' ' ' ' ' ' ' ' ' ' ' ' ' ' ' ' ' ' ' ' ' ' ' ' ' ' ' ' ' ' ] ' ' ' ' ' ' ' ' ' ' ' ' ' ' ' ) ' ' ' ' ' ' ' ' ' ' ' ' ' ' ' ] ' ' ' ' ' ' ' ' ' ' ' ' ' ] ] ' ' ' ' ' ' ' ' ' ' ' ' ' ' ' ' ' ' ' ' ' ' ' ' ' ' ' ' ' ' ' ' ' ' ' ' ' ' ' ' ' ' ' ' ' ' ' ' ' ' ' ' ' ' ' ' ' ' ' ' ' ' ' ' ' ' ' ' ' ' ' ' ' ' ' ' ' ' ] ' ' ' ' ' ' ' ' ' ' ' ' ' ' ' ' ' ' ' ' ' ' ' ' ' ' ' ' ' ' ' ' ' ' ' ' ' ' ' ' ' ' ' ' ' ' ' ] ' ' ' ' ' ' ' ' ' ' ' ' ' ' ' ' ' ] ' ' ' ' ' ' ' ' ' ' ' ' ' ' ' ' ' ' ' ' ' ] ' ' ' ' ' ' ' ' ' ' ' ' ' ' ' ' ' ' ' ' ] ' ' ' ' ' ' ' ' ' ' ' ' ' ' ' ' ' ' ' ' ' ' ' ' ' ' ' ' ' ' ' ' ' ' ' ' ' ' ) ' ' ' ' ' ' ] ' ' ' ' ' ' ' ' ' ' ' ' ' ) ' ' ' ' ' ' ' ' ' ' ' ' ' ' ' ' ' ' ' ' ' ' ' ' ) ] ' ' ' ' ' ' ' ] ' ' ' ' ' ' ' ' ' ' ) ' ' ' ' ' ' ' ' ' ] ' ' ' ' ' ' ' ' ' ' ' ' ' ' ' ' ' ' ' ' ] ' ' ' ' ' ' ' ' ' ' ' ] ' ' ' ' ] ' ' ' ' ' ] ' ' ' ' ' ' ' ' ' ' ' ' ' ' ' ' ' ' ' ' ' ' 7 @ 7 f r r y r y r y w y y y r r y y y r y r y r r y r r y y r r y r y r r r r y r y r r y y r r y r y r r r r y y y y r y r r ",
"/ j / c c j ^ j / c j / ^ j / j ^ / j c / j j ^ c j / j / j / j c ^ c j / c j / / j j / j j / j c j c j ^ / j c j ^ j j ^ j j / j n / j j / j j ^ ^ j / / c / c ^ / j j j j / j / ^ / j j j / j ^ j / c j ^ c j / c j / j j ^ j / j / n ^ ^ / j c j / j j j / j j j / c ^ j j / c j ^ c / j / c ^ c j j ^ c ^ c / c c / / j / c ^ / j j j c / j ^ / j j j j / j / ^ n j j / j j / j / c ^ j j ^ c j / j / j / j j ^ j / / c c j / j j / j c / j ^ ^ j j j j / j j j / c ^ j / j / c j / j j ^ j / j / c ^ / / j / c j / / j / j j ^ / c / j / c c j / c j ^ j c / c j c j j / j / ^ c j j / / c ^ c j c c ^ c / c c ^ c / c j / / n j / / j / j ^ ^ j c j / / c ^ / / c / j / c / j / c ^ c / j j c / j j / j j ^ ^ c c j / / c j ^ c j j / / c c j / c ^ ^ j j j j / j / j ^ / ^ ^ / c / j j / ^ j / j / c j / ^ j j / ) j j j j / c j j / c j / j / c j j j / / j j / / j / j ^ ^ c j j / j j ^ j / c j / / j ^ / / j j / / j j j / c j / / j / c j / j / j j / j / j ^ / / j c j / j / j / j ^ / / j j c / j ^ j j / / j j j c / c j j / c j / j / c ^ ^ j j c j / j / c < < 7 y y r r y r r r y y y r y y r r r y r r y y r r r y r r y y r y r r y y y r y r r y r r y y r y r y r y y y y r r r r y r ",
", @ < # < # < @ < @ @ < < @ @ < # < # < < @ < < < @ < @ > < # > < @ < < # < < @ < @ < < @ < < # , @ < < @ @ < < < < # < < @ < < < @ @ < < < 2 # @ @ < # < < @ @ @ < < < # < < @ @ < @ < @ < < # # < # < < @ < < < @ < # < < # < < @ < @ @ < < @ @ < # < < < < @ < < @ < < @ < < < < @ < < @ # < < # < < @ < # < < @ < # < @ < @ @ < < < @ < < @ @ < < < @ < # 2 < < @ < < @ < < @ < # < @ < < < # < < @ > @ < < , > @ # < @ < < < @ < < # < @ < # @ < < > < < < < < < @ < @ < @ < @ # @ < < < < < @ # < < @ < @ < @ < @ < @ > < < < @ @ @ < @ # < , # < @ @ < < < @ < @ < < > < < @ < @ < < @ @ < < < < < @ @ # < < # < @ @ , < @ @ < # < @ < 2 @ @ < @ < @ < @ @ # < # , < @ # , @ < # # @ < @ # < @ @ < < < < @ @ < @ < < @ @ < @ < < < , @ @ < < < @ # @ < < < < < @ < @ > < @ # < @ < @ @ # < @ < @ < @ # < < @ < < < @ # < < @ < < < @ < < < @ # < < @ < < # < < @ > < < # @ @ < < < @ < < @ < < @ < # < < < @ < < < # # # < < < @ @ < , @ < @ @ < < < 2 # < @ # < @ < < # < @ < @ > < < # < @ < @ @ < < @ # < < < < @ # 2 < @ < < < @ < < < @ < # @ < < < < < @ < < @ < < 7 y y r y y r y y r y y y r r y y r r r y r r y y r r y y r r y r y y r r y r r y r r y y r r y y r y r r y y y r r y r r y ",
"< < @ < < < @ < < # < < @ < < < < < < < @ < < @ < < # < @ < < < < < @ < < @ < < @ < < @ < < @ 2 < < < @ < < # < @ < < < @ < < @ < @ < < # < < # < < @ < < @ < < < @ < < < < @ < < < # < < < # 2 # < < @ < < @ < @ < < < @ < < < @ < @ < < @ < < < < < @ < < # 2 < < < @ < < @ < # < < @ < < < @ < < # < < @ < < @ < < < @ < @ < < @ < < < < # < < @ < < < < # < @ < < @ < < @ < < < < < < @ < < < < < < < < 2 2 < < < < < < < @ < < < < < < < < < < < < < < < 2 < < < # < < < < < < < < < < 2 > < < < @ < < < < < # < < < < < 2 < < < < < < < < < < < < < < < < @ < < < < < 2 2 < < < < < < < < < # < @ < < < < < < < < < < < < < < < < < < < 2 < < < < < < < < < < < < < @ < < < < < < < < < < < < < < < < < < < < < < < < < < < < < # < < < < < < < < < < < < # < < < < < < > < < < < < < < < < < < < @ < < @ < < @ < @ < < @ < < < @ < < @ < < < < @ < < @ < < @ < < @ < < > < < # < < < @ < < @ < < @ < @ # < > , # @ < < 2 < < < # < < @ < # < < @ < < < # < < < @ < < @ , < < # < @ < # 2 < < @ < < @ < < < @ < > < # < < , < < @ < < @ < < < @ < < @ < < # < < @ < < < < 8 y r y r r y r r r y y r r y r r y r y r r y r y r r y r y r r r y r y r r y r r y r y r y r r r y r r y r y w y y r y y r ",
"f k g f f f f g d k f f k f f g f f f k g k f g k f f f f k f f f f f f f k f f f g d g k f d g g d g d f f f f g f f f k f f k f d g g k d f k k g d d g f f f f f f f k f f g k d f g k f d f f g k f f f k f f g k f k f f f f g k f k f f k f f f g d k f f < @ w k f f f k f g k f g k f k f g d f k f k f f g k f f f k g f f f f f k f f f f d g k f f d k g d f f f g k r < < 1 r 8 8 8 1 1 d 2 1 d 1 8 1 1 1 1 1 1 8 8 8 8 1 5 8 8 8 8 1 1 d 8 8 8 2 8 8 8 8 8 2 d 1 1 0 1 1 d 5 1 8 1 8 8 8 8 8 8 8 2 8 1 8 8 0 2 1 1 1 2 8 8 1 1 1 1 1 r 1 1 d 1 1 0 2 0 5 0 5 1 0 5 1 5 0 1 8 1 8 2 1 1 8 1 8 2 0 5 1 8 1 8 8 1 8 d 0 5 2 1 d 1 2 1 1 1 1 5 5 0 d 2 8 2 5 3 8 8 8 8 8 8 2 8 8 1 d 1 2 8 8 1 0 1 < < 1 1 1 1 d 2 d 1 8 1 8 1 8 1 1 1 1 8 1 d 1 1 8 8 2 1 6 1 0 1 2 d 1 1 8 1 8 1 8 2 < < < g g f k f f f f k f f g k g k g g f k f f f f f k f f k f g g d k f f g g d g g d d g f f f f f f k f f f d f f g d g k f f f k f f k f f f k f f f f g k f f k f f f d g k g k f f f f g f f f f f g d k d f g d g d f d d g f d f k g d f f f f f k f f f f f k f f < # 9 y r y r y y r y r y r y y r y r r y r y w r y r y r r r y r r r r y r y r r y r y r y r r y r y y r y r y r y r y r y r r ",
"j j j j j j j j / j j j j j j j j j j j j j j j j j j j j j j j j j j j j j j j j j j j j j j j j j j j j j j j j j j j j j j j j j j j j j j j j j j j j j j j j j j j j j j j j j j j j j j j j j j j j j j j j j j j j j j j j j j j j j j j j j j j j j j j < < f / j j j j j j j j j j j j j j j j j j j j j j j j j j j j j j j j j j j j j j j j j j j j j j j j j j j j g < < 8 d 8 0 k d k k 0 d k d k k k k k k k k 8 8 d k 0 k 8 0 k k 8 k 8 k k k 5 d 8 0 k k 5 k d 8 k 8 k k 8 k k d 8 k k 8 k k k k d k k 5 k k k k k k 8 k k k k k 8 k d d k k 8 k k k 8 8 k 8 k k k 8 d k d k k k k k k k k 8 8 k d d d k d 0 k 8 k k d k k 0 k k k k k 8 8 k k k k k k k 8 k k d d 0 d k d d k k k k d d k < > 1 k k k k 0 d d k d k k k k k k d k 0 k k d k k 0 k k d 8 k k 8 k k k 5 k d k k 8 < < j ^ j j j j j j j j j j j j j j j j j j j j j j j j j j j j j / j j j j j ^ j j j j j j j j j j j j j j j j j j j ^ j j j j j j j j j j j j j j j j j j j j j j j j j j j j j j j j j j j j j j j j j j j j j j j j ^ j j j j j j j j j j j j j j j j j j j j j j j j 5 @ 7 y r r y r r y r y r y r r y r y r r y y y r y y r r y r y r y y r y r r y y r y r r r y r r y r r y r r y y r r r r y r y ",
"j j j j j j j j d j j j j j j j j j j j j j j k j j j j j j j j j j j j j j j j j j j j j j j j j j j j j j j j j j j j j j j j j j j k j j j j j j j j j j j j j j j j j k j j g j j j j j j j j j j j j j j j j j j j g j j j j j j j g j j j j j j j j j j g < @ r j j j j j j j j j j j j j j j j j j j j j j j k j j j j j j j j j j j j j j j j k j j j j j j j j j j j j k < < 1 k d d d 0 1 d k 1 d d 8 d d k 8 8 k 8 k k 8 k 8 8 8 d d 8 k 0 d 8 8 k 0 d d d 8 k 0 5 0 8 5 k 8 k 0 k 5 d d 8 8 5 8 0 k 0 k 0 5 8 k k 8 d d 8 k d d 0 5 8 0 d d k 8 8 k 0 5 k 5 k 0 5 8 d 0 0 5 0 1 8 k d 8 8 8 8 k k 0 8 8 k d 8 5 1 d 0 5 8 5 1 1 d d d 0 k 8 k 8 5 8 8 k k 8 8 k 8 8 8 0 d d 8 k 8 k 5 8 k 8 8 k 2 < 1 d 0 5 8 8 0 d 8 1 k 8 8 d d 8 8 8 k 8 d 8 8 8 k 8 5 0 d 5 8 k d 0 k 0 0 1 5 k < < < j j j j j j j j j j j j j j j j j j j f j j j j j j j j j j j f j j j j j j j j j j j j j j j j j j j j j j j j j j j j g j j j j j j j j j j j j j j k j j j j j j j g j j j j j j j j k j j j j j j j j j j j j j j j j j j j j j j g j j j j j j j j j j j j j j j < < w f y r r r r r r y r r y r r r r y y r y 9 f r r y y r r r r r r r r y y r r y r y y r r y y r y r r r y r r y y r r r r y ",
"g j j j k j j j t./ j j j j j j j j j j j g ) i.g j j j j g j j j j j j j j j j j g j j j j j j j j j j j j j k j j j j j j j j j j j j j j j j j j j j j j j j j j j j j j j j j j j j j j j j j j j j j g j j j j j j j j j j j j j j j j j j j j j j j j j j < < f j j j g k j j j j j j j j c j ^ j j j j j j j a.g j j j j j / j j j j j j j j j j j j j j j j j j j j j j g < < 8 0 d d 1 k d 1 8 } k d d 8 0 8 k 8 d d d 8 k 8 k k k k 8 d k 1 d 8 k 8 k d d 8 k 8 k 8 k k 0 k d 8 5 0 0 d 0 8 k 0 k 5 8 8 8 k 8 8 k 8 0 k 8 k 8 8 0 k 8 k 8 d 8 8 k 8 8 8 k 8 0 8 k 8 k k 8 k d 8 k 5 0 8 k k 8 k 8 5 k 8 k 8 0 k 0 k d k 8 k 0 k 0 k 8 8 8 8 8 0 k 0 k k 8 8 k 8 8 k 8 k 8 d d k 8 8 0 0 k 8 k k 8 2 < 2 d k 8 d k 8 8 h  .1 k 8 k k d k 8 8 k d k 8 k 5 0 k k k 0 k 8 8 8 d d 8 k 0 k w < < j j j j g j j j g j j j j j j j j j j y.j j j j j j j j j j j r./ j j j j j j / j j j k j j j j j j j j j j j j j j j j j j j j j j g j j j j j j j j j j j j j j j j j j j j j j j j j j j j j j j j j j j j j g j j j j j j j j j j j j j j j j j j j j j k j j j j < < 7 r r r r y y r y r y r w y r y y r r y y y r y y r r y y r y y y y r r r r y r y r r y r y r y r y r y r y r r r y y r y r ",
"j j j g 8.,X,X| ) j k r f k j d r k j k r r | >Xd j j j j j j j j j j j j j k j j j j j j j j j j k j j j j j j j j j j g j j j j g j j j j j j j j j j j j j k j j k j j j j j g j j j j j j g j k j j g j j j j j j j j j j j j j j j j j j j j j g j j j j g < < r j j j / +X>Xk.j d d k j d d g d d j k d d k ) hXk j r k j d d g j j j j j j j j j j j j j j g j j g j j j j < < 1 8 k 2 z.l.g. .8 h k 1 2 2 ^ k 1 8 1 1 8 0 1 1 d 8 1 1 k 1 1 d d k 8 d 8 0 8 5 8 k 8 0 5 8 k 5 k 0 5 5 k d 8 k 8 k 8 8 k 8 k k 0 8 k 0 5 0 8 8 k 5 k 0 k 8 5 5 0 k 8 8 k 8 k 8 k 0 8 k 8 8 8 k 8 k 5 k k k 0 5 8 8 8 k 8 8 k 0 k 8 5 k 0 k 8 k k 5 0 k 8 k 8 k 8 k 0 5 5 8 5 k 0 k 0 5 k 8 k 8 k 8 k 8 k 0 5 k 8 8 d < < 1 d d 1 ' l..X.X .k 8 1 2 8 1 1 d d 8 2 1 k 0 1 8 0 5 5 0 8 k 8 k 8 k 8 8 k 0 8 5 < < j j k 4.mX) d 7.jX' g d k j k d r g j ) j 7.d j d r j j d k g ) j d d r j j d d d n j j j j j j j j j j j j j j g g j j j j j j j g j j j j j j g j j j j j g j g j j j j j j j j j j j j j j j j j j j j j j j j j j j j j j j j j j j j k j j j j j j j j j j j j j < < 8 y r r y r y y r y y r y y y 9 r y r r y y y w r r y r y r r r r r r r y r r y r y r y r r r r r y y r r y r y y r r y r r ",
"j j j k :X| g / a.j | OXk.4.[ l.+Xt.g y.&Xy.' ,Xk j j j j j k j j j j j j j j j j j k j j j j j j j j j j j j j j j k j j j j j j j j j j j j j j j j j j j j j j j j j j j j j j j j j j j j j j j j j j j j j j j j j j g j j j j j j g j j k j k j j j j j j < @ f j j k a.*X1 ) { k.OX' &.k.OX7.+Xj.g *.h.OX4.c :Xf 7.&Xr.j k.OX[ j j j j k j j j j j k j j j j j j j j j j k < < d k 8 2 .Xj k .X/  .k  .z. ..X.X^  .z.' ^ X.y.| 8 ^ y.*.k y.y.k 8 0 k 8 k 8 k 0 k 8 k k 8 5 0 0 k k 8 k 8 0 k 8 k k 8 k 8 k 8 8 5 8 8 k 5 8 k k 8 0 k 5 8 k 0 k k 8 k k 8 k 8 0 5 5 k 8 8 k 8 8 k 8 k 0 5 8 k 8 k k 8 8 k k 8 8 8 k 0 8 5 8 k 0 5 k k 8 k 8 k 8 k 5 0 k 0 k 0 8 5 5 0 k 8 8 8 k 0 k 8 0 5 k 8 0 5 0 k < < 1 0 d d 8 k z.h k | h *.z.| X.i.k 8  .l.' 8 d k k 8 k 0 5 k 8 k 8 k 8 k k 8 5 k 1 < < j j f 7.BXr.d h.NX) | OXh.f 7.h.OX8.j i.8.MXk./ k.OX' j a.k.| a.j a.k.+X/ j v.v.g.j j j j j j j j j j k j j j j j j j j j j g j j j j j j j j j j j j g j j j j j j j j j k j j j j j j j j j j j j j j j j j j j g j j j j j j j j j j j j j j j k j j j g j j j j j < < 7 y r r r r r r y r r y y y r f y r r y y y y y r y r y y r y r r y y r y r r y r r y r r y y r y r r y y r y r r y r r r y ",
"j j j f k.:X| r 3X] ,X8.:Xv.i.hX&.>X/ [ | *Xr.=Xf j j j j j j j g j j j g j j j j j j g j j k j j j j j j j j j j j j j g j j j j j j j j g j k j j g j j j j j j j j j g j j j j j j j j k j j j j j j j j j j g j j j j j j k j j j j j j j j j j j j j j j k < @ r j j g ' >Xj.k / [ h.v.v.=Xy.mXr.,X[ l.>X4.>X' ,X' ,X&.OX+XOX .` k j j j j g j j j j j j j j j j j j j j j g < 2 1 k d 0 z.^ < *.r.z.' .X' ^ z.O.k ^ ' z. .+X^ .Xk z.| h y.X.7.y.1 8 k k 8 8 k 8 5 k k 0 k k 8 k 8 8 8 8 k 1 8 k 8 8 k 8 5 8 k 0 0 k 8 k 0 k 0 8 k k 8 k 5 8 k k 8 5 0 8 k 5 k 8 k k 0 8 k 8 8 k 8 k 8 k 8 k 8 k 8 k 0 k 5 8 k 8 k 5 0 k 8 5 8 0 k 0 5 5 8 0 k 8 k 5 k 0 8 5 0 k 8 k 8 k 5 k 8 k 5 8 k 8 k 8 k d 8 d d < < 2 k d 0 8 k z.k ^ l.h OX/ .X .y.*.^ z.^ z.^ 1 k 5 k 0 8 k 8 8 8 8 k 8 k 0 5 k 8 8 # < j j f r.*X.Xc +X:X| =X7.OXr.j.:X7.3X) >X] hX' k.+Xt.=X) MXt./ 3X) mXy.OXg.i.OXr.MXj j j j j j j j j j j j j j j j j j j j j j j j j j k j k j j j j j j j j j j j j j j j j j j g j j j j j g j j j j g j j j j k j j j j j j k j j j j j j j j j j j j j j j j j j j < < 7 y y r r y r r r r r r r y y r r y y r y y y r y y r r r r y r r r y y r r r r y r y y y r r y w y y y r r y r y r r y y r ",
"j j j j j i.hX7.=X8.OX5 y.j.u.v., :X' t.OX>Xt.&Xd j j j j j j j j j j j j j j j j j j j j j j j j j j j j j g j j j j j j j j j j j j j j j j j j j j j j j g j j j j j j j j j j j j j j j j j j j j j j j j k j j j j j j j j g j j j j j j j j j j j j j j g < < f j j j g ' &XOX) k.:X+X.Xi.j =X8 .X7.h.g., *X8.@X8.mX+XhXy.OXk.j j j j j j j j j j j j g j j j j j j j j j k < 2 1 8 k 8 z.^ 2 r.*.z.^ | z.k y.' 1 r.z.z.| i.X z.| z.d 1 l.z.z.z.2 k 5 1 0 k 8 k 0 0 5 5 8 0 5 8 k k 0 k 8 k 8 8 k k 8 k 0 k 5 5 k 8 k 5 k 8 5 k 8 8 5 0 0 k 8 8 k 8 k 5 0 0 8 k 8 k 5 k 8 k k 8 k 8 8 0 k 8 5 0 k 8 5 0 0 k 5 5 0 k k 8 k 0 k 5 8 k 8 0 k 5 8 k 8 0 k 5 k 8 k 8 k 8 k 8 0 8 k 8 8 k 8 k 8 5 0 k k 8 d < 2 1 8 k 8 d k z.j h z.^ z.> g.^ / r. ..Xy..X^ 1 d 0 k 5 k 8 k k 8 k 8 k 8 k 5 0 k < < < j j d r.+Xv.i.k.+Xg.OX1 t.v.h.g.2 :X[ ,X/ ,Xd OX7.1 ,X| ,Xf g :X) ,Xd r.+Xk.r.1 >Xj k j j g j g j j j j j j j k j j j j j j j j j j j j j j j j j j j j j j j j j j j k j j j j j j j g j j j j k j j j j j j j j j j j j j j j j j g j j j j j j g j j j j j j j j j < < 7 y r y y r y y r y y r y r r y r y r r y r r r r r y r y r r y y r r r r y y r r y r r r y y r y y y y y r r y y r y r r y ",
"j g j j / < j.v.&X&.:Xg .Xj.i..X1 =Xi.:X[ :Xi.=Xd j j j j j j j j j j j j j j j j j j j j j j j j j j j j j k j j j k j j j j j j j j j j j j j j j j j j j j j j j j j j j j j j j j j j j j j j j g j j j j j j j j j j j j j j j j j j j j j j j j j j j j j < < d j k j ) d j *X&Xj.i.OX+Xa./ ,Xk +X8.j.+Xd >X| =X| >X) ) / k OXk.r j j j j j j j j j j j j j j j j j j j j j < < 8 d 8 8 l.h d .X^ l./ 2  .z.z.) ' z.^ .X .z.> z.' l.k 2 z.X.d k k d d 6 k 8 5 8 k 8 k 8 8 5 0 k 8 k 8 8 d 5 0 0 k k 8 5 0 8 5 5 0 k 8 d d 8 k 0 5 k 8 k 8 8 k 8 5 k 0 8 k 8 5 k 0 0 5 8 k 8 k 0 5 8 k 8 k 8 8 k 8 k 0 5 8 k 8 k 0 k 5 k 8 k 0 5 0 8 k 8 k 8 k 8 k 8 k k 8 k 8 0 5 k 8 k 8 d d d 8 d 8 k 8 k 8 k 8 8 d 2 < < k 8 k 1 k z.^ ^ g.^ z.2 g.^ ' y./ .Xk k k 1 0 1 k 0 5 8 k 8 k 0 8 8 k 8 k 0 5 8 < < j j d y.k.t.NX] &Xr.:Xk c.a.j.h.1 3X[ :X/ 3Xd OXy.j >X[ :Xk j :X) 3Xd a.v.k.h.j hX^ j j j j j j j j j j j j j j j k j j j j g j j j j j j j j j j j j j j j j j j j j j j j j g j k j j j j j j j j j j j j j j j j j g j j j j j j j j g j j j j j j g j j j j j j j 5 @ w y y y r y w y r y y r y y r y y r r y r y r y r r y r y r r y r y r y r y y r y r y y y r r y r y y r y r y r r r y r y r ",
"j j j j k.:X&X) &X/ a.*X>Xh.t.j.1 &X .OXOX+Xr.OXf j j j k j j j j j j j g j j j k j j j g j j j g j j j j j j j j j j j j j j j j j j j j g j j j j g j j j j k j j j j j j g j j j k j j j j j j j j j j k j j j j k j j j j j j j j j j j j j j j j k j j j g < > f j j g 7.=X-Xi.8.,XOXg.k.t./ OXg v.7.g.3X=Xk.j *Xd k.-Xk.r.=XOX| j j j j j j j j j j g j j j j g j j j k j g @ < 8 8 k 8 z.l.z.| 1 z./ y.z. . ..X .z.y.y. .y.> z.^  ..Xy.^ z.z.] 5 k 8 8 k k 0 k 8 k 8 k k k k 8 k 8 8 k d 8 k 5 5 8 k 8 k k 0 k k 8 k 8 8 k 8 8 k 8 k 5 0 k 8 k 0 8 5 k 8 k 0 8 5 k 8 k 8 5 0 k 5 k 8 5 0 k 8 8 k k 5 0 k 8 k k 5 8 k 0 5 k 8 0 k k 8 0 5 8 k k 8 k 8 5 0 8 k k 8 0 5 8 k 0 8 8 k 8 k 8 5 0 8 8 k d 0 1 < < d d d d k y.k k i.j z.> z.^ ^ r.5 r.z.r.k d k d 8 k 8 k 8 5 0 k 6 k 8 k 8 k 8 8 @ < j j d r.j.[ 3Xk OX' a.:X&Xj j.a.d &X[ &Xg OXOX[ *X:Xr.) &Xg j &X) =Xd t.k.) :XOXmXj j j j j j k j j j j j j j j k j j j j j j j j j j j j j j j g k j j j g j j j j j j j j j j j j j j j j j j j j g j j j j k j j j j j j j j k j j j j j j j j j j j j k j j j j j < < 8 y r y y r f y r r r r r r y r r y y r r r y r y y r y r y r r r r y r y r r y r r y y r r y r y r r y r y r r y r r y r r ",
"j j j j / ) j k j j ) g .Xv.6 j j j j j ) k j j j j j j j j j j k j j j j j j j j j j j j j j j j j k j j j j j j j j j j j j g j j j j j j j k j j j j j j j j j j j j j k j j j j j j j g j j j j j j j j j j j j j j j j j j j g j j k j j j j j j j j j j j < # r j j j j ) ) g g ) j j j j j j j j 5 .Xh.g j j j j j ) / j ) j k j j j j j j j j j j j j k j j j j j j j j j < < 8 d 8 k 8 k k 1 k d 0 k ^ d 1 k 1 k k d 1 d 8 k 8 8 k k 8 k k k d 8 d d 1 8 k 8 k 8 k 0 8 0 5 5 8 k 8 0 d k 8 k 0 k 0 8 d 8 k k 8 k 0 d d 8 k 8 8 8 k k 0 0 5 8 0 k 0 5 5 0 k k 8 8 k 8 d k 8 k 0 k 8 k 0 8 k d d 0 k 8 5 8 k 0 5 0 8 8 k 8 8 k 5 k 8 k 5 0 8 d 8 8 8 k 8 k k 0 k 8 5 k 0 8 k k 8 k k 0 0 0 k k 5 8 k < < 1 8 k d 8 8 d d 8 0 8 8 d d 0 k 1 0 8 k k d 0 d k k 8 k k 8 k 0 0 1 8 d 0 k 8 k < < 7 j j j j j j j j j j k ) j k j j j j j j k g ) g j j k j j j g j j k j j j j /  .:Xj j j j j j j j j j j j g j j j j j j j j j j j j j j j j j j j j j j j j j j j j j j j j j j j j j j j j j j j j j j j j j j j j j j j j j j j j j j j j j j j j j j j j j j j j j < > 7 y r r r y y r y r r y r r r r y r r y y r y y r y r r r y y y y r y r r y y r y r y y y r y r r y y r r y r y r y y r r y ",
"j j j j j j j j j g k.:XOX) j j j j j j j j j j j j j j j j j j j j j j j k j j j j j j j j j j j j j j j j j j j j j j j j j j j j j j j j j j j j j j j j j j j j g j j j j j j j j j j j j j j j j j j j j j j j g j j j j j j j j j j j j j j j j j j g j j < < d j j j j k j j j k j j j j j j j j d h.i.d j j j j j j j j j j j j j j j j j j j j j j j j j j j j j j j j g > < 5 d d k 0 8 d 0 8 d d 1 8 k k 1 k 5 0 d 0 0 8 8 k k 8 d d 8 d 1 d 0 d d 0 k 8 5 0 k 8 d d k 8 0 k 8 k 8 k 8 k 8 k 8 5 d k 5 0 8 k 8 5 0 8 k 8 8 k k 8 k 5 k 8 k d 8 k k 0 5 5 0 k k 8 k d 0 5 8 k 0 k 8 5 0 d d 8 5 8 k 0 k 8 k 8 k 8 d d 8 k 8 k 8 k 8 0 d d d d 8 k 8 k 0 5 5 8 k 0 k 5 k 8 8 k 0 5 5 k 5 5 0 k d d < < 1 d 8 0 k 0 d d k 8 k k d d 8 8 8 k d d 1 k 1 d 8 8 k 8 0 k 8 5 k 8 k k 5 8 k 8 8 < < j j j j j j j j j j j g j j j j j j j j j j j j j j j j j j j j j j j j g 4.=X,Xt.k j j j j j j j j j g j j j j j j j j j j j j j j k j j j j j j j j j j j j j j k j j j j j j j j j j j j j k j g j j j j j j j j j j j j j j j j j j j j j k j j j j j j j j j j j < # 7 y r y r y r r r y y r y y r y r r y y r y r r y r y r y r y y r y r y r r r r r y y y w y r y r r r r y r y r y r y r y r ",
"j j j j j j j j j j j j g j j j j j j j j j j j j j j j j j j j j j j j j j j j j j j j j j j j j j j j j j j j j j j j j j j j j j j j j j j j j j j j j j j j j j j j j j j j j j j j j j j j j j j j j j j j j j j j j j j j j j j j j j j j j j j j j j j k < @ f j j j j j j j j j j j j j j j j j j j j j j j j j j j j j j j j j j j j j j j j j j j j j j j j j j j j j j < < 1 d 0 d k 8 k 8 k k 8 k 8 d 0 k d d d k d k 0 d d 8 k k d k 8 0 d 8 d d k 0 k 6 d d d d k 8 k k d d 8 k 8 k k d 0 d d d 0 k k d 0 d k 8 k d d d k 8 k 0 5 k d d d d d 0 8 k 0 d d d k 0 d d 0 k d 8 k d 0 0 d d k k 8 k d 0 5 k k d d d d d k d 0 k k d d k 8 0 k 8 k 8 d d k d k 8 0 k d k 8 k 8 d 0 k 8 8 k k d 0 8 < < 1 k d k 8 k 8 k k 8 k 8 8 k d 0 k 8 k k d 8 k k d k d 0 5 k d k d d d 0 d d d 0 < < < j j j j j j j j j j j j j j j j j j j j j j j j j j j j j j j j j j j j j j j j k j j j j j j j j j j j j j j j j j j j j j j j j j j j j j j j j j j j j j j j j j j j j j j j j j j j j j j j j j j j j j j j j j j j j j j j j j j j j j j j j j j j j j j j j j j < < 7 y r y r y r y y r r y r r y r y y y y y r r y r r y r y w y y y y r y r y r y r y r y r y r r y w y y y y y y r r r r y r ",
"r d d d f d d d d d k d k d d d f f d d f d d d d d d d d d f d d d d d r d f d k d d f f d d d d r d d d d d g f d d d r d d d d d d d f d d d d r f d d d d d d d f k d f d d d d d f d d d f r d d d d d d f r d d d d f d d d d d d d d d d r d d d d d f d < < 5 f d d d d d d f d d d d d r f d d d d d d f f d d d d d d d d d d r d d d f d d d d d d d f 6 f k f d d d r < < 1 2 1 1 2 1 1 1 1 1 1 1 1 2 2 1 1 1 2 1 1 2 1 2 1 2 1 1 2 1 1 1 1 1 1 1 1 2 2 1 2 1 1 2 1 2 1 1 2 1 1 1 1 2 1 2 2 1 1 2 1 2 1 2 2 1 1 1 1 2 1 1 1 2 8 0 2 1 1 1 1 1 1 1 1 2 2 1 1 2 2 1 1 1 1 2 1 2 5 2 2 1 1 2 1 1 1 1 1 1 2 1 1 1 2 1 1 2 1 1 1 2 2 1 2 1 1 1 1 1 1 1 1 2 1 1 1 2 1 1 2 1 1 1 1 1 1 1 1 1 2 8 1 1 2 < < 2 1 1 1 2 8 1 2 1 1 1 1 1 1 1 1 1 2 1 1 1 2 1 1 1 1 2 1 2 1 1 2 1 1 2 1 2 1 1 1 < < < d f k d d d f d d f d d d f k d d d d d d f d d d f d d d d d d d f d d d d d f d r f d d f k d d d d d d f d d f f d d d d d d d d d d d r d d d f d d f d d d d d d d d r d d d d d f d d d d d d d d d d d d d f d f d d r d d d d f d d d d d 6 d f d d d d d d f < < w y r r y r y r r r y r y r r y w y y y r r y r r y w y r y y y r r y r r y y r y r r r y r r y r y y y y y r r r y y r r y ",
"r d d d d r d r d d r d d r d r d d d d d d d d d e d d d r r d d d d d d d d r d d d d d d d d d r d d d d d e d d d d r d d d d d r d d d d r 6 d d r d d d r r d d d d d d d r d d d d d d d d r d d r d d d r d d d r d d d d e d d d r d r d d d d d d d r < @ w k d d d d r d r d r d d d d d d d d r d r d d d d r d d d d d d d r d d d d r d d d d d r r r d 5 r r d d 5 < < < 1 1 1 1 1 1 1 1 1 1 1 1 1 1 1 1 1 1 1 1 1 1 1 1 1 1 1 1 1 1 1 1 1 1 1 < 1 1 1 3 1 1 1 1 1 3 1 1 1 1 1 1 1 1 1 1 1 1 1 1 1 1 1 1 1 1 1 1 1 1 2 1 1 1 2 2 1 1 1 1 1 2 1 1 1 1 1 1 1 1 1 1 2 1 1 1 1 1 1 1 1 1 < 1 1 1 1 1 2 1 1 1 1 3 1 1 1 1 2 1 1 1 1 1 1 1 1 1 1 1 1 1 1 1 1 2 1 1 1 1 1 1 < 1 1 1 1 1 1 1 1 2 1 1 1 < < 1 1 1 2 1 1 1 1 1 1 1 1 1 1 1 1 1 1 1 1 1 1 1 1 1 1 1 1 1 2 1 1 1 1 1 1 1 1 1 < < < d r r d r d d r d d d d r e d d d d d d d d r d d d r d d d r d d d r d d d e d d r d r d e d d d d d r d r d r 6 d d d r d d d r d d d r d d d r r d d d d e d d d d r d d r d d d d d r d d r d d d d d d r d r d d d r r d d r d d d d d d r d d d r r d r d r r d < < 8 y y y r r y r r y y r r y y r y r r y y r r y y y y y r r r y y r r r y r r y r r y r r y y r r y y y y y r y y r r y y y ",
"d d d d d d d d d r d d d d d d d d d d d r d k d d d d d d d d d d r d d d d d d d d e d d d d d d d d d d d d d d d d d d d d d d d d d d d d d d d d d d d d d d d d d e d d d d d r d d d d d d d d d d d d d d d d d d d d d d d d d d d d d r d d d d d r < < 1 f r d d d d d d d d d d d d d r d d d d d d d d d d r f d d d d d d d d d d d d d d d d d d d d d d d d d r < 2 1 1 1 1 1 1 1 1 1 1 1 1 1 1 1 1 1 1 1 1 1 1 1 1 1 1 1 1 1 1 1 1 1 1 1 1 1 1 1 1 1 1 1 1 1 1 1 1 1 1 1 1 1 1 1 1 1 1 1 1 1 1 1 1 1 1 1 1 1 1 1 1 1 1 1 1 1 1 1 1 1 1 1 1 1 1 1 1 1 1 1 1 1 1 1 1 1 1 1 1 1 1 1 1 1 1 1 1 1 1 1 1 1 1 1 1 1 1 1 1 1 1 1 1 1 1 1 1 1 1 1 1 1 1 1 1 1 1 1 1 1 1 1 1 1 1 1 1 1 1 1 1 1 1 1 1 2 < 1 1 1 1 1 1 1 1 1 1 1 1 1 1 1 1 1 1 1 1 1 1 1 1 1 1 1 1 1 1 1 1 1 1 1 1 1 1 1 < < < g d f d d d d d d d d d d d d d d d d d d d d d d d d d d d d d d d d d d d k d d d d d d d d d d d d d d d d d d d d d d d d d d d d d d d d d d d d d d k d d d d d d d d d d d d d d f d d f d d d d d d d d d d d d d d d d d d d d d d d d d d d d d d d d d d d < < 7 y y r r y r y r r r y r r y r r r y r r y r y y y y y y r y r r y r y r y r r y y r y r y r y r r y y y w y r r y y r r r ",
"d d d d d d d d r 6 d d d d d d r d f f d d d d d d d d d r d d d d d d d d d d r d d d d d d r d r d d d d d d d d d d d r d d d d d d d d d d d d d f d d d d d d d r d d d d k r d d d k r d d d d d d d d r d f d d d d d d d d d d d d d d r d d d d d d d < < w k d d f r d d d d d d f r d d f d d d d r d d d d d d d d d d d f d d d d d d d d d d r d d d d d d d d d 8 < < 1 1 1 1 1 1 1 1 1 1 1 1 1 1 1 1 1 1 1 1 1 1 1 1 1 1 1 1 1 1 1 1 1 1 1 1 1 1 1 1 1 1 1 1 1 1 1 1 1 1 1 1 1 1 1 1 1 1 1 1 1 1 1 1 1 1 1 1 1 1 1 1 1 1 1 1 1 1 1 1 1 1 1 1 1 1 1 1 1 1 1 1 1 1 1 1 1 1 1 1 1 1 1 1 1 1 1 < 1 1 1 1 1 1 1 1 1 1 1 1 1 1 1 1 1 1 1 1 1 1 1 1 1 1 1 1 1 1 1 1 1 1 1 1 1 1 1 1 1 1 1 1 1 1 1 < < < 1 1 1 1 1 1 1 1 1 1 1 1 8 1 1 1 1 1 1 1 1 1 1 1 1 1 1 1 1 1 1 1 1 1 1 1 1 1 1 < < 5 d d r d d d d d d d d r d d d d d d d d r d d d d d d d d d d d d d d d d d d d d d d r d r d d d d r d d d d r d d d r d r d d d r d r d r r r d r d d r d r r r d d d d r r r d r d r r d f r r r r r d d r d r r r r d r f r r r d r r d d r r r r r d f r d d d r < < w y r r y r r y y y r r y r r y r r y r r r y r r r r r y r r y y r r y r r r y r y y y 9 y r y y r y r r y r y y r r y y y ",
"d d d d r d d d d d d d r f d d f 5 1 1 d d d d r d d d d d d d d d d d d r d d d d d d f d d d d d d d d r d d r 6 d r 5 k r r d d y d d r d d d d d d d d d e d d d d e d d d d d f 5 < r d d d d r d d d d d 8 w d r r d d r d d d d d d d d d d d d d r d 6 < < 1 f d d d d r d d d d r r k r 1 5 d d d d d d d f r d d d d d d r 5 d d d d d r d d d d d d d d d r r d d d d < < < 1 1 1 1 1 1 1 1 1 1 1 1 1 1 1 2 1 1 1 < 2 1 1 1 1 1 1 1 1 1 1 1 1 1 1 1 1 1 1 1 1 1 1 1 1 1 1 1 1 1 1 1 1 1 1 1 1 1 2 > 1 1 1 1 1 1 1 1 1 1 1 1 < 1 1 1 1 1 1 1 1 1 1 1 1 1 1 1 1 1 1 1 1 1 1 1 1 1 1 1 1 1 1 1 2 2 , , 1 1 1 1 1 1 1 1 1 1 1 1 1 1 1 1 1 1 1 1 1 1 1 1 1 1 1 1 1 1 1 1 1 1 1 1 1 1 1 1 1 1 1 1 1 1 < < 1 1 1 1 1 1 1 1 1 1 1 2 2 > < 1 1 1 1 1 < < 1 1 1 1 1 1 1 1 1 1 1 1 1 1 1 2 1 1 < # < d d d d d d r d d f r d d d d d r d d d d d d d d d d d r d d r d d d d r d d d d d d d d f d d d d d d d d d d d d r 7 7 4 5 7 7 7 7 w < 7 7 < w 7 < 7 w < 5 7 7 < w 7 7 7 7 < w w < 7 7 4 5 5 < 7 7 < 7 7 7 w < 7 7 < w < 7 < 7 < 7 7 7 < 5 7 7 < 8 w < 8 w r d d d < < 9 y r y r r y r r r r y r y y r y r r y y r r y r y y r r y y r r y y r r y y r y r y y y r y r r r r y y r r y r r y r y w ",
"d d r d d d d r d d d r d d d d d ) O.[ 5 r f d r f d d d d d d d d e k d d d d d d d e d d d d d d d d d d d d f j f g j 5 k j d d r f d r d d d d d d d d d d d r d d d d d r d f f ] 4.c 1 f d r d k d d d r ) n r g j 5 k c d d d d d d d d d d r d d d d r < < w d d d r d d d d r d d d w j 4.) r d d d d f d f d d d d d d d j n.1 f d f d d r d d d d d d r d d d d d d r < < 1 1 1 1 1 1 1 1 1 1 1 1 1 1 1 < k d 1 1 d k 1 1 1 1 1 1 1 1 1 1 1 1 1 1 1 1 1 1 1 1 1 1 1 1 1 1 1 1 1 1 1 1 1 1 1 1 2 j / d 1 1 1 1 1 1 1 1 1 1 2  .r 1 1 1 1 1 1 1 1 1 1 1 1 1 1 1 1 1 1 1 1 1 1 1 1 1 1 1 1 1 < k / j / 8 1 1 1 1 1 1 1 1 1 1 1 1 1 1 1 1 1 1 1 1 1 1 1 1 1 1 1 1 1 1 1 1 1 1 1 1 1 1 1 1 1 1 1 1 1 < < < 1 1 1 1 1 1 1 1 1 1 d ^ / 5 2 1 1 1 > *./ 2 1 1 1 1 1 1 1 1 1 1 1 1 1 1 1 1 1 < < < d d d r d d e d f d r d d r d d d d r d d r d d d r d d d d d d d d r d d d d d r d d d d d d d 6 d d d d d d d d d r 7 7 7 < w 7 7 7 7 7 7 7 B 7 7 7 7 7 w 7 7 7 7 7 7 7 7 7 7 7 7 7 7 7 7 7 7 7 B 7 7 7 7 7 8 7 7 7 7 7 w 8 7 7 w 8 7 7 w w 7 7 7 7 7 7 w < r d d r < < 5 y r r r y y r y r r y y r r y r y y r r y y y y r r y y r r y y r r y r r y r r r y y r r r r r y y r r r y r y r r y y y ",
"d d d d d d d d d d d d d d d d < >X=X@X+Xd r 5 k 1 r r 5 f d d d d d d d d d d d d d d d d d d d d r d d d f 5 j -Xd p.MX# a.n.> d d < p.] 5 f d r d d d d d d d d d d d d d d f < [ MXn.:X9.1 5 f r 5 f 5 d g hX-X8 a.mXO j.c.< d d 1 p.` 5 f d d d d d d d r < # 8 f r d d d d d d d d d 6 ) $XOXa.r d d 5 r 5 r 1 r 5 d r 8 f < ) >X1 r d 5 r d d d d d r d d d d d d d d d 8 < < < 1 1 1 1 1 1 1 1 1 1 1 1 1 1 > h.k.> > k.h.> 1 1 > ) ) < > 1 1 < 2 1 1 < 1 1 1 1 1 1 1 1 1 1 1 1 1 1 1 1 1 1 1 1 < 7.g.i. .> 1 < 1 2 < 1 > /  .2 1 1 2 < 1 < 1 2 1 1 1 < 1 &.1 1 2 1 1 1 2 1 1 1 1 1 1 1 1 1 1 < ] j.+Xi.f 2 1 < < 2 1 2 1 1 1 2 2 1 < 1 2 1 < 1 2 1 1 1 1 > k | 1 2 1 1 < 1 > 1 1 2 1 < 1 1 1 1 1 1 < < < 1 1 1 1 1 1 1 1 1 > O.+Xr.h.j > 1 1 O i.[ > 5 1 2 2 1 < 1 1 1 1 1 1 1 1 1 1 1 < < < d d d d k f k k 5 d d d d d d d d d d d d d d d d d d d f d d d d d d f d f r d d d r d d d d d r d d d r d r d d d r w < 7 7 7 7 7 7 7 7 7 7 7 7 7 7 7 7 7 7 7 7 7 7 7 7 7 7 7 7 7 7 < 7 7 7 7 7 7 7 7 7 7 7 7 7 7 7 7 5 7 7 7 7 7 7 7 7 w < 8 7 < 8 7 7 < < r d d d < > 7 y r y r r r r r r y r r r y r y r y r y r r y r y y r r y r r r r y r y r r y r y w y y y r y y r r y y r r y r y r y y y ",
"d d d d d d d d d d d d d d d f 1 =Xj @ -X9.h.#Xj.XXr 7.k.5 d d d d r d d d d r d d d d d d d d d d d d d d d d r #X' c.hXn n.8.g $X=X] mXmX' 5 d d d d d r d d d d d d d d d d d < 7.XXX ] >X] -Xc.XXt.1 XX) 9.d.OX) n.hXn n.7.j =X$X] mXmX) 5 d d d d d d d d < < 1 d d d d r d d d d d f < a.&X% r j XX>X] t.-X-Xj.=XOX1 u.$X-Xp.g :X< j.>Xp.{ &XOX) r d d d d d d e r d d d r < < 1 1 1 1 1 1 1 1 1 1 1 1 1 1 8 > i.k.k 1 v.i.1 t.k./ g.OX/ ] l.7.d g.r.) 7.h. .1 1 1 1 1 1 1 1 1 1 1 1 1 1 1 1 1 2 k v.1 > 2 j h.i.5 y.i.j.k y.*X' t.r i.a.z.7.k. .> ' j.7.' *Xy.f i.j.d | g.| ) h.i.d 1 1 1 1 1 8 O g y.X 8 u.l.j [ g.h.7.z.i.2 [ g.g.| > | k.| k g.t.k [ l.7.[ ,X*.8./ < i.d z.r.j ' j.r.1 1 1 2 1 1 < < 2 1 1 1 1 1 1 1 1 1 > 7. .% | i.1 i.l.f r.) j g.i. .7.> 7.' > 1 1 1 1 1 1 1 1 1 < < < f d d r < < 2 < ] d f f r f f d d r k d d d f 1 r g f d f d d d g f r 1 f d d d d d d d e d d d d d d r d d d d d d r < 8 7 7 7 7 7 7 7 7 7 7 7 7 7 7 < 7 7 7 7 7 7 7 7 7 7 7 7 7 1 d r 6 r 8 7 7 7 7 7 7 7 7 7 7 7 7 7 9 # # r # B 7 7 7 7 8 7 w w $ < w 7 7 r d f r < @ 7 y y y r r y y r y y r y r y r r r y r y r y y r y y r y y r y r r y r r r y r y r r y r r y r r y r r r y y r r y r y r y ",
"d d d d d r d d r d d d d r d d 1 -X] < a.j.-Xs.> =X` n.p.1 d d k e d d d d d d d d d d d d d d d r d d d d d f 2 c.j.j.c.s.XXc XXa.t.XXXX4.1 g d d d d d d d d d d d d f d d d f 5 4.OX5 f #Xp.mXr ] $Xj >X5 XX] j.d.h.c.s.XXj XXp.u.n.OX&.1 r d d d d d d d 5 < < w f d d d d d r d d d d r j =X-X/ r g a.c.XXj.` mXg @X` c.XXd >X] $X[ >Xn -XoXXXr f d d d d d d d k d d d d 1 < < < 1 1 1 1 1 < 1 1 1 1 1 1 1 1 > t.a.' ) i.r.| y./ a.8.| 1 k.k a.7..Xd k l.k 1 1 1 1 1 1 1 1 1 < 1 1 1 1 1 1 1 1 >  .t.O d 1 h.) 7.r.k.j  .8.) r.O k.d n.k y.y.f g.r k.k i.*.a.> r.7.' i.a.t.X y.8.2 1 1 1 1 1 1 1 2 / a.> *.y./ i.i.8.g +X1 i.j 7.y.1 k./ k.f g.4..Xr 2 d k g.) g.O a.) 1 k.k OXd d k.k z.[ > 1 1 1 1 < < < 1 1 1 1 1 1 1 1 1 > 7.7.O j i.r.r.) i.t.) < 1 y.7.g.1 h.g 1 1 1 1 1 1 1 1 1 1 1 < < f f 5 / XXOX$Xa.O.k 5 < 1 8 < r d r < 5 d d 5 9.) < < 5 1 < d d 5 > { 9.1 f d d d d d d d d d d d d d d d d d d r d r < w 7 7 7 7 7 7 7 7 7 7 7 7 7 7 w 7 7 7 7 B 7 7 7 7 7 7 7 7 < X.9X9X9XX.# 7 7 7 7 7 7 7 7 7 B 7 w # } 2X9X}.k 7 7 7 7 # ) 1X9X_.7 7 8 w r d r f < < 8 y r y y r r r r r r y y r r y r y r r r y y y y r r y r r y w y r r y y y r r r r y r y r r y y r r y y r r y y r r r y r ",
"d d d d d d d d d d d d d d d f w =X) X c.s.OX` < t.n.XX) 5 g d f d d d d r d d d d d d d f e d d d d d r d d f 1 &.gXc.[ =X@X1 =X>X$Xa.OX4.< d d d d d d d r d d d d d d d d d d 1 4.XX# k -X9.XX< g XXc.h.f $X8 7.>Xd.[ =X#X1 ;X>X@Xa.OX[ 8 r d d d d d d d r < < 1 f r d d d d d d d d d d 1 < a.=X4.#XhXc.n.7.j @X< XX] j.t.X =X7.OX0.mXXX-X) s.$X) 6 d d d d r d d d d d d d < < 1 1 1 1 1 1 1 1 1 1 1 1 1 1 1 > y.| 8.7.| r.8.n.i.r.r.] k +Xi.i.| i.> 1 / h.] 2 1 1 1 1 1 1 1 1 1 1 1 1 1 1 1 1 > ' g.O > 1 .Xg.g.| g.1 / 8.) r.X k.k g.> 4.| 1 i.j .Xi.g.[ g.< a.l.a.7.i./ > 8 y.i.5 1 1 1 1 1 1 2 j a.@ y..Xi.8.y.) 8 a.> r./ 7.| . a.4..Xi.a.| t.> d r.a.k.) a.. i./ < g.k g.X j +Xi.h./ 2 1 1 1 1 < < < 1 1 1 1 1 1 1 1 1 > | O.X / g.i.k.i.7.i.) ] a..X[ 7.7.y.< 1 1 1 1 1 1 1 1 1 1 < < < d d r g ] ;Xh.j ) f ] 8.O.{ u.g r j p.] r r n -Xj ] t.{ 4.8.r r 4.t.) -Xj 6 f d d d d d d d r d d d d d d r d d d d r 7 7 7 7 7 7 7 7 7 7 7 7 7 B 7 7 7 7 7 7 7 7 7 7 7 7 7 7 5 9 # }.1X} X.h B 7 7 7 7 7 7 7 7 7 7 7 7 # _.2X} 9X1X# 8 9 < 7 9X2XX.wXX.$ w < r d d d < < 7 y r y y r r y y y r r r y r r y r r y r y r y r r r r y y y y r y y r r y r y y r y r r y r y r y y r r y y r r r y r r y ",
"d d d d d d d e d d d r d d f f 1 >X4.| mXc -X] < f mXOX< f d d d r d d d d d d d d d d d d d d d d d r d d d r f f NXj.< mX@XX n.j.g r oXa.r d d k e d d d d d d e d d d d d d f 1 7.;Xj n.XX] -X< f t.NXc t.n.< c NXs.< MXOXX n.h.j r #Xa.r d d r d d d f d d < < 5 d d d d d d d d r d d r { ) | #X=Xa.p.XXXXt.c >X1 #X[ j.$X[ >X{ :X) -Xj j ) g OXd.< f d r d f d d d d d d r < < < 1 1 1 1 1 1 1 1 1 1 1 1 1 1 @ h.j l.i.j a.' i.1 < 7.y.5 j.j 1 / k.O d d ' j.> 1 1 1 1 1 1 1 1 1 1 1 1 1 1 1 1 1 r k.] k 8 i.[ 1 r k.1 ) y.) h.< k.d k.2 7.7.1 h.5 h./ r d l.d 7.r.1 < a.) > k d h.) > 1 1 1 1 1 2 / h.> [ y.8 < y.[ k j.> i./ &.g.j k.k h.k 1 ) h.X ) k.k k.) k.1 y.7.' +Xd k.@ 5 l.j 5 8 1 1 1 1 1 < < < 1 1 1 1 1 1 1 1 1 > r.y.k h.| ] r.d < i. .g./ i.4.k &X' < 1 1 1 1 1 1 1 1 1 1 < < < d d d d < n.4.O mXj mXn.hXOXXX+X5 XXh.XX) < t.b.) MXj.mXc.-X7.7.-Xp.) j.t.< f d d d d d d d d d d r d d d d d d d d r 7 7 B 7 7 7 7 7 7 7 7 7 7 7 7 7 w 7 7 7 7 7 7 7 7 7 7 7 7 w # 1X_.  o B 7 7 7 7 7 7 7 7 7 7 7 7 7 7 5 5   >.qX& < 8 # ^ wXh   2X}.# 1 < r d d d < < 7 y r r r r y r r r y r y r r y r y y r y r y w r y y y 9 y y y r y r y r r y r y r r y r r y r r y r y r r r r y y r y r y ",
"d d d d e d d d d d d d f d d d 5 k.-XOXO.1 h.j r @ =Xt.< d d d d d d d d r d d d d d d e d d d d r d d r d d d d 5 k.[ < h.4.5 j n.-X4.) -X] w k d r d r d d d d d d d d d r d d 5 ) -X$Xk.r ) a.1 1 ` mX5 t.) r r k.[ < j.4.1 j n.-X| ] $X) 5 f d d d d d d r < < 1 f r d d d d d d d d d r [ &XOX] { OXn.4.t.[ g g.5 i.n h.-XOXO.g j.1 t.-Xj.4.=Xc.j d f d d d d d d d d d d r < < < 1 1 1 1 1 1 1 1 1 1 1 1 1 1 , | d ' ' k &.2 7.j. .d g.) j h.r.j 4.2 d y.a.^ < 1 1 1 < 1 1 1 1 1 1 1 1 1 1 1 1 1 2 j i.g./ d y.g.j 7.1 j  .1 i.| *.d 7.< ' ) 1 &.< j g.i.d  .i.5 8.h.) | j > ] h.*.1 1 1 1 1 1 1 2 g &.1 1 7.h.' [ ^ 8 *.2  .k 7.h.i.) 2 ) g.8.^ O.> 1 r.i.| d 7.r.k i.r.| d 7.2 < / g.y.k 1 1 1 1 1 < < < 1 1 1 1 1 1 1 1 1 > ) h.i.| < 1 8.l.) | j ) a.7.j < v.f 2 1 1 1 1 1 1 1 1 1 1 < < < d d d f 5 XX9.< :Xn >X> n.p.r OX] mXt.mXa.@ j.t.| $XX >Xj 7.j.' ;X4.> d.h.> f e d d d d r d d d d e d d d d d d d d 5 w 7 7 7 7 7 7 7 7 7 7 B 7 7 7 7 7 7 7 7 7 7 7 7 w < w 7 7 7 # eX9X1X_.r 7 7 7 7 7 7 7 7 7 7 7 7 7 7 5 8 # eX}.# 8 8 # } qXk + _.eX5 7 7 r d d d < < < y r r r y r r r y r r r y y r r y r r y r y r y y r y r r y r r y r r y r r y y r r y r r y r y y r y r y r y r y y y r r ",
"d d d d d d d d d d d d d d d d d 1 < < 5 f 1 r d 4.-Xg r d d d r d d k d d d d d d f d d d d d d d d d d k d d f f < r g 1 5 f d < 2 5 w < 5 f d d d d d d d d d d r d d d d d d f 5 < < < r 6 5 f f +Xh.1 5 r d r < r d 1 5 k d < 2 r 6 < r d d d d d d d d d < < 1 f d d d d r d d 6 d d k 1 < < r r < 1 r 5 r d < f 5 O XXu.X r d < f 1 < 5 5 < 5 d d d d d r d d d d d r d r 2 < 1 1 1 1 1 1 1 1 1 1 1 1 1 1 1 1 2 1 < < 1 > 1 > > 2 < > < < > > 1 > 1 < > > < 1 1 1 1 1 1 1 1 1 1 1 1 1 1 1 1 1 1 1 < > > < 1 > > < > 1 < < 1 > < > 1 > 1 < < 1 2 1 2 > 2 1 > > 1 , > 2 > < 1 < > > 1 1 1 1 1 1 1 1 3 < 1 1 > > < 2 1 < 2 1 < X y.| . < 1 < > < 1 2 1 1 2 > > 1 < > 1 > > < 1 > 1 1 < > > < 1 1 1 1 1 < < < 1 1 1 1 1 1 1 1 1 1 2 @ , 2 1 1 > > < 2 1 , @ > < *.y., 8 1 1 1 1 1 1 1 1 1 1 < < < d d d d r XX7.< >Xn :X1 j.t.j oX) mX9.4.n < h.t.O.OX< =Xj 9.n.> g =X8.p.j.2 f k r d d d d d d d d d k d d d d d r d d < 7 7 7 7 7 7 7 7 7 7 7 7 7 7 B 7 7 7 7 7 7 B 7 7 7 7 7 7 7 < X._._.qX}.# 7 7 7 7 7 7 7 7 7 7 7 7 7 w # _.qXh B 9 5 # X.9Xk $ _.eX7 7 7 r d d d < < 8 r r y r y r y r r y y y r r y r r y y r y r r r r y r y r r y r r y r r y y r r y y r r y r r r r r r r y y r r r y y y r ",
"d d d d d d d r d d d d d d d e r d f f f d f d g XX4.1 d d d d d d d d d d d d d d d d d d d d d d d d d d d d r d d d r f f d d d f f f k r d d d d d d d d r d d d d d d d d d d d f k f d d g 1 4.n.g r d d d d d d d d f r d d g d f f d r d d d f d d d 8 < @ 5 f d d d d d d d r d r r f f f d d k f d d d f k r g 1 9.| d d d f d d f d f f d d d d d d d d d d d d d d r < < < 1 1 1 1 1 1 1 1 1 1 1 1 1 1 1 1 1 1 1 1 1 1 1 1 1 1 1 1 1 1 1 1 1 1 1 1 5 1 1 1 1 1 1 1 1 1 1 1 1 1 1 1 1 1 1 1 1 1 1 1 1 1 1 1 1 1 1 1 1 1 1 1 1 1 1 1 1 1 1 1 1 1 1 1 1 1 1 1 1 1 1 1 1 1 1 1 1 1 1 1 1 1 1 1 < 1 1 1 1 1 1 1 1 1 1 1 1 1 > ' ^ < 1 1 1 1 1 1 1 1 1 1 1 1 1 1 1 1 1 1 1 1 1 1 1 1 1 1 1 1 1 1 1 1 < < 1 1 1 1 1 1 1 1 1 1 1 1 1 1 1 1 1 1 1 1 1 1 1 5 1 j y.k < 1 2 1 2 1 1 1 1 1 1 1 < < < d d d d 5 OX8.< hXj nX< n.a.j -Xr n.n.p.j < t.x.] $XO :X/ 9.n.) n.%X7.j.t.1 k d d d r d d d d r d d d d d r d d d d r < 8 7 w 7 7 7 7 7 7 7 7 7 7 7 w 7 7 7 7 B 7 7 7 7 7 7 7 7 7 9 $ o   >.9Xr 7 7 7 7 7 7 # 4 7 7 7 7 w < X.qX} $ 7 7 7 B ^ wXk o 2X1X# < w r d d d < < w y r y r r y r y r y r r y y r y r y r r y r y r r r r y r r y y y r r y r r y r r r y y y r y r r y r y r r y y w y y y r ",
"d d e f d d d d d d d d d d d k d d d d d d d d r < 5 k d r d d d d e d d d d r d d d d d d r d d d e d d d d e d d d d d d d d d d d d d d d d r d r f d d d d r d d d d r d d d d d d d d d d r k 1 < d d d d d d d d d d r f d d d r d d d d d r d r d d d r < < 1 f r d d d d d d d d d d d d d d d d d d d r d d d r f 1 5 d d d d d d r d d d r d d d d d d d d r r d d d 5 < < < 1 1 1 1 1 1 1 1 1 1 1 2 1 1 1 1 1 1 1 1 1 1 1 1 1 1 1 1 1 1 1 1 1 1 1 1 1 1 1 1 1 1 1 1 1 1 1 1 1 1 1 1 1 1 1 1 1 1 1 1 1 1 1 1 1 1 1 1 1 1 1 1 1 1 1 1 1 1 1 1 1 1 1 1 1 1 1 1 1 1 1 1 1 1 1 1 1 1 1 1 1 1 1 1 1 1 1 1 1 1 1 1 1 1 1 1 1 1 1 < < 1 1 1 1 1 1 1 1 1 1 1 1 1 1 1 1 1 1 1 1 1 1 1 1 1 1 < 1 1 1 1 1 1 < < < 1 1 1 1 1 1 1 1 1 1 1 1 1 1 1 1 1 1 1 1 1 1 1 1 < O 1 1 1 1 1 1 1 1 1 1 1 1 1 1 < < f d d d d n j r ) d ) d j j r ) w d 8.7.g r j =X) / r { d j j g 9.[ j -Xj d d d d d d d d d d d d d d r d d d d d d r < w 7 7 7 7 7 7 7 B 7 7 7 7 7 < 7 7 7 7 7 7 7 7 7 7 7 7 7 7 8 X.h f eXeXB 7 7 7 7 B h _.k < 9 7 8 # X.wXX.w h 8 7 7 7 w qX_.f qX>.# 8 < r d r d < < 8 y r r y r r r r y r y r r r r y r r r y r y r y y r y r r y r r r r y r y r r y r y r r r y r y y r y r r y r r y y y r y ",
"d d d d r d d d d k d d d r d d d d d d d d r r d f d d d d d d d d r d d d d d d d d r d d d d d d d d d d d d f d d d d d d d d d d d d d d r d d d d r d d d d d d d d d d d d d d f d d d r f r d d d d d d d d d d d d d d d d d d d d r d d d r d d d d r < < w k d d d d d d r d d d d r d d d r d d d d d d d d d r d d d d d d d d d d d r d d d d d d d d d d d d d d r < < < 1 1 1 1 1 1 1 1 1 1 1 1 1 1 1 1 1 1 1 1 1 1 1 1 1 1 1 1 1 1 1 1 1 1 1 1 1 1 1 1 1 1 1 1 1 1 1 1 1 1 1 1 1 1 1 1 1 < 1 1 1 1 1 1 1 1 1 1 1 1 1 1 1 1 1 1 1 1 1 1 1 1 1 1 1 1 1 1 1 1 1 1 1 1 1 1 1 1 1 1 1 2 1 1 1 1 1 1 1 1 1 1 1 1 1 1 1 1 1 1 1 1 1 1 1 1 1 1 1 1 1 1 1 1 1 1 1 1 1 1 1 1 1 1 1 1 1 1 1 1 1 1 1 1 < < < 1 1 1 1 1 1 1 1 1 1 1 1 1 1 1 1 1 1 1 1 1 1 1 1 1 1 1 1 1 1 1 1 1 1 1 1 1 1 1 < < < d d d d d 5 r f 5 d 1 f 6 5 r 5 d d 1 < d d 6 4.) < f 5 r d r d < < ` &.8 d d d d d d d d d d d k d r d d d d d d r r 7 7 7 7 7 7 7 7 7 7 7 7 7 7 7 7 7 7 7 7 7 7 7 7 7 7 7 7 7 B 7 1XqXqXeX^ 5 5 7 7 7 $ } wX} 2 w 7 7 7 9XwX9XqX9X^ # w 7 # X.qXqX}.d < w 7 r d d r < < 7 y r y r y r y y y r y r y r y r r y r r r y r r y r r y r y r y r y r y y r y r r y r y y y y r r r r y r y r r y y r y y ",
"d d d d d d d d d d e d d d d d d d d d d d d 0 d d d d d d d d d d d d d r d d d d d d r d d d d d f d d d d d r d d f d d r d r f d d d d d d d d d d d d d d d d d d d d r d r d d r d d d d d d d d f d d d d d d d d d d d d d d d d d d d d d d d d d d d < < 1 f r d r d d d d d d d d d d d d d d d d d d d d d r d r f d d d d d d d d d d d d e d d d d r d d d d d d r < < 1 1 1 1 1 1 1 1 1 1 1 1 1 1 1 1 < 1 1 1 1 1 1 1 1 1 1 1 2 1 1 1 1 1 1 1 1 1 1 1 1 1 1 1 1 1 1 1 < 1 1 1 1 2 1 1 1 1 1 1 1 1 1 1 1 1 1 1 1 1 1 1 1 1 1 1 1 1 1 1 1 1 1 1 1 1 1 1 1 1 1 1 1 1 1 1 1 1 1 1 1 1 1 1 1 1 1 1 1 1 1 1 1 1 1 1 1 1 1 1 1 1 1 1 1 1 1 1 1 1 1 1 1 1 1 1 1 1 1 1 1 1 1 1 1 1 1 1 1 1 1 1 1 1 1 < < < 1 1 1 1 1 1 1 1 1 1 1 1 1 1 1 1 1 1 1 1 1 < 5 1 1 1 1 1 1 1 1 1 1 1 1 1 1 1 1 < < < f f r d r d d d d d d r d f f f d d d f d d d 1 r k d f d d d d d k w 8 k d d d e r d d d d d d e d d d d d d d r d r 7 7 7 B 7 7 7 7 7 7 7 7 7 7 7 7 7 7 7 7 7 7 7 7 7 7 7 7 7 7 7 w ^ h d 2 7 7 7 7 7 7 r k w 5 7 7 7 7 k ^ ^ ( ^ d 7 7 7 7 # f ^ 4 < w 7 7 r d d f < @ 7 y r y r r y r r r y r r y y r y r y r y r r y r r y r r y r y r y r r r r r r y r r y 9 y y y r y y r y r r r y r r y r r ",
"d d d f d d d d d d d d d d d d d d 8 k d r r r d d d d d d d r d d d d d d d d d e d d d d d d d d d d d d d d d d d 5 6 6 d d g f 5 w d d r d d d r d d d d d d d e d d d d d d d d d d r d d d d d d 8 f f d f d k 8 6 d r d d r d d d d d d d d d d d d d r < < w d d d d r d d d d r d d d d 6 d d d d r d d 6 6 r d d d w w 6 d d d d d d d d d d d d d d d d d r r d d d 5 < < < 1 1 1 1 1 1 1 1 1 1 1 1 1 1 1 1 1 1 1 1 1 1 1 1 1 1 1 1 1 1 1 1 1 1 1 1 1 1 1 1 1 1 1 1 1 1 1 1 1 1 1 1 1 1 1 1 1 1 1 1 1 1 1 1 1 1 1 1 1 1 1 1 1 1 1 1 1 1 1 1 1 1 1 1 1 1 1 1 1 1 1 1 1 1 1 1 1 1 1 1 1 1 1 1 1 1 1 1 1 1 1 1 1 1 1 1 1 1 1 1 1 1 < 1 1 5 1 1 < < 1 1 1 1 1 1 1 1 1 1 1 1 1 1 1 1 1 1 1 1 1 1 1 1 < < < 1 1 1 1 1 1 1 1 1 1 1 1 1 1 1 1 < 1 1 1 1 < 2 1 1 1 1 1 1 1 1 1 1 1 1 1 1 1 1 < < < d r d d d d d d r d d d d d d d d d d d d d d f d r d d d d d d r d d f r d d d d d d r d f r d d d d d d d r d d d r w 7 7 w 7 7 7 7 7 7 7 7 7 7 7 7 7 7 7 7 7 7 7 7 5 7 7 7 7 7 8 7 # B 7 7 7 7 7 7 7 7 7 # 7 7 w 7 8 < < # # # < w 8 7 7 7 7 7 # 7 w 8 5 7 r d d r < < 7 y y r y r y y y r r r y r r y r r r r r y y r y r y y r y r r r y r y r r y r r y y r y y w y r y r r r r r y r y y r r y ",
"d d d d d d r d d d d d r d d y d 8 b ! R Y T Y Y N t d d d d d d r d d d k d d d d d d d d d d d d d d d r d d d 5 6 } '.|.aX|.|.'.>.^ 5 r f f d d d d d d r d d d d d r d d d d r d d d d d d d r d d U Q W P.P.W W U g 1 r f d d d d r d d d r d d d d r d 6 < # 8 f d d d f r d d d d d d d d d d d r d k r r ~ .././././.!...^ w d d r d d d d r d d d d r d d d d 6 d d f d < < 1 1 1 1 1 1 1 2 1 1 1 1 1 1 1 1 1 1 1 1 1 1 1 1 r r r f k d 1 1 1 1 1 1 1 1 1 1 1 1 1 1 1 1 1 1 1 1 1 1 1 1 1 1 1 1 1 1 1 1 1 1 1 1 1 1 1 1 1 1 1 1 6 d f d d d 1 1 1 1 1 1 1 1 1 1 1 1 1 1 1 1 1 1 1 1 1 1 1 1 1 1 1 1 1 1 1 1 1 1 1 1 1 1 1 1 1 1 1 5 d r j | ' ) k 1 1 1 1 1 1 1 1 1 1 1 1 1 1 1 1 1 1 1 1 1 1 < 1 < < 1 1 1 2 1 1 1 1 1 1 1 1 1 1 1 5 j ) ' [ [ ] / k 1 1 1 1 1 1 1 1 1 1 1 1 1 1 1 1 < < < d d d d d d d d f d d r d d d d d d d d d d r d d d d d d d d d d d d d r d d r d d d d d d d d d d r d d d d d d d r < < < 7 7 7 B 7 7 7 # 7 B 7 7 7 7 B 7 7 B 7 7 7 < < B 7 7 7 7 7 7 7 7 7 B 7 7 7 7 7 7 w 7 < < 7 7 < w w 8 w < < < w 7 7 7 8 w 7 < 7 < < r d d d < < 8 y r y r y r r r y r y r y r r y y r y y r r y r y r r y r r y y r y r y y r y r y r r y r y r y r r y r y y r r r r r y r ",
"r d d d d r d d d r d d d d d d i ! E.E.! R R R T T T V r k d d d d d d d d d d d d d d d d f d d d d d d d d d w } |.kXzXlXlXlXlXlXlXaX_.^ w k d d d d d d d d d d d d d r d d d d f d d d f r f 9 U W I.U.I.I.Y.Y.Y.Y.P.W k 8 d d d d f r r d d d d d d d d d < # 1 f d d d d d d d d e d d d d d d d f r r ^ !.~.^.^.5X^.5X^.^./.!.d w k r d f d d r d d d d d d r d d d r f d < < 1 1 1 1 1 1 1 1 1 1 1 1 1 1 1 1 1 1 1 1 1 1 f f f u g g k d g d r 5 < 1 1 1 1 1 1 1 1 1 < 1 1 1 2 1 1 1 1 1 1 1 1 1 1 1 1 1 1 1 1 1 1 1 1 1 1 5 r f d g g g k g f r 5 1 1 1 1 1 1 1 1 1 1 1 1 1 1 1 1 1 1 1 1 1 1 1 1 1 1 1 1 1 1 1 1 1 1 1 1 1 1 d d k f f ) 4.4.O.7.[ j 1 1 1 1 1 1 1 1 1 1 1 1 1 1 1 1 1 1 1 1 1 1 < < < 1 1 1 1 1 1 1 1 1 1 1 < 1 ^ [ O.4.O.4.4.4.7.&.] j 2 1 1 1 1 1 1 1 1 1 1 1 1 1 < < < d d d d r d d d d d d d d d d d r d d d r d d r d d d r d d r d d r d d d d r d d r d d d r d d d d d d d d d d d f r 5 r r r 8 r 1 r r r r w w r r r 8 r r r 8 r r 1 r r 8 r 5 r r r w r w r r r 8 r r 8 r 8 r r 1 r r r r 5 r r 8 r r w w r r 8 r r 8 r r 5 d d d d < < 7 y y y r y r r r y y y y y y y w y y y 9 f r r y r y r y y y y r y r y r r y r y r y y r y r y w y r r r r y r y w y y r y ",
"6 d d d d d d d d d r d d d 6 E E.E.E.E.! Y L V Y T T T Y i d d d d d d d r d d d d d e d d d d d r f d d d r 6 <.lXzXzXkX|.'.'.'.|.lXlXlX|.} 4 d d d d d d r d d d d d d d d d d d r d d r r f f Q P.I.I.I.W W W W W I.U.I.W N 0 f d d d d d d d d d d d d d 5 < < 5 d r d d r d d d d d d d d d d d d r r ..^.^.~.~./.!.!.!./.~.5X^./.^ d d d d d d d d d d d d d d d d d d d 8 < < < 1 1 1 1 1 1 < 1 1 1 1 1 1 1 1 1 1 1 1 5 d g f f d 5 w 5 r f k d d 1 1 1 2 1 1 1 1 1 1 1 1 1 1 1 1 1 1 1 1 1 1 1 1 1 1 1 1 1 1 1 1 1 1 1 1 r f k g d 5 6 w 8 r k g g d 1 1 1 1 1 1 1 1 1 1 1 1 1 1 1 1 < 1 1 1 1 1 1 1 1 1 1 1 1 1 1 1 1 1 1 1 e d g g d r k j {  .O.| 7.' 1 1 1 1 1 1 1 1 1 1 1 1 1 1 1 1 1 1 1 1 1 < < < 1 1 1 1 1 1 1 1 1 1 1 5 ] O.4.7.| ) ) ) ) [ 4.4.| ) 1 1 1 1 1 1 1 1 1 1 1 2 1 1 < < d d d d d d d d d r d d d d d d d k e d f d d d d d d d d d d d d d d d d d d d d d d d d d d d d d d d r d d d r d d d k d f d d k d d f d g f k d d d d d d d d f k d f k d d f d d k f d d d d d d f d d d d d d d d d d d d d d d k d d f d d d d d d d f d d d d < < 7 y y y r r y y y r w y y y r r y r y y y r y r r y r r r y y y r r y r r y y r r y r r y r y r y r y y y y r y r y y y y r ",
"d d d d d d d d d d d d u u E E.E.E.! : * X # < 9 - Y T R T N d e d d d d d d d d d d d d d d d r d r d d d y '.lXlXkX'.^ 1 5 * @ 8 ( |.lXlXkX} 6 f d d d d d d d d d d d d d d d r d d d r d k W I.P.P.E N B , > > w : W I.U.P.N f d d d d d d r d d r d d d d < < 8 f 6 d d d d d r d d d d d d d d d 5 ..5X^.~...~ > $ $ # 1 ~ !.^.^.~.~ 5 d d d d d d d r d d d d d d r d d r < < 1 1 1 1 1 1 1 1 1 1 1 1 1 1 1 1 1 1 1 6 g g d 6 @ , X > @ @ < r g g d 5 < 1 1 1 1 1 1 1 1 1 1 1 1 1 1 1 1 1 1 1 1 1 1 1 1 1 1 1 1 1 1 1 1 d g k d 1 @ @ @ O O > < r g k e 1 1 1 1 1 1 1 1 1 1 1 1 1 1 1 1 1 1 1 1 2 1 1 1 < 1 1 1 1 1 1 1 1 1 f d d d 5 # @ X X O 1 k [ O.4.] 5 1 1 1 1 1 1 1 1 1 1 1 1 1 1 1 1 1 1 1 < < < 1 1 1 1 1 1 1 1 1 1 d  .4.O.[ k < @ X + X < k | O.] e 1 1 1 1 1 1 1 1 1 1 1 1 < < < f d r d d d d r d d d d d r d d d d d d d d r d d d d d d d d d d d d d d d d d d d d d r d d d r d d d d e d d d d d r r 5 d r r r r r w d r r d d d d d r r r w r f r r r r d r r 8 r w d r r d r r r d r r r r d d r r d d r r r r r r r 8 r r d r d r f r d d d d < < 9 r y y y r y r r r y r r r y r r y y r r r y y r y r y y r w y y r y y y r r y r r r r r r y r y y y r r y r r 9 y y y y r ",
"d d r d d d d r d d d y k Q E.E.E.; > 2 o.d.j + 7 @ > ; T T T t k d d d d d r d r d d d d d d d d d d d r 6 >.lXkX|.} + @ # < 2 < < + < 1.zXzXkXx 5 d r d d r f d f d d d d r d d d d d d f 1 Q U.P.P.N > @ , 7 > < < > 9 Q I.I.! g d d r d d d d d d d f d d r < < 5 f d d d d d d d d d d d d d d d 6 ..5X^./.~ @ # # < < < # + > ..~.^./.^ r d d d d d d d d r d d d d d d d r > < < 1 1 1 1 1 1 1 1 1 1 1 1 1 1 1 1 1 r g d d > O O @ @ @ @ @ O @ 1 k f f 5 1 1 1 1 1 1 1 1 1 1 1 1 1 1 1 1 1 1 1 1 1 1 1 1 1 1 1 1 1 1 < r d d r # @ @ @ @ @ O @ O @ 1 f f d 1 1 1 1 1 < 1 1 1 1 1 1 1 1 1 1 < 1 1 1 1 1 1 1 1 1 1 1 1 1 1 1 d f f r @ O O @ @ , @ O O > { 4.] f 1 1 1 1 1 1 1 1 1 1 1 1 1 1 1 1 1 1 1 < < 1 1 1 1 1 1 1 1 1 1 1  .4.| ) > O O @ @ @ @ O X < / g k d 1 1 1 1 1 1 1 1 1 1 1 < < < d d d d d d d d d d d d r d d d d d d d r d d d d d d r d d r d d d d d d d d e d d d d d d d d d r d d d d d d d d r < 7 8 < 5 w < < 7 7 7 7 < < < w < < 7 7 7 7 < < < 5 < < 7 7 7 < 7 7 7 7 < 7 < 5 < < 7 7 7 7 < 5 7 7 7 < 8 w < < 7 7 7 7 7 7 < 7 1 < < < r d d d < < 7 r w y r y r y y r r y y y r y y r r y r y r r y r y r y r y r r y r r r r y r y r y y r y r y y y r r y r y r y r y y r y ",
"d r d d d d d d d d d d u E.E.E.: > < X +XAXu.X 7 7 @ , : T T Y d d d d d r d d d d d d d d d d d d d d 6 h kXzX|.~ @ < 7 < < < < < < < + >.zXlX|.r r r d e k d d d d d d d e d d d d d d k N P.I.W i > 7 # < < < < < < < > Q I.I.W 0 d d d d r d d r d d d d r < # 8 d r d d d d d d d d d d d d d d ~ /.^./.0 > < < < < < < < < < o ..^.^.!.5 d d d d d d d d d d d d r d d d r < < 1 1 1 1 1 1 1 1 1 1 1 1 1 1 1 1 2 5 f g d < X @ O @ @ O @ @ @ O X 5 f g 5 1 1 1 1 1 1 1 1 1 1 2 1 1 1 1 1 1 1 1 1 1 1 1 1 1 1 1 1 1 1 1 f d r @ O @ @ O @ O @ O @ @ @ 5 d d 5 1 1 1 1 1 1 1 1 1 1 1 1 1 1 1 1 1 1 1 1 1 1 1 1 1 1 1 1 1 1 5 f g w O O # > @ O O O @ @ X O g k g 5 < 1 1 1 1 1 1 1 1 1 1 1 1 1 1 1 1 1 < < < 1 3 1 1 1 1 1 1 < j O.&.j O O O @ @ O > @ @ / O X d g d 5 1 1 1 1 1 1 1 1 1 1 < < < f d d f r r d d d d d d d d d d d r d d d d d k f r r d d d d d d d f d d k d d d r d r d d d d d r d d d k d d d d r 7 7 7 7 7 7 7 7 7 7 7 7 7 7 w 7 7 7 7 7 7 7 7 7 7 7 w 7 7 7 7 7 7 7 7 7 7 7 w 7 7 7 w w 7 7 7 7 7 7 7 7 7 w w 7 7 7 7 7 7 7 w 8 7 7 7 7 r d d d < < 8 y r r r y r r r y y r r r y r r y r r r r y y r r y r y r y y r y r y y w y y y y y r r y r y y r y r y r r y y r y r r y ",
"d f d d d d d d d d d d E E.E.V > 7 1 X 9.ZXv.O , @ , 7 @ ; T T i d r d d d d d d d r d d d d d d d d d 5 '.zXzX=.o 7 < < < < < < < < < < + '.zXkX} w r d d d d d d d d d d d d d d d d r 8 W U.I.L > 7 < < < < < < < < < < < W I.P.N d d d d d d d d d d d d d < < 8 f d d d d d d d d d d d d d k 5 ..^.~...$ 2 2 < < < < < < < < # # !.~.5X~ r d d d d d d d d d r d d d d d 1 < < 1 1 1 1 1 1 1 1 1 1 1 1 1 1 1 1 1 r d d < O @ O @ @ O @ O O @ O @ O r k f 1 1 1 1 1 1 1 1 1 1 1 1 1 1 1 1 1 1 1 1 1 1 1 1 1 1 1 1 1 1 f k d , O @ @ O @ O O @ @ O @ @ @ r g d 1 1 1 1 1 1 1 1 1 1 1 1 1 1 1 1 1 1 1 1 1 1 1 1 1 1 1 1 1 1 f k d @ O O O O O O @ @ X ) z., + d g d 1 1 1 1 1 < 1 1 1 1 1 1 1 1 1 1 1 1 < < < 1 < 1 1 1 1 1 1 5  .4.] > O O O O @ O > . | 3Xy.+ > d g d 1 1 1 1 1 1 1 1 1 1 < < < d d d r k k d d r d d d d d d d r d d d d d d 1 r d d d d d d d d d d d r d d d d d d f r d r r f d d d d d f f r d r 7 7 7 7 7 7 7 7 7 B 7 7 7 7 8 7 7 7 w < 7 7 7 7 7 7 8 7 7 7 7 7 7 7 7 7 7 7 8 7 7 7 # < 8 7 7 7 7 7 < 7 7 < < 7 7 7 7 7 w 7 < w 7 7 w < r d r d < # 7 y r r y r y r y r r y y r r y y r r y y y r y y r r y r r r r r r y r r y y y y y y y r r y r y y y r r y y r r y r y y r ",
"d d d d d d d d d d d d E.E.! w # < 7 O $.VXhX< < 7 # < 2 - T T Y k r d d k d d d d d d r d d r d d d r ^ kXlX'.# < < < < < < < < < < < < # ( kXlX'.w k d d d d d d d d d d d d d d d d d u P.I.W , , @ < < < < < < < < < < , : I.I.Q 6 r d d d d r d d d d d 8 < @ 8 r d d d f d d d d d d d d 8 6 0 /.5X!.< < < < < < < < < < < < 2 # k ~.5X!.e d d d d d d d d d d d d d d d d < < < 1 1 1 1 1 1 1 1 1 1 1 1 1 1 1 1 d f r @ @ @ @ O O @ O O O O O @ O < f f 8 1 1 1 1 1 1 1 1 1 1 1 1 1 1 1 1 1 1 < 1 1 1 1 1 1 1 1 1 5 u g 5 @ O O O @ X @ O O O O @ @ O 2 f f d 1 1 1 1 1 1 1 1 1 1 1 1 1 1 1 1 1 1 1 1 1 1 1 1 1 1 1 1 5 f f 5 @ @ O O O O @ O > | *XjX/ . 5 g d 1 1 1 1 1 1 1 1 1 1 1 1 1 1 1 1 1 1 < < < 1 1 1 1 1 1 1 < j 4.4.f O @ + @ @ O > . ) 3X3X[ O # 1 d g 1 1 1 1 1 2 1 1 1 1 1 < < d d d f w < 5 r d f f r f f f d k d d d k d 5 ] c r k f d d f d d d r 5 f f f f f f d f k d d d f d f f k d 8 1 f d 5 1 7 7 7 7 7 7 7 7 7 B 7 7 7 7 7 7 7 7 7 7 7 7 7 w 7 7 7 7 7 7 7 7 7 7 7 7 7 7 7 < $ 6 8 B 7 7 7 7 7 8 h f h f 7 7 7 7 7 & 8 k # 7 7 w 8 r r d d 7 , 7 f r y y r y y w y y r r y y r r y y r r y y y w y y r r y r r y r y r y r y y w y r r y r y r y r r y y r y y r y r r r r ",
"d d r d d d d d d d d N E.E.E 2 7 < < @ h VXBX7 @ < < < < > Y T Y t d f d e d d d r d d d d d d d d f 5 } kXlX>.+ < < < < < < < < # > # # > & |.lX|.k r d d d d r d d d f d d d d d d d 8 U P.I.L > < 7 < # 7 < < < < < < < < < P.Y.W y d d d d d d d d d d d r < < 8 d r d d d d d d e f d d d k 6 ~ /.^...$ < < < < < < < < < < < > 2 > !.~./.k d d d d d d e d d d d d d d d r < < < 1 1 1 1 1 1 1 1 1 1 1 1 1 1 1 1 f k < X @ O O O @ O O @ @ O @ O O @ d g d 1 1 1 1 1 1 1 1 1 1 1 1 1 1 1 1 1 1 1 1 1 1 1 1 2 1 1 1 5 k d < @ @ O @ @ @ @ O O O O + @ O # r k d 1 1 1 1 1 1 1 1 1 1 1 1 1 1 1 1 1 1 1 1 1 1 1 1 1 1 1 1 5 f f > O O @ O @ @ O > r.3X3X| X @ < d g d 1 1 1 1 1 1 1 1 1 1 1 1 1 1 1 1 1 < < 1 1 1 1 1 1 1 1 1 j 4.] < O @ @ @ @ > X ) *X3X .. @ O > g d r 1 1 1 1 1 1 1 1 1 < < < d d d 6 ] @XOX) < 2 5 r 1 < 1 5 < r d 1 < 5 < +Xp.2 < < d 5 < 1 d r j a.1 > 5 r > 2 d 5 < 2 r 2 5 d 5 < < 5 4.8.1 d r w 7 7 7 7 7 7 7 7 7 7 7 7 7 7 7 7 7 7 7 7 7 7 B 7 7 7 7 7 7 7 7 B 7 7 7 7 7 7 7 d }.9X9X>.# 7 7 7 # X.9X9X9X_.# 7 7 8 # } eX9X_.7 7 < < r f d d < < 7 y r r r y y y y y r r y r y r r y r y r r y y y r y r y r y y r y r y r r y y y r y y r y r y r r y r r r y y y r y r r y ",
"d d d d d d d r d d 1 Q E.E.; < < < < < @ s.9.< < < < < < < : T T t d d d d d d d d d r d d d d r d d 5 >.lXkX( @ < < < < < < < 7 g j h c g @ ).lXkXc w d d r d d d d d d r d d d d d d 8 Q Y.P.i @ 7 < < < @ 7 @ 7 , < < < < < W I.P.0 0 d d d d d r d d d d d < < w f d d d d d d d d d d d d d r ..^.~.0 > 2 2 & < < < < < < < < < < # ..5X/.^ d k d d d d d d d d d d d d f 8 < < 1 1 1 1 1 1 1 1 1 1 1 1 1 1 1 2 1 k f > @ @ @ O O @ O O @ O O O O @ O 1 g f 1 1 1 1 1 1 1 1 1 1 1 1 1 1 1 1 1 1 1 1 1 1 1 1 1 1 1 1 r d d @ @ O @ O O @ O O @ O O O @ O O d g d 1 1 1 1 1 1 1 1 1 1 1 1 2 1 1 1 1 1 1 1 1 1 1 1 1 1 1 1 r d 6 @ O @ O O O @ + r 3X*X) X O O O r k r 1 1 1 1 1 1 1 1 1 1 1 1 1 1 1 1 1 < < 1 1 1 1 1 1 1 1 1 ] 7.{ @ @ @ @ O O > X [ 3X*.O @ O O @ d f r 2 1 1 1 1 1 1 1 1 < < < d d r r :X&.] j ` k.O.r 4.p.4.O.h.k r 4.t.r.@ n.t.< a.a.1 ` j.4.d < n.p.j v.4.j s.a.r ] 9.p.) h.[ 1 [ 9.a.d ` =Xf f r 7 7 7 7 7 7 7 7 7 7 7 7 7 7 7 7 7 7 B 7 7 7 7 7 7 7 7 7 7 7 7 7 7 w 7 7 7 7 w # } 1X} _.wX^ 5 5 w # _.9X} ^ h 7 7 7 7 8 9X}.} wXX.< 7 7 r d d d < < < f r r y r r r y r y r r r y r r y r r y r y r y y r y r y r r y w y r y r r y y r r y r y r r y r y r y w y y y r r y r y ",
"d d d r d d d d d d k E E.E.p > < < < < < O X < < < < < 7 , ; T T i d d d d d d f r d d d r d d d d d 4 _.lXkX0 < < < < < < 7 + / NXBXBXCX,X  =.zXkX} w k d d d d d d r d d d d d d r f 6 Q Y.P.B , , < < < 7 @ 7 @ < < < < 4 > L I.P.N d d d d d d d d d d d r < < 1 f d d d d d d d r d d d d d e ..5X~.0 > 2 < < < @ < < < < < < < < $ ..5X~.k 1 d d d d d r d d d d d d d d d < < < 1 1 1 1 1 1 1 1 1 1 1 1 1 1 1 r f d > O @ O O @ O @ @ O O @ @ O @ O < f f 1 1 1 1 1 1 1 1 1 1 1 1 1 1 1 2 1 1 1 1 1 1 1 1 1 1 1 1 d g r @ @ O + @ @ O @ O O O O @ O @ O 1 g d 1 1 1 1 1 1 1 1 1 1 1 1 1 1 1 1 1 1 1 < 1 2 1 1 1 1 1 1 d k r X @ O @ @ O O @ X ) k % O > O O 1 g d 1 1 1 1 1 1 1 1 1 1 1 1 2 1 1 1 1 < < < 1 1 1 1 1 1 2 1 [ O./ X > O O O @ O @ X 8 , > @ O @ O 5 g d 1 1 1 1 1 1 1 1 1 < < < d d f 5 $Xn.d < 4.r.$X] MXa.mXXXXXc.r NXa.;X4.c.8.p.j.n.a.&Xs.4.r k $X) $Xs.&.{ 4.#X8.$XOXOX>Xs.-Xr =X#Xn.oX< OX[ 1 r < 7 7 7 7 7 7 7 7 7 w # 7 7 7 7 7 7 7 7 7 7 7 7 7 7 7 7 7 7 7 7 7 < 7 7 7 7 7 7 7 # # d wX} # < 8 $ _.}.$ $ # 7 7 7 # ^ wXk   }.2X# 8 7 r d d d < < w f r r r y y r y r r y y r y r y r r y r y r y r r y r y r r y y y r r r y y r r y y r r r y r r y y r r y y y r y r r r r ",
"r d d d e d d d d d 6 E E.E.p 2 < 7 < < < 4 < < < < < < < < - R R N 6 d d d d d d r d d d d d d d d d 4 >.lXaX0 # < < < < < < @ x mXMXMXNX@X  ~ ;.;.h r d d d d d r d d d d d d r d d k 0 W Y.P.B # < < < < < 7 @ 8 < # < < < > Q Y.I.N d d d d d d d d r d d r < < 8 f d d d f d d d d d d d d f w ..5X~.2 < < < < @ n < < < < < < < < $ ~ 5X~.~ 5 d d r d d d d e d d d d d d 5 < < 1 1 1 1 1 1 1 1 1 1 1 1 1 1 1 1 r f d # O O @ @ + 1 O X @ O O @ @ @ O 5 g f 1 1 1 1 1 1 1 1 1 1 1 1 1 1 1 1 1 1 1 1 1 1 1 1 1 1 1 < d d r O O O O @ O 1 . O @ @ O O @ O O 1 g d 1 1 1 1 1 1 1 1 1 1 1 1 1 1 1 1 1 1 1 1 1 1 1 1 1 1 1 1 d f r @ @ O O O O O O @ X X , O O @ + 6 k d 1 1 < 1 1 1 1 1 1 1 1 1 1 1 1 1 1 < < < 1 1 1 1 1 1 1 1 [ 7./ + O @ O @ @ O O @ X @ @ O @ @ @ d g r 1 1 1 1 1 1 1 1 1 < < < d d f r k XXgX/ ] h.nX9.-XX +X7.g OXg >X+ t.j.c.u.@X+X#X=Xc.XXj 5 n OXj b.XXg j u.-Xs.$X) [ %XO $Xj OX[ 1 >X5 XX9.< f 7 7 7 7 7 7 7 7 7 7 7 7 7 7 B 7 7 7 7 7 7 7 7 7 7 B 7 7 7 7 7 7 7 7 7 7 7 B 7 5 7 w # X.qXh 5 7 7 $ }.wX1X}.^ < 1 9 B } qXh $ _.eX5 w 7 r d d d < < 7 f r r r r y r r r r r r y r r r y y r r y r r r r r r y r y r y y y y y r r y r r y r y r y y y r r y y r r y y r r y y r ",
"d d d d d d d d d d k Q E.E.; 2 < # < < < < < < < < < < < @ ; R Y t k r d d d r d d d d d d d d d d g 5 _.lXzX~ + < < < < < < < < r 1 w r 5 < ~ ).;.h r d r d d d f d d d d r d d d d e 0 Q U.P.N , < < < < < $ u.NX7.O < < < > E Y.P.f d d d d d r d d d d d 6 < # 8 r d r d r r d d d d e d d f t ..5X~.~ # < < + ) BX&X< < < < < < < + ..5X~.^ d d d d d d d d d d d d d d d r < < < 1 1 1 1 1 1 1 1 1 1 1 1 1 1 1 r u k > # @ @ @ X l.l.1 O @ @ O O @ @ 1 g d 1 1 1 1 1 1 < 1 1 1 1 1 1 < 1 1 1 1 1 1 1 1 1 1 1 1 1 1 d k d , O O O @ > .Xz., O @ + @ O O O 5 g d 1 1 1 1 1 1 1 1 < 1 1 1 1 1 1 1 1 1 1 1 1 1 1 1 1 1 1 1 d k r > @ @ O @ @ O @ O > @ O > O O @ r u d 1 1 1 1 1 1 1 1 < 1 1 1 1 1 1 1 1 < < < 1 1 1 1 1 1 1 1 ] 4.) @ @ O O O O O @ @ @ @ O O @ @ @ f f 5 1 1 1 1 1 1 1 1 1 < < < d d r f 5 % j.#X$X4.>Xr.-X< XX7.{ OXg mX> a.j.j.t.#Xj.` ) < 8.:Xr j @Xj 2 8.-X@Xp.oXh.oX) O.XX1 $Xj OX4.d >Xr +X8.< r 7 7 7 7 7 7 7 7 7 7 7 7 7 7 7 7 7 7 7 7 7 7 7 7 7 7 7 B 7 7 7 7 7 B 7 7 7 7 7 9 8 # ^ wX>.# 5 7 7 # ^ _.X.9X9Xw w w # X.qXf $ _.eX7 < < r d r d < < 7 y r r y r r y r y y r r r r y r y r r y r y r y y r y r y r r y y y r r y r r y r r r r y r r r r y r r r y r y r r y r y ",
"d d d d d d d d d 6 d l E.E.R > 7 # < < < < < < < < < < < < V R Y f d d r d f d d d r d d d d r d d r 6 %.kXzX_.+ < < < < < < < < < < < , < < +.;.>.r d f d d d d r d d d d d d d r d d 5 U P.I.Q @ # < < < < O s.ZXhX7 7 , < 9 W Y.W 8 d d d d d r d d d d d r < < 1 d d d d d d d d f d d d d d w ~ ^.5X..+ < , w hXZXOX@ < < < < < < 2 !.5X!.8 6 d d d d d d d d d d d d d f d < < 1 1 1 1 1 1 1 1 1 < 1 1 1 1 1 1 5 f f < + O @ X  .3X*X1 @ @ O O @ O @ r f d 1 1 1 1 1 1 1 1 1 1 1 1 1 1 1 1 1 1 1 1 1 1 1 1 1 1 1 1 5 f f < @ @ , X 7.jX.X, O @ O O O O , r d 6 1 1 1 1 1 1 1 1 1 1 1 1 1 1 1 1 1 1 1 1 1 1 1 1 1 1 1 1 d f f < @ @ @ @ O O O O @ @ @ @ X O < r f 5 1 1 1 1 1 1 1 1 1 1 1 1 1 1 1 1 1 < < 1 1 1 1 1 1 1 1 1 / r. .1 O @ O O O O @ @ O O @ O @ O < d g 1 1 1 1 1 1 1 1 1 1 1 < < d d r k c.OXOX4.$Xn.=Xr.-X< XX7.{ OXf mXXXgX) n.9.| $Xk.4.j.oXXXr r @X[ s.OXn.n.@X@Xa.@X) &.OX< =Xj oX>X=Xj.1 OX[ 1 d 7 7 7 B 7 7 7 7 7 7 7 7 7 7 7 7 7 7 7 7 7 7 7 7 7 7 7 7 7 B 7 7 7 7 7 7 7 7 7 7 # j qX_.o < 7 7 7 7 # o   } qX^ # 8 < ^ wX^   }.}.1 7 7 r d d d < @ 7 f r r y r y r r y y r y r r y r y r y y r y r r y r y r y r y y r y 9 y y r y r r y y r r r y y r y r y r r y r y r r r y ",
"d d d d d d d d d d d d E.E.! 5 < < < < < < < < < < < < < - T R ; d r d d d r d d d d d d d d d d d r d f aXlX|.< , < < < < < < < < < < < < 0 ).).+.5 d d d d d d d d d d r d d d f d d k k P.U.W @ 7 # < < < < 7 hXZXu.X 7 # L I.I.U d r d d d d d d d d d d r < < 5 f r d d d d d d d d d d d d f d /.5X/.2 2 < @XZX>X< @ < < < < < < k ~.5X..w k d d d d r d d d d d d d d e d < < < 1 1 1 1 1 1 1 1 1 1 1 1 1 1 1 1 d k r O @ O 3 +X3X/ . @ O @ O @ O < d f 8 1 1 1 1 1 1 1 1 1 1 1 1 1 1 1 1 1 1 1 1 1 1 1 1 1 1 1 1 5 d k 1 @ > X 1 *X3Xh X @ O O O @ @ < f f r < 1 1 1 1 1 1 1 1 1 1 1 1 1 1 1 1 1 1 1 1 1 1 1 1 1 1 1 1 d f < + @ O O O @ @ O O @ @ @ , O 5 f f 1 2 1 1 1 1 1 1 1 1 1 1 1 1 1 1 1 1 < < < 1 1 1 1 1 1 1 < k O.7.d O @ O @ @ O O O @ O O O O O 5 g g 1 1 1 1 1 1 1 1 1 1 < < < d d d r ) 4.) 1 n O.k g j r j k f j j >X` ) w j g w ' 4.j ) 4.f r < g.j./ 4.f r &.n k c f g j f j 1 @Xt.` 1 4.OXr d r 7 7 7 7 7 7 < - 7 7 7 7 7 7 7 7 7 7 7 7 7 7 7 7 7 7 7 7 7 7 7 7 7 7 7 7 7 7 7 7 0 9X}.k ^ k 7 7 7 7 X.} k }.9Xr 7 7 5 5 9X_.) qX>.# 7 7 r r r f < < 7 y y r r y r r r r r y r y r r r y y r r y r r y r y r r r y r r r y y r r y r y r r r y y r r r y r y y r r y y r r y y r ",
"d d d d d d d d d d k 6 E E.E.E > < < < < @ < < < < < < $ L T T N d r d d d d d d d d d d r d d d d r f 4 ).zXzX>.o < < < < < < < < < < # 5 %.).;.^ r d d r d d d d d d d d d d r d d f d 8 Q Y.P.L 2 < < < < < X ] CXVXg @ 9 W I.P.l d d d d d d d d d d d d r < < 5 f d d d d d d d d d d d d d d w ..^.~...X j BXBXj O w < < < < > > /.~.~.~ r d d d d d d d d d f d d d d d 1 < < < 1 1 1 1 1 1 1 1 1 1 1 1 1 1 1 1 r d f 5 O X r.MXl.X > @ O @ @ O @ r g d 1 1 1 1 1 1 1 1 1 1 1 1 1 1 1 1 1 1 1 1 1 1 1 1 1 1 1 1 1 1 r g f < # + z.MXy.. @ @ O @ @ @ @ d k f 1 1 1 1 1 1 1 1 1 1 1 1 1 1 1 1 1 1 1 1 1 1 1 < 1 1 1 1 1 1 e g d 2 O O O @ O O O @ O @ @ + > y k d 1 1 1 1 1 1 1 1 1 1 1 1 1 1 1 1 1 1 < < < 1 1 1 1 1 1 1 5 1 [ O.[ 1 O O O @ @ O O @ @ O @ O 2 f k r 1 1 1 1 1 1 1 1 1 1 < < < g d d d 1 < r f 8 1 r r 6 f 5 r r 5 j :X< 1 d r r f 5 < 6 1 1 r d r g 4.1 1 r r 1 5 d 6 d 5 r d r < OX] > r ' ) r d d w < 7 7 7 7 7 7 7 7 7 7 7 7 7 7 7 7 7 7 7 7 7 7 7 7 7 w 7 7 7 7 7 7 7 7 7 7 w # >.wX9XqXqX_.# 7 7 # }.qXqX9X} # w 7 7 B } 9XqX}.6 < 5 7 r d d d < < 7 y r r y y r y y r r r y r y r y r r y r y r y r r y r y r y y y r y y y w r r y r r y r r y r r y r r r y r r r y y r y r ",
"e f d d d d d d d d d k 6 E.E.E.L > < < < < < < < < # + : T T L 6 d d d d d d d d r d d d d d d r d d k w ^ aXzXkX( + < < < < < < < < # < ( ).;.} 6 d d d d d d d d r d d d d r d d d d d d u I.U.P.N > < < < < 7 @ v..X7 @ Q U.Y.Q 8 r d d d r d d r d d d k 5 < # 1 d d d d r d d d d e f d d d d f k /.^.~.k   / 4.@ < < < < < # > ..^.^.!.w d d d d r d d d d d d d d d d d r < < 1 1 1 1 1 1 1 1 1 1 1 1 1 1 1 1 1 5 d d r , . / l.k X 2 @ @ O @ @ 5 f f 6 1 1 1 1 1 2 1 1 1 1 1 1 1 1 1 1 < 1 1 1 1 1 1 1 1 1 1 1 1 < 1 k f d > . ' l.8 O @ @ @ @ @ @ 5 f g 5 1 1 1 1 1 1 1 1 1 1 1 1 1 1 1 1 1 1 1 1 1 1 1 1 1 1 1 1 1 1 d d k r @ O @ O O @ O @ O O O O r f f d 1 1 1 1 1 1 1 1 1 1 1 1 1 1 1 1 1 1 < < < 1 1 1 1 1 1 1 1 1 j O.O.] > O @ O O @ O O O @ O # r f d 5 1 1 1 1 1 1 1 1 1 1 < < < d d r f d k d d f r f d d d d d d f d g d k r d d d d f d f d d d d d 1 f d d d f d r f d k d d d d g g d d r 5 d d r 7 8 7 7 7 7 7 7 7 7 7 7 7 7 B 7 7 7 w 7 7 7 7 7 7 7 7 7 7 7 7 7 7 7 7 7 7 7 8 5 6 k k f k r 7 7 7 7 < r k < @ 5 7 7 7 7 < 8 k w < w 5 < r d d d < < 8 y r y r r y r y r y r r r y r r y r r y r y r r y r y r y r r y r y y y y r y r y r r r y r y y r y r y r r y y r r y r y ",
"d d d d d d d d r d d e d N E.E.E.E < > < < < < < < 7 : R R Y i d d d d d d e k r d d d d d d d d d d d f 5 %.kXzXkX>.$ < < < < < < < 8 } ).;.;.d r d d d d d d d d d d d r d d d d d d d r 1 U I.I.P.L > 2 < < < < @ X i W Y.P.W g f d d d d r d d d d d d d r < < 8 d d d r d d d d r d d d d f d d 5 ~ ~.^.^.X., @ < < < < < > 8 !.5X^./.^ r d d d d d d d d d d d d d d d d d < < < 1 1 1 1 1 1 1 1 1 1 1 1 1 1 1 1 , 8 k f d r X . O @ O O O O < r d f d 5 1 1 1 1 1 < 1 1 1 1 1 1 1 1 1 1 1 1 1 1 1 1 1 1 1 1 1 1 1 1 1 1 g d d r X . @ @ @ O X @ < r k f d 1 1 1 1 1 1 1 1 1 1 1 1 1 1 1 1 1 1 1 1 1 1 1 1 1 1 1 1 1 1 1 1 d d f r > @ @ @ O O O O @ < r k f r < 1 1 1 1 1 1 1 1 1 1 1 < 1 1 1 1 1 1 < < < 1 1 1 1 1 1 1 1 1 < ) O.4.) < O O O O @ O O @ < d f d 5 1 1 1 1 1 1 1 1 1 1 1 < < < k d d d d d d d d r d d d d d d d d d r d d d d d d d d d f d d r d d d d d d d d d d d d f r d d d r d d r d d d d r w w 7 7 7 8 7 7 w < w 7 8 7 7 7 7 7 7 7 7 7 7 7 7 7 7 7 < 8 7 7 w 8 7 7 7 7 1 w < 7 < # 7 7 7 7 7 7 w < < w w 7 < 1 7 7 w 8 < 7 w 7 7 < f d d d < < 7 y r y r y y r r r y r r y r r y r r y y r y y r y y r y r r y r y r r y r r y y r y r r y r r y r r y r r y r r y w y y y ",
"d d d d d f d d d d d d f 8 Q E.E.E.i 1 < < < < 7 7 t T R Y N d r d d d d d d d d d d f d d d d d d d d d d 5 >.zXlXkXk < < < < < < 4 ~ ).;.>.x r d d d d d d d d d d d d d d d d d r d d d d d Q I.I.P.r < < < < < 7 1 U I.I.P.N g r d d d d d d d r d d d d r < < 8 f d d d d d d d d d d d d r d d d 2 ..~.9XqX^ < < < < < < 5 ~ ^.~./.^ w d d d d d e d d d d r d d d d d f r > < 1 1 1 1 1 1 1 1 1 1 1 1 1 1 1 1 1 1 1 r f ] | 1 < @ O @ > @ > 1 f f d 1 1 1 1 1 1 1 1 1 1 1 1 1 1 1 1 1 1 1 1 1 1 1 1 1 1 1 1 1 1 1 1 1 1 6 g ] ] < > @ > + @ , 2 8 f f r 1 1 1 1 1 1 < 1 1 1 1 1 1 1 1 < 1 1 1 1 1 1 1 1 1 1 1 1 1 1 1 1 1 1 e k g d < > @ O O > , > w k d d 1 1 1 1 1 1 1 1 1 1 1 1 1 1 1 1 1 1 1 1 < < < 1 1 1 1 1 1 1 1 1 1 1 ' 4.7./ > > @ @ O @ @ 2 r g f r 1 1 1 1 1 1 1 1 1 1 1 1 < < < d e k d d d d d d d d d d d d d d r d d d r d d d d r d d d d d d d d d d d d d d d d r d d d d r d d d d d d d d d r < < 7 7 7 < < 7 7 < 7 B < < 7 7 7 7 7 < 7 7 7 7 7 < 7 7 7 < 7 7 7 < 7 7 B 7 < < w 7 7 7 7 7 7 1 7 7 7 7 7 < 7 7 w < 7 7 < < 7 7 7 7 < < r d d d < < 7 y r r y r r y r u y r y r r y r y y r r y r r y r r y r y r r r r y r r y y r r r r y r r y r r r y r y y r y r r y r y y ",
"d d d d d d d d d d d d d d 8 G E.Q d d d r r 5 r d d Y Y t d r d d d d d d d d d d d d d d d d d d r d d d r 6 %.kX>.4 k r 5 r r d r r +.;.h r d r d d d d e d d d d d d d d d d d d d d d d k d U P.U 0 f r 5 r d d d r W W N 8 r d d r d d d d d d d d d d r < < 7 f d d d d d r d d d d d d d d d d 6 1 X.qX_.7 f r 5 r d d d d !./.~ 5 k d d d d d d d d r d d d d d d e d r < < < 1 1 1 1 1 1 1 1 1 1 1 1 1 1 2 1 1 1 1 d O.k 2 1 < 1 < 1 1 1 1 d d 1 1 1 1 1 1 1 1 1 1 1 1 1 1 1 1 1 1 1 1 1 1 1 1 1 1 1 1 1 1 1 1 1 1 1 < k | d 1 1 2 < 2 < 1 1 5 d r 1 1 1 1 1 1 1 1 1 1 1 1 2 1 1 1 1 1 1 1 1 1 1 1 1 1 1 1 1 1 1 1 1 1 1 1 r d 1 1 1 < 1 < 1 1 1 1 k d 1 < 1 1 1 1 1 1 1 1 1 1 1 1 1 1 1 1 1 1 1 < < < 1 1 1 1 1 1 1 1 1 1 1 1 ) | 8 1 1 < 1 1 < 1 1 8 k 8 1 1 1 1 1 1 2 1 1 1 1 1 1 1 < < d d r f r d r d d d d r d d d r d d r d d d d d r d d d d d r d d r d d d d d e d d d d f r d d d d d r 6 d d d r d d 5 r r r r 5 d r r r w r r r r r w r 5 d r r r r r 5 r r r r w d r 5 r r w r r r r r r r w r r 5 r r r r r 8 r r r r w r r r 8 r r r r r d d d r < < 7 y r y r y y r y r r y y r r r r r r r r r r r r r r r y r r y y r r y r r r r r y y r y y r r y r y r r y r r y r y y y y ",
"f d d d d d d d d k d d r r y d l e d d d d d d d r d r t d f d d d r d r d d d d d d d d d d d d d d d d d r d 5 ^ f r d d f d d d d r k k r d d d d d d d d d d d e d d d d r r d d d d d d d d 6 N d d d d d d d r y 0 u r d k d d d d d d d d d d d d d d d < < 1 d r d d d d d d d d d d d d d k 6 d k w ^ r 5 d d d d d f d r k k 5 6 r d d d d d d d d d k d e d d d d f 6 < < 1 1 1 1 1 1 1 1 1 1 1 1 1 1 1 1 1 1 1 1 2 r 1 1 1 1 1 1 1 1 1 1 1 1 1 1 1 1 1 1 1 1 1 1 1 1 1 1 1 1 1 1 < 1 1 1 1 1 1 1 1 1 < 1 1 1 1 1 1 1 1 r 1 1 1 1 1 1 1 1 1 1 1 1 1 1 1 1 1 1 1 1 1 1 1 1 1 1 1 1 1 2 1 1 1 1 1 1 1 1 1 1 1 1 1 1 1 1 1 1 1 1 1 < 1 1 1 1 1 1 1 1 1 1 1 1 1 1 1 1 1 1 1 1 1 1 1 1 1 1 1 1 1 1 1 < < < 1 1 1 1 1 1 1 1 1 1 1 1 1 8 1 1 1 1 1 1 1 1 1 1 1 1 2 1 1 1 1 1 1 1 1 1 1 1 1 < < < d d d d d d d d d d d d d d d d d d d d d d d d d d d d r d d d d d d d d d d d d d d d d d d d d d d d d d d d d d d f d d d f d d f d d f d d d d d f d d d d f f d d d d d f d d d f d d k d d d d d f d f d f d d d d d d d k d d f d f d d d d d d d d d d d d d < < 7 y r y r r r r r y r r r y r r y y r y y r y r r y y r y r r y r y y r y y r y y r r y r r r y y r r y r r y r r y r r r y ",
"d d d d d d d d r d d d d d d f d d d d d d d d f d d d f d d r k d d d d d d d d e d d d d d e r d d d d r d d k r d d d d r d d d d d r 5 d d d d d d d r d d d d d d d d d d d d d d d d d d r d d d d r d d d d d d d 6 d f f r d d d d r d r d d d d d d d < @ w k r d r d d d r d d d d e r d d d d d d r r d d d d d d d d d e d d d d f d f d d r d d d d d d d d d d d r < < < 1 1 1 1 1 2 1 1 1 1 1 1 1 1 1 1 1 1 1 1 1 1 1 1 1 1 1 1 1 < 1 1 1 1 1 1 1 1 1 1 1 1 1 1 1 2 1 1 1 1 1 1 1 1 1 1 1 1 1 1 1 1 1 1 1 1 1 1 1 1 1 1 1 1 1 1 1 1 1 1 1 1 1 1 1 1 1 1 3 1 1 1 1 1 1 1 1 1 1 1 1 1 1 1 1 1 1 1 1 1 1 1 1 1 1 1 1 1 1 1 1 1 1 1 1 1 1 1 < 1 1 1 1 1 1 1 1 1 1 1 1 1 1 1 1 1 1 1 1 1 1 1 < 1 < < < 1 1 1 1 1 1 1 1 1 1 1 1 1 2 1 1 1 1 1 1 1 1 1 1 1 1 1 1 1 1 1 1 1 1 1 1 1 1 1 < # 5 d d d d d d d d r d d d d d d r d d d d r d d d d d d d d d d d d d d d d d d d d d d d d r d d d d d d d d d d d d d r r r r r r w d r r r f r r d f r r r r r r r r r r r r r d r r r f r 8 w r r r w d r 1 r r r r r r r r r r r r r r r r r f r d r r d r d d d d < < 8 y y y r y r y r y r r r r r r r y r r r r r r y r r y y y r r r y y y r y r r y y r r y r r y r y r r y r y y r y r r r y ",
"r d d r d d d d d d d d d r k d d d d d r d d d r d d r r d d d d e d d d d d d d d d d d r d d d d d d d d d d d f d r d d d d d d d d f k d d d d d d d d d d d d d d d r d d d d r d d r d d d d d d d d d d d d r d r d d d d d r d d d d d d d d d f d 6 r < < 8 d d d d d d d d d d d d d d d d d d d d d d d d d d d d d d d d d d d d d d d d d d d d d d d r d d d d d 8 < < 1 1 1 1 1 1 1 1 1 1 1 1 < 1 1 1 1 1 1 1 1 1 1 1 1 1 1 1 1 1 1 1 1 1 1 1 1 2 1 1 1 1 1 1 1 1 1 1 1 1 1 1 1 2 1 1 1 1 1 1 1 1 1 1 1 1 2 1 1 1 1 1 1 1 1 1 1 1 1 1 1 1 1 1 1 1 1 1 1 < 1 1 1 1 1 1 1 1 1 1 1 1 1 1 1 1 1 1 1 1 1 1 < 1 1 1 2 1 1 1 1 1 1 1 1 1 1 1 1 1 1 1 1 1 1 1 1 1 1 1 1 1 1 1 1 1 1 1 1 1 1 1 1 1 1 < < 1 1 1 1 1 1 1 1 1 1 1 1 1 1 1 1 1 1 1 1 1 1 1 1 1 1 1 1 1 1 1 1 1 1 1 1 1 1 1 1 < < < d d d d r d d d d d d d d d d d d d d d d d r d d d d r d d r d d d d k e r d d d d r d d d d d d d d r d r d d d d r < 7 < < 5 < 7 7 7 7 < < < 7 < < < < 7 7 < < < 7 < 7 < < w < 7 7 < < 7 < 7 7 7 < 7 7 w < 7 7 < < 7 7 < 7 < < 7 7 < < < 5 < < < 7 < < 7 w r d r f < < 7 y r y y y y r y r r r r r r r y r r r y r r r r y y r y y r y r r y y y r r y y y y r r y r f y r r y y y r r r r y r y r ",
"d d d d d d d d d d d d d d d d d d d d d d d r d d d d d r d d d d d d d d d d d d d d d f d d d d d d d d d d d d d d d d d d d r d d r d d d d d r d d d d d d d d d d d d d d d d d f d d d d d r d d d r d d r d d d d d d r d d d d d d d d d e d d d d r < # w f d d d d d d d d d r d d d d r d d d d d d d d r d d f d d r d d d d d d d d d e d d r d d d d d d d d d r < < < 1 1 1 1 1 1 1 1 1 1 1 1 1 1 1 1 1 1 1 1 1 1 1 1 1 1 1 1 1 1 1 1 1 1 1 1 1 1 1 1 1 1 1 1 1 1 1 1 1 1 1 1 1 1 1 1 1 1 1 1 1 1 1 1 1 1 1 1 1 1 1 1 1 1 1 1 1 1 1 1 < 1 1 1 1 1 1 1 1 1 1 1 1 1 1 1 1 1 1 1 1 1 1 1 < 1 1 1 1 1 1 1 1 1 1 1 1 1 1 1 1 1 1 1 1 1 1 1 1 1 1 1 1 1 1 1 1 1 1 1 1 1 1 1 1 1 1 1 1 1 1 1 1 1 2 < < 1 1 1 1 1 1 1 1 1 1 1 1 1 1 1 1 < 1 1 1 1 1 1 1 1 1 1 1 1 1 < 1 1 1 1 1 1 1 1 < < < d d d d d r d d d g d d d d d d d r d d d d d d d d d d d d d d d d d d d d d d r d d d d d d d d f d d d d d d d d r 7 w 7 7 7 7 7 7 7 7 w < 7 7 7 7 w 1 7 7 7 7 w 8 w 7 7 7 7 7 < w 7 7 w 7 7 7 7 7 7 7 8 w w 7 7 7 7 7 7 7 w 8 w 7 7 7 7 7 w 9 7 w w 8 w < r f d d < < < < < < < < < < 7 7 7 7 7 7 < 7 7 7 < 7 7 7 7 7 7 < < < < < < < < < < < 7 < 7 < < < < < < 7 < < < < < 7 < < < 7 7 7 7 < 7 7 ",
"d d d d e d d d d d r d d d d e d d d d d d d d d d d d d d d d d d d d d r f d d d d d d d d d d d r d d d d r d d d d r d d d d d d d d r d d d d d d d d r d d d d d d d d d r d d d r d k e d d d d d d d d d f d d d d d d d d d d r d d d d d d d d d d d < < 8 f r d d d d r d d d d d d d d d d d d r d d d d d d d d r d d d d d d d d d d d d d d d d r d d d d r d d r > < < 1 1 1 1 1 1 1 1 1 1 1 1 1 1 1 1 1 1 1 1 1 1 1 1 1 1 1 1 1 1 1 1 1 1 1 1 1 1 1 1 1 1 1 1 1 1 1 1 1 1 1 1 1 1 1 1 1 1 1 1 1 1 1 1 1 1 1 1 1 1 1 1 1 1 1 1 1 1 1 1 1 1 1 1 1 1 1 1 1 1 1 1 1 1 1 1 1 1 1 1 1 1 1 1 1 1 1 1 1 1 1 1 1 1 1 1 1 1 1 1 1 1 1 1 1 1 1 1 1 1 1 1 1 1 1 1 1 1 1 1 2 1 1 1 1 1 1 1 1 1 1 1 1 1 < < < 1 1 1 1 1 1 1 1 1 1 1 1 1 1 1 1 1 1 1 1 1 1 1 1 1 1 1 1 1 1 1 1 1 1 1 1 1 1 1 < < < d d d d d k d d r 5 d e d d d d d d d d d d d d r d d d d d d d r d f d d d d d d d d d d d d r d r d d d d d d d d r < 7 7 7 7 7 7 7 7 7 8 w 7 7 7 7 7 w 7 7 7 7 7 7 < < w 7 7 7 9 < # # < 7 7 7 7 7 7 8 < < 7 7 7 7 7 7 7 7 w < 7 7 7 7 w < # 7 # B < 7 < < r d d d < < < # < < < < < < @ # @ , @ < @ < @ < @ < @ < @ @ , < # < < < < # < < < , # < , # < < < < @ < # < < < , # < # , < # @ , @ @ # ",
"d d d r d d d d d d f f k f r k f d d r f k f d f f f f d r d d r 8 k f f f d d d d d d d d d d d d d r f k d d d f d f f r f k d r d d d d 6 d d g g f r d d d d e k f d d d d d d d d d d d d r f d d f f d d f f d d f f d d d f d d d d d d d d d d d d d d < < 1 d d d d r d d d d d d f g d f f f f d f k r d d d d d d d d d d d d d d d d d d d d d d d d d d d d d d r r < < 1 1 1 1 1 1 1 1 1 1 1 1 < 1 1 1 1 1 1 1 1 1 1 1 1 1 1 1 1 1 1 1 1 1 1 1 1 1 1 1 1 1 1 1 1 1 1 < 1 1 1 1 1 1 1 1 1 1 1 1 1 1 1 1 1 1 1 1 1 1 1 1 1 1 1 1 1 1 1 1 1 1 1 1 1 1 1 1 1 1 1 1 1 1 1 1 1 1 1 1 1 1 1 1 1 1 1 1 1 1 1 1 1 1 1 1 1 1 1 1 1 1 1 1 1 1 1 1 1 1 1 1 1 1 1 1 1 1 1 1 1 1 1 1 1 1 1 1 1 1 1 1 1 1 1 < < < 1 1 1 1 1 1 1 1 1 1 1 1 1 1 1 1 1 5 1 1 1 1 1 1 1 1 1 1 1 1 1 1 1 1 1 1 1 1 1 1 < < f d f 5 < 8 1 1 ) [ r k f d d g d f g f d f f d d f k r f f f d d d 8 r r f d g f f f f d r 1 d d d d d d d d d r d r < w 7 7 7 7 7 7 7 7 7 B 7 7 7 7 7 7 7 7 5 7 7 $ f f 7 7 7 7 9 ^ ^ ^ ^ ^ w w 7 7 5 > k h & < 7 7 7 7 7 7 7 7 7 7 7 7 B r ^ ^ ^ ^ 0 1 7 7 r d d d < < < 7 7 7 7 7 7 7 7 7 7 7 7 7 7 7 7 7 7 7 8 w 1 9 7 7 7 7 7 7 7 7 7 7 7 9 7 7 7 7 7 7 7 7 8 7 7 7 7 7 7 7 7 7 7 7 9 < 8 7 7 7 ",
"d d d d d d d r d r r < < 5 r < 2 r d d 8 < < d 6 > 1 f d d d d g g 1 < < 1 d d d d d e d d d d d d d d r 2 < d d f 5 < 1 f 1 < 5 f d d f r j g 1 > > r d d d d d d r d d d d d d f d e d d d d r 5 d d < > d f < 2 e d f 1 < f 5 5 d d d d y d d d d r d d d r < < w f r d d d d d d d d d < > 5 d > > 1 d < < r d d d d d d f f d d d f d d d d d d f d r d d d d d d r d d f 5 < < 1 1 1 1 1 1 1 1 1 1 1 1 1 1 1 1 1 1 1 1 1 1 2 O 2 1 1 1 1 1 1 1 1 1 1 < 1 1 1 1 1 1 1 1 1 1 1 1 1 1 1 1 1 1 1 1 1 1 1 1 1 1 1 1 1 1 1 1 O > 1 1 1 1 O 2 1 1 1 1 1 1 1 1 1 1 8 1 1 1 1 1 1 1 1 1 2 1 1 1 1 1 1 1 1 1 1 1 1 1 1 1 1 1 1 1 1 > O 2 1 > > 1 1 1 1 > > 1 1 1 > 2 1 1 < O 2 1 1 1 < 1 1 1 1 1 1 1 1 1 1 1 1 < < < 1 1 1 1 1 1 1 1 < O > 1 1 < < 1 > @ 1 1 1 1 1 1 1 1 1 1 1 1 1 1 1 1 1 1 1 1 1 < < < d k 5 ] gX=Xn.g g ) w < > w ) 2 8 , 2 f < < 2 r d 1 @ w d > 5 d r d j.) < < 1 5 < 1 1 < 1 4.t.1 f d d r d d d d d d r < 8 7 7 7 7 7 7 7 7 7 7 7 7 7 7 7 B 7 7 9 w # X.wXX.# 7 7 B ^ eX9X9X9XeXh < 7 5 < _.9X9X}.w 7 7 7 7 7 7 7 7 7 7 7 7 < } 9X9X9X9X2X8 7 7 r d d d < , 5 y y f y y y y y y f y y y y y f y y y y y y y y y y y f y y f y y y y f r f y r f y y y y y f y y f y r f y y r f y y y y ",
"d d d d d r d d d 5 g h.c.c j c.j.j 5 d [ n.u.r ) n.4.8 d d d X n.t.) XXk.[ r f d d d d d d d d r d r r g j.p.r d r ) n.4.< [ n.] w d d 5 < -Xj 8.n.j.j 6 f d r d d d d d d d d r d d d d d k r j a.d r t.c.j w d.h.k d 8 4.a.1 [ [ d d e d d d d r d d r d d d < < 5 f 6 d d d d d d d d f p.n.) f n.XX4.r a.j.d d f r 1 w d 1 1 f d w 1 d < d d r 5 5 d d d d r d d r d d d d d < < < 1 1 1 1 1 1 1 1 1 1 1 1 1 1 1 1 1 1 1 1 2 j r./ 2 1 1 2 < 1 > > 1 1 1 1 1 1 1 1 1 1 1 1 1 1 1 1 1 1 1 1 1 1 1 1 1 1 1 1 1 1 1 1 1 1 8 7.| < 1 2 d r.' < 1 1 < 2 2 < 2 < 1 > 1 1 1 1 1 1 1 1 1 1 1 1 1 1 1 1 1 1 1 1 1 1 1 1 1 1 1 1 1 8 O.7.d 1 O.r.1 1 1 d r.[ < 1 1 ]  .< < ) r.| 1 1 1 1 1 1 1 1 1 1 1 1 1 1 1 1 < < < 1 1 1 1 1 1 1 1 5 r.| 1 2 / ) 2 | r.1 < 1 1 < 2 1 > < 1 1 > < 1 1 1 1 1 1 1 1 < < < f f < 9.$Xr c.OXj O.r h.h.u.MXp.j c.j.r 4.p.n.j 5 4.XX` ) XX[ 5 r 4.#X1 9.n.] 9.j.4.9.j.k n -Xg d d d d d d e d d d r 7 7 7 7 7 7 7 7 7 w 7 7 7 7 7 7 7 7 7 7 7 # X.qXwX>.$ 8 7 7 8 ^ ^ k }.9X< w w # } wXX.} wXX.$ 7 7 7 7 7 7 7 7 7 7 7 7 r ^ ^ k qX_.# w 7 r d d d < < 7 y r y r r r r r r r r y r r r r r y r r r r r y y y r y r r r r r y y r r r r r r r r r r r r r r r r r r r r r r r y r r ",
"d r d d d d d d k d ] a.s.OX4.t.c.XX1 d t.9.OXt.oXa.$X[ 5 r j ' OX4.d.#X7.>Xj r f d d k d d d d d d f 5 XXk.OX9.1 d -Xa.$X| -Xh.@Xj r r ) ) >Xg >Xa.h.OXr r d d r d d d d d d d d d d d d d 6 f XXNX1 4.=Xc.h.a.XXn.s.1 g XX@X[ j.] 1 g d d d d d d d d d d d d < < 1 f d d d d e d d d r j h.a.XX9.-X) j p.OXn.h.5 r g 7.' k O.[ r j ] [ g 4.j 8 j ` &.d d d d d d d d d d d d r , < < 1 1 1 1 1 1 1 1 1 1 1 1 1 1 1 1 1 1 1 1 1 j.| g.d 1 5 d / d j ^ 1 1 1 1 2 1 1 1 1 1 1 1 1 1 1 1 2 1 1 1 1 1 1 1 1 1 1 1 1 1 1 1 1 > 7.r.i. .< 1 a.7.g.j 1 1 5 / k d j k 8 ) 8 1 1 1 1 1 1 1 1 1 1 1 1 1 1 1 1 1 1 1 1 1 1 1 1 1 1 1 1 j *.r.r. .i.y.| < > y.7.i.) > k r.r.f  .g.' | r 1 1 1 1 1 1 1 1 1 1 1 1 1 1 1 < < 1 1 1 1 1 1 1 1 1 y. .j 1 2 +Xr./ i.r.8.> 1 d h / 1 ) d < 1 ) ^ 1 1 1 1 1 1 1 1 < < < d d 1 8.XX> g $Xa.OXt.$X[ 9.mX[ { [ OX7.-XXXj.n.) >X9.| $X7.OX) < j.u.[ -X7.7.mXt.mXj.oXh.> +X7.1 f r d d d d d d d r 7 7 7 7 7 7 7 7 B 7 w 7 7 7 7 7 7 7 7 7 7 # } } 9X_.$ w 7 7 < w + d qXX.$ 9 8 # ^ qX^ k wX} # 7 7 7 7 7 7 7 7 7 7 7 7 7 < $ } qX^ < 1 < r d d r < < 7 y y r y r y r r y r y r y r y y r r r y r r r y r 7 r r r r r r y y y r r r r r r r y y y r r y r y r r y r y y r y r r y ",
"d d d d d d d r < 1 f < | oXf < u.n.5 k r < j.n.OXX p.c.< g =Xn.MX$.s.9.w =X) r d r f r d d d d d d r g =Xd | XX> [ $XO s.-Xj.X OX4.< ] :Xn.MXf $Xk ] $Xr d d d d d d d r d d d d d d d d d r k c -Xf n.r.1 =X=X) j =X< ] a.9.XXOXp.g r d d d d d d d r r d d d < < 1 f d d r d k d d d d d < d #Xu.mXa.g XX&.f =Xr r OXOXt.) j.-X[ oX-X-X=XOX=X1 OX-X@Xn.1 d d d d r d r d d d r < < < 1 1 1 1 2 1 1 1 1 1 1 1 1 1 1 1 1 1 1 > ) i.. r.[ X / +Xy.v.r.j.' < 1 1 1 1 1 1 1 1 1 1 1 1 1 1 1 1 1 1 1 1 1 1 1 1 1 1 1 1 1 1 1 1 z.d k a.> g g.O  .7.> 1 g.z.' k.a.l.i.g.r.1 1 1 1 1 1 1 1 1 1 1 1 1 1 1 1 < 1 1 1 1 1 1 1 1 1 1 1 1 > k i.i.j 5 g.< d g.2 ) r.O d r.t.d l.j > < 1 1 1 1 1 1 1 1 1 2 < 1 1 1 1 1 < < < 1 1 1 1 1 1 < j k.7./ @ 4.a.7.7.) < h.1 > i.h.g.h.i.g.1 r.a.| 1 1 1 1 1 1 1 1 < < < d g < 8.XX1 g #Xa.n.) -X9.j =X> ) h.gXa.$X) g $Xa.j.. 4.mXj.mX7.> n.4.b.t.. [ =X. -X{ ] XXO +Xt.< d d r d d d d d d r w 7 7 7 7 7 7 7 7 7 7 7 7 7 7 7 7 7 7 7 7 8 5 o 9X>.$ 8 < 7 7 w $ _.qX8 7 7 7 7 # }.wXwX}.< w 7 7 7 7 7 7 7 7 7 w 7 7 7 8 # 2X1X& w 7 7 r d d d < @ 7 f r y r y r y y y r y r r y r r r y r y 9 f f y y u.y f y y y y y y y y y y r y y r y r r y r y r r y y y y r r y r y r y ",
"d d d r d d r k 9.4.r a.NXp.w +XmX4.1 r c -XmX{ $Xa.=Xn.> 7.$X. @X7.a.MXhXOX5 f d d d d r d d e d d 5 j oXj O.@X@ 4.XX1 p.mXa.< XX9.@ c.h.O mXf ;XmXmXa.1 d d d d d d d d d d d r d d d d r r f 1 >Xf k.9.w -X=X` j -X5 f XX#XgXoXXXt.1 d d d d d d d d d d d 5 < < 1 f d d d d d d r f r k 1 n.j.r &.d.$X+X[ k -Xf d OXd.8 g ] OXs.@X[ ] =X+ =Xj OX7.w >Xg r d d d d d f d d d 5 < < 1 1 1 1 1 1 1 1 1 1 1 1 1 1 1 1 1 1 1 1 1 ) r.> r.| X ) g.. k.f ) r.> 1 1 1 1 1 1 1 1 1 1 1 1 1 1 1 1 1 1 1 1 1 1 1 1 1 1 1 1 1 1 1 8 i.k g g.> j y.< | r.X ) g.X < l.1 | r.> g.8 < 1 1 1 1 1 1 1 1 1 2 1 1 1 1 1 1 1 1 1 1 1 1 1 1 1 1 1 < a.] r.j d h.2 k i.1 ) i.> 1 k k r h.5 1 1 1 1 1 1 1 1 1 1 1 1 1 1 1 1 1 1 < < < 1 1 1 1 1 1 2 ' l./ g.|  ./ 7.4.) 1 h.d O g./ k h.X a.j r.r.1 1 1 1 1 1 1 1 1 < < < d d 1 8.n.. 9.=X4.@X> f #Xj.$X< -Xt.XXa.@Xn ) #Xy.+XX | gX) ` g 1 n.7.h.j.. | =XO $X] 4.XX# XX9.< f d d d d d d d d r < 7 7 7 7 7 7 7 7 7 7 B 7 7 < 7 7 7 7 7 7 w 5 2 9X_.$ 9 w 7 7 < < 9X_.+ 7 7 7 B g 0X}.1X9X^ < w 7 7 w 7 7 w 7 7 7 7 7 w # k qXX.# 8 7 7 r d r f < < 7 y r y r r y r r r y r y r r y r y y y 7 0.mX;Xc.f gX7 < y r < < y w 7 9 8 7 9 w y r r r y y r r y y r y y w y y r r y r r ",
"d d d d d d r g j.t.5 > f >Xj . ) ;Xr f 8 X p.XXf t.OXt.< 7.OX% m.4.s.8.. @X8.< d d d d d d d d d d f k $Xf 4.OX> ` OXO h.$Xj.X OX4.> c.a.. >Xj @Xf r :Xj r d d d d r d d d d d d d r d d d d d 5 :Xf j.t.< =X@X) j -Xr r ) n.n.a.7.c.< f d d d r d d d d d d d < < 5 f d d d d r d d d k < 4.n.< w O 5 @X$X[ g -Xr r 8 s.@Xn.n.-Xs.OX` [ XX1 #Xn OX4.< >Xj r d d r d d d d d d r < < < 1 1 1 1 1 1 1 1 1 1 1 1 1 1 1 1 1 1 1 > j i.X r. .X ' i.@ g.f ) 8.> 1 1 1 1 1 1 1 1 1 1 1 1 1 1 1 1 1 1 1 < 1 1 1 1 1 1 1 1 1 1 1 < i.k k a.> d g.> | 8.X ' i.X < l.1 | &.1 z.r 1 1 1 1 1 1 1 1 1 1 1 1 1 1 1 1 1 1 1 1 1 1 1 1 1 1 1 > | *.. i.j 8 g.< 5 g.< ] r.> 1 < 1 2 l.j X > 1 1 1 1 1 1 1 1 1 1 1 1 1 1 1 1 < < 1 1 1 1 1 1 1 > ) i.% r.OXg.l.v.r.) 1 h.1 > i.j j i.> i.j >  .g.1 1 1 1 1 1 1 1 1 < < d d 1 4.MXOX;X) &.OX[ @X@X| $Xn.b.%X$Xt.OX) / $Xg =X-X4.h.$Xj.j < a.h.g :XOXa.OX# $X) 4.n.< OX[ 5 d d d d d d d d d 6 < 7 7 B 7 7 7 7 7 7 7 7 7 7 w 7 7 7 7 7 4 < 5 4 9XX.$ 8 7 7 w # X.qX( # 7 7 5 + _.9Xo o eX}.# 9 7 7 7 7 # # 7 7 7 7 7 8 $ _.9X8 7 7 5 w r d d d < < 7 y r r y r y y y r r r r y y r r y y f @ p.c.X mX$.gXc.m.g c m.OXg $.$Xj.y c.%Xc r y r y r r y r r r y y y y r r r y r y r ",
"e d d d d d d r < < &.h.c.OX9.a.OXj.j.p.r.a.@Xt.] a.oXk r j >Xi.MX4.j.:Xp.>X] 1 d d d d d d d d d d f < j.XX=X4.oX/ XXXX=X' $X+X$Xg 1 4.>Xf.NXf >Xn.k.$Xk r d d d d d d d d e d d d d d d d d d r gXf [ =XOXd.r.%X#Xa.1 f 1 n.) s.>X8.1 d d d d d d d d d d d r < < < f r d d d d d d d r O.NXh.t.7.h.XXj.8.@X#Xa.1 g u.a.$X$Xj.XXj.@X[ &.$X< -Xn +X=Xn.OX1 f r d d d d d d d d 8 < < 1 1 1 1 1 1 1 1 1 1 1 1 1 1 1 1 1 1 1 1 1 < a.r.g.d > ' g.X k.k ] y.2 1 1 1 1 1 1 1 1 1 1 1 1 1 1 1 1 1 1 1 1 1 1 < 1 1 1 1 1 1 1 1 > | i.g.' t.k r.r.h.j > d h.8.) k.1 7.7.1 h.8 2 1 1 1 1 1 1 1 1 1 1 1 1 1 1 1 1 1 1 1 1 < 1 1 1 1 > | OX| ]  .i.g. .r.j 7.t.g./ 1 1 1 1 <  .k.|  .1 1 1 1 1 1 1 1 1 1 1 1 1 1 1 1 < < 2 1 1 1 1 1 1 1 5 g.r.a.j k 8.g.^ g.i.7.< > g.j j g.> a./ ) | j.k 2 1 1 1 1 1 1 < < < f d d d { ] g 5 f g g ] j 1 g ) r ) j f j r f g 5 g ] g r ] { f 1 { =Xg g ] g k d g f f r | @Xr d d d d d d d d d d d w 7 7 7 7 7 7 B 7 7 7 7 7 7 7 7 7 7 7 7 5 2 4 4 qX_.$ 7 7 5 9 # eX}.$ w 7 7 1 * X.wXX.} 9X_.$ 7 7 7 7 # _._.< w 7 7 7 7 w qX_.$ 7 7 < < r d d d < < 7 f r y r y r r r y r y r y r y r r y y 7 9.gXs.gXy mX*.m.j.r c c.c.$Xp.g s.c.0.OXr y y r r y r y r y y 9 y r r y r r y r y ",
"d d d d d d d f k r ) a.p.h ` h.t.d ] ) 4.h.7.< 4.d.j 5 k r ) p.O.j ) a.h.] 5 f d d d d d d d d d d d r d p.7.5 4.k j a.[ < ) d./ r f 8 4.t.&.f 4.s.p.j r d d d d r d d d d d k d d d d d d d d r | f 5 4.a.d 5 9.t.d r r g | 5 ) 9.d d d r d d d d d d d d d r < < w k f r d d d d d d d ) p.a.a.] a.t.g 5 0.u.d d d 0.h.j j s.7.j [ j j ] 1 | 5 XXj.r.g 6 d d d d f r d d d d r > < 1 1 1 1 1 1 1 1 1 1 1 1 1 1 1 1 1 1 1 1 1 < k | j 2 1 d ^ 2 / 1 k j 1 1 1 1 1 1 1 1 1 1 1 1 1 1 1 1 1 1 1 1 1 1 2 1 1 1 1 1 < 1 1 1 1 1 [ ] < / d 1 | / < 1 1 k 4./ j 1 k j 1 j 1 1 1 1 1 1 1 1 1 1 1 1 1 1 1 1 1 1 1 1 1 1 1 1 1 1 1 1 j | | | 1 ) [ < / f 1 | ) 2 1 1 1 1 1 < / 4.) 1 1 1 1 1 1 1 1 1 1 1 1 1 1 1 1 2 < < 1 1 1 1 1 1 1 < k &.j > 2 r k 2 ) [ 1 1 < / r d j 1 j 1 / 7.k 1 1 1 1 1 1 1 1 < < < d d d d 5 8 r d d r 5 1 d d r 6 r 1 d r 5 5 d r f r 5 r d 8 5 d f r [ j 5 5 r r d r d d 5 ) ) w f r d d d d d f d d r 7 7 7 7 7 7 7 7 7 7 7 7 7 7 7 7 7 7 7 7 7 7 7 # 9X>.+ w 7 7 # ^ 9XX.# 8 7 7 w < w _.9XqX}.w 7 7 7 7 7 $ }.1X7 7 7 7 7 # X.9X^ # w 7 7 7 r d d d < < w y r y r r r y r y r y r y r r r y r f 7 9.gXu.N r gX@ 9.v.x m.gXv.4.gX$.XXgX$XgXr r r r y r r y r y r r y r y r y r r r y ",
"d d d d d d d d r f 5 < < r 5 > < f w 5 < < 1 f 1 < r d r f r > 1 r 5 < < w d d d d d d r r f d d d d d d < < k 5 d r > w f 5 > 5 d d f 1 < 1 r 5 > < 8 d d r d d d d d f d d e d d d e d k r d f 5 r d 1 < r f < 2 d d d f 1 d r < d d d d d d d d d r d d d d < < 1 d r d d d d d e d k 5 < 2 < 5 2 < f d 1 < d d d < < r r 2 < 6 w f r 5 d r > -X[ X d d d d d d d d d d d d d < < < 1 1 1 1 1 1 1 1 1 1 1 2 1 1 1 1 1 1 1 < 1 < > < 1 1 < > 1 > 1 1 < < 1 1 1 1 1 1 1 1 1 1 1 1 1 1 1 1 1 1 1 1 1 1 1 1 1 1 1 1 1 1 1 1 1 > > 1 2 < 1 > 2 1 1 1 2 O > < 1 < < 1 > 1 1 1 1 1 1 1 1 1 1 1 1 1 1 1 1 1 2 1 1 1 1 1 1 1 1 1 1 > > > > 1 > > 1 > < 1 > < 1 1 1 1 1 1 1 2 O > 1 1 1 1 1 1 1 1 1 1 1 1 1 1 1 1 < < < 1 1 1 1 1 1 1 1 1 @ > 1 1 < 2 1 , > 1 1 1 > 1 < 2 1 2 1 < > < 1 1 1 1 1 1 1 1 < < < d d r f d d d r f d d f d d d d d d d d d d d r d d d d d d d d d d 1 r d d f d d d d d d 5 6 f d d d r d d d r d d r 7 w 7 7 7 7 7 7 7 7 7 7 7 7 7 7 7 7 7 7 7 7 7 7 w 7 5 w 7 7 7 7 r 7 w < 7 7 7 7 w < 7 w # < 7 7 7 7 7 7 7 7 7 7 7 7 7 7 5 9 7 7 7 7 w < r d d d < < 7 y r r y y r r y r r y y r r y r y y y 7 p.c.X 8 f gX7 p.n.m.p.s.@X- x gX#Xc.y g r y r y r y r r y y r r y y r y r y y y r ",
"d d d d d d d d d d d d f d f f k r d f f f f d f f d d d d d d d d d f k d d d r d d r d d d d d d r d d f k r d d d g k r d f d d d d f d f d d k d d d d d d d d d d r d d d r d d d d d d d d f d d d k r d f f d d d d g d d f d d d d d d d d d d d d d r < < w f d d d d d d d d r f d f f r f d d d k k d d d f f d r d f d d d d f r d d ) j r f d d d d d d d d r d d 1 < < 1 1 1 1 1 1 1 1 1 1 1 1 1 1 1 1 1 1 1 1 1 1 1 1 1 1 1 1 1 1 1 1 1 1 1 1 1 1 1 1 1 1 < 1 1 1 1 1 1 1 3 1 1 1 1 1 1 1 1 1 1 1 1 1 1 1 1 1 1 1 1 1 1 1 1 1 1 1 1 1 1 1 1 1 1 1 1 1 1 1 1 1 1 1 1 1 1 1 1 1 1 1 1 1 1 1 1 1 1 1 1 1 1 1 1 1 1 1 1 1 1 1 1 1 1 1 1 1 1 1 1 1 1 1 1 1 1 1 1 1 1 1 1 1 1 < 1 1 1 1 1 1 1 1 1 < < 1 1 1 1 1 1 1 1 1 1 1 1 1 1 1 1 1 1 1 1 1 1 1 1 1 1 1 1 1 1 1 1 1 1 1 1 1 1 1 1 1 < < d d d d d d d r d d d d d r d d d d d d r d d d d d d d d d d d d d d f d d d d d d r d d d d r d d d d d d d d d d r < w 7 7 7 7 7 7 < 8 7 7 7 7 7 7 8 w 7 w w 7 7 7 5 < 7 7 7 7 7 7 7 7 7 7 7 7 7 7 7 8 < w 7 8 7 7 7 7 7 7 7 7 7 7 w 8 7 7 7 B 7 7 7 7 8 7 r d d r < < 7 y y r r r y r r r y r r y y r y r y y 7 9.c.7 y f @X7 9.s.4.gXXXf.s.gXs.n XX-Xu.w y r y r y r y r r y y r r y r r y r r y ",
"d d d d d d e d d d d d r d d d d d d d d d d d d d d d d d d d d d d d r f d r d d d d d d d r d d d d d d r f d d d d f d d d d d d d d d d d d d d d d d f d d d r d d d d d d d d d r d d d d d d d d d d d d d d d d d d d d d r d d r d d r d d d d r d 6 < @ 8 f d r d d d r d d d d d d r f d d d r e d d d d d d d d d d d d d d d d d k w r d d d r d r 6 d d d d d d r < < 1 1 1 1 1 1 1 1 1 1 1 1 1 1 1 1 1 1 1 1 1 1 1 1 1 1 1 1 1 1 1 1 1 1 1 1 1 1 1 1 1 1 1 1 1 1 1 1 1 1 < 1 1 1 1 1 1 1 1 1 1 1 1 1 1 1 1 1 1 1 1 1 1 1 1 1 1 1 1 1 1 1 1 1 1 1 1 1 1 1 1 1 1 1 1 1 1 1 1 < 1 1 1 1 1 1 1 1 1 1 1 1 1 1 1 1 1 1 1 1 1 1 1 1 1 1 1 1 1 1 1 1 1 1 1 1 1 1 1 1 1 1 1 1 1 1 1 1 1 1 1 1 1 1 < < < < 1 1 1 1 1 1 1 1 1 1 1 1 1 1 1 1 1 1 1 1 1 1 1 1 1 1 1 1 1 1 1 1 1 1 1 1 1 1 1 < < < r d d d d d d d d d d d d d d d d d d d f f d d d d d d d f d d d d d d d r d d d d f d d d d d d r d d d r d d d d 8 5 < 7 B 7 7 7 7 w < 7 7 7 7 7 7 7 < 7 7 < 7 7 7 7 < 7 7 7 7 7 7 7 1 7 7 7 7 7 7 7 7 7 7 7 < 7 7 7 7 7 7 7 w < 7 < < 7 7 7 7 7 7 7 7 w < 5 d d d < < 9 y r r r y r r y r r y y r y r r r y y r 9 r r y y 9 y r r w g y r y y r r y g y r y r r y r r r r y r r y r r r y r y r r ",
"d d r d d d d d d r d d d d r r d d d d d d d d d d r r d d d d r d d d d d d r d d r d d d d d d d r f d f d d d d d d d r d k 6 r d d d f d d d d d r e d d d d d d d d d r d d d d d d d d d d d d d d d d d d d d d d d d d d d d r d d r d d d d d d d d d < < 5 d d d d d d r d d r d d d d d r d d d d d d d d d d d d e d d d d r d d d f d d d d d d d f d d k d d r d r < < < 1 1 1 1 1 1 < 1 1 1 1 1 1 2 1 1 1 1 1 1 1 1 1 1 1 1 1 1 1 1 1 < 1 1 1 1 1 1 1 1 1 1 1 1 1 1 1 1 1 1 1 1 1 1 2 1 1 1 1 1 1 1 1 1 1 1 1 1 1 1 1 1 1 1 1 1 1 1 1 1 1 1 1 1 1 1 1 1 1 1 1 1 1 1 1 1 1 1 1 1 1 1 1 1 1 1 1 1 1 1 1 1 1 1 1 1 1 1 1 1 1 1 1 1 1 1 1 1 1 1 1 1 1 1 1 1 1 1 1 1 1 1 1 1 1 1 1 1 1 1 1 1 1 1 < < < 1 1 1 1 1 1 1 1 1 1 1 1 1 1 1 1 1 1 1 1 1 1 1 1 1 1 1 1 1 1 1 1 1 1 1 1 1 1 1 < < < d d r d d r d d d d d d d d d d d d d d d d d d d d d d d r r d d d d d 6 d d d r d d r d r d d d d r d d d d d d d r r r w d r r 5 d r r w r r r r d 5 d w r r r r 8 r r w d r r r r r 5 r d d 5 w r r r 5 d d r r d r r w r r r r r r d d 5 r r r r r r r r d d r f < @ 5 y r y y r r y r y y r r r y r r y r r r y y r y y y r y y y w y y r w f y r r y y r y r y r y y w y r y r r y y r r y y r ",
"d d d d d d d d d d d d r d r r r d d r r r r d r d r r r d d r f r d d d d d d d d d d d r d d d r f r r 5 5 r d d e d r r 0 f r r r y r 5 5 r r r r d d d d d d r d d d d d d r d d d d d d d d d d d d r d d d d r d d d d d d d d d d d d d d d r d d d d r < < 8 f r d d d d d d d d d d d d d d d d r d d d d d d d d d d r f d d d d d d r d d d d r d d r d d e d d d d d < < < 1 1 1 1 1 1 1 1 1 1 1 1 1 1 1 1 1 1 1 1 1 1 1 1 1 1 1 1 1 1 1 1 1 1 1 1 1 1 1 1 1 1 1 1 1 1 1 1 1 1 1 1 1 1 1 1 1 1 1 1 1 1 1 1 1 1 1 1 1 1 1 1 1 1 1 1 1 1 1 1 1 1 1 1 1 1 1 1 1 1 1 1 1 1 1 1 1 1 1 1 1 2 1 1 1 1 1 1 1 1 1 1 1 1 1 1 1 1 1 1 1 1 1 1 1 1 1 1 1 1 1 1 1 1 1 1 1 1 1 1 1 1 1 1 1 1 1 1 1 1 1 1 1 1 < < < 1 1 1 1 1 1 1 1 1 1 1 1 1 1 1 1 1 1 1 1 1 1 1 1 1 1 1 1 1 1 1 1 1 1 1 1 1 1 1 < < 5 d d d d d d d d d f r d d d d d r d d d r d d d d d d r d d d d d d d d r d d d d d d d d d d d d d d d d d d d d d k d d d f r f d d d d r f d d d d d d d d r f d d d d d d d d d d d d d d d d f f d d d d d d d d d d f d d d d d d d d d d d r d d d d d d d d f < < 8 y y r r y y r r r r y y r r y y r r y r y r r r y r y r r r y y y y y r y y y y y r y y r y r y y r y y r y r r y r r r y ",
"d d d d d d d f r d c ` ) _ _ _ { ` ) { _ _ ` { ) _ _ _ { ` ) { ` ) ` / r d d d d r d d d d d d d d w 0XvXvXvXvXvXvXvXvXvXvXvXvXvXvXvXvXvXvXvXvXvXvXvXvX^ d d d d d d d d d d d d d d d d d r d d d d e d d d d d d d d e d d d d d d d d r d d d d d d r d d d < < 1 f d d d r d d d d d d r d d d d d r d d d d r d d d d d d e k d d d d d d d d r d d d d d d d d d d d d d 1 < < 1 1 1 1 1 1 1 1 1 1 1 1 1 1 1 1 1 1 1 1 1 1 1 1 1 1 1 1 1 1 1 1 1 1 1 1 1 1 1 1 1 1 1 1 1 1 1 1 1 1 1 1 1 1 1 1 1 1 1 1 1 1 1 1 1 1 1 1 1 1 1 1 1 1 1 1 1 1 1 1 1 1 1 1 1 1 1 1 1 1 1 1 1 1 1 1 1 1 1 1 1 1 1 1 1 1 1 1 1 1 1 1 1 1 1 1 1 1 1 1 1 1 1 1 1 1 1 1 1 1 < 1 1 1 1 1 1 1 1 < 1 1 1 1 1 1 1 1 1 1 1 1 1 1 1 < < < 1 1 1 1 1 1 1 1 1 1 1 1 1 1 1 1 1 1 1 1 1 1 1 1 1 1 1 1 1 1 1 1 1 1 1 1 1 < 1 < < < f d d r d d d d d d d d r d d d d d r d d d d d d d d d d d d d d r d d d d r d d d d d d d d r d d d d d d d r d d d d e r d d d d d d d d d r d d d d d d d d d d d d d d d d d d d d d d d d d d d d d d d r d d d r d d d d d d d d d d d d d d d d d d d d d d r < < 7 y r r r r r r r r r r r r r r r y r r r r r r r r r r r y r r 9 r r r r r r r r r r r r r r r y y y r r r r r r r y r y r ",
"d r d d d d d d d r ) M g g g c c g j g g c g c g g c g c g j g g g n { r d d d d d d d d d d d d d 9 qXvX6X6X7X6X6X7X6X6X6X6X6X6X6X6X6X7X6X6X7X6X6X7XcX) 6 d d d d d r d d r d d d k e d d d d d d d d d d d d r d d d d d d d d r d d d d d d d r d d d d d d < @ 5 d r d d d d d r d d d r f k k d d k d d d d d g d d d d d d d d d d d r d d d d d d d d r d d d d d d d d r < < < 1 1 1 1 1 1 1 1 1 1 1 1 1 1 1 1 1 1 1 1 1 1 1 1 1 1 1 1 1 1 1 1 1 1 1 1 1 1 1 1 1 1 1 1 < 1 1 1 1 1 1 1 1 1 1 1 1 1 1 1 1 1 1 1 1 1 1 1 1 1 1 1 1 1 1 1 1 1 1 1 1 1 1 1 1 1 1 1 1 1 1 1 1 1 1 1 1 1 1 1 1 1 1 1 1 1 1 1 1 1 1 1 1 1 1 1 1 1 1 1 1 1 1 1 1 1 1 1 1 1 1 1 1 1 1 1 1 1 3 1 1 1 1 1 1 1 1 1 1 1 1 1 1 1 < < < 1 1 1 1 1 1 1 1 1 1 1 1 1 1 1 1 1 1 1 1 1 1 1 1 1 1 1 1 1 1 1 1 1 1 1 1 1 1 1 < < < r d d d d d d r d d d d d r d d d d d d d d r d d d r d d d r d d d d d d d d d d d r d d d d d d d d d r d d d d d d d d d d d d d d d d d d d d d d r d d d d d d d f d d d f r d d d d d d r d d d d d d d d d d d d d d d d d d d d d d d d r d d d d r d d d d d < < 7 y r y y y y y y y y y y y y y y y y y y y y y y y y y y y y r f f y y y y y y y y y y y y y y y y y y y y y y y y y r r y ",
"d d d d d d d d d r ) c w r r r r r y w r y y r r r r r r r y r r 8 c n 8 d d d d d d d d d d r d d 5 vX7X(.(.(.(.(.(.(.(.(.(.(.].(.(.(.(.(.(.(.(.(.{.cX^ 8 d d d d d d d r d d d r d d d d d d d d d d d r d d d d d d d d d e d d d r d d d d d d d d r d d d < < w d d d d d d d d r d d d 4 7 7 < B B w d d d d r d r d d d f d d 8 d d d d d d d d d d d d d d d d d d d d r < < 1 1 1 1 1 1 1 1 1 1 1 1 1 1 1 1 1 1 1 1 1 1 1 1 1 1 1 1 3 < 1 1 1 1 1 1 1 1 1 1 1 1 1 1 1 1 1 1 1 1 1 1 1 1 1 1 1 1 1 1 1 1 1 1 , < < 1 2 1 1 1 1 1 < 1 1 1 1 1 1 1 1 < 1 1 1 1 1 1 1 1 1 1 1 1 1 1 1 1 1 1 1 1 1 1 1 1 1 1 1 1 1 1 1 1 1 1 1 < 1 1 1 1 1 1 1 1 1 1 1 1 1 1 1 1 1 1 1 1 1 1 1 1 1 1 1 1 1 1 1 1 2 1 1 < < 1 1 1 1 1 1 < 1 1 < 1 < 1 1 1 1 1 1 1 1 1 1 1 1 1 < 1 1 1 1 1 1 1 1 1 1 1 1 1 1 < < < f d d d d d d d d d d d d d d d d d d d d d d d d d d k d r d d d d d d d d d d r r d d d d d d d d d d r f d d d d d d d d d d d d r d d d d f d d d e f d d d d d d d f d d d d d d d d d d f r d d d d d f d d r d d d d d d d d d d d e d d d d r d d d d d d d d < < 5 y r w c ` _ _ _ _ ` ` ` _ $.n ` ` ` ` ` ` ` ` _ _ ` ` ` { f r g ` ` ` _ ` ` ` ` ` _ _ ` _ _ _ ` ` ` ` _ _ ` ] _ { y y y r ",
"d d e d d d r d d r n n r y w 9 y y 7 r f 9 < r r 7 7 w f w 7 7 y r c _ d d d d f d d r d d d d d f 7 bX7X(.[.].(.].].[.].].[.(.].[.].].[.].].].].].{.cX) 8 d d r d d d d 6 d r d d d d d d d d d d d y d d d d d d d r d d d d d d d d d d d d e k d d d d d 5 < < 1 f d d d r d d d d d d w 2X7X7X0X0XbX_.9 f d r j d d d d d r 5 j u.d d d d r f d d d f d r d d e k d d d d 5 < < < 1 1 1 1 1 1 1 1 1 1 1 1 1 1 1 1 1 1 < 1 1 1 1 1 1 1 1 1 1 1 1 1 1 1 1 1 1 1 1 1 1 1 1 1 1 1 1 1 1 1 1 1 1 1 1 1 1 1 1 2 1 1 d g f g g g 8 1 1 1 1 d 1 1 1 1 1 1 < k ] < 1 1 1 1 1 1 1 < 1 1 1 1 1 1 1 1 1 1 1 1 1 1 1 < 1 1 1 1 1 1 1 1 1 1 1 1 1 1 1 1 1 1 1 1 < 1 1 1 1 1 1 1 1 1 1 1 1 1 1 1 1 1 1 1 1 1 1 1 1 1 < < < 1 1 1 1 1 f k k g f k 1 1 1 1 1 1 1 1 1 1 1 1 > / / 2 1 1 1 1 1 1 1 1 1 1 1 1 < < < d d d d d d d d d d d d f r d d d d d d d d d d d e d d d d d d d d e r d d d d d d d d d e d r d d d d d d d d d d d d d d d d d d d d d d d d d d d d d e d d d d d d d d d d e r d d d d d d d r d d d d d d d d d d d d d d d d d d d k d d d d d d d d d d d d d < < w f f r c _ f c g g x f g g g u g g g g g h g g g g x g j ` f 9 c _ h g g g h g g g g g g g f c h g g g g c g g c ` y r y r ",
"d d d d d d d d d r ) n f w ] &.w h 0.g r 8.i.j h u.u.) 9 &.i.&.r r c n r d d d r d d d d r d d r d i bX7X(.(.{.7X6X].].{.[.(.6X{.].{.6X].6X7X{.].].{.cX} w d d d d d d d d d f d d d d d d d d d d d d d d d d r d d d d d d d d r d k d d r d d r d d d d d d < < w k r d d d d d d d y f & 0XcXvXvXvXcX4X# f w ) mX[ 8 r d < 9.[ 1 f w d d 8 r w 8 r d d d d d d d d f d d d r < < 1 1 1 1 1 1 1 1 1 1 1 2 1 1 1 1 1 1 1 1 1 1 1 1 1 1 1 1 1 1 1 1 1 1 1 1 1 1 1 1 1 1 1 1 1 1 1 1 1 1 1 1 2 1 1 1 1 1 1 1 1 1 1 j f f f y c d 1 1 < / +X5 1 1 1 >  .d 1 1 2 1 1 < 1 < 1 2 1 1 1 1 1 1 1 1 1 1 1 1 1 1 1 1 1 1 1 1 1 1 1 1 1 1 1 1 1 1 1 1 1 1 1 1 1 1 1 1 1 1 1 1 1 < 1 1 1 1 1 1 1 1 1 1 1 1 1 1 1 1 1 < < < 1 1 1 1 1 j g f f g j 1 1 1 < r.k.< < < 1 1 | 1 1 1 < 1 1 1 < 1 2 1 1 1 1 1 1 < < < d d d d d e d d d d d d d d d d d d f d d d d r d d d d d d d d d d d d d r d d d d d d r d d d d r d d d d d d d d d d d f d e d d d d d d r d d d d d d d d r d d d d d d d d d d d d r d d d d d d d r d d d d d d d d d d f d d r d d d d d d d d d d d e d d d d < < 7 f y r c n w r y w y y r r y y r r r f r y y y r r r w f _ r r c n w y y y y 9 r y r y y y r r r r r r r y r w y ` f r y r ",
"d d d d r d d d d 6 ) g r w 8.*X9 / hXh r.t.&.g.$.v.] v.f c.*.c r r c _ r d d r d d d d d d d d f f w qX7X(.(.7X6X7X{.].vX6X(.vX7X(.7X7X{.7X|.7X].].{.cX/ w k d d d d r d d d d d d r d d d d d k d e d d d r d d d d d d d d d d d d d d d d d d d r f d d d r < < 1 f d d d r d r d d r f w 0XlX8X8X8XcX4X# f 1 p.>Xh.> 4.:Xn.hXmX8.j.h.4.d n.) j.>X7.5 d d d r d d d r d r d r < < < 1 1 1 1 1 1 2 1 1 1 1 1 1 1 1 1 1 1 1 1 1 1 1 1 1 1 1 1 1 1 1 1 1 1 1 1 1 1 1 1 1 1 1 1 1 1 1 1 1 1 1 1 1 1 1 1 1 1 1 1 1 1 g r 8 8 7 g r 1 1 2 8.l.) O  .j.r.+Xh.] 7.8.k k 8.k i.g.j 2 1 1 1 1 1 1 1 1 1 1 1 1 1 1 1 1 1 1 1 1 1 1 1 1 1 1 1 1 1 1 1 1 1 1 1 1 1 1 1 1 1 1 1 1 1 1 1 1 1 1 1 1 1 1 1 1 1 1 1 1 1 1 < < < 1 1 1 1 1 j w 7 8 w j 8 1 1 1 i.h.k 2 r.h.r.&Xr.| *.7.1 / | j h.i.8 1 1 1 1 1 1 < < d d r d d d d d d d d d d d d d e d d d d d d d d d d r d d d d d d d d k d d d d d d d d d k d d d d d d d d d d d d r d d d d d d d d d d d d d d d d d d d d d d d d d d d d d d d d d d r d d d d d d d d d d d d e d d d d d d d d d d d d r d d r d d d d d d d < < 7 r f w c _ r y y y y w r f 9 7 w r < 9 9 < 7 w r r y y g _ f r c _ r r r 9 7 y w 9 y w 7 9 r w r r w 9 7 7 r y y _ g r r y ",
"d d d d d d d k d f n c r 9 | OXx 9.v._ g.g # u.u.r.O u.$.a.s.] r r c n r r d d d d d d d d d d d d 5 vX7X(.].6X{.6X|.{.7X6X].7X7X[.7X7X[.7X{.7X].].{.cX^ 8 d d d d d d d d d d d d d d d d d d d d e k d d d d r d e d d d d d d d d d d d d d d d r d d d d r < < w k d d d d d d d d f f < 0XvX8XlX8XcX4X# k d +X8.m.g :X&.< XX9.g :X9.n.) #X9.@X) >Xj 8 d d d d r d e d d d 5 < < 1 1 1 1 1 1 1 1 1 1 1 1 1 1 1 1 1 1 1 1 1 1 1 1 1 1 1 1 1 1 1 1 1 1 1 1 1 1 1 1 1 1 1 1 1 1 1 1 1 1 1 1 1 1 1 1 1 1 1 1 1 1 1 j r 8 8 r h 8 1 1 d y.' r.f k.d 2 g.k ) t.| [ ' 8.7.8.) g.1 1 1 1 1 1 1 1 1 1 1 1 1 1 1 1 1 1 1 2 1 1 1 1 1 1 1 1 1 1 1 1 1 1 1 1 1 1 1 1 1 1 1 1 1 1 < 1 1 1 1 1 1 1 1 1 1 1 1 1 1 1 1 < < 1 1 1 1 1 1 g 8 w r r h r 1 > / r.| | / g.< k h.> r.| i.j 8.[ a./ 7.r.> 1 1 1 1 < < < f d d e d d d d d d d d d d d d d d d d d d d d k d r d d d d d d d d r d d d d e d d d d d d d d d d d d d d d d d d d d d d d d d d d f d d d d d d d d d d d r d d d d d d d d d d d f d d d d d d d d d d d d d d d d d d d d d d d d d r d d d d e k d d d d d r < > 8 y f r c n 9 y y y 8 &.c 9 ] g.r._ z.8.*.i.z.&.w y y r g ` f r N _ r r f a.i.c ] i.f ] i.u.f &.r c [ 4.s.a./ 9 y _ f r y r ",
"d f d d d r d d d w _ c r 8 &.g.8.u.i.] a.x 7 t.a.r.@ r.&.z.4.x y w c _ 8 f d d d d r d d d d r d d 7 bX7X(.].6XvX7X].7X7XqX{.6X6X6X6X6X[.bX7X{.].].{.cX^ r k d d r d d f d d k d d d r d d d d d d d d r f d d d f k d d d d d d d e d d d d d d d d d d d d d < @ 1 r d r d d d d d d r f w 0XvXlX8X8XvX4X4 d { MX$XMX7.#Xd O XX9.f -Xk #Xh.u.a.mXoX$Xg r f d d d d d k d d d d < < < 1 1 1 1 1 1 1 1 1 1 1 1 1 < 1 1 1 1 3 1 1 2 1 1 1 1 1 1 1 1 1 1 1 1 1 1 1 1 1 1 1 1 1 1 1 1 1 1 1 1 1 1 1 1 1 1 1 1 1 1 1 1 g r 8 8 w g d 1 > ) +Xh..X) i.> @ g.d j y.g y.r.) y.l.i.t.< 1 1 1 1 1 1 < 1 1 1 1 1 1 1 1 1 1 1 1 1 1 1 1 1 1 1 1 1 1 1 1 2 1 1 1 1 1 1 2 1 1 1 1 1 1 3 1 1 1 1 1 1 1 1 1 < 1 1 1 1 1 1 < < < 1 1 1 1 1 j r 8 8 w g 1 1 > r..Xk.a.| 7.X 1 l.O 8.] ] 8.y.k k.g.g.&.2 1 1 1 1 < < < d d d d d d d r d d d d d d d d d d d e d d d d e d d d d d d f d d d d d d d d d d d d d r d d d d d k e d d d e d d d d d d d d d d d d d d d r d d d d d k d d d d d d d d d d d d d d d r f d d r d d d d d d d d d r d d e d d d d d d d d d d d d d d d d r d f < < 7 y r r c _ r r y y 8 j._ # u.u.9 &.l.c x i.c.f y y r r f ` y w c ` r 8 / v.$.z.[ k./ v._ ` f l.9 n g.f .X7.f r y $.y r r y ",
"d d d d d d d d f 8 ) c y 8 8.7.+X*.a.n i.4.c h.*.h.y v.x g._ 8 y r x _ d d d d d d d d d d d d d f 5 vX7X(.].6X{.7X{.7X6X7X6X6X6XqX{.7X[.7X(.].].].{.cX^ r f r d d d d r d d e r d d d d d d d d d d d d d d d d d d d d d d d d d d d r d d r d d d d d 6 d r < < w f d d r d r d d r r f w 0XcXvXcXvXcX|.& 1 c.h.@ a.+X$X8.r n.j.j gX< n.NXg 9.OXf j d d d d d d d d d d d d d < < 1 1 1 1 1 1 1 1 1 1 1 1 1 1 1 1 1 1 1 1 1 1 1 1 1 1 1 1 1 1 1 1 1 1 1 1 < 1 1 1 1 < 1 1 1 1 1 1 1 1 1 1 1 1 1 1 1 1 1 1 1 1 1 g g f g y g d 1 1 i.' @ 8.8.g.j 1 g.) ) g.> h.+XO 7.r.1 d 1 1 1 1 1 1 1 1 1 1 1 1 1 1 2 1 1 1 1 1 1 1 1 1 1 1 1 1 1 1 1 1 1 1 1 1 1 1 1 1 1 1 1 1 1 1 1 1 1 1 1 1 1 1 1 1 1 1 1 1 1 1 1 < < < 1 1 1 < 1 g g g f h c r 2 d h.d 1 i.8.a.k k l.1 r.7.2 +Xa.@ a.] 8 8 1 1 1 1 1 < < < d d d d k d d d d d d d d d d d d d d d d d f d d d d d d d d d d d d d d d d d d d d d d d d d r d d d d d d d d f d d d d r d d d d d d e d d d d d d d d r d d d e d d d d f d d d d d r d d d d d d d d d d d d r d d r d d d d d d d d d d d d r d d r d d d d r < < 7 y r r c _ r y y y 9 i._ 7 r..X&.&.u.r w $.0.7 y r r r g ` f w c _ r w / h.c i./ u.7.7.7 f 0 .Xa.v.g.O i.) w r y $.f r r y ",
"d d d d d d d e d r { c r w [ ] *._ &.c h a.l.] x c.j.&.w u.v.8.y r v n r d d d d d d d r d d d r f w bX7X(.[.{.{.{.7X6X(.[.6X6X[.6X{.6X[.6X].].].].{.cX) w d d d d d d r d d d d d d d e d d d r d d d d d d r d d d d d d d d d r d d d d k d r d d d d r d d < < 8 f d d d d d d d d d N 9 }.0X0X4X4X0X}.5 r h.n 8 c j.` -Xv.{ &X9.j.1 7.OXw d d.:Xa.r d d d d r d d d d d d 8 < < < 1 1 1 1 1 1 1 1 1 1 1 1 1 1 1 1 1 1 1 1 1 1 1 1 1 1 1 1 1 1 1 1 1 1 1 1 1 1 1 1 1 1 1 1 1 1 1 < 1 1 1 1 1 2 1 1 1 1 1 1 1 1 d f f f f f 1 1 8 7.5 > / | ) k.| / g.' | O &.7.> 5 r.h.' < 1 1 1 1 1 1 1 1 1 1 1 1 1 1 1 1 1 1 1 1 1 1 1 1 1 1 1 1 1 1 1 1 1 1 1 1 1 1 1 1 1 1 1 1 1 1 1 1 1 1 1 1 1 1 1 1 1 1 1 1 1 1 < < < 1 1 1 1 r f k y f f y 1 2 j | 1 2 ] ) [ k.) | y.[ ) O y.' > k i.a.^ < 1 1 1 1 < < < d r d d d r d f d d d d d d d f d r d d d d r d d d r d d d d d d e d d f d r d d d k r d d d d r f d d d r d d d d d d d d d d d d d d d d d d d d d d d d d d d d d d d r d d d d d d d d d d d d d 6 r e d d d d d d d d d d d d f d d d d d r d f d d d d d d d d < < 7 f y w c n r y y y 8 a.c # r.r.8 $.OXu.f &.8.7 y r r r g ` f 9 c _ r r / .XOX_ c i.0.&.x +Xc c.c &.a.# z._ w r y n u r y r ",
"d d d d d d d r d r _ c w r r r w r w r r 9 7 w r 9 8 w f w w w r w c ) r d d d r d d d d d d d d d 7 vX7X(.[.].].].].].[.].].].].].].].].].].].].].{.cX^ 6 f r d d d d d d d d r d d d d r d d d d r d d d d d d d d d d d r d d d y d r d d d d d d d d d d r < @ 8 d d d d k d d d r d d d 5 & < & & # 5 d d 1 r d r 1 w < 1 d < 5 1 f 5 1 d d 1 < 5 k d r d d k d d d d d d r < < 1 1 1 1 1 1 1 1 1 1 1 1 1 1 1 1 1 1 1 1 1 1 1 1 1 1 1 < 1 1 1 1 1 1 1 1 1 1 1 1 1 1 1 1 1 1 1 1 1 1 1 1 1 1 1 1 1 1 1 1 1 1 1 , 1 2 1 1 1 1 1 1 > 1 1 1 > < > > 1 > 1 > 1 > 2 1 1 , > < 1 1 1 < 1 1 1 1 1 1 1 1 1 1 1 1 1 1 1 1 1 1 1 1 1 1 1 < 3 1 1 1 1 1 1 2 1 1 1 1 1 1 1 1 1 1 1 1 1 1 1 1 1 1 1 1 1 1 1 1 1 1 1 < < < 1 1 1 1 1 1 1 < < 1 1 1 1 < > 1 1 > 1 > > 1 > 2 < < 1 2 < 1 1 , > < 1 1 1 1 1 1 < < d d d d d d d d f e d d d d e d d d d d d d r d d d d d d d e d d d d d d d d r d d d d r d d r d d k d d d d d d e d d d d d d r d d d d d d d r d d d d d d e d d d d d d d d r d d d d d d r d d d d d d d d d f d r d d d d d d e d d d r d d d 6 d d d d d r d d < < 8 r r r n n r y y y 7 j.*.y u.u.8 &.u.< 7 *.u.7 y y r r y _ y r c n y w _ a.` i.] c.` v.f l._ c.w ` h.O h.` 9 r g n g y y r ",
"d d d r d d d f d 8 _ c r r r r y y f r r r r r r y y y r r f y r w c M 6 d d d d d d d d d d d r 0 w bX7X(.].].].].].].].].].].].].].].].].].].].].[.cX^ d d d r d d d d r d d d d d d d d d d d d d d f d d d d r d d d d d d d d d d d d d d d r d d d d d d < < 8 f d r f e d d d d d d r d k d k f f f d d d d d d k f k f d f f f d f k d d f f d f r d d e d d d r d d r r , < < 1 1 1 1 1 1 1 1 1 < 1 1 1 1 1 1 1 1 1 1 1 1 1 1 1 1 1 1 1 1 1 1 1 1 1 1 1 1 1 1 1 1 1 1 1 1 1 1 1 1 1 1 1 1 1 1 1 1 < 1 1 1 1 1 1 1 1 1 1 1 1 1 1 1 1 1 1 1 1 1 1 1 1 1 1 1 1 1 1 1 1 1 1 1 1 1 1 1 1 1 1 1 1 1 1 1 1 1 1 1 1 1 1 < 1 1 1 1 1 1 1 1 1 1 1 1 1 1 1 1 1 1 1 1 1 1 1 1 1 1 1 1 1 1 1 1 1 1 1 1 1 1 1 1 < < < 1 1 1 1 1 1 1 1 1 1 1 1 1 1 1 1 1 1 1 1 1 1 1 1 1 1 1 1 1 1 1 1 1 1 1 1 1 1 1 < < 5 d d d d d d d d d d d d d d d d d d d d d d d d d d r d d d d d d d d d d d d d d d d d d d d d d d d d r d d r d d d d d d d d d d d d d d d d d d d d d d d d d d k d d d d d d d d d d d d d d d d f d d d r d k e d d d d f d d d d d d d d d d r d d d d d d d d < < 7 r f r x n r y y y 8 8.v.8.[ l.r.] $.r r _ $.9 y y r r g ` y r c n y y x *.r 4.*.z.y *.z.a.x *.y x &.9 *.c r r y $.y y r y ",
"d r d d r d d d d d ) c y f y y f f y f f f f f g r f f f g f f f y n ) r d d d d d e d d d d d r f w bX7X[.{.[.{.{.[.[.[.{.{.[.{.{.{.[.{.{.[.{.{.].6XcX) w d d d d d k d d d d d d d d d d d d d d d d r d k d d d d r d d d d d d k e d d d d d d d d d d d r < < 5 d d r d d r d d d d d d d d d d r d r d d d d d d r f d d d d d d d d e d d d d d d r d d d d d d d d d f 8 < < 1 1 1 1 1 1 1 1 1 1 1 1 1 1 1 1 1 1 1 1 1 1 1 1 1 1 1 1 1 1 1 1 1 1 1 1 1 1 1 1 1 1 1 1 1 1 1 1 1 1 1 1 1 1 1 1 1 1 1 1 1 1 1 1 1 1 1 1 1 1 1 1 1 1 1 1 1 1 1 1 1 1 1 1 1 1 1 1 1 1 1 1 1 1 1 1 1 1 1 1 3 1 1 1 1 1 1 1 1 1 1 1 1 1 1 1 1 1 1 1 1 1 1 1 1 1 1 1 1 1 1 1 1 1 1 1 2 1 1 1 1 1 1 1 1 1 1 1 1 1 1 1 1 1 1 < < < 1 1 1 1 1 1 1 1 1 1 1 1 1 1 1 1 1 1 1 1 1 1 1 1 1 1 1 1 1 1 1 1 1 1 1 1 1 1 1 < < < r d d d d d d d d d d d r d d d f d d f e d d d d d d d d d d d d d d d d d d d d d d r d d 6 d d d d d d d d d d d d r d d d d d d d r d r d d d d e d d d d d d d d d r r d d d d d e d d r d d d d d d d d d d d d d d d d d d d d d d d d d d d r d d d r d d d d 1 < 9 f y w n n y y r r r 9 7 9 w 7 9 w 8 y y w r y y r y r g _ y r g _ r y y w y 9 w 9 y w < 9 w w y y w y w r y r y n y y y r ",
"d d d d d d d k d d n ` ` ` ` ` ` ` ` ` ` ` ` ` ` ` ` ` { _ ] ` ` ` ) { d d d d d d d d f d d d f f w qXcXcXcXcXcXcXcXcXcXcXcXcXcXcXcXcXcXcXcXcXcXcXcXcX^ 5 f d d d d d d d d r d d r d d d d r e d d d d r e d d d d d d r d d d d d d d d e d d d d d r d d r < < 5 d d d d d d d f r d d r d d d d f d d d d d d d d d r r f d d r d d d d d d d d r d d d d d d d r d d d d r < < < 1 1 1 1 1 1 1 1 1 1 1 1 1 1 1 1 1 1 1 1 1 1 2 1 1 1 1 1 1 1 1 1 1 1 1 1 1 1 1 1 1 1 1 2 1 1 1 1 1 1 1 1 1 1 1 1 1 1 1 1 1 1 1 1 1 1 1 1 1 1 1 1 1 1 1 1 1 1 1 1 1 1 1 1 1 1 1 1 1 1 1 1 1 1 1 1 1 1 1 1 1 1 1 1 1 1 1 1 1 1 1 1 1 1 1 1 1 1 1 1 1 1 1 1 1 1 1 1 1 1 1 1 1 1 1 1 1 1 1 1 1 1 1 1 < 1 1 1 1 1 1 1 1 1 < < < 1 1 1 1 1 1 1 1 1 1 1 1 1 1 1 1 1 1 1 1 1 1 1 1 1 1 1 1 1 1 1 1 1 1 1 1 1 1 1 < < < d d e d d r d d d d d d d d d d d d d d d d d r d d d 6 r d d r d d d d d r d d d d r f d d r d d d e d d r d d d d d d d e d k d d d d d d d d d d d d d d r d d d d d d d d d d d d d d d d d d d d d d e d d d d d d d d d d d d d d r d d d r d f d d d d d d d e < < < r f 9 n _ w r r r r f f y y y f r y r r r r r r r r r u _ r r c _ r r r y r y y y r r f r r f y y y y y r r r y $.y y r y ",
"d d d r d d d e d d f g f f f f f g d k f f g f f k f f k f f d h f f f d d d r d d d d d r d d d d d ) } } } } } } } } } } } } ) } } } } } } } } } } } h d d d d d d e d d d d d d d d d f d d d d d d d d d d d d d d d d d e d d d d d d d d r d d d r d d d < < w k d d d d d d d d d d d d d d e d d e d d d d d d d d d d d d d d d d d d d d d d d d d r d d d d d d d d r < < < 1 1 1 1 1 1 1 1 1 1 1 1 1 1 1 1 1 1 1 1 1 1 1 1 1 1 1 1 1 1 1 1 1 1 1 1 1 1 1 1 1 1 1 1 1 1 1 1 2 1 1 1 1 1 1 1 1 1 1 1 1 1 1 1 1 1 1 1 1 1 1 1 1 1 1 1 1 1 1 1 1 1 1 1 1 1 1 1 1 1 1 1 1 1 1 1 1 1 1 1 1 1 1 1 1 1 1 1 1 1 1 1 1 1 1 1 1 1 1 1 1 1 1 1 2 1 1 1 1 1 1 1 1 1 1 1 1 1 1 1 1 1 1 1 1 1 1 1 1 1 1 1 1 1 < < < 1 1 1 1 1 1 1 1 1 1 1 1 1 1 1 1 1 1 1 1 1 1 1 1 1 1 1 1 1 1 1 1 1 1 1 1 1 1 1 < < < f d d d d d d d d d d d d d d d f d d d d d d d d d r d d r d d d d r d d d d d d d r d d d d d d d d d d d d d d d d d d e d d d d d d d d d d d k e d d d d d d d d d d d d d d d d d d d d d d d d d d d d d d d d d d d d r d d d d d f d d d d d r d d d d d r f < @ w y r r c _ y y g g g g g f f g g g g g f g f g f g g f x ` y r x M y f f g g f g f g f g g f g y y y f u g g f x $.f y y y ",
"d d d d d d d d d d r d r 0 r r d r d 6 d d 6 d d r r r d r r r r r d r d d d d d d d d d d d d d d d 6 w w 5 6 4 6 w 4 w w w w 5 w w w 5 6 w w w w 4 5 0 d r d d d d d f d d d d r d d d d d d d d d d d d d d d d d d d d d d d d d d d d d d d d d d d d d r < # 8 f d d d d d d r d f r d r d d k d d d d d d d d d d d d d d d d r r d d d d d d d d d d d d d d d d d d d 1 < < 1 1 1 1 1 1 1 1 1 1 1 1 1 1 1 1 1 1 1 1 1 1 1 1 1 1 1 1 1 1 1 1 1 1 1 1 1 1 1 2 1 1 1 1 1 1 1 1 1 1 1 1 1 1 1 1 1 1 1 1 1 1 1 1 1 1 1 1 1 1 1 1 1 1 1 1 1 1 1 1 1 1 1 1 1 1 1 1 1 1 1 1 1 1 1 1 1 1 1 1 1 1 1 1 1 1 1 1 1 1 1 1 1 1 1 1 1 1 1 1 1 1 1 1 1 1 1 1 1 1 1 1 1 1 1 1 1 1 1 1 1 1 1 1 1 1 1 1 1 1 1 1 1 1 1 < < 1 1 1 1 1 1 1 1 1 1 1 1 1 1 1 1 1 1 1 1 1 1 1 1 1 1 1 1 1 1 1 1 1 1 1 1 1 1 1 1 < < < d d d d d d d d d d d d d d d d d d d d d d d d r d f d d d d d d d d d d d d d d d d d d f d d d d d d d d d d d d d d d d d d d r d d d d d d r d d d d e d d d r d d d d d d r d d d r d d d d d d d d d d d d d d d d d d d d d d d d e d d d d d d d d d d r d f < < 8 f f w c ` _ $._ _ ` ` ` { ` ` _ _ ` ` ` _ ` ` $.n $.` ` _ y w u $.` ` $.` _ ` ` ` ` ` ` ` ` ` $._ $.n $._ ` ` n M u y y y ",
"d d d d d d d d d d d d d d d d d d d d d d d d d d d d d d r d d d d d d d d d d d d d d d d r d d r d r f d d d d f f d d d f d f f r d d d d f d d f d d d d d d d d e d d d d d d r d d d d d d d d d d d d d d d d d d d d d d d r d d d d d d r d d d d r < < 7 f d d d d d r d d d d d d d d d d d d d d d d r d d d d d d d d d d d d d e k d d d d d d d d d d d r d d r < < < 1 1 1 1 1 1 1 1 1 1 1 1 1 1 1 1 1 1 1 1 1 1 1 1 1 1 1 1 1 1 1 1 1 1 1 1 1 1 1 1 1 1 1 1 1 1 1 1 1 1 1 1 1 1 1 1 1 1 1 1 1 1 1 1 1 1 1 1 1 1 1 1 1 1 1 1 1 1 1 1 1 1 1 1 1 1 1 1 1 1 1 1 1 1 1 1 1 1 1 1 3 1 1 1 1 1 1 1 1 1 1 1 1 1 1 1 1 1 1 1 1 1 1 1 1 1 1 1 1 1 1 1 1 1 1 1 1 1 1 1 1 1 1 1 1 1 1 1 1 1 1 1 1 1 > < < 1 1 1 1 1 1 1 1 1 1 1 1 1 1 1 1 1 1 1 1 1 1 1 1 1 1 1 1 1 1 1 1 1 1 1 1 1 1 1 < < < d d d d r d d d e d d d r d d d d d d d d r d d d d d d d d d d d d d d d d d r 6 d d d r r d d d d r d d d d d e d r d d d d d d d d r d r d d d d d d d k d d d d d r d d d d d r d d d r d d d d d d e d r d d r d d d d d d d d r d d d d d d d d d d d d d d d r < < 7 y y r y f y f y y y y f y y y y y y y y y y y y y y y y y y y y y y y r y f y y y y y y y y f y y y y r y y y y y y y r r ",
"d d d d d d d d d d d d d d f d d d f d d d f d d d d d d d f k f d d d d g d d d u d d d d d d d d d d f r d d f d d r f d d f d d d d d d g d f d d d d f d d d d f k d d d d d d d d d d d d d k d d d d f d d d d d g d d d d d d f d d d d d d d d d f d d < < 1 f d d d d d d f d d d d d d d d f d k d f d d d d d d d g d f d d d f d d d f d d d d d d d d f d d d d d d < < 1 1 1 1 8 1 1 1 1 1 1 1 1 1 1 1 1 1 1 1 1 1 1 1 1 1 1 1 1 1 1 1 1 1 1 1 1 1 1 1 1 1 1 1 1 1 1 1 1 1 1 1 1 1 1 1 1 1 1 1 1 1 1 1 1 1 1 1 1 1 1 1 1 1 1 1 1 1 1 1 1 1 1 1 1 1 1 1 1 1 1 1 1 1 1 1 1 1 1 1 1 < 1 1 1 1 1 1 1 1 1 1 1 1 1 1 1 1 1 1 1 1 1 1 1 1 1 1 1 1 1 1 1 1 1 1 1 1 1 1 1 1 1 1 1 1 1 1 8 1 1 1 1 1 1 < < < 1 1 1 1 1 1 1 1 1 1 1 1 1 1 1 1 1 1 1 1 1 1 1 1 1 1 1 1 1 1 1 1 1 1 1 1 1 1 1 1 < < f d d f d d d d f d k d f f d d d d d d d d d f d d d d d f d d d d d f d d d f d d f d d d d d d f d d d d d f d k f d d d g d d f d d d d f d d d f d d d f d d f d d d f d d d d d r f d d d d d d d f k f d d d d d d f d d d d d f d k d d d d d d d d d d f d d < < 7 f y y y r y f r r y y y y y y y y y y y y y y y r y y y y y y y y y r y r r y y y y y y y y r y y y y r y y r y y y y y y ",
"6 w 5 8 w 8 r 8 8 8 8 w 8 r 8 8 w 8 8 w 8 w 8 r r 8 8 8 w r w 8 w 8 1 w r 5 8 r 8 w 8 r 8 8 w r 8 r 1 w r 5 r 8 8 8 w 8 w 8 8 8 5 r 8 w 8 8 r 8 8 r 9 w r 8 w r 1 r w 8 r 1 r 1 r 9 w 8 r 1 w r w r 5 8 w 8 r 8 8 w 8 8 8 w w 8 r 8 8 8 w 8 w 8 w 8 w w 8 r 8 8 < @ < r w r 1 r 8 w 8 r 8 8 8 8 w 8 w r 8 8 w 8 8 8 r w 8 r w 8 5 r w r 8 8 8 w w r 8 8 w 8 8 w 8 r 8 8 r w r 1 8 < 7 < < < < < 2 < < 1 1 < 1 < 7 < < < 7 < < < 1 1 < < 1 < 1 < 7 , < 7 , 1 < < < 1 < 1 < 1 < 1 < 1 < 1 1 < < 1 < 1 7 , 1 < 1 < 7 7 , < 1 < < < 1 1 < 1 < < 1 < 1 < < 1 < 1 < 1 7 7 , < < 1 < < 1 < 1 < 7 < < 1 < 1 < < 1 < 1 < < 1 < < < , < 7 < 1 < 1 < 1 < 1 < 1 < < 1 < 1 1 7 , < 7 < < < 1 < 1 < 1 < 1 1 < < 1 < 7 1 < < < < 1 < < 1 < 7 < 1 1 < 1 < 1 1 < 1 < < 1 < 1 < 1 7 7 , < < 1 < < 1 < 1 < < 1 < 1 < < < w 8 8 w 8 r 8 8 8 8 r w 9 6 w r 8 8 8 w 8 w 8 8 8 w 8 w 8 r 8 8 9 w r 8 8 r 1 w 8 w r 8 8 r 8 w 8 8 w 8 8 8 w 8 8 r 8 w 9 5 r 1 r r 8 8 w r 8 8 w 8 8 r 8 8 8 8 w 8 r r 8 8 w 8 r w r 8 8 w 8 8 w w 8 w 8 8 w 8 8 8 w 8 w 6 w r r 8 8 w 8 r 8 8 8 w 8 r 8 8 8 r 8 8 w 7 , 7 w 8 w 8 w r w 8 w w w r 8 w 8 8 w 8 w 8 w r w w 9 w w w r w 8 w 8 8 w w 8 r 8 w w r w r 8 8 w 8 r 9 w w r 8 8 w 8 r w 9 r ",
"< < < , < < < < @ 7 7 @ < , < < , 7 < < < < < , < < < < < , < , < < < < , < < < < < < < < < < @ @ , < < < , @ < < # 7 , < 7 < < < < < < < < < < < @ < @ < < @ < < < , < < < < < @ < < < < < < @ < > < < < < < < < < 7 < < < @ < < < < < 7 , < < , < 7 , # , # < < < < < < < < < < < < < @ < < < < < < @ < < < < # < # , # , , < < < @ < < < < < @ < < < < < < < , < < < , @ < < @ 7 @ 7 < < < , < < < < < < < < , 7 < < < , < < < < < < < < < < @ 7 < < < < < < < < < < < < < < < < < < < < < < < < < < < < < < @ 7 < < < < , 7 < < < < < < < < < < < < < < < < @ 7 , < < < < < < < < < < < < < < < < < < < < < < < < < < 7 # < < < < < @ < < < < < < < < < < < < < < < < < < < < < < < < < < < < < < < < < < < < < < < < < < < < < < < < < < < < < < < < < < < @ 7 , < < < < < < < < < < < < < < < < < < < < < < # < < < < < < < @ < < < < < < < < < < < < < < @ < < < < < < < < < < < < @ < < , < < < < < < < < < < < < < < < < < < < < , < @ < < < < < < < < # < < < < , , < < < @ , < @ < < 7 < < < < , 7 @ 7 @ 7 # 7 < < , @ < < > < # < < < < < < < < < < # < < < < < < < < < < < < < , # 7 , 7 , # < < < < < < < < < < @ < < < < @ < < < < < < < < < < < , < , < < < < , 7 @ < < < , < < < < < @ < @ ",
"< < < < < < < < < # < 7 < 7 , < # < < , < < < < < < , 7 < < < < < , < < < < < , , < # , < < < , < < < < < < < < , < < < < , < < < < < < < < < @ 7 , < < < < < , < < < < < < < < < < < , < < < , < < < < < , < < < < < # < , < < < < < < , < < < < < < < < < < , < @ < @ < , < < < < 7 # < < < < < < < , < 2 < < , < , 7 < 7 , < < < < < < < < < < < < 7 < < < , < < < < < < < < 7 @ < # < < < 7 < > < < < < < < 7 @ < < < < < , < < < , < < < < 7 @ < 7 < < < , < < < < < < < < < < , 7 < < < < < < < < , < < < 7 @ 7 # < < < < < , < < < < < < < < , < < < < < 7 @ # , < < < , < < < < < < < < < < 7 , < < < < < < 7 , < < 7 , < < < < , < < < < < @ @ < @ < < < < , 7 < , < < < , < < < , < < , < < < < < < < < < < , < , < < , 2 < < < , < < < < < < < < < < 7 @ # , < < < , < < < < < < , 7 < < , < < < 7 , < < < < < < < < < , < < < < < < < , < < < , < < < < , 7 < , < < < < < < , < < < < < , < < < < < < < < < < , < < < < < > < < < < < < < < < , < < < < < < < < < < < < < < , < < < , < 7 , < < @ 7 , < < < , # < < < < < < , < < < < , < < < , < < , < < < < , < < < < < < < < < < , # < < < , 7 , < < , < < < < < < < < < < < < < < , < < < , < < < < < < # < < 7 < , < < < < # , < < , < < < ",
"r w r r w 8 r w r w r w r w w r r w r r w r r w w 9 r w w r w r r r w r r w r w r w r r w r r r r w r r r r r w r w r r w r r w w r r 8 r r r w w r r w r w r r r 8 w r r r r w r r w r w r r r r w r r w r r w r w r r r w r r r 8 w r r r w r y w r w r w r r r r r r w r r w 9 r 8 r r w r r w r r r w r w r r r w w r w w r w r r 8 w 8 r r 9 r r w r r w r w r r w r w r r w r r r r 8 r w r r w r w 8 r r w r r w r r w r r w r r r w r r r w r w r w r r r 8 w r w r 8 r 9 r w w r r w r r 8 w r r w r r w r 8 r r 8 r w r r r w r r w r r r w r r r w r r w r r r w r r r w r r 8 r r w r r 8 r w r r w r r 8 r w r w r r r w r r r r w r r r r r r r r r w r w r r w r r r w r w r r w r r 8 r w r r w w r r r w r r 9 w r w r w r r w r r w r w r 8 r r w r r r w r r r w r r r r w w r r r r w r w r r w 8 r r w r w r r w r r r w r r r w r r w r r r w r w w r r w r w r r r r r w r w r w r r r w r r w r r w r w r r w r w r r w r w r 8 w r r w r r w 9 w r r w r r w r r r r w r w 8 r w r r r w r 8 r r r r w w r r w r r r w w r w r w r r w r r w r w r r w r r 8 r 8 r r w w r r r w r w r w r r r w r r r r 8 r r r r w r r r w r r r w r r 8 r w r 8 r w r r w r r w r r r w r r r w ",
"r y y y f f f y f y y r y y y y y y y y f f r r y y y y y y y y y y y y f r y y y y y f r y r r w r w y r r r r r f r y y y y y y y y y r r y y y y r y y y y y y y f f r f f y y y y y y y y y y y y r f y r f y y y y y y y y y y y y y y y y y y y y y y y y y y y y f r f r y y y y y y y u y y y y f f r r y y y y y y y y y y y y f y y y y y y y y y y y y y y y d f r r y y y y y y y y y y y y f r f y y y y y y y y y y y y y d y r y y y y y y y y y y y y y f r y y y y y y y y y y y y y y y y y y y y y y y y y y r r r y y y y y y y y y r r d y y y y y y y y y f r f y y y y y r r f y y y y y r y y y y y y y r r y y y r y y y y y y r y y y y y y y y y y y r y y y y y y y r y y y y y y y f y y y y y y y f y y y y y y y y y y y f r r f y y y y y y y y f r y y y y y y r r r f y y y y r f r r y y y y r r r y y y y y y y y y r f y r y y y y y y y y d r y y y y y y y y y y y y y y r f r r y y y y r r y y y r y y y y y y f y y y y y y y y y y y r r y y y r y y f r f r y y y y y y y y y y r y d f y y y y y y y y y y f y y y y y y y y r f f r r f f y y r f f r r f r r r y f f r y y y r f r r f y y y r r y y y y r y y y y y y f y y y y r r r y y y r r f r r r y y ",
"r y r y ] n _ n / n $.x w y y r r r r r r r r r y r r r r y r r r y r r r r r r r y w n $.$.$.$.&.4.&.g r r r r r r r r r y r r r y r r r r r r y r r y r r r y y _ _ n / n ) n n y y y r r r r r r r r r r r r r r r r r y r r r r y r r y r r r r r y r y r r r y r r r r r r r r r y r r r r r y r r r r r r r r r r y y w r y r r r r r r r r r r r r r r r r r r y r r r r y r r r r r r y r y r r r r r r y r r r r r r y r r r y r r r r r y r r r r r r r y r r r r r r r y r r y y w y r y r r r y r r y r r r r r r y r r r r r r r r y r r r r r r r y y y y r r r y r r r r r r y r r r r r r r y r r r r r y w y y r r y r y r y r r r r r r r r r y y y r r r r r r r r r r r r r r r r r y r r r y r r r y r w y r y r r r r r r r y r r r r r r y y y y r y r r r r r r r r r y r r r r r y r r r r r r r r r y r r r r r r r r r r r r r r y r r r r r r r r r r r y r r r r y r r y r r r r r r r r r r y r r r r y r y r y r y r r r r r y r r r r r r r r y y r y r y r y r r r r r r y r r r r y r y r r y r r y r r r r y r r r y r r r r r y r r r r r w r r 9 y y y r w r r r r r 8 r y r r r r f 6 6 6 r r e y r r f r r r r f r r y x ( q x x x ( q y r r x x x x ( x x ( f r y r ",
"y y r c n c _ _ _ n ] ` r f y r y r r r r r r r y r r y r y y r r y r y y r r y r y 9 $.u.$.$.$.&.$.4.c w y f r r r r r r y y r r y y r y y y r y r y r r y r y y n g n _ n n _ $.y r y y r r r y y r r y r r y y r r r r y r r y r y r r y y r r y y r r y y r r y y r r y r r r y y r r y r r r y y r r y r y r y r r y y r y r r r y y r r y r y r r y r r y r y r r r y r r y r y r r y y r r y r y y r r y y r r y r y y r y r r r r r y r r r r r y r r y r r y r y r r y r r r y y y r r r y y r r y r y y r y r r y r r r r r r y y r y r y r y y r r y y w r y y r r r r r r y r y r r y r r y r y y r r y y r r y r r f r r r r r y r y r y r r y y r y y r y y r r y y r y y y r y y r y y r y r r y r y y r y r r y y r r y y r y y r y r y y r r y y w y r r y y r r r r r y y r r r y r r r r r r y r r r r y y y r r r r y y r y y r r y y r r y y y y y y r r y r f r r y y r r y r r y r y y r y r r y r r r y r r y r r r y r r y r y y r r y r y r r y r y y r r y r r r y r r y y r r r r y y r r r r y y y r y r r y y r r y r y r r y y r r r r r r y r _ f w n c w r c [ $.g n r g M r r y r y y f K P K y d K q 6 q I k r y y 9 y y f x r x #.#.f f x y f r x #.#.f r x #.( f r y r ",
"r r r x n 0.9.&.0.0.8.` 8 r r r r y r f #.r r f r y r r r r r y r r r y r r y r r y 7 $.0.r g x c g ` x r y r r r r e x ( r r y r r r r r r r r r y r r y r r y q n $.u.7.u.9.8.0.y r r y r r r r ( x r y y r r r r r r r r y r y r r r y r r y r y r y r r r y y r r y r r r r r y r r y r y r y r r y r r y r y r y y y y y r r y y r r y r r y r y y r y r y y r y r y r r y r y r r y r r r r r r y r r y r r y r r y r r r r y y r y y r y y r y y r y y r r y r y r r y r y r y r y y y r r r r y r r y r r y r r y r y r r r r f r r y r r r r y r r y r r y r r y r y r r r y r y r r y r r y r r y r r y r r y y r y y r r r r y r r y y r r y r r r y y w y r y r y r r y r r r y r r r r y r r y r r y r r y r r y r r y y r r y r r r r r y r r y r r y r r y r r r r r r f r r y r r r y r y r y y r r y r r y r y r r f r r r y r r y r y r y r r y y y y w y y r r r r r r r y r r r y r y r r y r r y r y r y r d y r y y r r y r r r y r r y r y r y y r y y y y r r y y r r y y r r y y r y r r y r y r y y y r r r y r r y r r y r r y r r y y r y y r y w $.c r &.$.w x 2.c g g $.h [ n g x w y r f K P y K P 6 L.P 6 K K e r r y y y y f x y #.f x #.y x y r r x ( #.f w ( #.#.f r r y ",
"y y r g n 8._ r y r g n r f r y r r y x #.f y r r y r y y y y y y r r y y r r y r y w $.0.y 9.9.9.9.u.c 9 y r r r r r ( #.r r y y r y y r r y r r r y r y r y r r n n [ r 9.7.y $.f y y y y r r r ( x r r r r r y f q y y r r r r r y r r r y y r r r y r y r r r r y r y r r r y y r r r r y y r r y r y r r y r r y r y r y r y r r y r y r y r r r y r r y r r r y r y r r r y y r r r r y y y r r y r r y y r r y r r y r y r y r y r y r r y y r r y r y r y r r y r y r y r r y r y r y y y r y r y r r y r r y r r r y y r r r y y r r r y r y r r y r r y y y r r y r y r r y r y r y r y r r y r r y r r y r r y r y r y r r r r r y r r r r r y y r t y r y r r y r y r r y r y r r y y r y r r y r r y r y r r y r y r y y r r r y r y r y r r y r r y y y y r y r y r y r r r r y r y r r y r y r r r y r r y r y y r y r r r y y r y r y r r y r y r r y r y r y r r y y r r r r y y r r y r r y r r r y w y y y r y r r y r y y r y r y r r y r r r r y r y r y y y r y r y r r y r r y r y y r y r y r y r r y y r r y r y r r r r y r r y r y r r y r y r y r $.y c _ _ f _ _ w y r $.$.n 8 _ _ w f y r P q 6 y P f K P I I K d r y r y r r y x y f w ( #.r x y y w x x y ( ( x r x x r r r ",
"r y y g n 8.n x 7.4.0.$.w y r r y y #.#.#.#.#.y r r f #.#.#.#.#.r y y r r y y r r y 9 $.0.y t.$.x v ` g r r y y r x #.#.%.#.x y y r x #.#.#.#.( r r y r r y r y r _ r r 9 9.7.r n y y y y y w #.#.%.%.#.x r y r x #.#.#.#.x r r y r r y y r r r r y y r y r y r r y y r r y y r r r r y y r r r r y y r r y y r y r r y r r r y r y y r r y y r r y y r y r r y y r r y r r y r r r r y y r r r r y y r y r r r y r y r r y y r y r r r y r r y r r r y r r r y r y y r r y y r r y r y r y r r r y y r r y y r y r r y y r r r y y r r r r y y r y r y y r r y y y r y y r y r y y r y r y r r y r y r y r r y y r r y r y r y r r y y y y r r r y y r r r y y r r r y y r r y y y r r r r y r r y r y y r r y r r r y y r r y y r r y y y r r r y r y y r r y y y y y r r y r y r y y y y r y r y r y y r r y y r y r r y y y r r y y y r r r y r r y y r r r y r r y y r r y r r r r y y r r y r y r y r r y y r r y y y r y r y r r r r r r r y r y y r r y y r r y y r w y r y r r r y r r r y r y r r r r r y y r r y y w y y r r r r y y y r y r r y y r r y y r r y w $.y _ $.&.n _ n r y r $.0.n 9 r r y y y r P 9 r f P 9 P N P K I 6 y r y r y r f x r r ( #.f y x r y y x f r x #.x r q f r r r ",
"y y r g n 8.n n p.9.u.$.9 r y r r r y x @.x f y 9 y y f h f x f y r r y r r r r y y 8 [ 0.y u.n r w c x r r r y r f f ( #.f q r r r f f x f x f r y r y r r r y r _ y y y 9.0.r _ y r y y y y f f #.( f y y y r f f h f f q r y r r r y r y r y y r r r y r y r y r r y y r r y y r y r y r r r y r r y y r r y r y y r r y r r r r r r y r r y r y r r r y y r r y y r r y r r y r y r y r r r y r r y y r r r r y r r y r r y r y y r y r r y y r r y r y y r y r r y y r r y r y r y r r r y y r r y r r r r y r r y y r r r r y y r r y r r r y r r r y y r y y r y r r y r r y r r r y r y r r y r y r r y y r y r r y r r y r r r r r r y r r y y y r y y r y r r r r y r r r r y r y y r r y r r r y y r y y y y r r y r r y y r r y r y r y r r r y y r y w r y y r y y r r y r r y r r r y r r r y y r y r y r y y r y y r r r r r r y r y r r r y y r r y y r r y r r y r r y r r y r r r y r y r r y r y y r y y r r y r r y y r r y r y r r r y y r r y y r r y r r r y r y y r r y y y r r r y y r y r r y y y r y r r r y r y y r r r y y y r r y y r r y y y r $.c $.n ` _ _ ` w w y $.f $.f r y y y y 6 P K 6 q P q P d K L.K d y r y r y w f x r r ( x r f x y y y x x x x q x x ( f r r y ",
"y u w x c 8.n x p.9.t.$.r y r y y f w y #.y r y f y y y y y w r r y r r y r y y r y w [ 0.r u.c 8 w n c r y y r r f w x ( w r y r r r r y w r r r r y r y r y r r _ r r r 9.0.r _ y r r y y y w w #.x w y r r y y r r r y w y r y y r r r y r r r y r y r y r r r r y r r r y r r r y r r r y y r r y r r r y r y r y r y r y y y y r y r r y r r r r y y r r r y r y r y r y y r r y r r r y y r y r r r r y y r r r y r y r r y r r y r y r r r r y r y r r y r y r r r y r r r r y r y r y r r r y r y r y y r r y r r r y y r r r r y r y r y r r y y r y r y w y r r y r y y r y r y r y r y r r y r r y r r y r r y r y r y r y r r y r y y r r r r y r r y r y y y r r y r y r y r r r r y r y r y r r y y y y y y r r y r r r r y r y r y r y r r r y r r y r r r y r r r y r r y r y r y r r y r r y r r y r r r r y w r y y r r y r y y r r y y r r y y r r y y r r y y r r y r y r r y r r y r r y r y r r y y y r y y r y r r y r y y r r y r r y r y r r y y r r y y r y r y r r y r r y r y r r y r y r r r r y r r y r y r r r r r y r r r y r r r y r r r y r ` _ _ 8 w $.x ` $.$.y $.y n $.n _ w y y y N P K P I y P y f L.K d y y r y y r x x w e #.x w y x y y r x #.%.f y x %.( f y y r ",
"r y r g $.4.` _ t.8.w._ w y y r r r y y f y y r r y r y r r y r r y r y r r y r y y w [ 8.c 9.$.c c ` c w r y r r y r f f y y r r y r y r y y r r y r y r y r y r ` c c c 9.4.c $.r r y r y r y r f y y y r y r y y r y y r y r r y r r y r y r r y r y r y r y y r y r y r y r r y r y r r r r y r y r y r y r r r y r y r y r r y r r y r y r y r y r r y r y r r r r y r y r r y r y r r y r r y r y r r y r y r y r r y r y r r y r y r r y r y r y r r y r y r y r r y r y y r y r y r y r y r y r r y y r y r r y r r r r y r y r r y r r y r r y r r y r y r y r r y r y r r y r r y r r y r r r y y r y r y r y y r y r r r r y y r r r r y r r r y r y r y r r r y y r r r y r r r y y y r r y r r y r y r y w r y r r y w y y y r y y y r r y y r y r y r r y y r r y y r r y r y r r y r y r y r y r r y r y y r r y y y r y y r r r r y y r r r r y r y r r r r y r r r y r y r y y r r y r y y r y r y r r r y y r r y r r r y r r y r r r y y r r y y r r r y r r r r y r r r y r r r r y r r y r y r r y y r r y y r r y r r y y r y r r r y r r r f r y r r 9 $.c y y y g y y x c y g y y h g y r r r r r y I 9 y y q r r 9 N r r y y r y y y ( x x x x x x x r y r x x x x x x x ( q r r y ",
"y r y y x g g c g x x y r y r r r y r r r y r y y r y r r y r y y r y r r y r y y r r f g c g g x c c y r r r y y r y r r y r r y r y r y r y r y r r y y r y r r f c c x g g c g r r y y r y r y y r y r y r r y y y r y r r y r r y r y r r r y r y r r r y r r y r y y r r y r r r y r y y r r y r y y r r y r y r r r y r y r r y r r y r y y r r r r r y r r y y r r y r y r r r y r y r r y r y r r y r r y r r y y r r y r y r r y r y r r r y r r y r r y r r y y r y r r y r y y r r y r y r y y r r r r y r y r y y r r y y r y r r y r y r r r y y r r r r y r r y r r y r y r y r y r r y y r r y r r y y r r y r r r y y r r y y r y r y y y r r r y r r y y r r y y r y r y r r r r y r r r y y r r r r y y r y y r y y y r y r r r r y r r y y r r y y r r r y r r y y r y r r y r y r r r y y r r y y r r y r r r r y r r r y r r r r r r y r r y r y r y y r y r y y r r r r r y y r y r r y r y r r y y r r y y r r y r y r y r r y y r r r y y y r y y r y y y r r y y r r y y y r r r y r y r y y r r r y r r y y r y r r r y r y y y r r y r y r r r r ` $.w y y y r r r r w r r r 9 f r r y r y r r f f r y t t r r y d f r r r r y y r q x f q g f x y r y r y x f f x f f f r r y r ",
"r r y r w r r r y w y y y r r y y r r y y y r r r r y y y y r r r r y r y y r r r r y r r r r r r r r r r y r r r r y y y y r y r r y y r r y r r r y r r r y r r r r r w r r r r y r r r r y r r y r r y y r y y r r y r y r r y y r r r r y y r r y r y r y y r y r r r y r r y y r r r r y y r y r r r y r r y r r y r y r r y r y y r y r r r r r y y y r r y r r y y y r r y y r r r r y y r r y r r r y y r y r r r r y r y y r y r r y r y y r r r r y y r y r r r r y r r y r r r y r r r y r r w y r y r y r r r r y y y r r y y r r r r y r y y r r y r y r r y r y r y r r y r r y r r y r r r r r r y r r y r y r y r r r r r r r r r r y r r y y r r y y r r y y r r r r r y r y r r y r y y r r y r y r r r r y r r y y y r r r y y r r y y r r y y r r y y r r y y r r y y r r r r y r y y r r y y r r y y r r y y r r r r y y r y r r y y r y r y r y r r y r r r y r r r y y r r y r r r r r r r y y r r y y r r y y r r r y r y r r r y r y r y y y r r r y r r y y r r y y r r y r y y r r y y r r y y r r y y r r y y r r r r r y r r y y r r r r r r f g f r y r r y r r y y y y r r y r y r y r y r y y r y r y r r y r y y r r y r y y r r r y w r r r r r y y r r r r r y y r y y r ",
"r y r r u y r y y y y y r y y r r y y r y r r y r y r r r r y r r y r y r r y r r y r y y y r r t y r r y r y r r y r r r r y r r y r r r y r y y r r y r y r y y y r r u y y y r r y r y r r y y r r y r r y r r y y r y r r y r r r y y r r r y r r y r y r r y r y r y r r y r r y r y r r r y r y r y r r y r y y r y r y r r y r r y r r y r y y r r r r y r y y r r r y r r r r y y r r r r y r y y r r r y r r y y r r y r r y r y r r y r r r y y r r r y r r y r y r y y r y r y r r y y r r y f y y r y r r y y r r r r r y r r r y y r r y r r y r r y r y y r y r y r r y r y r r y r r y r y y r y r y r r y r y r y y r y y r y y r y r r y r r y r y r y r r r r y y r y r y r r y r r y r y r r y r y y r y r y r r y y y r y r r y r y r y r r r r y r y r r y r y r r r r y y r r y r r y r r r y r r y r y r r y r y y r r r y r y r r r y r r y r r y r y r y r r y y r r y r r y r y y r y r y r y r r r r y r r y y r r r y r y r r r y r y y w y r y r r y r y r y r r y r r r y r r y r r r y r y r r y r y r r r r y y r y r r y r r y r r r r r r 9 r r y r y r y r y y y y r r y r r r y r r y r y r r y r y y r r r y r r y r r r r y y y y y y y r y r r y y r r y y y r y r r "
};
