/* XPM */
static char *comp_delay_stereo[] = {
/* columns rows colors chars-per-pixel */
"1099 256 231 2 ",
"   c #16171D",
".  c #17181E",
"X  c #19191F",
"o  c #19171C",
"O  c #26271C",
"+  c #373918",
"@  c #333718",
"#  c #1C1D24",
"$  c #1E1F28",
"%  c #201E26",
"&  c #1F2026",
"*  c #1E222A",
"=  c #1E282F",
"-  c #1C2B24",
";  c #1D3C25",
":  c #1E2C33",
">  c #1E2A37",
",  c #1D333B",
"<  c #1F3037",
"1  c #202126",
"2  c #25272E",
"3  c #25282F",
"4  c #292C28",
"5  c #253429",
"6  c #343826",
"7  c #252730",
"8  c #262A32",
"9  c #2A2C35",
"0  c #2C2F39",
"q  c #252E39",
"w  c #23333C",
"e  c #2E313B",
"r  c #283436",
"t  c #31343E",
"y  c #19371E",
"u  c #403F10",
"i  c #15561A",
"p  c #174A1C",
"a  c #3B4A1C",
"s  c #0A770C",
"d  c #0E6A12",
"f  c #116415",
"g  c #0B6C0F",
"h  c #1B4522",
"j  c #3A482A",
"k  c #4A4808",
"l  c #514E02",
"z  c #545100",
"x  c #5C5907",
"c  c #484E17",
"v  c #597619",
"b  c #50681C",
"n  c #726E08",
"m  c #445626",
"M  c #536829",
"N  c #1D3B44",
"B  c #1C3A44",
"V  c #1D384E",
"C  c #243641",
"Z  c #233A44",
"A  c #233E49",
"S  c #283A47",
"D  c #343641",
"F  c #373944",
"G  c #383A46",
"H  c #373A49",
"J  c #3A3D4A",
"K  c #3C3F50",
"L  c #243D53",
"P  c #1B434D",
"I  c #1D4A56",
"U  c #1E525E",
"Y  c #23424D",
"T  c #29434B",
"R  c #3E414E",
"E  c #334E43",
"W  c #224651",
"Q  c #224A55",
"!  c #224E5A",
"~  c #284758",
"^  c #3E4252",
"/  c #3F4359",
"(  c #22515E",
")  c #2B515B",
"_  c #375746",
"`  c #1F5662",
"'  c #1F5A67",
"]  c #1F5B69",
"[  c #145862",
"{  c #1F547A",
"}  c #125568",
"|  c #225562",
" . c #235D6C",
".. c #275A67",
"X. c #28506F",
"o. c #00626B",
"O. c #0C636F",
"+. c #006A74",
"@. c #046A74",
"#. c #136B77",
"$. c #02727D",
"%. c #1F606F",
"&. c #23606F",
"*. c #236373",
"=. c #226B7C",
"-. c #2C6978",
";. c #397563",
":. c #3B634D",
">. c #424553",
",. c #454857",
"<. c #424659",
"1. c #46495A",
"2. c #494D5D",
"3. c #404350",
"4. c #4A4E62",
"5. c #474B62",
"6. c #4E5163",
"7. c #4E526A",
"8. c #515465",
"9. c #52566A",
"0. c #55596C",
"q. c #585C6F",
"w. c #555A73",
"e. c #5A5E73",
"r. c #595F7A",
"t. c #545A76",
"y. c #5D6175",
"u. c #5D627B",
"i. c #61657B",
"p. c #65697E",
"a. c #606377",
"s. c #487046",
"d. c #827D05",
"f. c #058706",
"g. c #019201",
"h. c #6A8F14",
"j. c #648716",
"k. c #6B9114",
"l. c #66923C",
"z. c #659F4B",
"x. c #7EC74F",
"c. c #8C8700",
"v. c #918B00",
"b. c #A4ED3C",
"n. c #9CE33C",
"m. c #8CD548",
"M. c #99E746",
"N. c #027E89",
"B. c #057A86",
"V. c #246C82",
"C. c #227384",
"Z. c #237A8D",
"A. c #287688",
"S. c #237E92",
"D. c #2F7E90",
"F. c #307291",
"G. c #3275A9",
"H. c #327CB3",
"J. c #2B5D84",
"K. c #5D6483",
"L. c #5F6688",
"P. c #616682",
"I. c #656A83",
"U. c #696D84",
"Y. c #656B8B",
"T. c #696E8A",
"R. c #606789",
"E. c #6D728B",
"W. c #6C7087",
"Q. c #71758E",
"!. c #6D7392",
"~. c #6D759A",
"^. c #717693",
"/. c #757994",
"(. c #787D97",
"). c #757B9A",
"_. c #797E9B",
"`. c #70779C",
"'. c #676E92",
"]. c #757CA2",
"[. c #6F77A0",
"{. c #01828E",
"}. c #008E9B",
"|. c #028793",
" X c #00909E",
".X c #228195",
"XX c #23859A",
"oX c #23899E",
"OX c #2E8497",
"+X c #318699",
"@X c #2A929D",
"#X c #0296A3",
"$X c #009CAA",
"%X c #238DA3",
"&X c #328EA2",
"*X c #2394AB",
"=X c #2393AA",
"-X c #3496AB",
";X c #3498AE",
":X c #3391A6",
">X c #239DB5",
",X c #239FB8",
"<X c #3483BC",
"1X c #00A6B4",
"2X c #00A8B6",
"3X c #00AAB9",
"4X c #00A0AE",
"5X c #23A1B9",
"6X c #7D829D",
"7X c #7D83A2",
"8X c #7E84A8",
"9X c #368CCC",
"0X c #3586C4",
"qX c #378FD1",
"wX c #8186A2",
"eX c #8489A6",
"rX c #858BAA",
"tX c #898EAC",
"yX c #8087A9",
"uX c #8B90AF",
"iX c #878EB2",
"pX c #8D93B2",
"aX c #8D94BA",
"sX c #9196B6",
"dX c #949ABB",
"fX c #959BBD",
"gX c #969CC2",
"hX c #9CA2C6",
"jX c #9EA6D2",
"kX c #A2AAD6",
"lX c #A2A8CB",
/* pixels */
"2 2 2 2 2 2 2 2 2 2 2 2 2 2 3 2 2 2 2 2 2 2 2 2 2 2 2 2 2 2 2 2 2 2 2 2 2 2 2 2 2 2 2 2 2 2 3 2 2 2 2 2 2 2 2 2 2 2 7 2 2 2 2 2 2 2 2 7 2 2 3 2 2 2 2 2 2 2 2 3 2 2 2 2 2 2 7 2 2 2 3 2 2 2 2 2 2 2 2 3 3 2 2 2 2 2 2 2 3 2 2 2 2 2 2 2 2 2 2 2 2 2 2 2 2 2 3 2 2 2 2 2 2 3 2 2 2 3 2 2 2 2 2 2 2 2 2 2 2 2 2 2 2 3 2 2 2 2 2 2 2 2 2 2 2 2 2 2 2 2 2 2 2 2 2 2 2 2 2 2 2 2 2 2 2 2 2 2 2 2 2 2 2 2 2 2 2 2 2 2 2 2 2 2 2 2 2 2 2 2 2 2 2 2 2 2 2 2 2 2 2 2 2 2 2 2 2 2 2 2 2 2 2 2 2 2 2 2 2 2 2 2 2 2 2 2 2 2 2 2 2 2 2 2 2 2 2 7 2 2 2 2 2 2 2 2 2 2 2 2 2 2 2 2 2 2 2 2 2 2 2 2 2 2 2 2 2 2 2 2 7 2 2 2 2 2 2 2 2 2 2 2 2 2 2 2 2 2 2 2 2 2 2 2 2 2 2 2 9 2 2 2 2 2 2 2 2 2 2 2 2 7 2 2 2 2 7 2 2 2 2 2 2 2 2 2 2 2 2 2 2 2 2 2 2 2 2 2 2 2 2 2 2 2 2 2 2 2 2 2 2 2 2 2 2 2 2 2 2 2 2 2 2 2 2 2 2 2 2 2 2 2 2 2 2 2 2 2 2 2 2 2 2 2 2 2 2 2 2 2 2 2 2 2 2 2 2 2 2 2 2 2 2 2 2 2 2 2 2 2 2 2 2 2 2 2 2 2 2 2 2 2 2 2 2 2 2 2 9 2 2 2 2 2 2 2 2 2 2 2 2 2 2 2 2 2 2 2 2 2 2 2 2 2 2 2 2 2 2 2 2 2 2 2 2 2 2 2 2 2 3 3 2 2 2 2 2 2 2 2 3 2 2 2 2 2 2 3 2 3 2 2 2 2 2 7 3 2 2 2 2 2 2 2 2 2 2 2 2 2 4 3 7 2 2 2 2 2 2 2 2 2 2 2 2 2 2 2 2 2 2 3 2 2 3 2 2 2 2 3 2 2 2 2 2 2 3 2 2 2 2 2 2 2 2 2 2 2 2 2 2 2 2 2 2 2 2 2 2 2 2 2 2 3 2 2 2 2 2 2 2 2 2 2 2 2 2 2 2 2 2 2 2 2 2 2 3 2 2 2 2 2 3 2 2 2 2 2 2 2 2 2 2 2 2 2 2 7 2 2 2 2 2 2 2 2 2 3 2 2 2 2 7 2 2 2 2 2 2 2 2 2 2 2 2 2 2 2 2 3 2 2 2 2 2 2 2 2 2 2 2 7 2 2 2 2 2 2 3 2 2 2 2 2 2 3 2 2 2 2 2 2 2 2 7 2 2 2 2 2 2 2 2 3 2 2 2 2 2 2 2 2 2 2 2 2 2 2 9 2 2 2 2 2 2 2 2 2 2 2 2 2 3 2 2 2 2 2 2 2 2 2 2 2 2 2 2 2 3 2 2 2 2 2 2 3 2 2 2 2 2 2 2 2 2 2 2 2 2 2 2 7 2 3 2 2 2 2 2 2 2 3 2 2 2 2 2 2 2 2 2 2 2 2 2 2 2 2 2 2 2 2 2 2 2 2 2 7 3 2 2 2 2 2 2 2 3 2 2 2 2 2 2 2 2 2 2 2 2 2 2 2 3 2 2 2 2 2 3 2 2 2 2 2 2 3 2 2 2 2 3 2 2 2 2 2 2 3 2 2 2 2 2 2 2 2 2 3 2 2 2 3 2 2 2 2 2 2 3 2 2 2 2 2 2 2 2 7 2 3 2 2 2 2 2 2 2 2 2 2 2 2 2 2 2 2 2 2 2 2 2 2 3 2 2 2 2 7 2 2 3 2 2 2 2 2 2 2 2 2 2 2 3 2 2 2 2 2 2 2 2 2 2 2 2 2 2 2 2 2 2 3 2 2 2 2 2 2 2 7 2 2 2 2 2 2 2 2 2 2 2 2 2 2 2 2 2 2 2 2 2 7 2 2 2 2 7 2 2 3 2 2 2 2 2 2 2 2 2 2 2 2 2 2 2 2 2 2 2 2 2 2 2 2 2 2 2 2 2 2 2 2 3 2 2 2 2 2 2 2 2 2 2 2 2 3 2 2 2 2 3 2 2 2 2 2 2 2 2 2 2 2 2 2 2 2 3 2 2 2 2 2 2 2 2 2 2 2 2 2 2 2 2 2 2 2 2 2 2 2 2 2 2 2 2 2 2 2 2 ",
"2 2 2 2 2 2 2 3 2 2 2 2 2 2 2 2 2 2 2 2 2 2 2 2 2 2 2 9 9 2 2 2 2 2 2 2 2 2 2 2 3 2 2 2 3 2 2 2 2 2 2 2 2 2 7 2 2 2 2 2 2 2 2 2 3 2 2 2 2 2 2 2 2 2 2 2 2 2 2 2 2 2 2 2 2 2 2 2 2 2 2 2 2 3 2 2 2 2 2 2 2 2 2 2 2 2 2 2 2 2 2 2 2 2 2 2 2 2 2 2 2 2 2 2 2 2 2 2 2 2 3 2 2 2 2 2 2 2 2 2 2 2 2 2 3 2 2 2 2 2 2 2 2 2 2 3 2 2 2 2 2 2 2 2 2 2 2 2 2 2 9 2 2 2 2 2 2 2 2 2 2 2 3 4 2 2 2 2 2 2 2 2 2 2 2 2 2 2 2 2 2 2 2 2 2 2 2 2 2 2 2 2 2 2 2 2 2 2 2 2 2 2 2 2 2 2 2 2 2 2 2 2 2 2 2 2 2 2 2 2 2 2 2 2 2 2 2 2 2 2 2 2 2 2 4 2 2 2 2 2 2 2 2 7 2 2 2 2 2 2 2 2 9 2 2 2 2 2 2 2 2 2 2 2 2 7 2 2 2 2 2 2 2 2 2 2 2 2 2 2 2 2 2 2 2 2 2 2 2 2 2 2 2 2 2 2 2 2 2 2 2 2 2 2 2 2 2 2 2 2 2 2 2 2 2 2 2 2 2 2 2 2 2 2 2 2 2 2 2 2 2 2 2 2 2 2 2 2 2 2 2 2 2 2 2 2 2 2 2 2 2 2 2 2 2 2 2 2 2 2 2 2 2 2 2 2 2 2 2 2 2 2 2 2 2 2 2 2 4 2 2 2 2 9 2 2 2 2 2 2 2 2 2 2 2 9 2 2 2 2 2 2 2 2 2 2 2 2 2 2 2 2 9 2 2 2 2 2 2 2 2 2 2 2 9 2 2 2 2 2 2 2 2 2 2 2 2 2 2 2 9 2 2 2 2 2 2 2 2 2 2 2 2 2 2 2 2 2 9 2 2 2 2 2 2 2 2 2 2 2 3 4 2 2 2 2 2 2 2 2 2 2 2 2 2 2 2 2 2 2 2 2 2 2 2 2 2 2 2 2 2 2 2 2 2 2 2 2 2 2 3 3 2 2 2 2 2 2 2 2 2 2 2 2 3 2 2 3 2 2 2 2 2 2 2 2 2 2 2 2 2 2 2 2 2 2 2 2 2 2 2 2 2 2 2 2 2 2 2 2 2 2 2 2 2 2 2 2 2 2 2 2 2 2 2 2 2 2 2 2 3 2 2 2 2 2 2 2 2 2 2 2 2 2 7 2 3 3 2 2 3 2 2 2 2 2 2 2 2 2 2 2 2 7 2 2 2 2 2 2 3 2 2 2 2 2 2 2 2 2 2 7 2 2 2 2 2 2 2 2 2 2 2 2 2 2 2 2 2 2 2 3 2 2 3 2 2 2 2 2 2 2 2 2 2 9 2 2 2 2 2 2 2 2 2 2 2 2 2 2 2 2 2 2 2 2 2 2 7 2 2 2 2 2 2 2 2 2 2 2 2 2 2 2 2 2 7 2 2 2 2 2 2 2 2 2 2 2 2 2 7 2 2 2 2 2 2 2 2 2 2 3 2 2 2 2 2 2 2 2 2 2 2 2 2 2 2 3 2 2 3 2 2 2 2 2 2 2 2 2 2 2 2 2 3 2 2 2 2 2 2 2 2 2 7 2 2 2 2 2 2 2 2 2 2 2 2 2 2 2 2 3 2 2 2 2 2 2 2 2 2 3 2 2 2 3 7 2 2 2 2 2 2 2 2 3 2 2 2 2 2 2 2 2 2 2 2 2 2 2 2 2 2 2 2 2 2 3 2 2 2 2 2 2 2 2 2 2 2 2 2 3 2 2 2 2 2 2 2 2 7 2 2 2 2 2 2 2 2 2 2 2 3 2 2 2 2 2 2 2 2 2 2 2 2 2 3 2 2 2 2 2 2 3 2 2 2 3 2 2 3 2 2 2 2 2 2 2 2 2 2 2 2 2 2 2 3 2 2 2 7 2 2 2 2 2 2 2 2 3 2 2 2 2 2 3 2 2 2 2 2 2 2 2 2 2 2 2 2 2 2 2 3 2 2 2 2 2 3 2 2 2 2 2 2 3 2 2 2 2 2 2 2 2 2 2 2 2 2 2 2 2 2 2 2 2 2 2 2 2 7 2 2 2 3 2 2 2 2 2 3 2 2 3 2 2 2 2 2 2 2 2 2 2 2 2 2 2 2 2 7 2 2 2 2 2 2 2 2 2 2 2 2 2 2 2 3 2 2 2 3 7 2 2 3 2 2 2 2 2 2 2 2 2 2 2 2 2 2 2 2 2 2 2 2 2 2 2 2 2 7 2 2 2 2 2 2 2 2 ",
"2 2 2 3 2 2 2 2 2 2 7 2 2 3 2 2 2 2 2 2 2 2 2 2 2 2 2 2 2 2 2 2 2 2 2 2 2 2 2 2 2 2 2 2 2 2 2 2 2 2 2 3 2 2 2 2 2 2 2 2 2 2 2 2 2 2 2 2 3 2 2 2 2 2 2 3 2 2 7 2 2 2 2 2 2 2 2 2 2 3 3 2 2 2 2 2 2 2 2 2 2 2 2 2 2 2 2 2 2 2 2 2 2 2 2 2 2 2 2 2 2 2 2 3 2 2 2 2 2 2 2 2 3 2 3 2 3 2 2 2 2 2 2 2 2 2 2 2 3 2 2 2 2 2 2 2 2 2 2 2 2 2 2 2 2 2 2 2 2 2 2 2 2 2 2 2 2 2 2 2 2 2 3 3 2 9 2 2 2 2 2 2 2 2 2 2 9 2 2 2 2 2 2 2 4 2 2 2 2 2 2 2 2 2 2 2 2 2 2 2 2 2 9 2 2 2 2 2 2 3 2 2 2 2 2 2 2 2 2 2 2 2 9 2 2 2 2 2 2 2 2 2 2 2 3 3 2 2 2 2 2 2 2 2 2 7 2 2 2 2 2 2 2 2 2 2 2 2 2 2 2 2 2 7 2 2 2 2 2 2 2 2 2 2 2 2 2 2 2 9 2 2 2 2 2 7 2 2 2 2 7 2 2 2 2 7 2 2 2 2 2 2 2 2 2 2 2 2 2 2 2 2 2 2 2 2 2 2 2 2 2 2 2 2 9 2 2 2 2 2 2 2 2 2 2 2 2 2 2 2 2 2 2 2 2 2 2 2 2 2 2 2 2 2 2 2 2 2 2 9 2 2 2 2 2 2 9 2 2 2 2 2 2 2 2 2 2 2 3 3 2 2 2 2 2 2 2 2 2 2 2 2 2 2 2 2 2 2 2 2 2 2 2 2 2 2 2 2 2 2 2 2 2 2 2 2 2 2 2 2 2 2 2 2 2 2 2 2 2 2 2 2 2 2 2 2 2 2 2 2 2 2 2 2 2 2 2 2 2 2 2 2 2 2 2 2 2 2 2 2 2 2 2 2 2 2 2 2 2 2 2 2 2 2 3 2 3 2 2 2 2 2 2 2 2 2 2 2 2 2 2 2 2 2 2 2 2 2 2 2 2 2 2 2 2 2 2 2 2 2 2 2 2 2 2 3 2 2 2 7 2 2 2 2 2 2 2 2 3 2 2 2 2 2 2 2 2 2 2 2 2 2 2 2 2 2 2 2 2 2 2 2 2 2 2 2 2 2 2 2 2 2 2 2 2 2 9 2 2 2 2 2 2 2 3 7 2 2 2 2 2 2 7 2 2 2 2 2 2 2 2 2 2 2 2 2 2 4 2 2 2 2 2 2 2 2 2 3 2 2 2 7 2 2 2 2 2 2 2 2 2 2 2 2 3 2 2 2 2 2 2 2 2 2 2 2 2 2 2 2 2 2 2 2 2 3 2 2 2 2 2 2 7 2 2 2 2 2 2 2 2 2 2 2 2 2 2 2 7 2 2 2 2 2 2 2 2 2 7 2 2 2 2 2 2 2 2 2 2 2 2 2 2 2 2 2 2 2 2 2 2 2 2 7 2 2 2 2 2 2 2 2 2 2 2 2 2 2 2 2 2 2 2 2 2 2 2 7 2 2 2 2 2 2 2 2 2 2 2 2 3 2 2 2 2 2 2 2 2 2 2 2 2 2 2 2 2 2 2 2 2 2 2 2 7 2 2 2 3 2 2 2 2 2 2 3 2 2 2 2 2 2 2 2 2 2 2 2 2 2 2 2 2 2 3 2 3 2 2 2 2 2 2 2 2 2 2 2 2 2 3 2 2 2 2 2 2 2 2 2 2 2 2 2 2 2 2 2 2 2 2 3 2 2 2 2 2 2 3 2 2 2 2 3 2 2 2 2 2 2 2 2 2 2 2 2 3 2 2 2 2 2 2 2 2 2 2 2 2 2 2 2 2 2 2 2 3 2 2 2 2 2 2 3 2 2 3 2 2 3 2 2 2 3 2 2 2 2 2 2 2 2 2 2 2 2 2 3 2 2 2 3 2 3 2 2 2 2 2 7 2 2 2 3 2 3 2 2 2 2 2 2 2 2 2 2 2 2 2 2 3 2 2 2 2 2 2 2 2 2 2 2 2 2 2 2 2 2 3 3 2 2 3 2 2 3 2 2 2 2 2 2 2 2 2 2 2 2 2 2 2 2 2 2 2 2 2 2 2 2 2 2 2 2 3 2 2 2 2 3 2 2 2 2 2 2 2 2 2 2 2 2 2 2 2 2 2 2 7 2 2 2 2 2 3 2 2 2 2 2 2 3 2 3 2 2 2 2 2 2 2 2 2 2 2 2 2 2 2 2 3 2 2 2 2 2 2 2 2 2 2 2 2 2 2 2 2 7 2 2 2 2 7 2 2 2 2 2 2 ",
"2 2 2 2 2 2 3 2 2 2 3 2 2 2 2 2 2 2 2 2 2 2 2 2 2 2 2 2 2 2 2 2 2 2 2 2 2 2 2 2 2 2 2 2 2 2 2 2 2 2 2 2 2 2 2 2 2 2 2 2 7 2 2 2 2 2 2 2 2 2 2 2 2 2 2 2 2 3 2 2 2 2 3 2 2 2 2 2 2 2 2 2 2 2 2 3 3 2 2 2 2 2 2 3 3 2 2 2 2 2 3 2 2 2 2 2 2 2 2 2 2 2 2 2 2 2 2 2 2 3 2 2 2 2 2 2 2 2 2 3 2 3 2 2 2 2 3 2 2 2 2 2 2 2 2 2 2 2 7 2 2 2 2 2 2 2 2 2 2 2 2 2 2 2 2 2 2 2 2 2 2 2 2 2 2 2 2 2 2 2 2 2 9 2 2 2 2 2 2 2 2 2 2 2 3 2 2 2 2 2 9 2 2 2 2 2 2 2 2 9 2 2 2 2 2 2 2 2 2 3 3 4 2 2 2 9 2 2 2 2 2 2 2 2 2 2 2 2 2 2 2 2 2 2 2 3 2 2 2 2 2 2 2 2 2 2 2 2 2 2 2 2 2 2 2 2 2 2 2 2 2 2 2 2 2 2 2 2 2 2 2 2 2 2 2 2 2 2 2 2 2 2 2 2 2 2 2 2 2 2 2 2 2 2 2 2 2 2 2 2 2 2 2 2 2 2 2 2 2 2 2 2 2 2 2 2 2 2 2 2 2 2 2 2 2 2 2 2 2 2 2 2 2 2 2 2 9 2 2 2 2 2 2 2 2 2 2 2 9 2 2 2 2 2 2 2 2 2 2 2 2 2 2 2 2 2 2 2 2 2 2 9 2 2 2 2 2 2 2 3 2 2 2 2 2 2 2 2 2 2 2 2 2 2 2 2 2 2 2 2 2 2 2 2 2 2 2 2 2 2 2 2 2 2 2 2 2 2 2 2 2 2 2 2 2 2 2 2 2 2 2 2 2 2 2 2 2 2 2 2 2 2 2 2 2 2 2 2 2 2 2 2 2 2 2 2 2 2 2 2 2 2 2 2 2 2 2 2 2 2 2 2 2 2 2 2 7 2 2 2 2 2 2 3 2 7 2 2 2 2 2 3 2 3 2 2 2 2 3 2 2 2 2 2 2 2 2 2 2 2 2 2 2 2 2 2 2 2 2 2 2 7 2 2 2 2 3 2 2 2 3 2 2 2 2 3 2 3 2 2 2 7 3 2 3 2 2 2 2 2 2 2 2 2 9 2 2 2 2 2 2 2 2 2 2 2 2 2 2 2 2 2 2 2 2 2 2 3 2 2 2 3 2 2 7 2 2 2 2 7 2 2 2 2 2 2 2 2 2 2 2 2 2 2 2 2 2 2 2 2 2 2 2 2 2 2 2 2 2 2 7 2 2 2 2 2 2 2 2 2 2 2 2 2 2 2 2 2 9 2 2 2 2 2 2 2 2 2 2 2 2 2 2 2 2 2 2 2 2 7 2 2 2 2 2 2 2 2 2 2 2 2 3 2 2 2 2 2 2 3 2 2 2 2 2 2 2 2 2 2 2 2 2 2 2 3 3 2 2 2 2 2 2 2 2 2 2 2 2 2 2 2 2 2 2 2 2 2 2 2 2 2 2 2 2 2 2 3 2 3 2 2 7 2 3 2 3 2 2 2 2 2 2 2 2 2 2 2 2 2 2 2 2 2 2 2 2 2 2 3 3 2 2 2 2 2 2 2 2 2 2 2 2 2 2 2 2 2 2 2 2 2 7 2 2 2 2 7 2 2 3 2 2 2 2 2 2 2 2 2 2 2 2 2 2 2 2 2 2 2 2 2 2 3 2 3 2 2 3 2 3 2 2 2 2 2 2 2 2 2 2 2 2 2 7 2 2 2 2 2 2 2 2 2 2 2 2 2 2 2 3 2 2 2 3 2 2 2 2 2 2 2 2 2 3 2 2 2 2 2 3 7 2 2 2 2 2 2 2 2 2 2 2 2 2 2 2 2 2 7 2 2 2 2 2 2 2 2 2 3 2 2 2 2 2 2 2 2 2 2 2 2 2 2 2 2 2 3 2 2 2 2 2 2 2 2 2 2 2 3 7 2 2 2 3 3 2 2 3 2 2 2 2 2 2 2 2 2 2 3 2 2 2 2 3 2 2 2 3 3 2 2 2 2 2 2 2 2 2 2 2 2 2 2 2 2 2 2 2 2 2 2 2 4 2 7 2 2 2 3 2 2 2 2 2 2 2 3 2 2 2 3 2 2 2 2 2 2 3 2 2 2 2 2 3 2 2 2 2 2 2 2 3 2 2 2 2 2 2 2 2 2 2 2 2 2 2 3 2 2 2 2 2 2 2 2 2 2 7 2 2 2 2 2 2 2 2 7 2 7 2 7 2 7 7 2 7 7 7 2 2 2 2 2 2 2 2 3 2 ",
"2 2 3 2 2 2 2 2 2 3 2 2 2 3 2 2 2 2 2 2 2 2 2 2 2 2 2 2 2 2 2 2 2 2 2 2 2 2 2 2 2 2 2 2 2 2 2 2 7 2 3 2 2 2 2 2 2 2 2 2 2 2 2 2 2 2 2 2 2 3 2 2 2 7 3 2 2 2 2 2 2 2 7 2 2 2 2 7 2 2 3 2 2 2 3 2 2 2 2 2 2 2 2 2 2 2 2 2 2 7 2 2 2 2 2 2 2 2 2 7 2 2 2 2 2 2 2 2 2 3 2 2 2 3 2 2 2 3 2 2 2 2 2 3 2 2 2 2 2 3 2 2 2 2 2 2 2 2 2 2 2 2 2 9 2 2 2 2 2 2 2 2 2 2 9 2 2 2 2 2 2 2 2 2 2 2 2 2 2 2 2 2 2 2 2 2 2 2 2 2 2 2 2 3 3 2 2 2 2 2 2 2 2 2 2 2 2 2 2 2 2 2 2 2 2 2 2 2 2 2 2 2 2 2 2 2 2 2 2 2 2 2 2 2 2 2 2 9 2 3 2 2 2 3 2 2 7 2 2 2 2 2 3 2 2 2 2 2 2 2 2 2 2 2 2 2 2 2 2 2 2 2 2 2 2 2 2 2 2 2 2 2 2 2 2 2 2 2 2 2 2 2 2 2 2 2 2 2 3 2 2 2 2 2 2 2 2 2 2 2 2 2 2 2 2 2 9 2 2 2 2 2 2 2 2 2 2 7 2 2 2 2 2 2 2 2 2 2 2 2 2 2 2 2 2 2 2 2 2 2 2 2 2 2 2 2 2 2 2 3 2 2 2 2 2 2 2 2 2 2 2 2 2 2 2 2 2 2 2 2 2 2 2 3 2 2 2 2 3 2 2 2 2 2 2 2 2 2 2 2 2 2 2 2 2 2 2 2 2 2 2 2 2 4 9 2 2 2 2 2 2 2 2 2 2 2 2 2 2 2 3 3 2 2 2 2 2 2 2 2 2 2 2 2 2 2 2 9 2 2 2 2 2 2 2 2 2 2 2 3 3 2 2 2 2 2 2 2 2 2 2 2 2 2 2 2 2 2 2 2 2 2 2 3 2 2 3 2 2 2 2 2 2 3 3 2 2 2 2 2 7 2 2 2 2 2 2 2 2 2 2 2 2 2 2 2 2 2 2 3 2 2 2 2 2 2 2 2 2 2 2 2 2 2 2 2 2 2 2 2 2 2 2 2 3 2 2 2 2 2 2 2 2 2 2 2 2 2 2 2 2 2 2 2 2 2 2 2 2 2 2 9 2 2 2 2 2 2 2 2 2 2 2 2 2 2 2 2 2 2 2 2 2 2 2 2 2 2 2 2 2 2 2 2 2 2 2 2 2 2 2 2 2 2 2 2 3 2 2 2 2 2 2 2 2 2 2 2 7 2 2 2 2 2 2 3 2 2 2 2 2 2 2 2 2 2 2 2 2 2 2 2 2 2 2 2 3 2 2 2 2 2 2 2 2 7 2 2 2 2 2 9 2 2 2 2 2 2 2 2 2 3 3 2 2 2 2 2 2 2 3 2 2 2 2 2 2 9 2 2 2 2 2 2 2 2 2 2 2 2 2 2 2 2 2 2 2 2 2 2 2 2 2 2 2 2 2 2 2 2 2 2 2 7 2 2 3 3 3 3 2 2 3 3 7 7 2 3 2 2 3 3 3 3 2 3 2 3 2 3 2 2 2 2 2 2 2 2 2 3 2 2 2 2 2 2 2 2 2 2 2 7 2 2 2 2 2 2 2 2 2 3 3 7 2 2 2 2 2 2 2 2 2 2 2 2 2 2 2 2 2 2 2 2 3 2 2 2 2 3 2 2 3 3 2 3 2 2 2 3 2 2 2 2 2 2 2 2 2 2 2 2 2 3 3 3 3 3 2 2 2 2 2 2 3 2 3 3 2 2 3 2 2 3 3 3 2 2 2 2 2 2 2 2 3 3 3 3 2 2 2 2 2 2 7 7 2 2 2 2 2 3 2 2 2 2 2 3 2 2 2 2 2 2 2 2 2 2 7 2 2 2 2 2 2 3 2 2 2 2 2 2 3 3 2 2 2 2 2 2 2 2 2 2 3 3 3 3 2 3 2 2 3 2 2 3 2 2 2 2 2 2 3 2 2 2 2 2 2 2 2 2 2 7 3 3 3 2 2 3 2 2 2 2 2 2 3 2 2 2 2 2 2 2 3 2 3 2 2 2 2 3 3 3 2 2 2 2 2 2 3 2 2 2 3 3 2 2 2 2 2 2 2 2 2 2 2 2 2 2 2 3 2 2 2 2 2 2 2 2 3 3 2 3 2 2 2 7 2 2 2 3 2 3 2 2 2 2 2 2 2 2 2 2 2 3 2 2 2 3 2 2 2 3 2 2 5 ; ; ; 5 ; 5 ; ; 5 5 ; 5 5 3 2 2 2 2 2 2 3 2 ",
"3 2 2 2 2 2 2 2 2 2 2 2 2 2 2 2 2 2 2 2 2 2 2 2 2 2 2 2 2 2 2 2 2 2 2 2 2 2 2 2 2 2 2 3 2 3 2 2 2 2 2 2 2 2 2 7 2 2 2 2 2 2 2 2 2 2 2 3 2 2 2 2 2 2 2 2 2 2 2 2 2 2 2 2 2 2 2 2 2 2 2 2 2 2 2 2 2 2 2 2 2 2 2 2 2 2 2 2 2 2 3 7 7 q q q q q q q q q 9 9 7 2 2 2 2 2 2 2 2 2 2 2 2 2 2 2 3 2 2 2 2 2 2 2 2 2 2 3 2 2 2 2 2 2 2 2 2 2 2 2 2 2 2 2 2 2 2 2 2 2 2 2 2 3 2 2 2 3 2 2 2 2 2 2 2 2 2 2 2 2 2 2 2 2 2 2 2 2 2 2 3 2 2 2 2 2 2 2 2 2 2 2 2 2 2 2 2 2 2 2 3 2 2 2 2 2 2 3 2 2 2 2 2 2 2 2 2 2 2 2 2 2 2 2 2 2 2 2 2 2 2 2 2 2 2 2 2 2 2 2 2 2 2 2 2 2 2 2 2 2 2 2 2 2 2 2 3 2 2 2 2 2 2 2 2 2 2 2 2 2 2 2 2 2 2 2 2 2 2 2 2 2 2 2 2 2 2 2 2 2 2 2 2 2 2 2 2 2 2 2 2 2 2 2 2 2 7 2 2 2 3 2 2 2 9 2 2 2 2 2 2 2 2 2 2 2 2 2 2 2 2 2 2 2 2 2 2 2 9 2 2 2 2 2 2 2 2 2 2 2 2 2 2 2 2 2 2 2 2 2 2 2 2 2 2 2 2 2 2 2 2 2 2 2 2 2 2 2 2 2 2 2 9 2 2 2 2 2 2 2 2 2 2 2 2 2 2 2 3 3 2 2 2 2 2 2 2 2 2 2 2 2 2 2 2 2 3 4 2 2 2 2 2 2 2 2 2 2 2 2 2 2 2 2 2 2 2 2 2 2 2 3 2 2 4 3 2 2 2 2 2 2 2 2 2 2 2 2 2 2 2 2 2 2 2 3 2 2 2 2 2 2 2 2 2 2 2 2 2 2 2 2 2 2 2 2 2 2 2 2 2 2 2 2 2 2 2 2 9 2 2 2 2 2 2 2 2 2 2 2 2 2 2 2 2 2 2 2 2 2 3 2 2 3 2 3 2 2 2 2 2 2 2 2 2 2 2 2 2 3 2 2 7 2 2 2 2 2 2 2 2 2 2 2 2 2 2 2 2 2 2 2 2 2 2 2 2 2 2 2 2 2 3 2 2 2 2 2 2 2 2 2 2 2 2 2 2 2 9 2 2 2 2 2 2 2 2 2 2 2 2 2 2 2 2 2 2 2 2 2 2 9 2 2 2 2 2 2 2 3 2 2 2 2 2 2 2 2 2 2 2 2 2 2 2 2 2 2 2 2 2 2 2 2 2 2 2 2 2 2 2 2 2 2 2 2 2 2 2 2 2 2 2 2 2 2 2 2 2 2 2 2 2 2 2 2 2 2 2 2 2 2 2 2 2 7 2 2 2 2 2 2 2 2 2 2 2 2 2 2 2 2 2 2 2 2 2 2 2 2 2 2 2 2 2 2 7 7 9 7 8 8 7 7 2 2 2 2 3 7 7 7 7 9 9 7 8 7 3 3 7 7 3 3 2 2 2 3 2 2 2 2 9 7 7 3 2 2 7 7 7 2 2 3 2 7 7 7 7 3 2 2 2 2 2 2 2 3 3 7 9 9 2 2 3 3 2 2 2 2 7 7 7 7 2 2 2 2 2 2 7 7 7 2 2 2 2 2 3 8 7 8 7 3 2 7 8 8 9 7 7 2 2 2 2 2 7 7 8 8 9 8 8 7 3 3 8 8 7 2 2 2 3 7 7 7 7 2 2 2 3 7 7 9 7 3 2 2 2 2 2 3 7 7 7 2 2 2 3 3 9 7 7 9 7 9 7 9 3 2 2 2 2 7 7 7 7 7 2 2 2 2 3 7 9 7 9 7 2 3 2 2 2 2 2 2 2 2 3 3 7 8 7 7 3 2 3 7 7 9 7 9 7 7 7 9 2 3 9 7 7 9 7 9 7 3 2 3 9 7 9 7 7 2 2 3 2 2 7 7 9 7 9 7 7 7 2 2 3 3 2 3 9 7 7 3 2 2 2 2 2 2 2 2 2 2 2 9 e 9 2 2 2 2 3 2 2 2 2 2 7 7 3 2 2 2 3 2 7 7 3 2 2 2 3 3 7 7 7 2 2 2 2 2 2 2 3 7 3 3 2 2 2 2 2 3 3 3 8 7 3 2 2 2 2 2 3 2 3 2 2 2 2 2 2 2 2 2 2 2 3 4 i f i f f i f f f f f f f d p 3 2 2 2 2 2 2 2 ",
"2 2 2 2 2 2 2 2 2 2 2 3 3 2 3 2 2 2 9 2 2 2 2 2 2 2 2 2 2 2 2 2 2 2 2 2 2 2 2 2 2 2 2 2 2 2 2 2 3 2 2 2 2 2 2 2 2 2 2 2 2 2 2 9 2 2 2 2 2 2 3 2 3 2 2 2 2 2 2 2 2 2 2 2 2 2 2 2 2 3 2 3 3 2 2 2 2 2 2 2 2 2 2 2 2 2 2 2 3 7 7 w ~ =.A.S.XXXXoXoX.XA.*.| Z 7 7 2 2 2 2 3 3 2 2 3 2 2 2 2 2 2 2 2 2 2 2 2 2 2 2 2 2 7 2 2 2 2 2 2 2 2 2 2 2 2 2 2 2 2 2 2 2 2 2 2 2 2 2 2 2 3 2 2 2 2 2 2 2 2 2 2 2 2 2 2 2 2 2 2 2 2 2 2 2 2 2 2 2 2 2 2 2 2 2 2 2 2 2 2 2 2 2 2 2 2 2 2 2 2 2 2 2 2 2 2 2 2 2 2 2 2 2 2 2 2 2 2 2 2 2 2 3 2 2 2 2 2 2 3 2 2 2 2 2 2 2 9 2 2 2 2 2 2 2 2 2 2 2 2 2 2 2 2 2 2 2 3 2 2 2 2 9 2 2 2 2 2 2 9 2 2 2 2 7 2 2 2 2 2 2 2 9 2 2 2 2 2 2 2 2 2 2 2 2 2 2 2 2 2 3 2 2 2 2 2 2 2 2 2 2 2 2 2 2 2 2 2 2 2 2 2 2 2 2 2 2 2 2 2 2 2 2 2 2 2 2 2 2 2 2 2 3 3 2 2 2 2 2 2 2 2 2 2 2 2 2 2 2 2 2 2 2 2 2 2 2 2 2 2 2 2 2 2 2 2 2 2 2 2 2 2 2 2 2 2 3 2 3 2 2 2 3 2 2 2 2 2 2 2 2 2 2 2 2 2 2 2 2 2 2 2 2 2 2 2 2 2 2 2 2 2 2 2 9 2 2 2 2 2 2 2 2 2 2 2 2 2 2 3 2 2 2 2 2 2 2 2 2 2 2 2 2 2 9 2 2 2 2 2 2 2 3 2 2 2 2 2 2 2 2 2 2 2 2 2 2 3 2 2 2 2 7 2 2 2 2 2 2 2 2 2 2 2 2 2 2 2 2 2 2 3 2 2 2 2 9 2 2 2 2 7 2 2 2 2 2 2 2 2 2 2 3 2 2 2 7 2 2 2 2 2 2 2 2 2 2 3 2 2 9 2 2 2 2 2 2 2 2 2 2 2 2 2 3 2 3 3 2 2 2 2 3 2 2 2 2 2 2 2 2 2 2 2 7 2 2 2 2 2 2 2 2 2 2 2 2 2 2 2 2 2 2 2 3 2 2 2 2 2 2 2 2 2 2 2 2 2 2 2 2 2 2 2 2 2 2 2 2 7 2 2 2 2 2 2 2 2 2 2 2 2 2 2 2 2 3 3 2 2 2 2 2 2 2 2 2 2 2 2 2 2 2 2 2 2 2 2 2 2 2 2 2 2 2 2 2 2 2 2 2 2 2 2 2 2 2 7 2 2 2 2 3 3 2 2 2 2 2 2 2 2 2 2 2 2 2 7 2 2 2 2 2 2 9 2 2 2 2 2 D ,.2.2.1.>.D 9 2 2 2 2 2 e 3.1.2.1.2.2.>.9 3 D ,.R 3 3 2 2 2 2 7 3 2 9 R ,.t 2 3 3 G 2.3.9 2 2 3 0 R ,.D 7 2 2 2 2 2 2 3 2 9 H >.>.3.e 7 3 2 2 7 e R <.>.F 9 2 2 2 2 0 3.2.R 0 2 2 2 2 3 F <.,.D 7 2 e ,.2.1.2.^ t 2 2 2 7 F ,.2.1.1.2.2.G 8 8 J 1.H 0 2 2 2 7 3.>.t 2 2 2 7 G 1.>.R 0 2 2 2 2 3 9 R >.t 3 3 2 D >.2.1.2.2.1.1.1.>.0 2 2 3 0 R 1.>.F 9 7 3 2 2 e 3.1.1.1.3.D 7 3 3 2 2 3 2 3 3 2 7 D ,.1.R e 3 0 >.2.1.2.2.1.5.2.>.t 0 R 1.1.1.2.2.>.0 3 D >.2.2.<.J t 3 2 3 3 F >.2.2.1.2.2.F 7 3 7 3 7 D >.>.3.e 7 2 2 2 7 2 2 2 2 2 2 9 0 0 2 2 2 2 2 2 2 2 2 2 D ~ S 3 2 2 2 2 w W T q 2 2 2 w W Y r 2 2 2 2 2 2 8 w W Z 7 2 2 2 3 3 q Z Y W A r 2 2 2 2 2 2 2 2 2 2 2 2 2 3 2 2 2 3 2 3 : d h : 5 ; ; h p h ; r ; 5 f p 3 2 2 2 2 2 2 2 ",
"2 2 2 2 2 7 3 2 2 3 2 2 2 2 2 2 2 2 2 2 2 2 2 2 2 2 2 2 2 2 2 2 2 2 2 2 2 2 2 9 2 2 3 2 2 2 3 3 2 2 2 2 2 2 2 2 2 2 2 2 2 2 2 2 2 2 3 2 2 2 3 7 2 2 2 2 2 2 3 2 2 2 2 2 2 2 2 2 2 2 2 2 2 2 3 2 2 2 2 3 3 2 2 2 2 2 2 2 9 W -.Z.C.*.| I I L L V Q !  .*.C.V.| w 2 2 2 2 2 2 2 2 3 2 2 3 2 2 2 3 2 3 2 2 2 2 2 2 2 2 2 2 2 7 2 2 2 2 2 2 2 2 2 2 2 2 2 2 2 2 2 2 2 2 2 2 2 2 2 2 2 2 2 2 2 2 2 2 2 2 2 2 2 2 2 2 2 2 2 2 2 2 2 3 2 2 2 2 2 2 2 2 2 2 2 2 2 2 2 2 2 2 3 2 2 2 2 2 2 2 2 2 2 2 2 2 2 2 2 2 2 2 2 2 2 2 2 2 2 2 2 2 2 2 2 2 2 2 2 2 2 2 2 2 2 2 2 2 2 2 2 2 2 2 9 2 2 2 2 2 2 3 2 2 7 2 2 2 2 2 2 2 2 2 2 2 2 2 2 2 2 2 2 2 2 2 2 2 2 2 2 2 2 2 2 2 2 2 2 2 2 2 2 2 2 2 2 2 2 2 2 2 2 2 2 2 2 2 2 2 2 2 2 2 2 9 2 2 2 2 2 2 2 9 2 2 2 2 2 2 2 2 2 2 2 2 2 2 3 4 2 2 2 2 2 2 2 2 2 2 2 2 2 2 2 2 2 2 2 2 2 2 3 2 2 2 2 2 2 2 2 2 2 2 2 9 2 2 2 2 2 2 2 2 2 2 2 2 2 2 2 2 2 2 2 2 2 2 2 2 2 2 2 2 9 2 2 2 2 2 2 2 2 2 2 2 2 2 2 2 2 2 2 2 2 2 2 2 2 2 2 2 2 2 2 2 2 2 9 2 2 2 2 2 2 2 2 2 2 2 2 2 2 2 2 2 2 2 2 2 2 2 2 2 2 3 2 2 2 2 2 2 2 2 3 2 2 2 2 2 2 2 2 2 7 2 2 2 2 2 2 2 2 2 2 2 2 2 2 3 2 2 2 2 2 2 2 2 2 2 2 2 3 2 2 3 2 2 2 2 2 2 2 2 3 2 3 2 2 2 2 2 2 2 2 2 2 2 2 2 2 2 2 2 2 2 2 2 2 2 2 2 3 4 2 2 2 2 2 2 2 2 2 2 2 3 2 3 2 2 2 2 2 2 2 2 2 2 2 2 2 2 2 2 2 2 2 2 2 9 2 2 2 2 2 2 3 2 2 2 2 2 2 2 2 2 2 3 2 2 2 2 2 2 2 2 2 2 2 2 7 2 2 2 9 2 2 2 2 2 2 2 2 3 4 2 2 2 2 2 2 2 2 2 2 2 2 2 2 2 2 2 2 2 2 3 2 2 2 2 2 2 3 2 2 2 2 2 7 3 2 2 2 2 2 2 2 2 3 4 2 2 2 2 2 2 2 2 2 7 2 2 2 2 2 2 2 2 2 2 2 2 2 2 2 2 1.I.^././.^.T.r.3.3 2 2 2 J a.!.)./.^.).U.D 7 2.T.w.7 2 2 2 2 2 2 2 2 R y.T.9.7 2 % R P.U.J 2 2 2 G T.U.J 2 3 2 2 2 2 2 9 3.i.T.^.^.^.I.>.9 2 e 2.U.!.^./.!.r.3.7 3 2 G y.!.I.G 2 2 2 7 8 r.^.I.,.8 2 ,.I.^.^.^.^.I.4.9 2 3 4.I./.`././._.8.9 e w.Q.i.J 2 2 2 0 y.P.>.2 2 J e.!.^.^.!.I.3.2 2 2 2 3.P.Y.4.7 3 2 2.!././.^.^.^.).^.I.D 1 t 2.I.!.^.^.E.r.3.7 2 2 G a.^.^.^.^.Y.q.t 7 2 2 2 2 3 3 D 9.T.^./.^.Y.1.D U.^.).^.^.^.^./.!.>.D r.^.)././.).T.F 7 1.I.^./.^.^.I.2.9 3 7 4.Y././.`./.).8.0 2 7 J y.!.^.^.^.I.6.D 2 2 2 2 2 2 3 2 2 3 0 0 2 2 2 2 2 2 2 2 2 2 W =.&.q 2 2 2 q ) =.( w 2 3 8 Q =.%.Y 2 2 2 2 2 7 T *.C.! q 2 2 2 2 w ..=.C.A.C.=.Y 2 2 2 2 2 2 2 2 2 2 2 2 2 2 2 2 2 2 3 3 d h 7 5 h p s s f h h = 2 i p 2 7 2 2 2 3 2 2 ",
"2 2 2 3 2 2 2 2 2 % 1 2 % 2 2 2 2 2 2 2 2 2 2 2 2 2 2 2 2 2 2 2 2 2 2 2 2 2 2 2 % 2 2 % 2 2 % 2 2 2 % 2 1 2 2 2 2 2 2 2 2 3 2 2 3 2 1 2 % 2 2 1 % 2 1 2 2 1 2 1 2 2 1 % 2 % 2 2 2 2 2 2 2 3 2 2 3 2 2 2 2 2 2 2 2 2 7 T *.V.=. .U W _ l.s.l.l.l.l.l.T ~ |  .*.*.! w 7 3 2 2 2 2 2 2 2 2 3 2 2 2 2 2 9 2 2 2 2 2 2 2 7 2 2 2 2 2 2 2 2 2 2 2 2 2 2 2 2 2 2 2 2 2 2 2 2 2 2 7 2 2 2 2 2 2 2 2 2 9 2 2 2 2 7 2 2 2 3 2 2 2 2 2 2 3 2 2 2 2 2 2 2 2 2 2 3 2 2 2 2 2 2 2 2 2 2 2 2 2 2 2 2 2 2 2 2 2 2 2 2 2 2 2 7 2 2 2 3 2 2 2 2 2 2 2 2 2 3 2 2 2 2 2 2 2 2 2 2 2 2 2 2 2 9 2 2 2 2 2 2 2 2 2 2 2 4 2 2 2 2 2 2 2 2 2 2 2 2 2 2 2 2 2 2 2 2 2 2 3 2 2 2 2 2 2 2 2 2 2 2 2 2 2 2 2 2 2 2 2 2 2 3 2 2 2 3 3 2 2 2 2 2 2 2 2 2 2 9 2 2 2 2 2 2 2 2 2 2 2 7 2 2 2 2 2 2 3 2 2 2 2 2 2 2 2 7 2 2 2 2 2 2 2 2 2 2 2 2 2 2 2 2 2 2 7 2 2 2 2 2 2 2 2 2 2 2 2 2 2 2 2 2 2 2 2 2 2 2 2 2 2 2 2 2 2 2 2 2 2 2 2 2 2 2 7 2 2 2 2 2 3 2 2 2 2 2 2 2 2 2 2 2 2 7 2 2 2 2 2 2 2 2 2 2 2 2 2 2 2 2 2 2 2 2 2 2 2 2 2 2 2 2 2 2 2 2 2 2 2 2 2 2 2 2 2 2 2 2 2 3 2 2 2 2 2 2 3 2 2 2 2 2 2 2 2 2 2 2 2 2 2 2 2 2 2 2 2 2 2 2 2 2 2 2 2 2 2 2 2 2 2 2 2 2 2 2 2 2 2 2 2 2 2 2 2 2 2 2 2 2 2 2 7 2 2 2 2 2 2 2 2 2 2 2 2 2 2 7 2 2 2 2 2 2 2 2 2 2 2 2 3 2 2 2 2 2 2 2 3 2 2 2 2 2 2 2 2 2 2 2 2 2 2 2 2 2 2 2 2 2 2 2 2 2 2 2 2 2 2 2 2 2 2 2 2 2 2 2 2 2 2 2 2 7 3 2 2 2 2 2 2 3 2 2 2 2 2 2 2 2 2 9 2 2 2 2 2 2 2 2 2 2 2 2 2 2 2 2 2 2 2 2 2 2 2 2 2 2 2 2 2 2 3 3 2 2 3 3 2 2 2 2 2 2 2 2 2 2 2 2 2 9 2 2 2 2 2 2 2 2 2 2 2 2 2 2 2 2 9 2 2 2 2 2 2 2 2 4./.`.9.9.r.T.).P.>.8 2 2 J E.].t.9.9.9.4.t 2 8.).P.2 2 2 2 2 3 2 7 2 8.).wXY.0 7 2 t q.].0.e 1 t 9.].r.t 2 2 2 2 2 2 9 3.T._.U.r.q.i.I.>.7 0 5.!.).u.w.w.Y.).I.J 7 2 J T.7X].2.2 3 2 3 J E.8X).2.7 2 2.^.).9.q.P.).E.>.7 3 9._.^.9.9.9.9.3.7 t P.].7X9.e 2 2 e P.^.1.3 9 r.).T.w.e.i.P.>.2 2 2 2 9._.8XP.9 2 2 H 8.8.0.^.].Y.9.9.4.0 9 2.!.).u.w.w.U.).P.J 9 1 J T.].e.9.a.!.`.6.0 2 2 2 2 3 7 8./.!.w.w.u.I.2.0 4.8.7.T.].^.q.9.6.F G T.].e.9.9.9.6.e 3 4.`.).9.w.i.).T.,.2 9 0.).^.9.9.9.9.3.7 7 F u.).T.e.0.u.).!.7.e 2 2 2 2 2 2 2 7 9 e 9 2 2 2 2 2 7 2 2 2 2 T =.C.S 3 2 2 w &.Z.W 8 3 2 r *.S.S.| 2 2 3 3 w ! =..X.X| e 2 2 2 2 | C.C.| ..*.-.Q 2 2 2 2 2 3 2 2 7 3 2 2 2 2 2 2 2 2 7 4 d ; ; f s i g.g.s i s h 3 i i 7 3 2 2 2 3 2 2 ",
"3 2 2 2 2 2 2 ~ | ) ) | ) | S % 2 2 2 2 2 2 2 2 2 2 2 2 2 2 2 2 2 2 2 2 7 w T ! ) ! ( ) ( ( ) ! ) ! ) | ) ( ! ) ) S 3 2 2 2 2 2 3 W ) | ! ) ) ( | ( ) ( ) ( ( ) ) ) ) | | ~ ~ S 7 3 2 2 2 2 2 2 2 2 2 2 2 2 2 2 3 w ) =.C.*.) s.:.T s.m.M.M.b.n.x.z.t m s._ ..-.*. .A 8 2 2 2 2 2 2 2 2 2 2 2 2 2 2 2 2 2 2 2 2 2 2 2 2 2 2 9 2 2 2 2 2 2 2 2 2 2 2 2 2 2 2 2 2 2 3 2 2 2 2 2 2 2 2 2 2 2 2 2 2 9 2 2 2 2 2 2 2 2 2 2 2 2 2 2 2 7 2 2 2 2 2 2 2 2 2 2 2 3 2 2 2 2 2 2 3 2 7 2 2 2 2 2 2 9 2 2 2 2 2 2 9 2 2 2 2 2 2 2 2 2 2 2 2 2 2 2 2 2 2 2 2 2 2 2 2 2 2 2 2 2 2 2 2 2 2 2 2 2 2 2 2 3 2 2 2 3 2 2 2 2 2 2 2 2 2 2 2 2 2 2 2 3 2 2 2 2 2 2 2 9 2 2 2 2 2 2 2 2 2 2 2 2 2 2 2 2 2 2 2 2 2 2 2 2 2 2 3 2 2 2 2 2 2 2 2 2 2 2 2 2 2 2 2 2 2 2 2 2 2 2 2 3 2 2 2 2 2 2 2 2 2 2 2 2 2 2 2 9 7 2 2 2 2 2 2 2 2 2 2 2 2 2 2 2 2 2 2 2 2 2 2 2 2 2 2 2 2 2 2 2 2 2 3 2 2 3 2 2 2 2 2 7 2 2 2 2 2 2 2 7 2 2 2 2 2 2 2 2 2 2 2 2 2 2 2 2 2 2 2 2 2 2 2 2 2 2 2 2 7 2 2 2 3 2 2 2 2 2 2 2 2 2 2 2 2 2 2 9 2 2 2 2 2 2 2 2 2 2 2 2 2 2 7 3 2 2 3 2 2 2 2 2 2 2 3 2 2 2 2 2 2 2 2 2 2 2 2 2 2 2 2 2 2 2 2 2 2 2 2 2 2 2 2 2 2 2 2 2 2 2 2 2 3 2 2 3 2 3 7 2 3 2 2 2 2 2 2 2 2 2 2 2 2 2 2 2 2 2 2 2 2 2 2 7 2 2 2 2 2 2 2 2 2 2 2 2 3 2 2 2 2 2 2 2 2 2 2 2 2 2 2 2 3 2 2 2 2 2 2 2 2 2 2 2 2 2 2 2 2 2 2 9 2 2 2 2 2 2 2 2 2 2 2 2 2 2 2 3 2 2 2 3 2 2 2 2 3 2 2 3 2 2 2 2 2 2 2 2 2 2 2 2 2 2 2 2 2 2 2 2 2 2 2 2 2 2 2 2 2 2 2 2 2 2 2 3 2 2 2 2 2 2 2 2 2 2 2 2 2 2 3 2 2 2 2 2 2 2 2 2 2 2 2 2 2 2 2 3 2 2 2 2 2 2 2 2 2 2 2 2 2 2 2 2 2 2 2 4./.I.9 9 0 >.P.).i.t 3 % J T._.t 2 2 2 3 2 2 6.).P.7 2 2 2 2 7 2 7 9 u.]._./.R 7 3 7 3.^.!.R 2 R T.!.R 7 2 3 2 2 2 2 F u.].u.3.9 7 D 3.0 7 3.Y._.9.F 9 0 3.i.].t.D 1 J U.].].q.t 2 2 7 6.!.8X!.2.0 2 4.`.U.9 9 F P.].u.8 3 8.).r.7 3 3 3 3 2 t i.).7XY.,.2 2 e P.^.,.7 e !.^.6.7 0 D R e 2 2 2 0 I._.].^.G 3 2 3 3 3 9 I.).6.3 3 3 2 R T._.9.F 9 9 3.K._.t.t 2 J T._.D 2 t 8._.T.D 2 2 2 2 3 9 P._.w.9 8 D J D 2 2 7 2 9._.P.7 2 2 2 G Y._.F 2 3 7 2 3 2 5./.I.9 7 F i.].r.7 2 8._.r.2 3 3 3 3 3 e q._.I.<.0 0 t 6.).E.>.3 2 2 2 2 2 2 2 0 0 9 2 2 2 7 3 2 2 2 2 7 w ..Z.( 8 2 2 Y C.C.Z 2 2 3 Z A.A.S.*.0 2 2 3 Z *.C.=.Z.| r 2 2 2 q -.Z.( q 8 w A w 2 2 2 3 2 2 2 2 2 2 2 2 3 2 2 3 2 2 2 3 d h i f.g 5 f.g.f h f.f.h i i 7 2 2 2 2 2 2 3 ",
"2 2 2 2 2 2 3 Z.5X,X>X,X,X5X*.2 2 2 2 2 2 2 2 2 2 2 2 2 2 2 2 2 2 2 2 0 A *..X*X>X,X>X,X,X,X,X,X>X>X,X>X>X,X>X5X=X=.e 2 3 2 2 2 7 .X5X5X>X,X,X,X>X>X,X,X>X>X>X5X,X,X,X>X>X>X%XA.| C 3 3 3 2 2 2 2 2 2 2 2 2 2 7 w ..A.C.) m z.M.m.z.l.b.b.b.b.b.M.x.:.x.m.x.s.j ) C.-.W q 2 2 2 2 2 3 2 2 2 2 2 2 2 2 2 2 2 2 2 2 2 2 2 2 2 2 2 2 2 2 2 2 9 2 2 2 2 2 7 2 2 2 2 2 3 2 2 2 2 2 2 2 7 2 2 2 2 2 2 2 2 2 2 2 2 2 2 2 2 2 3 2 2 2 2 2 2 2 2 2 2 2 9 2 2 2 2 2 2 2 2 2 2 2 2 2 2 2 2 2 2 2 7 2 2 2 2 2 2 2 2 2 2 2 2 3 2 2 2 2 2 2 3 3 2 2 2 2 2 2 3 2 2 2 2 2 2 2 2 2 2 2 2 2 2 2 2 2 2 2 2 2 2 2 2 3 3 2 2 2 2 2 2 2 2 2 2 2 2 2 2 2 2 2 2 3 2 2 2 2 2 2 2 2 2 2 2 2 2 2 2 2 2 2 2 2 2 2 2 2 2 3 2 2 2 2 4 2 2 2 2 2 2 2 2 2 2 2 2 9 2 2 2 2 2 2 2 2 2 2 2 2 2 2 2 3 2 2 2 2 2 2 2 2 2 2 2 2 2 2 2 2 2 2 2 2 2 2 2 3 2 2 2 2 2 2 2 2 2 2 2 2 2 2 2 2 2 7 2 2 2 2 2 2 2 2 2 2 2 2 2 2 2 2 2 2 2 9 2 2 2 2 2 2 2 2 2 2 2 2 2 2 2 2 2 2 2 2 2 2 2 2 2 2 2 2 2 2 2 2 2 2 3 2 2 2 7 2 2 2 2 7 2 2 2 2 2 2 2 2 2 2 2 2 2 2 2 2 2 2 2 2 2 2 2 2 2 3 2 2 2 2 2 2 2 2 2 2 2 7 2 2 2 2 2 2 2 2 9 2 2 2 2 2 2 2 2 2 2 2 2 2 2 2 2 2 2 2 2 2 2 2 2 2 2 2 2 2 2 2 2 2 2 2 3 3 2 2 2 2 7 2 2 2 2 2 2 2 2 2 2 2 2 2 2 2 2 2 2 2 2 2 3 2 2 2 3 2 2 2 2 2 2 2 2 2 2 2 2 2 3 2 2 2 3 2 2 2 9 2 2 2 2 2 2 2 2 2 2 2 2 2 2 2 2 2 2 2 2 2 2 2 2 2 2 2 2 2 2 2 2 2 2 2 2 2 2 2 2 2 2 2 2 2 2 2 2 2 2 2 2 2 2 2 2 2 2 2 2 2 2 2 2 2 2 2 2 2 2 2 2 2 2 2 2 2 2 2 2 3 2 2 2 2 2 2 2 2 2 2 2 2 2 2 2 2 2 2 2 2 2 2 2 2 2 2 2 2 2 3 2 2 2 2 2 2 2 2 2 2 2 2 2 2 2 2 2 4.^.I.9 2 2 1 >.!.).J 8 2 K T.).F 9 0 9 9 3 2 6.).i.8 2 2 2 2 2 2 7 K !.!.i.).w.0 2 2 e q.).9.G 9.).a.0 2 2 2 2 2 2 3 2.).!.F 7 2 2 2 2 2 7 9._.P.0 2 2 2 2 J )./.J 1 J I.).^.I.3.2 2 0 P.E.).^.2.7 2 2.^.U.9 3 2 9._.I.7 7 8.).i.0 9 0 9 3 2 e u.^.T.!.i.e 7 e I.^.>.7 e !.Q.2.9 3 2 2 2 2 2 7 >.^.Y.I._.8.9 2 3 2 2 9 P.).6.2 3 3 7 9._.I.0 7 2 2 2 K ).^.J 1 J T.).D 2 % 3.`.).D 2 2 2 2 3 9 P.).8.0 3 2 2 2 2 2 2 2 8._.P.7 2 2 2 J Y._.J 9 9 9 9 3 2 4.^.I.7 7 2 9._.I.3 7 9._.a.0 9 9 9 7 2 D T.].1.7 2 2 2 7 u.6Xr.3 7 3 2 2 2 2 4 9 0 9 2 2 2 2 2 2 2 2 2 2 2 W Z.*.w 2 8 ) Z.&.w 2 2 q ! Z.%.V.V.W 3 2 2 C ! ( ! Z.| q 2 2 2 r =.A.( 8 3 2 2 2 2 2 2 7 2 2 2 2 2 2 2 3 2 2 2 2 2 2 2 5 f i g s h 3 s g.i q p f.i d p 7 2 2 2 2 2 2 2 ",
"2 2 2 2 2 2 7 Z.,X,X>X>X,X5X&.% 2 2 2 2 2 2 2 2 2 2 2 2 2 2 2 2 2 2 9 ) OX>X>X>X>X>X>X>X>X>X>X>X>X>X>X>X>X>X>X5X=X=.q 2 2 2 2 2 3 .X5X>X>X>X>X>X>X>X>X>X>X>X>X>X>X>X>X>X>X>X>X>X*X=.T 3 2 2 2 2 3 2 2 2 2 2 7 C *.Z.| _ z.m.M.b.M.M.m.n.n.n.n.n.M.M.M.n.b.M.m.x.:.T *.A.( 7 2 2 3 2 2 2 3 2 2 2 2 2 2 2 2 2 2 2 2 2 2 2 2 2 2 2 2 2 2 2 2 2 2 2 2 2 2 2 2 2 7 2 2 2 2 2 2 2 2 2 2 2 2 2 2 2 2 2 2 2 2 2 2 2 2 2 2 2 2 2 2 2 2 2 2 2 2 2 2 2 2 7 2 2 2 2 2 2 2 3 2 2 2 2 2 2 2 2 2 2 2 2 2 2 2 2 2 2 2 2 2 2 2 2 2 2 2 2 2 2 2 2 2 2 2 2 2 2 2 2 2 2 2 2 2 2 2 2 2 2 2 2 2 2 2 2 2 2 2 2 2 2 2 2 2 2 2 2 2 2 2 2 2 2 2 2 2 2 2 9 2 2 2 2 2 2 2 2 2 2 2 2 2 2 2 2 2 2 9 2 2 2 9 2 2 2 2 2 2 2 2 2 3 2 2 2 2 2 2 2 2 2 2 2 2 2 2 2 2 2 2 2 2 2 2 2 2 2 2 2 2 2 3 2 2 2 2 2 2 2 2 2 2 2 2 2 2 2 2 2 2 2 2 2 2 2 2 2 2 2 2 2 2 2 2 2 2 2 2 2 2 2 2 2 2 2 2 2 2 2 2 2 2 2 2 2 2 2 2 2 2 2 2 2 2 2 2 2 2 2 2 2 2 2 2 2 3 2 2 2 2 2 2 3 2 2 2 2 2 2 2 2 2 2 2 2 2 2 2 3 2 2 2 2 2 2 2 2 2 2 2 2 2 2 2 2 2 2 2 2 2 2 2 2 7 2 2 2 2 2 2 2 2 2 3 2 2 2 3 2 3 2 2 2 2 2 2 2 2 2 2 2 2 2 2 2 2 2 2 2 9 2 2 2 2 2 2 2 2 2 2 2 2 2 2 2 2 2 2 2 2 2 2 2 2 2 2 2 2 2 2 2 2 2 2 2 2 2 2 3 2 2 2 2 2 7 2 2 2 2 2 2 2 2 2 2 2 2 2 2 2 2 2 2 2 2 2 2 2 2 2 3 2 3 2 2 2 3 2 2 2 3 2 2 2 2 2 2 2 2 2 9 2 2 2 2 2 2 2 2 2 2 2 2 2 2 2 2 2 2 2 2 2 9 2 2 2 2 2 2 2 2 2 2 2 2 3 2 2 2 2 3 2 2 2 2 2 2 2 2 2 2 2 2 2 2 2 2 2 2 2 2 2 2 2 2 2 2 2 2 2 2 2 2 2 2 2 2 2 2 2 2 2 2 2 2 3 2 2 2 2 2 2 2 2 2 2 2 2 2 2 2 2 2 2 2 2 2 3 3 4 2 2 2 2 2 2 2 2 2 2 2 2 2 2 2 4.).I.7 2 2 2 D w.).4.0 1 J T._.7.2.2.2.>.7 7 6.).p.3 3 3 2 2 2 2 7 0.).w.>.).T.D 2 2 7 G ^.!.y.I.!.J 9 2 2 2 2 2 2 7 9.].i.9 7 2 2 2 2 7 7 i._.w.7 2 2 2 2 D U.].<.2 J T.).r.T.6.3 2 D !.u.I.!.2.7 2 4.^.Y.9 8 8 w.].u.7 7 8.).T.2.5.1.2.D 2 e u.).4.r.^.6.7 e P.!.1.2 9 i._.Y.>.e 7 2 2 2 2 9 t._.8.2.).Y.t 2 2 2 3 8 P._.4.2 7 7 7 a._.w.7 7 2 2 2 D U.].>.2 J T.).G 2 7 1.).T.t 1 2 3 3 3 2 w._.!.1.t 8 7 2 2 2 2 2 8._.I.7 2 2 1 J U.].9.2.2.2.>.2 2 4.).U.9 8 8 t.].i.3 7 9.).T.1.2.5.2.D 2 J _.T.H 2 2 2 3 7 7.).I.0 3 2 2 2 2 2 2 9 0 9 2 2 2 2 2 2 2 2 2 2 2 Z =.A.Y 2 Z &.A.Q 7 2 2 C =.A.T  .A. .3 3 3 3 2 r ~ A.| q 2 2 2 3  .Z.=.Q w 7 3 3 2 2 2 2 2 2 2 2 2 3 2 2 2 3 2 2 2 2 2 = d d s f 7 5 s g.i 7 5 s d g p 7 3 2 2 2 3 2 2 ",
"2 2 2 2 2 2 3 S.,X>X>X>X,X,X&.2 2 2 2 9 2 2 2 2 2 2 2 2 2 2 2 2 2 9 ! oX>X>X>X>X>X>X>X>X>X>X>X>X>X>X>X>X>X>X>X>X*X=.8 2 2 2 2 2 7 .X5X>X>X>X>X>X>X>X>X>X>X>X>X>X>X>X>X,X>X>X>X>X>X>XC.T 7 3 2 2 2 2 2 3 2 2 C *.A.W s.x.M.b.b.b.M.m.z.l.s.j j j s.z.m.M.b.b.b.b.m.l.~ | Z.! q 2 2 2 2 2 2 2 2 3 2 2 2 2 2 2 2 2 2 2 2 2 2 2 2 2 2 2 2 2 2 2 2 7 2 2 7 2 2 2 2 2 2 2 2 2 2 2 2 2 2 2 2 2 2 2 2 2 2 2 2 2 2 2 2 2 2 2 2 2 3 2 2 2 2 2 2 2 2 2 2 2 7 2 2 2 2 2 2 2 2 2 2 2 2 2 2 2 2 9 2 2 2 2 2 2 2 2 2 2 2 2 2 2 2 2 2 2 2 2 2 2 3 3 3 2 2 2 2 2 2 2 2 2 9 2 2 2 2 2 2 2 2 2 2 2 2 2 2 2 2 2 3 2 2 2 2 2 2 2 2 2 2 2 2 2 2 2 2 2 2 2 2 3 2 2 2 2 2 2 2 2 2 2 2 2 2 2 2 2 2 2 2 2 2 2 3 2 2 2 2 2 2 2 2 2 2 2 2 2 2 2 2 2 2 2 2 2 7 2 2 2 2 2 2 2 2 2 2 2 2 2 2 2 2 2 2 2 2 2 7 3 2 2 2 2 2 2 2 2 2 2 2 2 2 2 2 9 2 2 2 7 2 2 7 2 2 2 2 9 2 2 2 7 2 7 2 2 3 2 2 2 2 2 2 2 2 2 2 7 2 2 2 2 2 2 2 2 2 2 2 2 2 2 2 2 2 2 2 2 2 2 2 3 9 2 2 2 2 2 2 2 2 2 2 2 2 2 2 2 2 2 2 2 7 2 2 2 2 2 2 2 2 2 2 2 2 2 2 2 2 2 2 2 2 7 2 2 2 2 2 2 2 2 2 2 2 2 2 2 2 2 2 2 2 2 2 2 2 2 2 7 2 2 2 2 2 2 2 2 2 2 2 2 2 2 2 2 2 9 2 2 2 2 2 2 2 9 2 2 7 2 2 2 2 2 2 2 2 2 2 2 2 2 2 2 2 2 2 3 2 2 2 2 2 2 7 2 2 2 2 2 2 2 2 2 2 2 2 2 2 2 2 2 2 2 2 2 2 2 2 2 2 2 2 2 2 2 3 2 2 2 2 2 2 2 2 2 2 2 2 2 2 2 2 2 2 2 2 2 2 2 2 2 2 2 2 2 2 2 2 2 2 2 2 2 2 2 7 2 2 3 2 2 2 3 2 2 2 3 2 2 2 2 2 2 2 2 2 2 2 2 2 2 2 2 2 2 9 2 2 2 2 2 2 2 2 2 2 2 2 2 2 2 2 2 2 3 2 2 3 2 3 2 2 3 2 2 2 3 2 2 2 2 2 2 2 2 2 2 2 2 2 2 2 2 2 2 2 2 2 2 2 2 2 2 2 2 2 2 2 2 2 2 2 2 4.^.U.8 3 2 2 t 9._.9.e 2 J T.8X).).).).i.7 2 6.).P.7 2 2 2 2 2 7 e U./.4.D P._.>.7 3 3 0 w./.].).r.9 2 2 3 2 2 2 2 9 e._.w.9 3 3 2 2 2 3 0 P.).6.7 2 2 2 2 e a._.4.7 G Y./.1.T.e.0 9 4.^.7.y.).4.7 2 4.^.^.1.1.e.^.!.2.8 7 9.`.]._._.).).1.1 t i.).>.>.!.T.D e P.^.>.2 7 J P._.).Y.8.t 2 2 2 t T.^.<.F I.).K 7 2 2 2 9 I._.7.2 2 2 0 P.).8.2 2 2 2 1 D i.].2.8 J Y._.4.>.6.Y._.9.0 2 2 2 2 2 2 D t.).).E.9.F 7 2 2 2 1 8.].P.7 3 3 1 J I.].).).).).I.9 2 4./.T.<.<.9.^.^.1.7 7 9.`.]._.).).).1.2 >._.P.F 1 7 2 2 2 2.^.T.t 2 2 2 2 7 2 2 9 6 9 2 2 2 2 2 2 2 2 2 2 2 w ..Z.! 8 T C.C.w 2 2 2 T A.=.w Q C.=.w 8 2 2 2 8 ! C.| e 2 3 2 2 w &.Z.A.=.| w 3 2 2 2 2 2 2 2 3 2 2 2 2 2 2 2 2 2 2 2 4 d g s i 7 3 i i h 7 4 s d s h 3 3 3 2 3 2 2 2 ",
"2 2 2 3 3 3 3 Z.5X>X>X>X>X,X..2 2 2 2 2 2 2 2 2 2 2 2 2 2 2 2 2 7 A .X>X>X>X>X>X>X>X>X>X>X>X>X>X>X>X>X>X>X>X>X>X*X=.r 2 2 2 2 2 7 S.5X>X>X>X,X>X>X>X>X>X>X>X>X>X>X>X>X>X>X>X>X>X>X>X*XV.w 7 2 2 2 2 2 2 2 w ..C.W 3 s.m.b.b.n.m.l.m E t 2 8 9 2 r j j M z.m.b.b.M.z.j w | Z.Y 7 2 2 2 2 2 2 2 2 2 2 2 2 2 2 2 2 2 2 2 2 2 2 2 2 2 2 2 2 2 2 2 2 2 2 2 2 2 2 2 2 2 2 2 2 2 2 2 2 2 2 2 2 2 2 2 2 2 2 2 2 7 2 2 2 2 2 7 2 2 2 2 7 2 7 2 2 2 2 7 2 3 2 2 2 2 2 2 2 2 2 2 2 2 2 2 2 2 2 2 2 2 2 2 2 2 2 2 2 2 2 2 2 2 2 2 7 2 7 2 2 4 2 2 2 2 2 2 2 2 9 2 2 2 2 2 2 2 9 2 2 2 2 2 2 2 2 2 2 3 4 2 2 2 2 2 3 2 2 2 2 2 2 2 2 2 2 2 2 2 2 2 2 2 2 2 2 2 2 2 2 2 2 2 2 2 2 2 2 2 2 2 2 2 2 3 3 2 2 2 2 2 2 2 2 2 2 2 2 9 2 2 2 2 2 2 2 2 2 2 2 2 7 2 2 2 2 7 2 2 2 2 2 2 2 2 2 2 2 2 2 2 2 2 2 2 2 2 2 2 2 2 9 2 2 2 2 2 2 2 2 2 2 2 2 2 2 2 2 2 2 2 2 2 2 2 2 2 2 2 2 2 3 3 2 2 2 2 2 2 7 2 2 7 2 2 2 2 2 2 2 2 7 2 2 2 2 7 2 2 2 2 2 2 2 2 2 2 2 2 2 2 2 2 2 2 2 2 2 2 2 2 2 3 2 2 2 2 2 2 2 2 2 9 2 2 2 2 2 2 2 2 2 2 2 2 2 2 2 2 2 2 3 2 3 2 3 2 2 2 2 2 2 2 2 2 3 2 2 2 2 2 2 2 2 2 2 2 2 2 2 2 2 2 9 2 2 2 2 2 2 2 2 2 2 2 2 2 2 2 2 3 2 2 3 2 2 2 3 2 2 2 2 2 2 2 2 2 2 2 2 2 2 2 2 2 2 2 2 2 2 2 2 2 2 2 7 2 2 2 2 2 2 2 2 3 2 2 2 2 2 3 2 2 2 2 2 2 2 2 3 3 2 2 2 2 2 2 2 2 2 2 2 2 2 2 2 2 2 2 2 2 2 2 2 2 2 2 2 2 2 2 2 2 2 2 2 2 3 2 2 2 2 2 2 2 2 2 2 2 2 2 2 2 2 2 2 2 2 2 2 2 2 2 2 2 2 2 2 2 2 2 9 2 2 2 2 2 2 9 2 2 2 2 2 2 2 3 2 2 2 2 2 2 2 2 3 2 2 2 2 9 2 2 2 2 2 2 2 2 2 2 2 2 9 2 2 2 3 2 2 2 2 2 2 9 2 2 2 2 2 2 2 2 2 4.).I.8 2 2 2 t 9._.w.e 1 K T.).8.2.2.5.>.7 7 8.).i.8 2 2 2 2 2 7 3./.^.8.<.a.].r.t 2 2 7 J T.yXY.J 3 2 2 2 2 2 2 2 9 w._.w.7 2 2 2 2 2 3 0 P._.8.3 2 2 2 2 D u.].2.7 R Y.^.F u.I.R t i.P.>.e.^.2.9 1 2.^.].!.^.).T.6.e 3 7 8.).T.5.2.2.1.F 1 t r.).^ 0 9.).9.G p.!.1.2 7 7 D 2.i.).^.a.F 2 9 1._.!.4.1.P._.9.t 2 2 2 7 I.).4.2 2 2 0 P.`.8.2 2 2 2 2 D K._.2.8 J Y.]./.^.).^.w.F 7 2 2 2 2 2 2 8 D 1.u.^.).i.>.2 2 2 2 8.).I.7 2 3 2 J T.].9.2.5.5.>.3 2 2./.].^.^.).!.4.0 3 7 9.).T.2.2.2.2.D 2 >.].I.F 2 2 2 2 2 5.^.T.t 2 2 2 2 2 2 2 9 e 9 2 2 2 2 2 2 2 3 2 2 2 8 T A.*.Z ( Z.*.8 2 2 r ( .X=.Q ) =.C.~ q 2 2 2 8 Q Z.| w 2 2 2 2 8 w Q &.C.A.*.T 2 2 2 2 2 2 2 2 2 2 3 2 3 2 3 2 2 2 2 3 d d s f 7 2 5 5 5 3 - s d d p 7 2 2 2 2 2 2 3 ",
"2 2 2 2 3 3 7 Z.5X,X>X>X,X,X&.2 2 2 2 2 2 2 2 2 2 2 2 2 2 2 2 2 e *.>X>X>X>X>X>X>X>X>X>X>X>X>X>X>X,X>X>X>X>X>X5X*X=.8 2 2 2 2 2 7 D.5X>X>X>X>X>X>X>X>X>X>X>X>X>X>X>X>X>X>X>X>X>X>X>X,X%X! 3 3 2 2 2 2 2 9 ..V.| s.j z.m.b.m.l.s.r 2 % 2 2 2 2 2 2 2 8 9 j l.x.b.M.l.Q V S *.V.A 2 2 2 2 2 2 2 2 2 2 2 2 2 2 2 2 2 2 2 2 2 2 2 2 2 2 2 2 2 2 2 2 2 2 2 2 2 2 2 2 2 2 2 2 2 2 2 2 2 2 9 2 2 2 2 2 2 2 2 2 2 2 2 2 2 2 2 2 2 2 2 2 2 2 2 2 2 2 2 2 2 2 2 2 2 2 2 2 2 2 2 2 2 7 2 2 2 2 2 2 2 2 2 2 2 2 2 2 2 2 2 2 2 2 2 2 2 2 2 2 2 2 2 2 2 2 2 2 2 2 2 2 2 2 2 2 2 2 2 2 2 2 2 2 2 2 2 2 3 2 2 2 2 2 2 2 2 2 9 2 2 2 2 2 2 2 2 2 2 2 4 2 2 2 2 2 2 2 2 2 2 2 2 2 2 2 2 2 2 2 2 2 2 2 2 4 2 3 2 2 2 2 2 2 2 2 2 2 2 2 2 2 2 2 2 2 2 2 2 2 2 2 2 2 2 2 2 2 3 2 2 2 2 2 2 2 3 2 2 2 2 2 2 2 2 7 2 2 2 2 2 2 7 2 2 2 2 2 2 2 2 2 2 2 7 2 2 2 2 2 2 2 2 2 2 2 2 2 2 2 2 2 2 2 2 3 2 2 2 2 2 2 2 2 2 2 2 2 2 2 2 2 2 2 2 2 2 2 2 2 2 2 2 2 2 2 7 2 2 2 2 2 2 2 2 2 2 2 2 2 3 2 2 2 2 2 2 2 2 2 2 2 2 2 2 2 2 2 2 2 2 2 2 2 2 2 2 2 7 2 2 2 2 2 2 3 3 2 2 2 2 3 2 2 2 2 2 2 2 2 2 2 2 2 2 2 2 2 2 2 2 2 2 2 2 2 2 2 2 2 2 2 2 2 2 2 2 2 2 2 2 2 2 2 2 2 2 3 2 7 2 3 2 2 3 2 2 2 2 2 2 2 2 2 2 2 2 2 2 2 2 9 2 2 2 2 2 2 2 2 7 3 2 2 2 2 2 2 2 2 2 2 2 2 2 2 2 3 2 2 3 2 2 2 2 2 2 2 2 2 2 2 9 2 2 2 2 2 2 2 2 2 2 2 2 2 2 2 2 2 2 2 2 2 2 2 2 2 2 2 2 2 3 2 2 2 2 2 2 2 2 2 2 2 2 2 2 2 2 2 2 2 2 2 9 2 2 2 2 2 2 2 2 2 2 2 2 2 2 2 2 2 2 2 2 2 2 2 2 2 2 2 2 2 2 2 2 2 2 2 2 2 2 2 2 2 2 2 2 2 2 2 2 2 2 2 2 2 2 2 2 2 2 2 2 2 2 2 2 2 2 2 2 2 4.).I.8 2 2 1 F u.).6.9 2 J T.).D 7 7 7 8 2 2 6.).P.7 2 2 2 2 2 0 t._._.!.T.^.7X!.R 2 2 3 7 i.].a.9 3 2 3 2 2 3 2 2 3 q.].i.9 2 2 2 2 2 3 7 a.].w.2 2 2 2 2 D I.].<.2 J I.^.t 7.T.9.G ^.7.J r.^.2.7 2 2.^.).e.w.7.>.t 2 3 3 8.).i.8 9 7 7 7 2 e i.).3.% J Y.^.1.Y.!.1.2 3 2 1 9 J 6.!.).4.7 D r.]._.!.T.).].T.H 2 2 2 9 P._.4.$ 2 2 7 i.].w.2 2 2 2 1 D Y._.>.2 J U.].i.r.^.).7.2 2 2 2 2 2 2 2 2 2 8 G 2.T.].w.9 2 2 2 9.).P.7 2 2 2 G U._.F 7 7 7 7 3 2 4./.).r.i.].T.>.1 2 7 9._.r.9 7 8 7 2 2 J ).!.H 1 2 2 3 2 9.).I.0 2 2 2 2 2 2 2 9 0 9 2 2 2 2 2 2 2 2 2 2 2 2 Z =.C.! &.C.Q 8 3 2 Y =..XA.=.=.Z..X&.q 2 2 2 q Q Z.( w 2 2 2 2 3 2 3 w ) =.Z.| 7 2 2 2 2 2 2 2 2 3 3 2 2 2 2 2 2 2 3 3 f i g s ; 7 7 7 8 3 h f.f f i 9 3 2 2 2 3 2 2 ",
"2 2 2 2 3 3 7 D.,X>X>X>X>X,X&.2 2 2 2 2 2 2 2 2 2 2 2 2 2 2 2 2 W .X>X>X>X>X>X>X>X,X,X,X,X,X5X,X,X,X,X,X5X5X5X5X*XC.q 2 2 2 2 2 9 S.5X>X>X>X>X>X,X5X,X,X5X5X5X5X,X,X,X,X,X>X>X>X>X>X>X*XC.q 2 2 3 2 2 3 W =. .E x.x.x.m.m.l.r 2 2 2 7 2 2 2 2 2 2 7 7 7 % 2 m z.x.;.V.C.( C A...w 2 2 2 2 2 2 2 2 2 2 2 2 2 2 2 2 9 2 2 2 2 2 2 2 2 2 9 2 2 2 2 2 2 2 2 3 2 2 2 2 2 7 2 2 2 2 7 2 2 2 2 2 2 2 2 2 2 2 2 2 2 2 2 2 2 2 2 2 2 2 2 2 2 2 2 2 2 2 2 2 2 2 2 3 2 2 2 7 2 2 2 2 2 2 2 2 2 2 2 2 2 2 2 2 2 2 2 7 2 2 2 2 2 2 2 2 2 2 2 2 2 2 2 2 2 2 2 2 2 2 2 2 2 2 2 2 2 2 2 2 2 2 2 2 2 2 2 3 2 2 2 2 2 2 2 2 2 2 2 2 2 2 2 2 2 2 2 3 3 3 2 2 2 2 2 2 2 2 2 2 2 9 2 2 2 2 2 2 2 2 2 2 2 2 2 2 2 2 2 2 2 2 3 2 2 2 2 2 2 2 2 2 2 2 2 2 2 2 2 2 2 2 2 2 2 2 2 2 2 2 2 2 2 3 2 2 2 2 2 7 2 2 2 2 2 2 2 2 2 2 2 2 2 2 2 2 2 2 2 2 2 2 2 2 2 2 2 2 2 2 2 2 2 2 2 2 2 2 2 2 2 2 2 2 2 2 2 2 2 2 2 2 2 2 2 2 2 2 9 2 2 2 2 2 2 2 3 2 2 2 2 2 2 2 2 2 2 2 2 2 2 7 2 3 2 2 2 2 2 2 2 2 2 2 2 2 2 7 2 2 2 2 7 2 2 2 2 2 2 9 2 2 2 2 2 2 2 2 2 2 2 3 2 2 2 2 2 2 2 2 2 2 3 2 2 2 2 2 2 2 9 2 2 2 2 2 2 2 2 2 2 2 2 2 2 2 2 2 2 2 2 2 2 2 2 2 2 2 2 3 2 2 2 2 2 2 2 2 2 2 2 2 2 2 2 2 2 2 2 2 7 2 2 2 2 2 2 2 9 2 7 2 2 2 2 2 2 2 2 2 2 2 2 2 2 3 2 2 2 2 2 2 3 2 2 2 2 2 2 2 2 2 2 2 2 2 2 2 2 2 2 2 2 2 2 2 2 2 2 2 2 2 2 9 2 2 2 2 2 2 2 2 2 2 2 3 2 2 2 2 2 2 2 2 2 3 2 2 3 2 2 9 2 2 2 2 2 2 2 2 2 2 2 2 2 2 2 2 2 2 2 2 2 2 2 2 2 2 2 2 2 2 3 2 2 2 2 2 3 2 2 3 2 2 2 2 2 2 2 2 2 2 2 2 2 2 2 2 2 2 2 2 2 2 2 2 2 2 2 2 2 2 2 2 2 2 2 2 2 2 2 2 2 5.).P.2 2 2 7 1.!.).R 8 1 ^ E.).D 2 2 2 2 2 2 6.`.i.2 2 2 2 2 2 D !.).!.Y.I.Y.^._.6.2 2 3 7 e._.w.2 2 2 2 2 2 2 2 2 2 4._.T.F 7 2 2 2 2 2 2 9._.I.t 2 2 $ 7 3././.J 1 J Y.^.D 3.U.Y.4.).^ D y.).2.8 2 4.^.T.0 7 2 1 2 2 3 3 8._.r.3 2 2 2 2 2 t P.).>.% 0 2._.u./.T.,.2 3 2 2 2 2 7 e.].w.0 G ^._.T.U.U.T.)._.1.3 2 2 9 P._.8.2 2 2 3 9._.I.t 2 2 2 7 3./.`.J 1 J Y._.G e w.).i.t 7 2 2 2 2 2 2 2 2 2 1 2 8.).P.t 2 2 2 8.].P.7 2 2 2 G Y._.F 2 3 2 3 3 2 4.`.I.0 F U.).8.9 2 7 9._.e.2 2 2 2 2 2 D !.).1.7 2 2 2 0 u.).r.3 2 2 2 2 2 2 2 9 0 9 2 2 2 2 2 2 2 2 2 2 2 2 r  .Z.-.C.=.Z 3 3 4 Q Z.C.*.*.=.=.Z.C.w 2 2 2 8 ~ Z.( r 2 2 2 2 3 3 2 2 2 | Z.&.e 2 2 2 2 3 2 2 2 2 2 2 2 3 2 2 3 2 2 r d h i f.d h - 2 5 h s f.h i i 7 2 2 2 3 2 2 2 ",
"2 3 2 2 2 2 3 Z.5X>X>X>X>X5X&.2 2 2 2 2 2 2 2 2 2 2 2 2 2 3 2 2 ( *X>X>X>X>X>X>X>X=X%XoXoXoX%XOX%XoXoXoXoXoXoXoXXX&.q 2 2 2 2 2 8 .X5X>X>X>X>X>X=XoXoXoXoXoXoXoXoXoX%X%X=X>X>X>X>X>X>X>X.Xq 2 2 2 2 7 q =.&._ l.M.b.b.m.;.0 3 2 2 2 2 3 2 2 3 2 2 2 2 2 2 2 3 r ;.@X>X>X.XS ! =.Q 2 2 2 2 2 2 2 2 2 2 2 2 2 2 2 2 2 2 2 2 2 2 2 2 2 2 2 2 9 2 2 2 2 2 2 3 2 2 2 2 2 2 2 2 2 2 2 2 2 2 2 2 2 2 2 2 2 2 2 2 2 2 2 2 2 2 2 2 2 2 7 2 2 2 2 7 2 2 2 2 2 2 2 2 2 2 2 2 2 2 2 2 2 2 2 2 2 2 2 2 2 2 2 2 2 2 2 2 2 2 2 2 2 2 2 2 2 2 2 2 2 2 2 2 2 2 2 2 2 2 2 2 2 2 2 2 2 2 2 2 2 2 2 2 2 2 2 2 2 2 2 2 3 2 2 2 2 2 2 2 2 2 2 2 2 2 2 2 2 2 2 2 2 2 4 2 2 2 2 2 2 2 2 2 2 2 2 2 2 2 2 2 2 2 2 2 2 2 2 2 2 2 3 2 2 7 2 2 2 2 2 2 2 2 2 2 2 2 2 2 2 2 2 2 2 2 2 2 3 2 2 3 3 2 2 2 2 2 2 2 2 2 2 2 2 2 2 2 2 2 2 2 2 2 2 2 2 7 2 2 2 2 2 2 2 7 2 2 2 2 2 2 2 2 2 2 2 2 3 2 2 2 2 2 2 2 2 2 2 2 2 2 2 2 2 2 2 2 2 2 2 2 2 2 2 2 2 2 2 2 2 2 2 2 2 2 9 2 2 2 2 2 2 3 2 2 2 2 2 2 2 2 2 2 2 2 2 2 2 2 2 2 2 2 2 2 2 2 2 2 2 2 2 2 2 2 2 2 2 3 2 2 2 2 2 2 7 3 2 2 3 2 2 2 2 2 2 2 3 2 2 2 2 2 2 2 2 2 2 2 2 2 2 2 2 2 2 2 2 2 2 2 2 2 2 2 2 2 2 3 2 2 2 2 2 2 2 2 2 2 2 2 2 2 2 2 2 3 2 2 2 2 2 2 2 2 2 2 2 2 2 2 2 2 2 2 2 2 2 2 2 2 2 2 2 2 2 2 2 3 2 2 2 3 2 2 2 2 2 2 2 2 2 2 2 2 2 3 2 2 3 2 2 2 3 2 2 2 2 2 2 2 2 2 2 2 2 2 2 2 3 3 3 2 2 2 2 3 2 2 2 2 2 2 3 2 3 2 2 2 2 2 2 2 3 2 2 2 2 2 2 2 2 2 2 2 2 2 2 2 2 2 2 2 2 2 2 2 2 2 2 3 2 2 2 2 2 2 3 2 3 2 2 2 2 3 2 3 2 2 2 2 2 2 3 2 2 2 2 2 2 3 2 3 2 2 2 2 2 2 2 2 2 2 2 2 2 2 2 2 2 2 2 2.^.Y.t 9 0 K i.7XP.e 3 2 R Y.).G 0 0 e 0 3 3 6.).K.e 0 9 e 9 9 1._.I.3.t t D 9.).u.D 2 3 3 e._.r.2 7 2 2 2 2 2 2 2 2 J I.).w.F 0 0 0 t 8 3 ^ U.^.6.D e 0 J e._.e.D 2 J U.^.t 9 e._.E.T.t e r.).2.7 2 2.^.U.9 2 2 2 2 2 2 3 9.).u.0 0 0 e 8 2 e u.).^ 2 2 e P.).7XT.>.7 0 t e 0 0 D t.).9.D 4._.P.J t t G q._.w.D 2 2 8 I.].6.1 2 2 2 >.T.^.6.t e 0 J e._.r.t 2 J T.).D 1 K R.).2.9 2 2 2 2 7 9 t t 0 0 t 9.).u.0 2 2 1 9.).p.8 2 2 2 H Y._.R 9 0 0 0 2 2 2.^.I.8 7 5.^.T.^ 3 3 9.).u.e 0 0 0 8 2 t 0.).K.R e 0 e 2.!.!.1.2 2 2 2 2 2 2 3 9 e 9 2 2 3 2 2 2 2 2 2 2 2 2 9 Y A..XZ.&.3 3 2 w  .A...Z w w A &.Z.Q r 2 2 q ! A.( w 2 2 3 q w w q r w | C. .q 2 2 2 2 2 2 2 2 2 2 3 2 2 2 2 2 2 2 4 d ; ; d f.d f i f s f.i 5 i p 2 2 2 2 2 2 2 2 ",
"2 2 2 3 2 2 7 Z.5X>X5X>X>X5X&.2 2 2 2 2 2 2 2 3 3 2 2 2 2 2 2 4 | >X>X>X,X>X>X>X%X .T w q 8 q 9 9 q q q q 8 q 8 r 8 2 2 2 2 2 2 7 S.5X>X>X>X>X5X*.8 q 0 9 9 0 q q q w T =.=X>X>X>X>X>X>X%Xq 2 2 2 2 7 ! =.! s.M.b.b.m.s.8 3 2 2 2 2 2 2 2 2 2 2 2 2 2 2 2 2 3 3 8 =.=X5X=X*.C =.&.q 2 2 2 2 2 2 2 2 2 2 2 2 2 2 2 2 2 2 2 2 2 2 2 2 2 2 2 2 2 2 2 2 2 2 2 2 2 2 2 2 2 2 2 2 2 2 2 2 2 2 2 2 2 2 2 2 2 2 2 9 2 2 3 7 2 2 2 2 2 2 2 2 2 2 2 2 2 2 2 2 2 2 2 2 2 3 2 2 2 2 2 2 2 2 2 2 2 2 2 2 2 9 2 2 2 2 2 2 2 2 2 2 2 2 2 2 2 2 2 2 2 2 2 2 2 2 2 2 2 2 2 2 2 2 2 2 2 2 2 2 2 2 2 9 2 2 2 2 2 2 2 2 2 3 2 2 2 3 2 2 9 2 2 2 2 2 2 2 2 2 2 2 3 3 2 2 2 2 2 2 2 2 2 2 2 2 2 2 2 2 2 2 2 2 2 2 2 2 2 2 2 2 2 2 2 2 2 2 7 2 2 2 2 2 2 2 2 2 2 2 2 9 2 2 2 2 2 2 2 2 2 3 4 2 2 2 2 2 2 2 2 2 2 2 9 2 2 2 2 2 2 2 2 2 2 2 2 2 2 2 7 2 2 2 2 2 2 2 9 2 3 2 2 2 2 2 2 2 2 2 2 2 2 2 2 2 2 2 2 2 2 2 2 2 2 2 2 2 2 2 2 2 2 2 2 2 2 2 2 2 2 2 2 2 2 2 2 2 2 2 2 2 2 2 2 2 2 2 3 2 2 2 2 2 2 3 7 2 2 2 2 2 2 2 2 2 2 9 2 2 2 3 2 3 3 2 2 2 2 2 2 2 2 2 2 3 2 2 2 2 2 2 2 2 2 2 2 2 3 2 2 2 2 2 2 2 2 3 2 2 2 2 2 2 2 2 2 2 2 2 2 2 2 2 2 2 2 2 2 2 2 3 3 2 2 3 3 2 2 2 3 2 2 2 2 2 2 2 2 2 2 2 2 2 2 2 2 2 2 2 2 2 2 2 2 2 3 2 2 3 2 2 2 2 2 2 2 2 2 2 2 2 2 2 2 2 2 2 3 2 3 2 2 2 2 2 2 2 2 2 2 2 2 2 2 2 2 2 2 2 2 2 2 2 2 2 2 2 2 4 2 2 2 2 2 2 2 2 2 2 2 2 2 2 2 2 2 2 2 2 2 3 2 2 2 2 2 2 2 2 2 2 3 2 2 2 2 2 2 2 2 2 2 3 3 2 2 2 2 2 2 2 2 2 2 2 2 2 2 2 2 2 3 2 2 2 2 2 2 2 2 2 2 2 2 3 2 2 2 2 2 2 2 2 2 2 2 2 2 2 2 2 2 2 2 2 7 2 2 2 2 2 6.^.^.9.q.i.^.].Y.J 7 3 2 R T.6Xw.7.7.0.2.e 3 6.^.^.y.r.e.r.1.J r._.4.0 2 3 3 F E.Q.1.2 3 3 e.].e.1 2 2 3 2 2 2 3 2 3 8 1.).).U.e.0.r.a.J 7 q 6.).).P.0.r.Y._.!.J 7 % J Y.^.t 2 4.].).w.0 e y.^.2.8 2 2.`.I.9 2 2 2 2 2 2 3 7.).!.9.9.9.9.^ 7 t a.).^ 1 2 7 R ^.yX!.,.9 ^ I.I.w.0.u.).^.>.F u.).2.0 2 2 8 H ^.!.>.2 2 8 P.).6.2 2 2 2 9 6.).).P.w.r.T._.!.G 7 % J Y._.D 2 8 2._.!.G 7 2 2 2 8 H i.T.t.9.e.^.).6.2 2 2 2 9.).P.8 2 2 2 J U.].e.9.6.9.4.e 3 4.).I.9 2 0 e.].u.e 3 9.).E.9.9.7.7.^ 8 8 D U.).!.y.w.u.).).0.0 3 2 2 2 2 3 2 3 9 0 9 2 2 2 2 3 2 2 2 3 2 2 2 2 w =..XC.! 2 2 3 W =.C.A 3 3 3 8 ~ Z.*.w 2 1 q Q A.| w 2 2 3 S *.=. .| &.C.Z.! 2 2 2 2 2 2 2 2 2 2 2 2 2 2 2 2 3 2 2 3 d h 7 ; i f.f.g.f.s h 9 3 i p 2 2 3 2 2 2 2 2 ",
"2 2 2 2 2 2 7 Z.5X>X>X>X>X5X&.1 2 2 2 2 2 2 2 2 2 2 2 2 2 2 2 % ..>X>X>X>X>X,X%X..w 3 2 2 2 2 2 2 2 2 2 2 2 2 2 2 2 2 2 2 2 2 2 8 S.5X>X>X>X>X5X..1 2 2 2 2 2 2 2 2 2 3 S =.>X>X>X>X>X>X=Xe 2 2 2 3 9 C.) s.z.b.b.M.s.r 3 3 3 2 3 2 2 2 2 2 2 2 2 2 2 2 8 7 3 2 3 S A.>X>X%XT | *.( 2 2 2 2 2 2 2 9 2 2 2 2 2 2 2 2 2 2 3 4 2 2 2 2 2 2 2 2 2 2 2 2 2 2 2 2 2 2 2 4 2 2 2 2 2 2 2 2 2 2 2 2 2 2 2 2 2 2 2 2 2 2 2 2 2 2 2 2 2 2 2 2 2 2 2 2 2 2 2 2 2 2 2 2 2 3 2 2 2 9 2 2 2 2 2 2 2 2 2 2 2 2 2 2 2 2 2 2 2 2 2 2 2 2 2 2 2 2 2 2 2 2 2 2 2 9 2 2 2 2 2 2 2 2 2 2 2 2 2 2 2 2 2 2 2 2 2 2 2 2 2 2 2 2 2 2 2 2 2 2 2 2 2 2 2 2 2 2 2 2 2 2 3 2 2 2 2 2 2 2 2 2 2 9 2 2 2 2 2 2 2 7 2 2 7 2 2 2 2 2 2 2 2 2 2 2 2 2 2 2 7 2 2 2 2 2 2 2 2 2 2 2 2 2 2 2 2 2 2 2 2 2 2 2 2 2 2 2 2 2 2 2 2 2 2 2 2 2 2 2 9 2 2 2 2 2 2 2 2 2 2 2 2 2 2 2 2 2 2 2 2 2 2 2 3 2 2 2 2 2 2 2 9 2 2 2 2 2 2 2 2 2 2 2 2 2 2 2 2 2 2 2 2 2 2 2 2 2 2 2 2 2 2 2 2 2 2 2 2 2 2 2 2 2 2 2 2 2 2 2 2 3 3 2 2 2 2 2 3 2 2 2 2 2 2 2 2 2 2 2 2 2 2 2 2 2 2 2 2 2 2 3 2 2 2 2 2 2 2 2 2 2 2 2 2 2 2 2 2 2 2 2 2 3 2 3 2 2 2 2 2 2 2 2 2 2 9 2 2 2 2 2 2 2 2 4 2 2 2 2 2 3 2 2 2 2 2 2 2 2 3 2 2 2 2 2 2 2 2 2 2 2 2 2 2 2 2 2 2 2 2 2 2 2 2 2 2 2 2 2 3 2 2 3 2 2 2 2 2 2 2 2 2 2 2 2 3 2 2 2 2 2 2 2 2 2 2 2 2 2 2 3 2 2 2 2 2 2 2 2 2 2 2 2 2 2 2 2 3 2 2 2 2 2 2 2 2 2 2 3 2 2 2 2 2 2 2 2 2 2 2 2 2 2 2 2 3 2 2 2 2 2 2 2 2 2 2 2 2 2 4 3 2 2 3 2 2 2 2 2 2 2 2 2 2 2 2 2 2 2 2 2 2 2 2 2 2 2 2 2 2 2 2 2 2 2 2 2 3 2 2 2 2 2 2 2 2 2 2 2 2 2 2 2 2 2 2 2 2 2 2 2 6.^.7X).).).T.9.F 9 2 2 & R Y.8X6X).).).E.D 8 7.^.8X).7X_.].e.2.^.^.H 7 2 2 3 8 u.).t.8 3 3 w._.r.2 2 2 2 2 2 2 2 2 2 2 0 >.P.~.)._.^.P.D 8 2 e <.P.!.).).T.t.J 7 3 2 H Y.^.t % ^ T./.K 8 t u.).2.8 2 4.).T.7 3 2 3 2 2 2 7 9.^.7X).).)._.9.0 e i.).^ 2 2 2 0 r._.!.,.7 F u.!.).).!.P.>.9 >.).!.D 2 2 2 2 9 P.].6.7 2 9 I.).7.1 2 2 2 2 0 2.P.^.)./.'.w.J 8 7 2 J T._.D 2 2 D e._.e.D 2 2 2 2 D w.!./.).^.U.5.t 2 2 2 2 9.).P.7 2 2 2 H Y.7X).).).].E.F 7 4.).I.8 2 2 >.U.).6.0 9.).7X).).)._.9.9 2 7 H 0.T.).).!.P.2.e 2 2 3 2 2 3 2 2 4 8 e 9 2 2 2 2 2 2 2 2 2 2 2 2 2 8  .S.*.Z 2 2 2 | A.*.8 3 2 2 2 Z =.Z.S 3 2 9 ) Z.| w 2 2 2 w ..C.Z.C.A.*.W e 2 2 2 2 2 2 2 2 2 2 2 2 2 2 2 2 2 2 3 4 d i ; ; h i i i i h h h h d i 2 2 3 2 2 2 2 2 ",
"2 2 2 2 2 2 7 D.5X>X>X>X>X5X&.4 2 2 2 2 2 3 2 2 2 2 3 2 2 2 2 2 ..,X>X>X>X>X,XoXZ 3 2 2 2 2 2 2 2 2 2 2 2 2 2 2 2 2 2 2 2 2 2 2 8 S.5X>X>X>X>X5X&.1 2 2 2 2 2 7 2 2 3 3 3 ) >X>X>X>X>X5X%Xw 2 2 2 7 Z A.T s.n.b.b.z.j * 3 3 2 3 2 2 3 2 3 2 2 3 2 2 2 ) =.( 2 2 2 3 | XX>X>X*.Y *.=.3 3 2 7 2 2 2 2 2 2 9 2 2 2 2 2 2 2 3 2 2 2 2 2 2 2 2 2 2 2 2 2 2 2 2 2 2 2 3 3 2 2 2 2 2 2 2 2 2 2 2 9 2 2 2 2 2 2 2 2 2 2 2 2 2 2 2 2 2 2 2 2 2 2 2 2 2 2 2 2 2 2 2 2 4 3 2 2 2 2 2 2 2 2 2 2 2 2 2 2 2 2 2 2 9 2 2 2 9 2 2 2 2 2 2 2 9 2 2 2 2 2 2 2 2 2 2 2 2 2 2 2 2 2 2 2 2 2 2 2 2 9 2 2 2 2 2 2 2 2 2 2 2 2 2 2 2 2 2 2 2 2 2 2 2 2 2 2 2 2 2 2 2 2 2 2 2 2 2 2 2 2 2 2 2 2 2 2 2 2 2 2 2 2 2 2 2 2 3 2 2 2 2 2 2 2 2 2 2 2 2 2 2 2 2 2 2 2 2 2 2 2 2 2 2 2 2 2 2 3 2 2 2 2 2 2 2 2 2 2 2 2 2 2 2 2 2 2 2 2 2 2 2 2 2 2 2 2 2 2 2 2 2 2 2 2 2 2 2 2 2 2 2 3 2 2 2 2 2 2 2 2 2 2 2 2 2 2 2 2 2 2 2 2 2 2 2 2 2 2 2 2 2 2 2 9 2 2 2 2 2 2 2 2 2 2 2 2 2 2 2 2 2 2 2 2 7 2 2 2 2 2 2 2 2 2 2 2 2 2 3 2 2 2 2 2 2 2 2 2 2 2 3 2 2 2 3 2 2 2 2 2 2 2 2 2 2 3 2 2 2 2 3 2 2 2 2 2 2 2 2 2 2 2 2 2 2 2 2 2 2 2 2 2 2 2 2 2 2 2 2 2 2 3 3 3 2 2 2 2 2 2 2 2 2 2 2 2 2 2 2 2 2 3 8 2 2 2 2 2 2 2 2 2 2 2 2 2 2 2 2 2 2 2 2 2 2 2 2 2 2 2 2 2 3 2 2 2 2 2 3 2 3 2 2 2 2 2 2 2 2 2 2 3 2 2 2 2 2 2 2 2 2 3 2 2 2 2 2 2 2 2 2 2 2 2 2 2 2 2 2 2 3 2 2 2 2 2 2 2 2 2 2 3 3 2 2 2 3 2 2 2 2 2 2 2 2 2 3 2 2 2 2 2 2 2 2 2 2 2 3 3 2 2 2 2 3 2 2 2 2 2 2 3 2 2 2 2 3 2 2 2 2 2 2 2 2 2 2 3 2 2 2 2 2 2 3 2 2 2 2 2 2 2 3 2 2 2 2 2 2 7 2 2 2 2 2 2 2 2 2 2 S 3.>.1.<.>.J t 2 2 2 2 2 0 R >.,.<.,.,.R 0 3 D ^ <.,.>.<.1.G t >.3.9 2 3 2 2 3 F >.H 8 3 3 F >.D 2 2 2 2 2 2 2 2 2 2 2 2 9 F ^ >.<.,.H 9 3 3 3 0 F R >.>.R D 7 2 2 2 9 J >.9 2 0 J >.9 2 8 F ^ D 7 2 t ^ J 7 2 2 2 2 2 2 3 D ^ ,.1.1.>.1.G 7 9 H >.e 2 2 2 2 D 3.3.t 2 9 F >.<.>.^ F 0 2 e >.K 7 2 2 2 2 8 G >.F 7 2 2 J >.D 2 2 2 2 2 2 9 G ^ ,.>.J t 3 2 2 2 0 J >.9 2 2 8 D >.J 9 2 2 2 2 8 D 3.>.1.>.H 9 2 2 2 2 2 D >.F 2 2 2 2 0 R >.,.1.,.1.>.8 3 t >.J 7 2 2 9 J >.D 3 D ^ <.,.1.,.1.F 8 3 3 7 D J >.>.>.J 0 2 2 2 2 2 2 2 2 2 2 9 0 8 2 2 3 2 2 3 2 7 2 2 2 2 2 3 C Y Z q 2 2 2 A T Z 3 3 2 2 2 r Y T q 2 2 3 w T w 3 2 2 2 2 w A W Y T Z 7 2 2 2 2 2 2 2 2 2 3 2 2 2 2 2 2 3 2 2 3 3 i i i p p i p p h i i i i i h 2 2 2 2 2 2 2 2 ",
"2 2 2 2 2 2 2 S.5X>X>X>X>X>X&.% 2 2 2 2 2 2 2 2 2 2 2 2 2 2 2 % ..,X>X>X>X>X5XoXw 2 2 2 2 2 2 2 2 2 2 2 3 2 2 2 2 3 2 2 2 2 2 2 3 S.5X>X>X>X>X5X .2 2 2 2 2 2 2 2 2 2 2 1 ~ >X>X>X>X5X5X=Xw 2 2 2 e | V.A m l.l.x.j e 2 2 2 2 2 2 2 2 2 2 2 3 2 2 8 ( .XS.! 2 2 2 2 w =.>X%X*.w ..V.C 7 2 2 2 2 2 2 2 2 2 2 2 2 2 2 2 2 3 2 2 2 2 2 2 2 2 9 2 2 2 2 2 2 2 2 2 3 3 2 2 2 2 2 2 2 2 2 2 2 2 2 2 2 9 2 2 2 2 2 2 2 2 2 2 2 2 2 2 2 2 2 2 2 2 2 2 2 2 2 2 2 2 2 2 2 2 2 2 2 2 2 2 2 2 2 2 2 2 2 2 2 2 2 2 2 2 2 2 2 2 2 2 2 2 2 2 2 2 2 2 2 2 2 2 7 2 2 2 2 2 2 2 2 2 2 2 2 2 2 2 2 2 2 2 2 2 2 2 2 2 2 2 2 2 2 2 2 2 2 2 2 2 2 9 2 2 2 2 2 2 2 2 2 2 2 9 2 2 2 2 2 2 2 2 2 2 2 2 2 2 2 2 2 7 2 2 2 2 2 2 2 2 2 2 2 2 2 2 2 2 2 2 2 2 2 2 2 2 2 2 2 2 2 2 2 2 2 2 2 2 3 2 2 2 2 2 2 2 2 2 2 2 2 2 2 2 2 2 2 2 2 2 2 2 7 2 2 2 2 2 2 2 2 2 2 2 2 2 2 2 2 2 3 2 2 2 2 2 2 2 2 2 2 2 2 2 2 2 9 2 2 2 2 2 2 2 2 2 2 2 2 2 2 2 2 2 2 2 2 2 2 2 2 2 9 2 2 2 2 2 2 2 2 2 3 2 2 2 2 2 2 2 2 2 2 2 2 2 2 2 2 9 2 2 2 2 2 2 2 2 2 2 2 2 2 2 2 2 2 2 2 3 2 2 2 2 2 2 2 2 2 2 2 3 2 2 2 2 2 2 2 2 2 2 2 2 2 2 2 2 2 2 2 2 2 2 2 2 2 2 2 2 2 2 2 2 2 2 2 2 2 2 2 3 2 2 2 2 2 2 2 2 3 2 2 2 2 2 2 2 2 2 2 2 2 2 2 2 2 2 2 2 2 9 2 2 2 2 2 2 2 2 2 2 2 2 2 2 2 2 2 2 2 2 2 2 2 2 2 2 2 2 2 2 2 2 2 2 3 2 2 2 2 2 2 2 2 2 2 2 2 2 2 2 2 2 2 2 2 2 2 2 2 2 2 2 3 2 2 3 2 2 2 2 2 2 2 2 2 2 2 2 2 2 2 2 2 2 2 2 2 2 2 2 2 2 2 2 2 3 2 2 2 2 2 2 2 2 2 2 2 2 2 3 2 2 2 2 2 2 2 2 3 2 2 2 2 2 3 2 2 2 2 2 2 2 2 2 2 2 2 2 2 2 2 2 2 2 2 2 2 2 2 2 2 2 2 2 2 2 2 2 2 & 2 1 2 2 2 2 2 2 2 2 2 * 2 & * 2 & 2 2 2 2 * 2 & 2 2 1 % 2 2 2 2 2 2 2 2 2 2 1 2 2 2 2 2 1 2 2 2 2 2 2 2 2 2 2 2 2 2 2 2 1 2 1 1 2 2 2 3 2 2 2 1 2 2 2 2 2 2 2 2 2 2 1 2 2 2 1 2 2 2 2 2 1 2 2 2 2 2 1 2 2 2 2 2 2 3 2 2 1 2 1 1 2 1 2 2 2 2 1 2 2 2 2 2 2 2 1 2 2 2 2 1 1 2 1 2 2 2 2 1 2 3 2 2 2 2 2 2 1 2 2 2 2 2 1 2 7 2 2 2 2 2 2 2 * 1 2 2 2 3 3 3 2 2 2 % 2 2 7 7 1 2 2 2 2 7 2 2 2 2 1 2 1 1 2 2 2 2 2 2 2 2 2 1 2 2 2 2 2 2 1 2 1 1 2 2 2 2 2 % 2 3 3 3 2 2 1 2 2 2 1 2 1 1 2 1 2 3 3 2 2 2 2 1 1 1 2 2 2 2 3 2 2 2 2 2 2 2 3 9 3 2 2 2 2 2 2 2 2 2 2 2 2 2 2 2 2 2 2 2 2 2 2 2 1 2 3 2 2 2 2 2 1 2 3 2 2 2 1 2 2 2 2 2 2 2 2 2 2 2 2 2 2 2 2 2 2 2 2 2 2 2 2 2 2 2 2 2 2 2 2 2 2 ; ; h ; ; ; h ; ; ; h ; h 5 5 3 2 2 2 2 2 2 2 ",
"2 2 2 2 2 2 7 Z.5X5X>X>X>X>X-.4 2 2 2 2 3 2 3 2 3 2 2 3 2 2 2 2 | >X>X>X>X>X,X%X..C 2 2 2 2 1 2 2 1 2 3 2 2 2 2 2 2 2 2 2 2 2 2 8 S.5X>X>X>X>X5X..2 2 2 2 2 2 2 2 2 2 2 2 W >X>X>X>X>X>X%Xe 2 2 2 C *.S.*.Q W _ :.r 2 2 2 2 3 2 2 2 2 2 2 2 2 2 q ! XXXX| 0 2 2 2 2 3 ..=X.X( e ! -.) 7 2 2 2 2 2 2 2 2 2 2 2 2 2 2 2 3 2 2 2 2 2 2 2 2 2 2 2 2 2 2 2 2 2 2 2 2 2 2 2 2 2 2 2 2 2 2 2 2 2 2 2 2 2 2 2 2 2 2 2 2 2 2 3 2 2 3 2 2 2 2 2 2 7 2 2 2 2 2 2 2 2 2 2 2 2 2 2 2 2 2 2 2 2 2 2 2 2 2 2 2 2 2 2 2 2 2 2 2 2 2 2 2 2 2 2 2 2 2 2 2 2 2 2 2 2 2 2 2 2 9 2 2 2 2 9 2 2 2 2 2 2 2 2 2 2 2 2 2 2 2 2 2 3 2 2 2 2 2 2 2 2 2 2 2 2 2 3 2 3 2 2 2 2 2 2 2 2 2 2 2 2 2 2 2 2 2 2 2 2 2 2 2 2 2 2 2 2 2 2 2 2 2 2 2 2 2 2 2 2 2 2 2 2 2 2 2 2 2 2 2 2 2 2 2 2 2 2 2 2 2 2 2 2 2 2 2 2 2 2 2 2 2 2 2 2 2 2 2 2 2 2 2 2 2 2 2 2 2 2 2 2 2 2 2 2 2 2 2 2 2 4 3 2 2 2 2 2 2 2 2 2 2 2 2 2 2 2 2 7 2 9 2 2 2 2 2 2 9 2 2 2 2 2 2 2 2 2 2 2 2 2 2 2 2 2 2 2 2 2 2 2 2 2 2 2 3 2 2 2 2 2 7 2 3 2 2 2 2 2 2 2 2 2 2 2 2 2 2 2 3 2 3 2 2 2 2 2 2 2 2 2 2 2 2 2 2 2 2 2 2 2 2 2 2 2 2 2 2 2 2 2 2 2 2 2 2 3 2 2 2 2 2 2 2 2 2 2 2 2 2 2 2 2 3 2 2 2 2 2 2 2 2 2 2 2 2 2 2 2 2 2 2 2 2 2 2 2 2 2 2 2 2 2 2 2 2 2 2 2 2 2 2 2 2 2 2 2 2 2 2 2 2 2 2 2 2 2 2 2 3 2 2 2 2 2 3 2 2 2 2 2 3 2 2 2 2 2 2 2 2 2 2 2 2 2 9 2 2 2 2 2 2 2 2 2 2 2 2 2 2 2 2 2 2 2 2 2 2 2 2 2 2 2 2 2 2 2 2 2 2 2 2 2 2 2 2 3 2 2 2 2 2 2 2 2 2 2 2 2 2 2 2 2 2 2 2 2 2 2 2 2 2 2 2 2 2 2 2 2 2 2 2 2 2 2 2 2 2 2 2 2 2 2 3 2 2 2 2 2 2 2 2 2 2 7 2 2 2 2 2 2 2 2 2 2 2 2 2 2 2 2 2 2 2 2 2 2 2 2 2 2 2 2 2 2 2 2 2 2 2 2 2 2 2 2 2 2 2 2 7 2 2 2 2 2 2 2 2 2 2 2 2 2 2 2 2 2 2 2 2 2 2 2 2 2 2 2 2 2 2 2 2 2 2 2 2 2 2 3 2 2 2 2 2 3 2 2 2 2 2 2 2 2 2 2 2 2 2 2 2 2 2 2 2 2 2 2 2 2 2 2 2 2 2 2 2 2 2 2 2 2 3 2 2 7 3 7 7 2 2 3 2 2 2 2 2 2 2 2 2 2 2 2 2 2 2 2 2 2 2 2 2 7 2 3 2 2 2 2 2 2 2 2 2 2 2 2 2 2 2 2 2 2 2 2 2 2 2 2 2 2 2 2 3 2 2 2 2 2 2 2 2 2 2 2 2 2 2 2 2 2 2 7 2 2 2 2 2 2 2 2 2 2 2 2 2 2 2 2 2 2 2 2 2 2 2 2 2 2 2 2 2 2 2 3 3 2 2 2 2 2 2 3 2 2 2 2 2 2 2 3 3 2 2 2 2 2 2 2 2 2 2 2 2 2 2 2 2 2 2 2 2 3 3 2 2 2 2 2 2 2 2 2 3 2 2 2 2 2 2 2 2 2 2 2 2 2 2 2 2 2 2 2 2 2 2 2 3 2 2 2 2 2 2 2 2 2 2 3 2 2 2 2 2 2 2 2 2 2 2 3 2 2 2 2 2 2 2 2 3 2 2 2 2 2 2 9 7 7 7 2 2 2 2 2 2 2 2 7 7 2 2 2 2 2 2 2 3 2 ",
"2 3 2 2 2 2 3 Z.9X5X>X>X>X,X-.% 3 2 3 2 2 2 2 2 2 2 2 2 2 2 2 2 | *X>X>X>X>X>X>X%X*.T Z C S C C w C C e w w 8 2 2 2 2 2 2 2 2 2 8 S.5X>X>X>X>X5X .1 2 2 2 2 2 2 2 2 2 2 2 W >X>X>X>X>X5X%XS 2 2 2 w *.*X>X>X%XV. .W Z w q 7 2 3 2 2 2 2 2 2 2 2 Z A..X! 0 2 2 2 2 2 2 T .XXX .T W  .&.8 2 2 2 2 2 2 2 2 2 2 2 2 2 2 2 2 2 2 2 3 2 2 2 2 2 2 2 2 2 2 4 3 2 2 2 2 2 2 2 3 2 2 2 2 2 2 2 2 2 2 2 2 2 2 2 2 2 2 2 2 2 2 2 2 2 2 2 2 2 2 2 9 2 2 2 2 2 2 2 9 2 2 2 2 2 2 2 2 2 2 2 2 2 2 2 2 2 2 2 2 2 2 2 2 2 2 2 2 2 2 2 2 2 2 2 2 2 2 2 2 2 2 2 2 2 2 2 2 2 2 2 2 2 2 2 2 2 2 2 2 2 2 2 2 2 2 2 2 2 2 2 2 2 2 2 7 2 2 2 2 2 2 2 2 2 2 2 2 2 2 2 2 2 2 2 2 2 2 2 2 2 2 2 2 2 2 2 2 7 2 2 2 2 2 2 2 2 2 2 2 2 2 2 2 2 2 2 2 2 2 2 2 2 2 2 2 2 2 2 2 2 2 2 2 4 3 2 2 3 2 2 2 2 2 2 2 2 2 2 2 2 2 2 2 2 2 2 2 2 2 2 2 2 2 2 2 3 2 2 2 2 2 2 2 2 2 2 2 2 2 2 2 2 2 2 2 2 2 2 2 2 2 2 2 2 2 2 2 2 2 2 2 2 2 2 2 2 2 2 2 2 2 2 2 2 2 2 2 2 2 2 2 2 2 2 2 2 2 4 3 2 2 2 2 2 3 2 2 2 3 2 2 2 2 2 2 2 3 2 2 2 2 2 2 2 2 2 2 2 2 2 2 2 2 2 2 3 2 2 2 2 2 2 2 2 2 2 2 2 2 2 2 2 2 2 3 2 2 2 2 2 2 3 2 2 2 2 2 2 2 2 2 2 2 2 2 2 2 2 2 2 2 2 2 2 2 2 2 2 2 2 2 2 2 2 2 2 2 2 2 2 2 3 2 2 2 2 2 2 2 2 2 2 2 2 2 2 2 2 2 2 2 2 2 2 2 2 2 2 2 2 2 2 2 2 2 2 2 2 2 2 2 2 2 2 3 2 2 2 2 2 2 2 2 2 2 2 2 2 2 2 2 2 2 2 2 2 2 2 2 2 2 2 2 2 2 2 2 3 2 2 2 2 2 2 2 2 2 3 2 2 2 2 2 2 2 2 2 3 2 2 2 2 2 2 2 2 2 2 2 3 2 2 2 2 2 2 2 2 2 2 2 2 2 2 2 2 2 2 2 2 2 2 2 2 3 2 2 2 2 2 3 2 2 2 2 2 2 2 2 2 2 2 2 2 2 2 2 2 2 2 2 2 2 2 3 2 2 2 2 2 2 2 2 7 2 2 2 2 2 2 2 2 2 2 2 2 2 2 2 2 2 2 2 2 2 2 2 2 2 2 2 2 2 2 2 2 2 2 2 2 2 2 2 2 2 2 2 2 2 2 2 2 2 2 2 2 2 2 2 2 2 2 2 2 2 3 2 2 2 2 2 2 7 2 2 2 2 2 2 2 3 2 2 2 2 2 2 2 2 2 2 2 2 2 2 2 2 2 2 2 2 2 2 2 2 2 2 2 2 2 2 2 2 3 2 2 2 2 2 2 2 2 2 2 2 2 2 2 2 2 2 2 7 2 2 2 2 2 2 2 2 2 2 2 2 2 2 2 2 2 2 2 2 2 2 3 2 2 2 2 2 2 2 2 2 2 2 2 2 2 2 2 2 2 2 2 2 2 2 2 2 2 2 2 2 2 2 2 2 2 2 2 2 2 2 2 2 2 2 2 2 2 2 7 2 2 2 2 2 2 2 2 2 2 2 2 2 2 2 2 2 2 2 2 2 2 2 2 3 2 2 2 2 2 2 2 2 2 2 2 2 3 2 2 2 2 2 2 2 2 2 2 3 2 2 2 2 2 2 3 2 2 2 3 2 2 2 2 2 2 2 3 3 2 2 2 3 2 2 2 2 2 2 2 2 2 2 2 2 2 2 2 2 2 2 2 2 2 2 2 2 2 2 2 2 2 2 2 2 2 2 2 2 2 2 2 2 2 2 2 2 2 2 2 3 2 3 2 2 2 2 2 2 2 2 2 2 2 2 2 2 2 2 2 2 2 2 2 2 2 2 2 2 2 2 2 2 2 2 3 2 2 2 2 2 2 2 3 ",
"2 2 2 2 2 2 3 S.,X>X>X>X>X,X&.% 2 2 2 2 2 3 2 2 2 2 3 2 2 2 2 % W .X>X>X>X>X>X>X>X*X*X=X=X*X*X*X=X=X=X%XS.*.T q 2 3 2 2 2 2 2 2 8 .X5X>X>X>X>X5X .2 2 2 2 2 2 2 2 2 2 2 3 ! >X>X>X>X>X>X%Xw % 2 2 2 C V.%X>X*X>X>X*X%XA.*.~ q 3 2 2 2 2 2 2 2 2 w T S q 2 2 2 2 2 2 2 S V.>X*X=.W | C.8 2 2 2 2 2 2 2 2 2 2 2 2 2 3 2 2 2 2 2 2 2 2 2 2 2 2 2 2 2 2 3 3 3 2 2 2 2 2 2 2 9 2 2 2 2 2 2 2 2 2 2 2 2 2 2 2 2 2 2 2 2 2 3 2 2 2 2 2 2 2 2 2 2 2 2 2 2 2 2 2 2 2 2 2 2 2 2 2 2 2 2 2 2 2 9 2 2 2 2 2 2 2 2 2 2 2 2 2 2 2 2 2 2 2 2 2 2 2 9 2 2 2 2 2 2 2 2 2 2 2 2 2 2 2 2 2 2 2 2 2 2 2 2 2 2 2 2 9 2 2 2 2 2 3 2 2 2 2 2 2 2 2 2 2 2 2 2 2 2 3 2 2 2 2 2 2 2 2 2 2 2 2 2 2 9 2 2 2 2 2 2 2 2 2 2 2 2 2 2 3 7 3 2 2 2 2 2 9 7 2 2 2 9 2 2 2 2 2 2 2 2 2 2 2 3 3 2 2 2 2 2 2 2 2 2 2 9 2 2 2 2 2 2 2 2 2 2 2 2 2 2 2 2 2 2 2 2 2 3 2 9 2 2 2 2 2 2 2 2 2 2 2 2 2 2 2 2 2 2 2 2 2 2 2 2 2 2 2 2 2 2 2 2 2 2 2 2 2 2 2 2 2 9 2 2 2 2 2 2 2 2 2 2 2 2 2 2 2 3 3 3 2 2 2 2 2 2 2 2 2 2 2 2 3 2 2 7 2 2 2 2 2 2 2 2 2 2 2 2 2 3 2 2 7 2 2 2 2 2 2 2 2 2 2 2 2 2 2 2 2 2 2 2 2 2 2 2 2 2 2 2 2 2 2 2 2 2 2 2 2 2 2 2 2 2 2 2 2 2 2 2 2 2 2 2 2 2 2 2 2 2 2 2 2 2 2 2 2 2 2 2 2 2 2 2 2 2 2 2 2 2 2 2 2 2 2 2 2 2 2 2 2 2 2 2 2 2 2 2 2 2 2 2 2 2 2 2 2 2 2 2 2 2 2 2 2 2 2 2 2 2 2 2 2 2 2 2 2 2 2 2 2 2 2 2 2 2 2 2 2 2 2 2 2 2 2 2 2 2 2 2 2 2 2 2 2 2 3 2 2 2 2 2 2 2 2 2 2 2 2 2 2 2 2 2 2 2 2 2 2 2 3 2 2 2 2 2 2 2 2 2 2 2 2 2 2 2 2 2 2 2 2 2 2 2 2 2 2 2 2 2 2 2 2 2 2 2 2 2 2 2 2 2 2 2 2 2 2 2 2 2 2 2 2 2 2 2 2 2 2 2 2 2 2 2 2 2 2 2 2 2 2 2 2 2 2 2 2 2 2 2 2 2 2 2 2 2 2 2 2 2 2 2 2 2 2 2 2 2 2 2 2 2 2 2 2 2 2 2 2 2 2 2 2 2 2 2 2 2 2 2 2 2 2 2 2 2 2 2 2 2 2 2 2 2 2 2 2 2 2 2 2 2 2 2 2 2 2 2 2 2 2 2 2 2 2 2 2 2 2 2 2 2 2 2 2 2 2 7 7 2 2 2 2 2 2 2 2 2 2 2 2 2 2 2 2 2 2 2 2 2 2 2 7 2 2 2 2 2 2 2 2 2 2 2 2 2 2 7 7 2 2 2 2 2 2 2 2 2 2 2 2 2 2 2 2 2 2 2 2 2 2 2 2 2 2 2 2 2 2 2 7 2 2 2 2 2 2 2 2 2 2 2 2 2 2 2 2 2 2 2 2 2 2 2 7 2 2 2 2 2 2 2 2 2 2 2 2 2 2 2 2 2 2 2 2 2 2 2 2 2 2 2 2 2 2 2 2 2 2 2 2 2 2 2 2 2 2 2 2 2 2 2 2 2 2 2 2 2 2 2 3 2 2 2 2 2 2 2 2 2 2 2 2 2 2 2 2 2 2 2 2 2 2 2 2 2 2 2 2 2 2 2 2 2 2 2 2 2 2 2 2 2 2 2 2 2 2 2 2 2 2 2 2 2 2 2 2 2 2 2 2 2 2 2 2 2 2 2 2 2 2 2 2 2 2 2 2 2 2 2 2 2 2 2 2 2 2 2 2 2 2 2 2 2 2 2 2 2 2 2 2 2 2 2 2 2 2 2 ",
"2 3 2 2 2 2 3 S.,X>X>X>X>X5X*.2 2 2 3 2 3 2 2 2 3 2 2 2 2 2 2 2 w  .>X>X>X>X>X>X>X>X>X,X,X>X,X,X>X5X>X>X>X=XoX*.Z 3 3 2 2 2 3 2 8 S.5X>X>X>X>X5X..2 3 3 3 3 2 2 2 2 2 2 w  .>X>X>X>X>X,X%Xw 2 2 2 2 7 w ! &.A.%X>X>X>X*X=XS.Z 8 2 2 2 2 2 2 2 2 2 9 3 3 2 2 2 2 2 2 2 w *.>X>XC.W | A.8 2 2 2 2 2 2 2 2 2 2 7 2 2 2 2 2 2 2 3 2 2 2 2 2 2 2 2 2 2 2 2 7 2 2 2 2 2 2 2 3 2 2 2 2 2 2 2 2 2 2 2 2 2 2 2 2 2 2 2 2 2 2 2 2 2 2 2 2 2 2 2 2 2 2 2 2 2 2 2 2 2 2 2 2 2 2 2 2 2 2 2 2 2 2 9 2 2 2 2 2 7 2 2 2 2 2 2 2 2 2 2 2 2 2 2 2 2 2 2 2 2 2 2 2 2 2 2 2 2 2 2 2 2 2 2 2 2 2 2 2 2 2 2 2 2 2 2 2 7 2 2 2 2 2 2 2 2 2 2 2 2 2 2 2 2 2 2 2 2 2 2 2 2 2 2 2 2 2 2 2 2 2 2 2 2 2 2 9 2 2 2 2 3 2 2 2 2 2 9 2 2 2 2 2 2 2 2 2 2 2 2 2 2 2 2 2 2 2 2 2 2 2 2 2 2 2 2 2 2 2 2 2 2 3 2 2 2 2 2 2 9 2 2 2 2 2 2 2 2 2 2 2 2 2 2 2 2 2 2 2 2 2 2 2 2 2 2 2 2 2 2 2 2 2 2 2 2 2 2 2 2 2 2 2 2 2 2 2 2 2 2 2 2 2 2 2 2 2 2 2 2 2 2 2 2 2 2 2 2 2 2 2 2 2 2 2 2 2 2 2 2 2 2 2 2 2 2 2 2 2 2 2 2 2 2 2 2 3 2 2 2 2 2 2 2 2 2 2 2 2 2 2 2 2 2 1 % # # % % # # # # % # # & & # & $ # # % # & # # 1 # & # & # 1 & # 1 # # # 1 # 1 % % # $ # % # # & & & & # # & # # & & & # & & & & # & # # # # # & & & & # # & # % % # % & & # & # & # & & # & & # # # # % & # 1 & & # # 1 # & # # $ # # # 1 # # & # & # & # # & & & # & & % # 1 % % $ # # % # # 1 1 # & # # & # # & # # & # & 1 $ # # # # # # % & # & # & # & & % # % # % # # % # 1 # # & & # & # # # # 1 # 1 # # # # % 1 # & # $ # # # # & # & & # & # & # # & # & # & & & # & % % 1 # % & # # & # & # & # & & # & # & & # & & # # & & # & # # & & & & # & & & # # # # # # $ # # % # & 1 # # % % # # # % # # % # # % # 1 # # 1 $ # # # # # # # & & # & # & & & & # & & & # & % $ # # # $ # # 1 1 1 1 1 2 $ 1 1 1 1 1 1 2 1 1 1 1 1 1 2 $ 1 1 1 1 1 2 * 1 1 1 1 % 1 2 $ 1 1 1 1 2 $ 1 1 1 1 1 1 1 1 1 1 1 1 1 1 2 $ 1 1 * 1 1 1 1 1 1 1 1 1 2 $ 1 1 1 2 $ * 1 1 $ 2 1 1 1 1 1 1 * % 1 1 1 2 $ * 1 1 1 1 2 $ 1 1 $ 2 1 1 1 1 & 1 $ # # # # # # # 1 # $ # % & & & # # % # % & # & # & # # 1 # % & $ # # $ % & # & # & # # 1 & & # % % % # # % # & & # & & & & # # # & & & # & & & # % % # # 1 # # & & # & # & & & # & # 1 & # & 1 $ # # # # # # % 1 # # 1 # # & # $ # # # 1 # $ & # & # # 1 # # 1 $ # $ # & & # & # & # & & & # & # # # & # # # # # # # ",
"2 2 2 2 2 2 3 Z.,X>X>X>X>X,X&.2 2 2 2 2 2 2 2 2 2 2 2 2 2 2 3 2 8 S C.>X5X>X>X>X>X>X>X>X>X>X>X>X>X>X>X>X>X>X>X=X=.C 3 2 2 2 2 2 8 S.5X>X>X>X>X5X..% % 2 1 % 2 2 2 1 2 w ...X>X>X>X>X>X,X=Xw 2 2 2 2 2 2 9 w Z ..>X>X>X,X,X%XC 7 2 2 2 2 2 2 2 2 2 2 2 3 2 2 3 2 2 2 2 w ..>X>XZ.T ! S.q 2 2 2 2 2 2 2 2 2 2 2 2 2 2 2 2 2 2 2 2 2 2 2 2 2 2 2 2 2 2 2 2 2 2 2 7 2 2 2 2 2 2 2 2 2 2 2 2 2 2 2 2 2 2 2 2 2 2 2 2 2 2 2 2 2 2 3 2 2 2 2 2 2 2 2 2 2 9 2 2 2 2 2 2 2 2 2 2 2 2 2 2 2 2 2 2 2 2 2 2 2 2 2 2 2 2 3 2 2 9 2 2 2 2 2 2 2 2 2 2 2 2 2 2 2 3 2 2 2 2 2 2 2 2 2 2 2 2 2 2 2 2 2 2 2 2 2 2 2 2 2 2 2 2 2 2 2 2 2 2 2 2 2 2 2 3 2 2 2 2 2 2 2 7 2 2 2 2 2 2 2 2 2 2 2 2 2 2 2 2 2 2 2 2 2 2 2 2 2 2 2 2 2 2 2 2 2 2 2 2 9 2 2 2 9 2 2 2 2 2 2 2 2 2 2 2 2 2 2 2 2 2 2 2 2 2 2 2 2 2 2 2 2 2 2 2 2 9 2 2 2 2 2 2 2 2 2 2 2 2 2 2 2 2 2 2 2 2 2 2 2 2 2 2 2 2 2 2 2 2 2 2 2 2 2 2 2 2 2 2 2 2 2 2 2 2 2 2 3 2 2 2 2 2 2 2 2 2 2 2 2 2 2 2 2 2 2 2 2 2 2 2 2 2 2 2 2 2 7 2 2 2 3 2 2 2 2 2 2 3 2 2 2 2 2 2 2 2 2 2 2 2 2 2 2 $ # # # # X # # # X # X # # X X # # # # X # X # # # X X # # X X # # X # # # X # X o # X # # X # # X # X # X # # X # # X X X # X X # # X # # # X # X # X # X # # X o % X X # X X # X # # X # # X # # # X # # # X X # X X # # X X # # X # # # X # # # X X # # X # # X X # # X # X # o # X # # X # # X # # X # # # X # # X # # # X X X # # X # # # X & X X # # X X # # # # X # X X # # X X # # X X # # # X # X # X # # # # X # X X # # X # # # X X # # X X # # X # # X # X # # X X & X % X # # X # # & X X # # X X # # X # # X # X # # X X # # X # # X # X # # X X # # # # # # X X # # X X # # # X # # # o # # # X # X # X # # X # X X # # X # # X # # X X # # X X # # X # X X # X X # # X # X # # & $ * % * $ $ & $ $ % * $ $ 1 $ $ % 1 * $ $ $ $ $ & % $ $ $ $ % $ % % $ $ & % * $ $ $ * $ % $ * $ $ * $ $ % $ * $ $ $ $ $ & $ $ * $ * $ * % * $ $ $ $ 1 $ $ $ * & $ $ 1 $ % * % $ * $ * & $ % $ $ $ * % * $ $ * & $ % 1 1 $ # X X X # # X # # X # X # X # # X X # # X # # # X X # X # # X # X X # # X # X # X X # X # # X X # X # X X # X X # # X # # X X # X # # # X # X # # X X X X # X X # X # # X X # # X X # # X # X X # X X # # # X # # # X X # # X # # X # # # X # X # X # X # X # X # # X # X X # # X X # X # # X # X X # # # X # # # X # # X # ",
"3 2 3 2 3 2 7 Z.,X>X>X>X>X,X..% 2 2 2 3 2 2 2 2 2 2 3 2 2 2 3 2 3 7 ~ XX>X>X>X>X>X>X>X>X>X>X>X>X>X>X>X>X>X>X>X>X=X*.0 3 2 2 2 2 8 S.5X>X>X>X>X5XZ..... ....... ..... .=.XX>X>X>X>X>X,X,XXXw 2 2 2 2 3 2 2 1 1 S *X,X>X>X,X%Xw 2 2 2 2 2 2 2 2 2 2 2 3 2 2 2 2 2 2 2 2 w ..>X>XZ.T ! .X8 2 2 2 2 2 2 2 2 2 2 2 2 2 2 2 2 2 2 2 2 2 2 2 9 2 2 2 2 2 2 2 2 2 2 2 2 3 2 2 2 2 2 2 2 2 2 2 2 2 2 2 2 2 2 2 2 2 2 2 2 2 2 2 9 2 2 3 4 2 2 2 2 2 2 2 2 2 2 2 2 2 2 2 2 2 2 2 9 2 2 2 2 2 2 2 2 2 2 2 2 2 2 2 2 2 2 2 2 2 2 2 2 2 2 2 2 2 2 2 2 7 2 2 2 2 2 2 2 2 3 2 3 2 2 2 2 2 2 2 2 2 7 2 2 2 2 7 2 2 2 2 2 9 2 2 2 2 2 2 2 2 2 2 2 7 2 2 2 2 2 2 2 2 2 2 2 2 2 2 2 2 2 2 2 2 2 2 2 2 2 2 2 2 2 2 3 2 2 2 2 2 2 2 2 2 2 2 2 2 2 2 2 2 2 2 2 2 2 2 2 2 2 2 2 2 2 7 2 2 2 3 2 7 2 2 2 2 2 2 2 2 2 2 2 2 2 2 2 2 2 2 2 2 2 2 2 2 3 2 2 2 2 2 2 2 2 2 2 9 2 2 2 2 2 2 2 9 2 2 2 2 2 2 2 7 2 2 2 2 2 7 2 2 3 3 2 2 2 2 2 2 2 2 2 2 2 2 9 2 2 9 2 2 2 2 2 2 2 2 2 2 2 9 2 2 2 3 2 2 2 2 2 2 2 2 2 2 2 2 2 2 2 2 2 2 2 2 2 2 3 2 4 2 % # # X # X # X # # # # X # # # # X & X X # # X # X # # # X # # # X X # X # X # X X & # # X X X # X # # X # X # # # # X # # # # # X & X X # # # X # # # X # X # # # # # # & X # # X # # # # X # X # # # X # # # X # X X # # # # # X # # # X X X # X # X & # # # # X X # # # X # X # X # # X X X # X # # X # X X X # # X # X # X # X & # # # # # # # X X # # # # # X X # # # X # # X # # X # # # # X # # X # # X # # # # # # X # # X # # # X X # X # # X & # # # # X X # # X # X # % X # # # X X # X # X # # # # # X X X # # X # X # X # # X X X # X # # X # X # X # # # # # X X # # # # X # # # X # X # # # # # X # X # X # # X # # X # # # # # X # # # # X # X X # # X # # # # # # # X X # # # # $ 1 $ & $ * $ * % % 1 * * $ $ $ $ 1 * $ 1 % % $ 1 $ * $ & % * & * * 1 $ $ 1 * $ % * * % % * & * 1 $ * % 1 $ & * 1 & * % 1 $ * $ # * $ * % % * & $ & $ 1 * & % $ 1 $ $ $ % * * % % * % % & % & % & * % & * & $ * % % * $ # # # X X & # # # # # X # # # X # X # # X X X # X # # # X # # # # X # # X # # # # X # # X % # # # X # X # X # # # # # # # X # X # X # # X X X # X # X # # # # # # # # X # # X % # # X X # # # X # # # # # # X X # # # # # X X # # # X X # # # X # # # X # X # X # # X # # # # X # # X # # X # # # X # # X & X X # # # X # # X # # ",
"2 2 2 2 3 3 3 S.5X>X>X>X>X,X-.2 3 2 2 2 3 2 2 2 2 2 2 2 2 2 2 2 2 2 8 ( Z.>X5X>X>X>X>X>X>X>X>X>X>X>X>X>X>X>X>X>X>X%XT 7 2 2 2 2 8 S.5X>X>X>X>X>X,X5X,X5X5X,X5X5X>X5X5X5X,X>X>X>X>X>X,X*XA.w 2 2 2 2 2 3 w Z T  .>X>X>X>X,X%XZ 2 2 2 2 2 2 2 2 2 2 2 2 2 2 2 2 3 2 2 2 w  .>X>XZ.T ! .Xq 2 2 2 2 2 2 2 2 9 2 2 2 2 2 3 2 2 2 2 2 2 2 2 2 2 2 2 2 2 2 2 2 2 2 2 2 2 2 2 2 2 2 2 3 2 2 2 2 2 9 2 2 2 2 2 2 2 2 2 2 2 2 2 2 2 3 3 2 2 2 2 2 2 2 2 2 2 2 2 2 2 2 2 2 2 2 2 2 2 2 2 2 2 2 2 2 2 2 2 2 2 2 3 2 2 2 2 2 2 2 2 2 2 2 2 2 2 2 7 2 2 2 2 2 2 2 2 2 2 2 2 2 2 2 2 2 9 2 2 2 2 2 2 2 2 2 2 2 2 2 2 2 2 2 7 2 2 2 2 2 2 2 2 2 2 2 2 2 2 2 2 7 2 9 2 2 2 9 2 2 2 2 2 2 2 2 2 2 3 2 2 2 2 2 2 2 2 2 2 2 2 2 2 2 2 2 2 2 2 2 2 2 2 2 2 2 2 2 2 2 2 2 2 2 2 9 2 2 2 2 2 2 2 2 2 2 2 2 2 2 2 2 2 2 2 2 2 2 2 2 2 2 2 2 2 2 2 2 2 2 2 2 2 2 2 2 2 2 2 2 2 2 9 2 2 2 2 2 2 2 2 2 2 2 2 2 2 2 2 2 2 2 2 2 2 2 2 2 2 2 2 2 2 2 2 2 2 2 2 2 2 2 2 2 2 2 2 2 2 2 2 2 2 2 2 2 2 2 2 2 2 2 2 2 3 2 2 2 2 2 2 2 2 2 2 2 2 2 2 2 3 3 2 # # # # # X # # # X X # # # X X # # X # # # X # # X # X # # # X # # # # # # X # # # # # # # # # # X # # X # & # X X # X # X # # X # # # # # X # # # X # X # # # X X # X X # # X # # # X X # # X & X X # # # X # X # # # # X # X # # # X # # # # # X # # # X X X # # # # X # X # # # X # # # # # # X # # X # # # # # X X # # # X # # X # X X # X X # # # # X X X # # # X X # # X # # # # # # X X # # # # # # X # # X X X X # # X # # # X # # # # # # X # # X X X # # # # X # # X # X # # X X % # # X # # # X X X # # # X # # X # # # X X # # # # # X # # X # # X # # X X X # # # # X X # # # X # X # # # o # # # X # # # # # X 1 X # # # X X # # # # X X # # # # # # X X # X # # X X # # # # X # $ & & 1 $ 1 & $ & & * % $ & & $ $ * % $ 1 $ * * * % * & % * $ $ % % & $ * % $ % * & & $ * % $ % * $ % $ * % * % * $ $ $ * % * & $ * # 1 $ * $ % % $ * * & % % & * $ 1 * & * % $ * * & & * * $ * * & % * & % $ $ & & * & $ # # # # # # # X X # # # # X # X # # X # # # # # X # X # # # X X # # X # # # X X # # X # # X X X # # # X # # # X X # X X # # # X # # X # # # X # # # X # X # # X X # # # # X # # X X # # # X # # X # # X X # # # # X X X # # # # X X # # # X # # # X # X # # # # # X # # X X # # # X & X # # X X # # X # # X # # # X # # # X # # # ",
"2 2 3 2 2 2 3 Z.5X,X,X>X>X,X&.2 2 2 2 3 2 2 2 3 2 2 2 2 2 2 2 2 2 2 2 2 ) Z.=X>X>X,X>X>X>X,X>X>X>X>X>X>X>X>X>X>X>X=X=.w 2 2 2 2 7 S.5X>X>X>X>X>X>X>X>X,X>X>X>X>X>X>X>X>X>X>X>X>X>X>X,X%X .8 2 2 2 2 7 Z  .A.oX>X>X>X>X>X,X%X! 0 2 2 2 2 2 2 2 2 3 2 2 2 2 2 2 2 2 2 2 w -.>X>XC.W ( Z.8 2 2 9 2 2 2 2 2 2 2 2 2 2 2 2 2 2 2 2 2 2 2 2 2 2 2 2 2 2 2 2 2 2 2 2 2 2 2 2 2 2 2 3 2 2 2 2 2 2 2 2 2 2 2 2 2 2 2 2 2 2 2 2 2 2 2 2 2 2 2 2 2 2 2 2 2 2 2 2 2 2 2 2 2 2 2 2 3 2 2 2 2 2 2 2 2 2 2 2 2 2 2 2 2 2 2 3 2 2 2 3 2 2 2 2 2 2 2 2 2 2 2 2 2 2 3 2 2 2 2 2 2 2 2 2 2 2 2 2 2 2 2 2 2 2 2 2 7 2 7 2 2 2 2 2 2 2 2 9 2 2 2 2 2 2 2 2 7 2 2 2 2 2 2 2 2 2 2 2 2 2 2 2 2 2 2 2 2 3 2 2 2 2 2 2 2 2 2 2 2 2 2 2 2 2 2 2 2 2 2 2 2 2 2 2 2 2 2 9 2 2 2 2 2 2 2 2 2 2 2 2 2 2 2 2 2 2 2 2 2 2 2 2 2 2 2 2 2 2 2 2 2 2 2 2 2 2 3 2 2 2 2 2 2 2 2 2 2 2 2 2 2 2 2 2 2 2 2 2 2 2 2 2 2 2 2 2 2 2 2 2 2 2 2 2 2 2 2 2 2 2 2 2 2 2 2 2 2 2 2 2 2 2 2 2 2 2 2 2 2 2 2 2 2 2 2 2 2 2 2 2 2 2 2 2 2 2 2 2 2 2 2 2 2 2 2 2 2 2 2 3 2 % # # o # X X # # X # # X # # X # # # # # X X # # # X # X # # X # # # X X X # # # # X X # X X # # # X # # # X X X # # # # # # X # # X X # # # X X X # # # # X # X # # # # # # # X # # X # # X # # X # # X # # X # # X # # X # # X # # X # X X # # # X # X # # # X # # # # # X # X # # # # X X # # # X # # # X # X # # # # # # X # X & # X # # # # # # X # X & # X # # # # # X # # X # X X # # X # # & X X # # X # # # # # # X # # X # X # # # X X X # # X # # # # # # X # # X # # X # # # X X # # # X # # X & # X # # # # # # X # X # & # X X # # # X # & X # # X # & X # # X # # X # # X # # X # # X # X # # X # # X # X # # X # # X # # # # X X X # # # # X X X # # # # # # X # X # # X # # # $ $ & & $ % & % * & $ 1 * $ % * & & * * & % % $ % % * % % & * * % $ % * 1 $ % & * $ * % 1 $ * $ % & & * % * & 1 $ * $ 1 % * 1 $ & * & * & $ $ 1 & & * $ & * $ * $ 1 & % $ $ 1 $ % & * & % $ % * $ * % & & * % % * & % 1 & # # X # # X X # # # X X X # # # X # # # X X # # X # # X # # X # # # # X # # X # # X # # X # # # # # # X # X # X # # # # # # X # X # # X # # # # # # X & X # # X % # X X X # # X # # # # # # X X X # # # X # # X # # # # # # X X # # # # # # X X # # X # # X # X # # X # # X 1 X # # X # # X # # # X # # X # # # # # X X X # # X # # ",
"3 2 2 2 2 2 3 S.,X>X>X>X,X,X&.2 2 2 2 2 2 2 2 2 2 3 3 2 2 2 2 2 2 2 2 2 7 Z | A.%X*X>X>X>X*X>X>X>X>X*X>X>X>X>X>X>X>XXXS 2 2 2 2 8 S.5X>X>X>X>X>X>X>X>X>X,X>X>X>X>X>X>X>X>X>X>X>X>X>X>XS.C 2 2 3 3 7 T S.=X>X>X>X>X>X>X>X,X*X*.w 2 2 2 2 2 2 2 3 2 2 2 2 2 2 2 2 2 2 2 Y A.*X=X*.T | C.8 2 2 2 2 2 2 2 2 2 2 2 2 2 2 2 7 2 7 2 2 2 2 2 2 2 2 2 2 2 2 2 7 2 2 2 2 2 2 2 2 2 2 2 2 2 2 2 2 2 2 2 2 2 2 2 2 2 9 2 2 2 2 2 2 2 2 2 2 2 2 2 2 2 2 2 2 2 2 2 2 2 2 2 2 2 2 2 3 2 2 2 2 2 2 2 7 2 2 2 2 2 2 2 2 2 2 2 2 2 2 2 2 2 2 2 2 2 2 2 2 2 3 2 2 2 2 2 2 3 3 2 2 2 2 2 2 2 2 2 2 2 2 2 2 2 2 2 2 2 2 2 2 2 7 2 2 2 2 2 2 2 2 2 2 2 2 2 2 2 2 2 2 2 2 2 2 2 2 2 2 2 2 2 2 2 2 2 2 2 2 2 2 2 2 2 2 2 2 2 2 2 2 2 2 2 2 2 2 2 2 2 2 2 2 2 2 2 2 2 2 2 2 2 2 2 2 2 2 2 2 2 2 2 2 2 2 2 2 2 2 2 9 2 2 2 2 2 2 2 2 9 2 2 2 2 2 2 2 2 3 2 2 2 2 2 2 2 2 2 2 2 2 2 2 2 2 2 3 2 2 2 2 2 2 2 2 2 2 2 2 2 2 2 2 2 2 2 2 3 2 2 2 2 2 2 2 2 2 2 2 2 2 2 2 2 2 2 2 2 2 2 2 2 2 2 2 2 2 2 7 2 2 2 3 2 3 2 3 2 2 2 2 2 2 2 9 2 2 2 2 1 # # # # X # # # # # # X # X # # X # X X # # # # # X # X # # # X % X X # # # # # X X # # # # # # # X # X # X # # # # # X X # X # # X # # # X X # # # # # X X # & X & # X X # X X # X # # X # X # # # # X # X # # X # X # # # # X # X # # X # # # # X # X # # # X # # # X X X # X # # # X # # # # # X # X # X # & X # # X X # X # # # X X # & # X X # X # # # X X # & # X X # X # # # # # X X # # X # X X % X # # X # X X # # X # # # # # X X X # # # # # X & X X # X X # & X # X # # X # X # # # # X # X # # X X # & # X X # X # # # X # X # # # # X # X # X # # X # # X # # X # # # # X # X # # X # X # # X # # X # X # # X # # X # X # # X X # # # # # X X # # # # # X X # X # # # X # X # # # $ & 1 * & * % & * % $ 1 $ % * * % * & & & * * & * * $ * & * & % & & * & & * & * & $ 1 & $ 1 $ & % % * $ 1 * % $ % * % * & & % $ * & % & & & 1 & $ * % & % % * % & 1 $ * * 1 $ & & * % $ % & * & % % & % * $ 1 & * % % * 1 $ # # # X # # # X X # # # # # X # X # X # # # # # # X # X # # X # X X 1 X # # X # X # # # # X # # X X # X # # # # # X X # X # # # X # X # # X X # X # # X # # X & X # # # # # X # # X # X X # # # # # X # X # X # # X X # X # # # # X # X X # # X # # X # X # # X # # X # X # # X # # X # X # # # X # # # # X # X X # # # # # X # # o ",
"2 2 2 2 3 2 7 Z.5X>X>X>X>X,X*.% 3 2 2 2 2 2 2 2 2 2 2 2 2 2 3 2 2 2 2 2 2 2 r Z S A W A Y T T Y T T | A.>X>X>X>X>X>X=XS 2 2 2 2 8 S.,X,X>X>X>X>X>X>X>X>X>X>X>X>X>X>X>X>X>X>X>X>X>X,XXX! 8 3 2 2 2 w =.*X>X>X>X>X>X>X>X>X,X>XXXS 2 2 2 2 2 2 2 2 2 2 2 3 2 2 2 2 2 2 2 ~ oXZ.~ w Y &. .9 2 2 2 2 2 2 2 2 2 2 2 2 2 2 2 2 2 2 2 2 2 2 2 2 2 2 2 2 2 2 2 2 2 2 2 2 2 2 2 2 2 2 2 2 2 2 2 2 2 2 2 2 2 2 2 2 2 2 2 2 2 2 2 2 2 2 2 2 2 2 2 9 2 2 2 2 2 2 2 2 2 2 2 2 2 2 4 3 2 2 2 2 2 2 2 2 7 2 2 2 2 2 2 2 2 2 2 3 2 2 2 2 2 3 2 2 2 2 7 2 2 2 2 2 3 2 2 2 4 3 2 2 2 2 2 2 2 2 2 2 7 2 2 2 2 2 2 2 2 2 2 2 2 2 2 2 2 2 2 2 2 2 2 2 2 2 2 2 2 2 2 2 2 2 2 2 2 2 2 2 9 2 2 2 2 2 2 2 2 2 2 3 2 2 2 2 2 2 2 2 2 2 2 2 2 2 2 2 2 2 2 2 2 2 2 2 2 2 2 2 2 2 2 2 2 2 2 7 2 2 2 2 2 2 2 2 2 2 2 2 2 2 2 7 2 2 2 2 2 2 2 2 2 3 3 2 2 2 2 2 2 2 2 2 2 2 2 2 2 2 2 2 2 2 2 2 2 2 2 2 3 3 2 2 2 2 2 2 2 2 3 2 2 2 3 2 2 2 3 3 2 2 2 2 2 2 2 2 2 2 2 2 2 2 2 2 2 2 2 2 2 2 2 2 2 2 2 7 2 2 2 2 2 2 2 2 2 3 3 2 2 2 2 2 2 2 2 2 2 1 % # X # # # X o # X X X # # # # # # # # X # X # # X # X # # # X # X # # X # # # # X % X X # X # # X # X # # X # # # # X # # X # X # X # & X # # X # # # # X X # # # X # # # # X # # # & X & # # X X X X # # # # # # # # X X X X # # # # # # X # # X # X # # & X X # # X # # # X # # # X # X X # # X # X # # X # # # # X # # X # X # # # X # X # # # X # X # # # X # X # # # # # X X X X # % # # # # # # X X # # # # # # X # # # X X X X & # # # X # # # # X X # # X # # # X # X # # # # X # X # # X # X # # # # X # X # # # X # X # # # X # X # # X # X # # X # # # # X X # # # X X X X # # # # # # # # X X # # # # # # X X # # # # # # X X # # X # # # # X X # # # # X # # X # X # # # X # # # & & % $ % * & * % $ & * & * & * $ % & & % $ % & % & & $ % & 1 $ * & * % $ % % % & % 1 * % % $ & * * & * $ & $ & & * $ * % % * $ 1 & & $ $ & % & $ $ * & * % % & % * $ & * % $ * * % & * $ 1 & * & * $ 1 * $ 1 $ % * * % 1 # # # X # X # & X # # X # # # # X # # X # X # # X X X # # # # # # # # X X # # # # # # X X X X # # # X # # # # # X # X # # X # X # X & # # # X # # X # X # X # # # X # X # # # # X # X # X # # X # # # # X # # # # # X # # X # X # # X # X # # X # # # # # # # X X # # # # # # X X # # # # # # X X # # X X X X # # # # X # # # # X o # # ",
"2 2 3 2 2 2 2 S.5X,X>X>X>X,X*.2 2 2 2 3 3 2 2 3 2 2 2 2 2 2 2 2 2 2 2 2 2 2 2 2 2 1 2 2 1 2 2 1 2 2 7 T C.>X>X>X>X>X*XA 1 2 2 2 8 S.5X>X>X>X,X>X>X>X>X>X>X>X>X>X>X,X>X,X>X>X>X5X>XS...r 3 3 2 2 2 w =.*X>X>X5X>X,X,X>X>X>X>X>X=.w 2 2 2 2 2 2 2 2 2 2 2 2 3 2 2 2 2 q  .>XS.Q q ) -.~ 2 2 2 2 2 2 2 2 2 7 2 2 2 2 2 2 2 2 2 2 2 2 2 2 2 2 2 2 2 2 2 2 9 2 2 7 2 2 2 2 2 3 7 2 2 2 2 2 2 9 2 2 2 2 2 2 2 2 2 2 2 2 2 2 2 2 2 2 2 2 2 2 2 2 2 2 2 2 2 2 2 2 2 2 9 2 3 2 2 2 2 2 2 2 2 2 2 2 2 2 2 2 2 7 2 2 2 2 2 2 2 2 2 2 3 3 4 2 2 2 2 2 2 2 2 2 2 2 2 2 2 2 2 2 2 2 2 2 2 2 2 2 2 2 2 2 2 2 2 2 2 2 2 2 2 2 2 2 2 2 2 2 2 2 2 2 2 2 2 2 2 2 2 2 2 2 2 2 2 2 2 2 2 2 2 2 2 2 2 2 2 2 3 3 4 2 2 2 2 2 2 2 2 2 2 9 2 2 2 2 2 2 2 2 2 2 2 2 2 2 2 2 2 2 2 2 2 2 2 2 2 2 7 2 2 2 2 2 2 2 2 2 2 2 2 2 2 2 2 2 2 2 2 4 3 2 2 2 2 2 2 2 2 2 2 2 9 2 2 2 2 2 2 2 2 2 2 2 2 2 2 3 4 2 2 7 2 2 2 2 2 2 2 7 2 2 2 2 2 3 4 2 2 2 2 2 2 2 2 2 2 2 2 2 2 2 2 2 2 2 9 2 7 2 2 2 2 2 2 2 2 2 2 2 2 3 2 2 2 2 2 2 2 2 2 2 2 2 2 2 % # # # X X # # # # # # # # X # X X # X # % X X # # X # # # X # X # # # X # # X X # # X # # # X # # X # # # X # # X X # # X # # # X # # # X # # X # # X X # # # # X X & X X # X & # X # X # X X # # # # # # X # X X # X # # # # # # X # X X # X # # X # # # X X # # # X # X X X # # X # X # % X # # X # # # X # # X X # # X # # # X # X # # # X # X # # # X # X # # # X # X # X # # # # # # X # X X # X # # # # X X # X # % X X # # # # # X # # X # # X X # # & X # # # X # X # # # X X # # # X # # X # # # X X # # # X # X # # # X # X # # # X # # X # # # X # # X X # # # # X # # # # # # X # X X # X # # # # X X # X # # # # X X # X # # # # X # # X X # # # # X X # # X # # # X # X # # # # # % * & * & % % * & * & % % * & & - y - * & 1 $ * * $ 1 1 $ * $ 1 $ % * & * & & * * $ $ & & * 1 $ % & * % 1 $ 1 $ 1 $ % & & * $ 1 $ % : , B B B , : * % % * & * & $ & % * & & % & % * & $ 1 $ * % & $ 1 $ $ 1 $ * & & & $ # # X # X # # # X # # X # # X X # # X # # # X # # X # # # X # X X # X # # # # X X # X # # # # # # X X & # X # X X & # # X # # # X # # # X X # # X # # # X # # # X X & X # # X X # # # X # # # X # # X X # # X % X X # # X # # # X # # X # # # X # # # X X # X # # # # X X # X # # # # X X # X # # # X # # # # # # X # X # # X X # # # # # ",
"2 2 2 2 3 3 7 Z.5X5X>X>X>X5X&.1 3 2 2 2 3 2 2 2 2 2 2 3 2 2 2 2 2 2 2 2 2 2 2 2 2 2 2 2 2 2 2 2 3 2 2 8 | %X5X>X>X>X*XT 2 2 2 2 3 S.5X>X>X>X>X>X>X5X>X>X>X>X,X>X>X,X5X5X>X>X=XXXC.! q 2 2 2 3 2 2 q | =X5X5X>X%X.X%X>X>X>X>X>X=X*.Z 2 3 2 2 2 3 2 2 2 2 2 2 2 2 2 2 W Z.>X=X-.w  .C.w 3 3 2 2 2 2 2 2 2 2 2 3 2 2 2 2 2 2 2 2 2 2 2 2 2 2 2 2 2 2 2 2 2 2 2 2 2 2 2 2 2 2 2 2 2 2 2 2 2 2 2 2 2 2 9 2 2 2 2 2 2 2 2 2 2 2 9 2 2 2 2 2 2 2 2 2 2 2 2 3 2 2 2 2 2 2 2 2 2 2 2 3 2 2 2 2 2 2 2 2 2 2 2 2 2 2 2 2 3 2 2 2 2 2 2 2 2 3 2 2 2 2 2 7 2 3 2 2 2 2 2 2 2 2 2 2 2 2 2 2 2 2 3 2 2 2 2 2 2 2 2 3 2 2 2 2 2 2 2 2 2 2 2 2 2 2 2 2 2 2 2 2 2 2 2 3 2 2 2 2 2 2 2 2 2 2 2 2 2 2 2 3 2 2 2 2 2 2 3 2 2 2 2 2 2 2 2 2 2 2 2 7 2 2 2 2 2 2 2 2 2 2 2 2 2 2 2 2 2 2 2 2 2 2 2 2 2 2 2 2 2 2 2 2 2 2 2 2 2 2 2 2 2 2 2 2 2 2 2 2 2 2 2 2 2 2 2 3 2 2 2 2 2 2 2 3 2 2 2 2 2 2 2 2 2 2 2 2 2 2 2 2 2 2 2 2 2 2 2 2 2 3 2 2 2 2 2 2 2 2 2 2 2 7 3 2 2 2 2 2 3 2 2 2 2 2 2 2 2 9 2 2 2 2 2 2 2 2 2 2 2 2 3 2 2 2 2 2 2 & # # X X # # # # # # X # X X # X # # # # # # # # # # X # X # # # X # X # # # X X # # # X # X # X # # X # X # # # X # X X # # # X # # X # # # X # X # # # X # X # # # X & X # # X # X # X # & X X # # # # # # X X # % X # X X # # # # X X # X o o X X X # # # # X # # # X 2 1.D 2 # # X # X # # # X X # # # X # # X X X # # % X # # # X # X # # # X # # X X # # # X # # # X X # # # # # X # # o # # # X # # # X X # X # X # # X # X X # X # # # # # X # # # X X # # # # X X # # # X & # X # X # X # # X # X # # # # X & X # # # X # & X # # # X # # X X & X # # X # # X # # X X X & X # X & # X # # # X # X X # X # X # X # # # X # # # # X X # # X X & X & X # # # X X # # & X # # # X # # X # & 1 * % & 1 $ 1 * % & * $ 1 $ 1 $ - p g f y # # $ % % $ 1 * % & * $ % % & * * % & % % * * & $ $ & $ 1 $ * & $ $ & % % $ * & & % & & $ $ B } #.$.$.@.} U , * # & * $ 1 $ & % & * 1 $ % 1 $ 1 & * % 1 $ 1 * $ 1 $ & & * % 1 # # # X # # X % # X &   # o #   X # . # #   X X # # # X # X o X X X # X # X # o X X # X X   o     o X X X X o # X X # X X X # # X X X # # # X #   # # # # X # X # # # X # # X X X # X #   # #   # #   # # #   # o # # X # # X o # # X # X X . . . X X X # # X o # # o X X X X X # # X X X X # # X # # X # # o X o o o o     o X # # # X # # ",
"2 3 2 2 3 3 3 S.5X>X>X>X>X5X&.2 2 2 2 2 2 2 2 3 2 2 2 2 2 2 2 2 2 2 3 2 2 2 3 2 2 2 2 2 3 2 2 2 2 2 2 8 ! %X5X>X>X>X>XY 1 7 2 2 3 .X5X>X>X>X>X5X%XZ.S.S.D.Z.S.S.S.S.Z..XZ.A.-.( w 3 2 2 2 2 2 2 2 3 S C..XXXZ.&.Q -.%X>X>X>X>X5X=X*.T w 7 3 2 3 3 2 2 2 2 2 3 2 2 8 *.>X5X*X*.Y -.=.3 2 3 2 2 3 2 3 2 2 3 2 2 2 2 2 2 7 2 2 2 7 2 2 2 2 2 2 2 2 2 2 2 2 2 2 2 2 2 2 2 2 2 2 2 2 2 2 7 2 2 2 2 2 2 2 2 2 2 2 2 2 2 2 2 2 2 2 2 2 2 2 3 2 2 2 7 2 2 2 2 2 2 2 2 2 2 2 2 2 2 2 2 2 2 2 2 2 2 2 2 2 2 2 2 2 2 2 2 2 2 2 2 2 2 7 2 2 2 2 2 2 2 2 2 2 2 2 2 2 2 2 2 2 2 2 2 2 2 2 2 2 2 2 2 2 2 2 2 2 2 2 2 2 2 2 2 2 2 2 2 2 2 2 2 2 2 2 2 2 3 2 2 2 2 2 2 2 3 2 2 2 2 2 2 2 2 2 2 2 2 2 3 3 2 2 2 2 2 2 2 2 2 2 2 2 3 2 2 2 2 2 2 2 2 2 2 2 2 2 2 2 2 2 2 2 2 2 2 2 2 3 2 2 3 2 3 2 2 2 2 2 2 2 2 2 2 2 2 2 2 2 2 2 2 2 2 2 2 2 2 2 3 2 2 2 2 2 2 2 3 2 2 2 2 2 2 2 3 2 3 2 2 2 2 2 2 2 2 2 2 2 2 2 9 2 2 2 2 2 2 2 2 2 2 2 2 2 2 3 2 2 2 2 2 2 2 2 2 2 2 2 2 2 2 2 2 2 2 2 2 2 2 2 2 2 3 2 2 3 3 2 2 2 2 2 2 3 1 & X & X & # # X X X X # # # # # # # # X X # .   # # X # # # X # X # # # X # X X & & X X # X # & X & X # # # X # X X & X & # # X # X # # X # X # # # X # X # # # X # X X & X # # X & X & # # # X # # # X X X X # # # # X # # # # # X X # # # % t G R J t 2 # X # X # # X # X 9 sXa.9 X # # # X # X # # # # X # X # X 2 9 3 X # X # # X # # # X # X X % X # # # # X # X # X # # # # X # o # # # # # X X # # X X # # # # % 7 8 1 X # # # # # # # X X X # X # X & # # # X X # # # # X # X X # X # & X & X # # # X # X X # # X & X X # X # X # # X # # X # # # # # X # & X # # X # # # & X # # # X # # X X # # # # # # # # X # # # X X # # X X # # # # X % # # # X X # X # # # # X X # # X # # X # # % & & & % * $ & $ & & * % 1 $ * % % - s g.s p # # $ $ * $ $ & % * & % & * & % & % * * & & $ & & * * 1 $ * $ & & * * * & * $ % * * & & $ $ P N.}.N.B.B.|.|.O.: * $ & $ $ $ & * & % $ * * $ & $ % * * $ & $ & % $ 1 * % & $ # # X # X # # X X # # X > B > : : > , > : : : , = # X # # % 3 F G 2 # # # # # 2 F G 8 # & t G 3.R R R t 1 9 F t $ # # # 1 9 D 1 X 8 D 8 # # X # 1 t 9 % X # X # # # X # X # X % 8 , < > , > : : : : > B = # # # # X # # X # 7 D e # # # # 4 F R R J G t 2 X # # # % 2 t H J F t 1 X # # 9 D 2 # # # X 2 t 9 % e J 3.J R R R 3.D # # X # X # # ",
"2 2 2 2 3 3 3 Z.5X>X>X>X>X5X&.2 2 2 2 2 2 2 3 3 2 2 2 2 2 2 2 2 2 2 2 2 3 3 2 2 2 2 2 4 2 2 2 2 2 2 2 w =.=X5X>X>X>X>XT 2 2 2 2 7 .X5X>X>X>X>X5X .3 8 8 3 8 9 2 7 7 7 7 8 8 2 2 7 2 3 2 2 2 2 2 3 2 2 8 e w 8 7 7 S .X5X>X>X>X>X>X>XXX*.~ A Z S Z 2 3 2 2 2 3 2 3 ) XX5X>XoXT | =.! 2 2 2 2 2 2 2 2 2 2 2 2 2 2 2 2 3 2 2 2 2 2 2 2 2 2 2 2 2 7 2 2 2 2 2 2 2 2 2 2 2 2 2 2 2 2 2 2 2 2 2 2 2 2 2 2 2 2 2 2 2 2 2 2 2 2 2 2 2 2 2 2 2 2 3 2 2 2 2 2 2 2 3 2 2 2 2 2 2 2 2 2 2 2 2 2 2 2 2 2 2 2 2 2 2 2 2 2 2 2 2 2 2 2 2 2 2 2 2 2 2 2 2 2 2 2 2 2 2 2 7 2 2 2 2 7 2 2 2 2 2 7 2 2 2 2 2 2 2 2 2 2 2 2 3 2 2 2 2 2 2 2 2 9 2 2 2 7 2 2 2 2 3 2 2 2 2 2 2 2 2 2 2 2 2 2 2 2 2 2 2 2 2 4 2 2 3 2 2 2 3 7 2 2 2 2 2 2 7 2 2 2 2 2 2 2 2 2 2 2 2 2 2 2 2 2 2 2 2 2 2 2 2 2 2 2 2 2 2 2 2 2 2 2 7 2 2 9 2 2 2 2 2 2 2 2 2 2 2 2 2 2 2 2 2 2 2 7 2 2 2 2 2 2 2 2 2 2 2 2 2 2 2 2 3 2 2 2 2 2 2 2 2 2 2 2 2 2 2 2 2 2 2 2 2 3 2 2 2 2 2 2 2 2 2 2 2 3 2 2 2 2 2 2 2 2 2 2 2 2 2 2 2 2 3 2 7 2 2 2 3 2 2 2 2 2 2 2 & X # # # X # X X & # # X # X # # X # X # # # * = # # # X % # # # # X # # # # X # # # # X # # # # # # X X # # # X & # X # # & X X # # & X & # X X & # # # # X # # # X # # X X # # # X # # X # X X # # X X & # # X # # X X # X # # X # # X # $ R Q.sXsXsX(.R 1 # # X # X # o X 9 pXa.9 X X # # # o # X X # X X X # # % ,.y.,.# X # # # # X # X # # X # X # # # X # X X # X X X X # X # # # X o # # # # # X # # X X # # X 9 q.q.9 X % X # # X # X # # # X # # # X # X # # X # X # # X # # X # # # # # X # X # # # # # # X X & # # X # # # # X # X X # X # # # X X # # X # X # X # # X X # # X # X X # # # X # X # # X # # = = # # # # # X # # X # # X & # X X # X # # X # # # # X # # # X X # # # $ * * * $ * * & * % $ % & % $ * % $ # p f.g.g.i & $ % * $ 1 % * & * % * & $ * $ 1 * $ % $ & $ & * & % * & & $ & & & % & % & 1 $ % & & & * # P N.N., = , [ |.{., * & & $ & * & % * $ % & * & & * $ & * $ & * & * * % & & & $ # # X # # # # # # X X X ' A.%.] %.%.%.] %.%.%.Z.I # X # # o 2.pXfX2.2 X # X 1 ,.sXsX8.X 2 Q.dXhXfXfXdXp.9 6.sXtXt $ # X 9 q.wXt o 8.eX6.1 # #   F yXa.9 X X # # # X # X # # # X U C.] ] ] %.*.#.] ] ] C.`   #   # # X # # # 8.sX^.% X # X 2.uXhXfXdXuX/.2.% # # # 9 8._.uXdXtXQ.1.1 # X y.wX1.% X #   >.wXw.3 i.sXfXgXlXlXfXhXQ.1 X X # # # # ",
"2 2 2 2 2 2 3 S.5X>X>X>X>X5X&.2 7 7 2 8 2 2 3 8 7 3 3 3 3 2 2 2 2 2 2 7 3 7 7 7 3 3 3 1 8 3 3 : 8 8 T *.%X>X>X>X>X>X=XT 2 2 2 2 7 .X5X>X>X>X>X5X .1 3 3 2 2 2 2 3 2 3 3 2 2 2 2 2 2 2 2 2 2 2 2 2 2 2 3 3 3 2 2 8  .%X>X>X>X>X>X>X>X>X*X=X%X%X=XC.7 2 2 2 2 3 7 Z Z.>X>X=X*.w C.*.q 2 2 2 2 2 2 2 7 2 2 2 2 2 2 2 2 2 2 2 2 2 2 7 2 2 2 2 2 9 2 2 2 2 2 2 2 9 2 7 2 2 2 2 7 2 2 2 2 2 2 2 2 2 2 2 2 2 2 2 2 2 2 2 2 2 2 2 2 2 2 2 2 2 2 2 2 3 2 2 2 2 2 2 2 3 2 2 2 3 2 3 2 2 2 2 2 2 2 2 9 2 2 2 2 2 2 2 3 2 2 2 2 2 2 2 2 2 2 2 2 2 2 3 2 2 2 2 2 2 3 2 2 2 2 2 2 2 2 2 2 2 2 2 2 2 3 2 3 2 2 2 2 2 2 2 2 3 2 2 2 2 2 2 2 2 2 2 2 2 2 2 2 7 2 7 2 2 2 2 2 2 3 2 2 2 2 2 2 2 2 2 2 2 2 2 2 2 2 2 2 2 2 2 3 2 2 2 2 2 2 2 2 2 2 2 9 2 2 2 2 9 2 2 2 2 2 2 2 9 2 2 2 2 2 2 2 7 2 2 2 2 2 2 2 2 2 2 2 2 2 2 2 2 2 2 2 2 2 2 9 2 2 2 2 3 2 2 2 2 2 2 2 2 3 2 2 2 2 2 2 2 2 2 2 2 2 2 2 2 2 2 2 2 2 2 2 2 2 3 2 2 2 2 2 2 2 2 2 2 2 3 2 2 2 2 2 2 2 2 2 2 2 2 7 2 2 7 2 2 2 2 2 2 2 2 2 2 2 2 2 2 2 2 2 2 3 1 # # # # X # X # # # # # X # # X # # X # # # # N #.V.: # X & X X & X X & X X # # # # X X # # # # X X # # & X # X # # X # # # X X # # # # X # X # # # X X & X X & X X # # # X & # # X X X # # X # # # # # # & X # X # # # # # # X # # X # X # # 8 eX(.8.G ,.y.t % X # # # % # % X 9 pXe.9 X # # # # % % # # # # % # % # X y.Q.,.# # # X X X # # # # # # # # # X # # # % & # % % & & # # # X # # # # # % # X # # # % % # # X t (.y.9 X % X # # X # # X # # # # X # X # # X # & X # # X & X # # # # X X # & # X # X & X X # # # X X # # # # X X & # & X # # # X X # # # X # # X # & X # # X # # X # # # # # X # # X # # X # = V.#.N X # # # # X & X # # X X # # # # # # X # # X X X % # X # & X # # $ 1 & % & % & % $ 1 $ * % * * & & * % - i g.s g.s y # * % 1 $ & & % $ * & & $ $ 1 $ & * & $ * & & & & $ = * $ * & & $ $ * * & $ 1 $ * $ * $ # I N.N.> & # P B.{.B * $ * $ & & * * & % * & % % * % % & % 1 $ % & % $ * & $ $ # X # # # # X X # # # 1 X I %.' ' ` ] ] ] ] ' ` %.Y X # # # o 2.uXdXT.9 X # X 2 U.sXpX0.X 2 /.(.8.t F t 8 % 6.dXgXI.8 X X 9 q.eXt   8.eX8.1 X # X G yXa.9 X # # X # X # # # X X X I ` = = * ' Z.] = * = U I   # # X # # # # # Q.hXwXR # # o 8.wXp.G F 2._.eX>.% # 7 i.pXp.3.F 1.Q.tX8.% o a.wX1.# X #   >.eXe.3 8 D t ,.fXp.3.t 0 X # # # # X X ",
"2 2 2 2 3 2 2 Z.5X>X>X>X>X5X@XZ.S.S.S.S.S.S.S.S.S.S..XC.| q 2 2 2 2 w C..XS.S.S..X.X.X.X.X.XS.S..XS.XX%X>X>X>X>X>X>X%XA 1 2 2 2 7 .X5X>X>X>X,X5X .2 2 2 2 2 2 2 2 3 2 2 2 2 2 2 2 2 2 2 2 2 2 2 2 2 2 2 2 2 1 w *.oX*X5X>X>X>X>X>X>X>X>X,X,X,X5X.Xw 8 3 3 2 3 C C.oX*X>XZ.Z ..=.! 2 3 2 2 2 2 2 2 2 2 2 2 2 2 2 2 2 3 2 2 2 2 2 2 2 2 2 7 2 2 2 2 2 2 2 2 2 2 2 2 2 3 2 2 2 2 2 2 2 2 2 2 2 2 2 2 2 2 2 2 2 2 2 2 2 2 2 2 2 2 2 2 2 2 2 2 2 2 2 2 2 2 2 2 3 2 2 2 2 2 2 2 2 2 2 2 2 2 2 2 2 2 2 2 2 3 3 3 2 2 2 2 2 2 2 2 7 2 2 2 2 2 3 3 2 2 2 2 2 2 2 7 3 2 2 2 2 2 2 2 2 2 2 2 2 2 2 3 4 2 2 2 2 2 2 2 2 2 2 2 2 2 2 2 2 2 2 2 2 2 2 2 2 2 2 3 2 2 2 2 2 2 2 2 2 2 2 2 2 2 2 2 2 2 2 2 3 2 2 2 2 2 2 2 2 2 2 2 2 2 2 2 2 2 2 2 2 2 2 2 2 2 2 2 2 2 2 2 2 2 2 2 2 2 2 2 2 2 2 7 2 2 2 2 7 2 2 2 2 2 2 2 2 2 2 2 2 2 2 2 2 2 2 2 2 2 2 2 3 2 2 2 2 2 2 2 2 2 2 2 2 2 7 2 2 7 2 9 2 2 2 2 2 2 2 2 2 2 2 2 2 2 2 2 2 2 2 3 2 2 2 2 3 2 2 2 2 2 3 2 2 2 2 2 2 2 2 2 2 2 2 2 2 2 2 2 3 2 2 2 2 3 2 2 2 2 2 & # X # # # X # # # X X # # X # X # # # X X X N V.C.A * X & X # # X # # X & # X X X # # # # X X # # X # X # # X & X # # X # X # # X # X X # # # X X # # X # # # # X X & # X # X # # # # # # # X # # X X X # # X X # # X X X # # X # # # # # X 1 G fXe.3 $ 1 9 1 # X t i.6XwXy.t X 0 uXy.9 X 0 a.6XwXi.D X # % 2.Q.eX(.a.a.tXhXsX6X8.2 X # X 8 Q.>.0.(.wXi.e # X >.U.t a.wX0.2 9 a._.wXi.G X # >.U.wXwXU.J 1 # G U.wX(.q.8 D Q.hXfXuXU.G X o # # # X # # X # X # # X X # # X X # # # X # X & X X & X X # X # # X & X # # X # X # # X # X X # # # X X # # # X # & # X X # # X X & X # X # # # # X # # X X # # X # # X # # # # B V.C.N $ # X # X # # X # & # X X # X # # X X # # # # # # X X # # # # 1 $ % & % & % * & & * % & * & & & & $ y s f.p s f.i # & % & % * $ 1 $ $ $ & * * # & & % $ # $ $ $ $ & $ P P , & & * $ % % & * * % & & $ * $ % P N.|.V B P O.{.B.= * $ % * % $ % $ 1 $ & * % $ * & & % & * $ 1 $ & & & $ # # # X # # X # X X # X X # X P C.S.%X%X%X%X%X%X%XS.V.V # # X X   6.wXwXuXD o # # 9 tXwXwX9.o 2 Q.Q.R o X X # o 8.wXwXsX>.1 X 9 q.wXt   8.eX6.1 # #   F rXa.9 X # # X # # X # # o # # P U # # # ] XX%.# o # I I # # # X # o # % t eXeXQ.a.% X   8.6Xq.1 X % q.tX0.1 X 6.wXQ.e % # % >./.eX0 o y.wX2.# # # o >.eXe.3 X # o e dXq.8 # # X # # X X # # ",
"2 3 2 2 2 3 2 Z.5X>X>X>X>X>X>X5X5X5X5X5X5X5X5X5X5X5X5X>X=.q 2 2 2 2 w =X5X5X5X5X5X5X>X,X,X9X,X,X5X5X5X5X>X>X>X>X>X>XA.C 2 2 2 2 7 S.5X>X>X>X>X,X..2 2 2 2 2 2 2 2 2 2 2 2 2 2 2 2 2 2 2 2 7 2 2 3 2 3 2 2 2 0 | %X5X5X>X>X5X5X>X>X>X>X>X>X>X>X,XoX~ 8 3 2 7 Y =.=X*.*.-.Q Z Z.| w 2 2 2 3 2 2 2 2 2 3 2 2 3 2 2 3 2 2 2 2 2 2 2 2 2 2 2 2 2 2 2 2 2 2 2 2 2 2 2 2 2 2 2 2 2 3 2 2 2 2 2 2 2 2 2 2 2 2 2 2 2 2 2 2 2 2 2 2 2 2 2 3 2 2 2 2 2 2 2 3 2 2 2 2 2 2 2 2 2 2 3 2 2 2 2 2 2 2 2 2 2 2 2 2 2 4 2 2 2 2 2 2 2 2 7 2 2 2 2 2 2 7 2 2 2 2 2 2 2 2 2 2 2 2 2 2 2 2 2 2 2 2 2 2 2 2 2 3 2 2 2 2 2 2 7 2 3 2 2 2 2 2 2 2 2 2 2 2 2 2 2 2 2 2 2 2 2 2 2 2 2 2 7 2 2 2 2 2 2 2 2 2 3 2 2 2 2 2 2 2 2 2 2 3 2 2 2 2 2 2 2 2 2 2 2 2 2 2 2 2 2 2 2 2 2 2 2 2 2 2 2 2 2 3 2 2 3 2 2 2 2 2 2 2 2 2 2 2 2 2 2 2 2 2 2 2 2 2 2 2 2 2 2 2 2 2 3 2 2 2 2 2 2 2 3 2 3 3 2 2 2 2 2 2 2 2 2 2 2 2 2 2 2 2 2 2 2 2 2 2 2 2 3 2 2 2 2 2 2 2 2 2 2 2 2 2 2 2 2 2 7 2 2 7 2 2 2 2 9 2 2 2 2 2 2 2 2 2 2 2 2 2 2 7 2 1 $ # # # X X # X # X # # # X # X # # # X # # # B V.#.P # # # X # # X & X # # X # # # # & X X & # # X X & # X # # X # # X # X # # # # # # X & # X X # # # X # # X # # # # X # # # X # X X # # X # # X # # # & X # # # # X & # # # X # # X # X # # # D dXp.9   X # X X D i.6XI.U.6Xi.7 0 uXy.9 e y.6XU.p.6Xp.9 2 2.(.(.p.p.q.2.eXsX(.e.3.1 X # X 9 sX6XU.i.Q.eXU.9   8.dXU.U.I.>.t e.(.U.U.(.U.t t /.^.p.p.p.3.% J U._.p.U.wX0.D a.dXeXT.6.e # # # # # X # X X # # # X # # # # # # # X # X # # # # # X # # # X # # X # # X # X # # # # # # X # # X X # # # X # X # X # # # # X & # X X # # # # X # # X & # # X # X # # X # X # # & B #.C.N # X & X # # X # X # # # # & X # # # # X # X X # # X # # $ 1 1 * & * $ * * $ % & % * & % $ * & & # p f.s - g f.g X * $ * * $ 1 * & * & & & # * = : , , < , , < , > , } $.o.> $ & * & * & % & $ * % & & $ % P N.}.B.B.B.|.{.I 2 # $ * & & * & * $ 1 $ 1 & * $ % * * & % 1 $ % * & & # # # X X # # X # # # # # # % X I %.` ] { ] ] ] ] ] ' *.P . # X # X 2.(.p.sX2.2 X % >.tXQ.(.0.o 2 /.E.t   o o X o 8./.a.tXQ.D X 9 q.eXt   6.eX6.% X #   F yXa.0 X # # X # X # # # # # o P I X # # ] XX%.# # # W I X X # X # # # 2 0._.a.a.eX3 # o 8.6X8.# o # a.tX1.% % E.eX,.o # # # % 8.gX,.% y.wX1.% X # o >.eXe.3 X # X t dXq.8 X X X # # X # # X ",
"2 3 2 2 3 3 8 Z.5X>X>X>X>X>X>X>X>X>X>X>X>X>X>X>X>X>X>X=X=.8 2 2 2 2 e %X5X>X>X>X>X>X>X>X>X>X;X>X>X>X>X>X>X>X>X>X>X=X..0 2 2 2 2 7 S.,X>X>X,X>X,X .2 2 2 2 2 2 2 2 2 2 2 2 2 2 2 2 3 2 2 2 3 3 2 2 2 2 2 2 2 T Z.>X>X>X>X>XXXZ.oX>X>X>X>X>X>X>X,X=X*.r 2 w ) C.=X*X| C Z S *.=.A 2 2 2 2 2 2 2 2 2 2 2 2 2 2 2 2 2 2 2 2 2 7 2 2 2 2 2 2 2 2 2 2 2 2 2 2 2 2 2 2 2 2 2 3 2 2 2 7 2 2 7 2 2 9 2 2 2 2 2 2 2 2 2 9 2 2 2 2 2 2 2 2 2 2 2 7 2 3 2 2 2 2 2 2 2 2 2 2 2 2 7 2 2 2 2 3 2 2 2 2 2 2 2 2 2 2 2 2 2 2 2 2 2 2 2 2 2 2 2 2 2 2 2 2 2 2 2 2 2 2 2 2 2 2 2 2 2 2 2 2 2 2 2 2 2 2 2 2 3 2 2 2 2 2 2 2 3 3 2 2 2 2 2 2 2 2 2 2 7 2 2 2 3 2 2 2 2 2 2 2 2 2 2 2 2 2 2 2 9 2 2 2 2 2 2 2 2 3 2 2 3 2 2 2 2 2 2 2 2 2 2 2 2 2 2 2 2 2 2 2 2 2 2 2 2 2 2 2 2 2 2 2 2 2 7 2 2 2 2 2 2 2 2 2 2 2 2 2 2 2 2 2 9 2 2 2 2 2 2 2 2 2 2 2 2 2 2 2 2 2 2 3 2 2 2 2 2 2 3 2 2 2 2 2 2 2 2 2 2 2 2 2 2 2 2 2 2 2 2 2 2 2 2 3 2 7 2 2 2 2 2 2 2 2 2 2 2 2 2 2 2 2 2 2 2 2 2 2 2 2 2 2 2 2 2 2 2 2 2 2 2 2 2 2 2 2 $ # # X # X # # # # X # # # # X # # # X # # # N #.V.P # #   # # X X # X # # # X X # # # X # # X # X # # # X # # # # X X # # & # X X X # # # X # # # X # # X # X X # X # X # X X & # # # X # # X X & X # & X X # X # # X # X # # # X # X # X X # X # 8 /.eXi.J 8 X # X q.eX8.2 2 U._.1.e uXy.9 6.eXq.3 2 i.6X8.9 eX(.,.2 8 9 % U.(.>.# # # # # X 0 sXtX8.2 t i.fX,.o 8.fXeX>.2 X 2.eXe.9 2 a.wXq.>.dXq.2 2 t 8 % p.wX2.2 9 (.Q.3.F eXa.9 X X X # X # # # X # & # X X 1 # X X X & # X X # # # # X # X # # # X # # # # X X # # & # X X X X & # # X # # X & # X # # X & X & # X # # # # & # X X # X X # # X # X X # % X # # X #   # # # N C.=.P 2 X # # # # X # X # & X X # X # # X # X # # X # & # & & $ $ 1 % % & * % 1 $ * % & & & $ $ & & - g g.g y i f.s y & 1 % & $ * % & $ $ # * * # B [ O.O.O.O.O.O.O.O.O.B.|.{.[ : & $ & $ * $ * % & % & & & % P N.}.$.$.$.N.N.o.: $ $ $ 1 * % & $ & * 1 $ % * % & % & * & * * & % & # # # # # # # # # X # & X X % # X I ] V P P I I I I I V ] P X # # # X 6./.e.wXi.0 X 0 a.Q.p.(.q.X 3 Q.wXp.6.6.6.t X 8./.8.9.uXq.1 7 e.eXt o 8.eX8.$ # # X F rXi.9 X # # # # # X X # X # o P U # # # ] XX%.# # # I P o # # # # # X 3 (.U.H 9.uXJ %   8.eX(.8.8.y.(.U.9 $ 2 _.wX0 # # # #   R dXq.3 a.wX2.% X # o >.eXe.3 # X X t dXq.3 X # # # # # # X # ",
"2 2 2 2 3 3 3 S.5X>X>X>X>X>X>X>X>X>X>X>X>X>X>X>X>X>X>X=X-.0 1 2 2 2 w %X5X>X>X>X>X>X>X>X>X>X,X>X>X>X>X>X>X>X>X5X>XS.C 2 2 2 2 2 9 D.,X>X>X>X,X5X .2 2 2 2 2 2 2 2 2 2 2 2 2 2 2 2 2 2 2 2 2 2 2 2 2 2 2 2 2 Q %X>X>X>X>XOX| C *.oX5X>X>X>X,X>X,X*XA.w w  .oX>X>X>X=.C e ..Z.T q 2 2 2 2 2 2 3 2 2 2 3 2 2 2 2 2 2 2 2 2 2 2 3 2 2 2 2 2 2 2 2 2 2 2 2 2 2 2 2 2 2 2 2 2 2 2 2 2 2 2 2 2 2 2 2 2 2 2 2 2 2 2 2 2 2 2 2 2 2 2 2 2 2 3 2 2 2 2 2 2 2 3 2 2 3 2 2 3 2 2 2 2 2 2 2 2 2 2 2 2 2 9 2 2 2 2 2 2 2 2 2 3 2 2 2 2 2 2 2 2 3 2 2 2 2 2 2 2 3 2 2 2 2 2 2 2 2 2 2 2 2 2 9 7 3 2 2 2 2 2 2 2 2 2 2 2 4 2 2 2 2 2 2 2 2 2 2 2 2 2 2 2 2 2 2 2 2 2 3 2 3 2 2 2 2 2 2 2 2 2 2 2 2 2 2 2 2 2 2 2 2 2 2 2 2 2 3 7 2 2 7 2 2 2 2 7 2 2 2 2 2 2 2 2 2 2 2 2 2 2 2 2 2 2 3 2 2 2 2 2 2 2 2 2 2 2 2 2 2 2 2 2 2 2 2 2 2 2 2 2 2 2 2 2 7 2 2 2 2 2 2 2 2 2 2 2 2 2 2 2 2 2 2 2 2 2 2 2 2 2 2 2 2 2 2 2 2 2 2 2 2 2 4 3 2 2 2 2 2 7 2 2 2 2 2 3 7 2 2 2 2 2 2 2 2 2 2 2 2 2 2 2 2 2 2 2 2 2 2 3 2 2 2 2 1 $ X # # X # & X X # X # # X X # # # X # # . # : %.oXW # X # # X # # # X & # X # # # # X X & X # X # # # X # X # X X # # # # X X # # # & X X # X # X # # # X & # X & # X # & X # # X # X # & X # # # X # # X # # # X # # X # # X X # # # X # # # # X # % G ^.tX_.q.D 1 2 W.pX>.G D i.wXp.9 pXy.e i.sX,.G D y.wXQ.G fX9.1 X # # X I.(.>.# # X # X X 0 sXU.t o X D fXq.2 4.sXa.2 o % a.dX2.F D 0.6X^.J tXp.G 7 # # 2 6XwXR G G I.eX0.t wXe.9 X # # # X # X # # # X # # # X # # # # X # X & X & X # X # # # X # X # X X # # # # X X # # # # # X # X & X # # X # # X # # X # X # X # X X # X # # # # & X # # X # # # # X & X # # # # # # # # P oX%.: X # X X # # # X # X # # # X # # X # # # X # # # & 1 & $ 1 $ * $ * & & $ 1 $ * $ * & $ * & & y s g.s g g f.f.i & $ * & % & % * * # * * # * P $.|.|.|.|.|.|.|.|.|.}. X X$.B * * * 1 $ 1 & % * * & & & % P B.N., = : I N.|.P = $ 1 $ & % * 1 $ % $ * & & % * $ * $ % % & * $ $ # # X X # # X X # X # X # # X # X Q #.Z.XXS.S.S.S.S.S.Z.#.P X X # X X 2.(.q.w._.>.o G wX2.e.(.0.o 2 (.dXdXuXuXeX,.2 6.(.6.9 _.(.3.9 q.wXt o 8.eX8.$ # # X F eXa.9 X # X # X # # # # # # # P I # X # ] oX{ o # # I I # # # # X X # D sXq.% R wXa.3 o 8.uXfXuXpXsXwX2.2 # 9 eX(.8 # X X #   F sXi.7 e.wX2.# # # X >.eXe.2 X # X e dXe.9 X % # X X # X % X ",
"2 2 2 2 2 2 3 Z.5X5X5X>X>X>X>X>X>X>X>X>X>X>X>X>X>X>X,X=X-.0 2 2 2 2 e %X,X>X>X>X>X>X>X>X,X>X>X>X>X>X>X>X>X>X>X>X.X! 9 2 2 2 2 2 7 S.,X>X>X>X,X,X..2 2 3 3 2 2 2 2 2 2 2 2 2 2 2 2 3 2 2 3 2 2 2 2 2 2 2 2 2 T Z.>X>X*XoX .3 8 W XX5X>X>X>X*X*X>X>XoXC ( XX5X>X>XoX| Z ..S.W 9 2 2 2 3 2 2 2 2 2 2 2 2 2 2 2 2 2 2 3 2 2 2 3 2 2 2 3 2 2 2 2 2 3 2 2 2 2 2 2 2 2 2 2 2 2 2 3 2 2 2 2 3 2 2 2 2 2 2 2 2 2 9 2 2 2 7 2 2 2 2 2 2 2 2 2 2 2 2 2 2 2 3 2 2 3 2 2 2 2 2 2 2 2 2 2 7 9 2 2 2 2 2 2 2 2 2 2 2 2 2 9 2 2 2 2 2 2 2 2 2 2 3 2 2 2 2 2 2 3 2 2 2 2 2 2 2 2 2 2 2 2 9 2 2 2 2 2 2 2 2 2 2 2 2 2 2 2 2 2 2 2 2 2 2 2 2 2 2 2 2 2 2 7 2 2 2 2 2 2 7 2 3 2 2 2 2 2 2 2 2 2 2 2 2 2 2 2 2 2 2 2 2 3 2 2 2 2 2 2 2 2 2 2 2 2 3 2 2 3 2 2 2 2 2 3 2 2 2 2 2 2 2 2 2 2 2 2 2 2 2 2 2 2 2 2 2 2 2 3 2 2 2 2 2 2 2 4 2 2 2 2 7 2 2 2 2 3 2 2 2 2 2 2 2 2 2 2 2 2 2 2 2 2 2 2 2 2 2 2 2 2 2 2 2 2 2 2 2 2 2 2 2 2 2 2 2 2 7 2 2 2 2 2 2 2 2 2 3 2 2 2 3 2 2 2 3 2 2 2 2 2 2 2 2 2 2 2 2 2 2 2 2 2 2 1 $ # X # # # X # X # # X # # X & X # # X # # # X = ] .XI = # # # X # # # # X X # X # X # # # X # # X # X # # # # X # # # # # # X X # # # # X # X # # # X & # X # # # X X & X # # # X # # # # X # X # X # # # X # # X & # X # X # # # # X # # # X # X # # # # 2 ,.Q.sXeXJ e Q.lXsXdXsXfXsXp.9 pXe.J U.lXdXsXsXdXsXQ.1.fX2.o # X # # U./.>.% X X # # X 9 pXi.9 X X 9 sXi.9 8.tX2.2 # 7 P.lXdXsXaXdXsXQ.7 e.tXeXq.t 1 D wXlXdXsXdXfXsX8.D wXy.0 o # # # # # # # # X # # X # X # # # # X & X # # # X # X # # # X # # # X X # # # # X X & X # # # # X # # X & X X # X X & X X # # # # X # # # # X X # X # # X & # X # X # # # X # # X # # # # * I S.} : X # # # X & X # & X # # X # # # # X & # # X # $ $ * & * & & $ 1 $ * % & % & * % & * * % & & f f.f.g.f.f.g.g.s * & & & $ 1 $ % & & * $ $ $ , I [ [ [ [ [ o.[ [ [ $.|.N.I * & & % & 1 $ % 1 $ 1 % & * % P N.N.: & & < O.|.} : # $ & % * $ & * % % & * & * % % & % $ % 1 1 1 1 X # X # # # # X # # # X # # # X X P =.V.Z.C.Z.B.Z.Z.C.#.=.Y X # X # X 2.6X8.G uX0.% 2.pXt 8._.0.X 2 Q.(.2.0 t 0 2 X 8.(.2.2 ,.eXp.t q.eXt   6.eX8.1 X # X D eXa.9 X # # # # # # X o # # o Y U # # # ' S.*.# # # I Q # # # X # X 2 q.sX2.2 R W.eX0 o 8.wXa.D t >.^.tX1.1 9 wX(.9 # # X #   G sXa.3 a.wX2.% X # o >.eXe.2 X # X e dXq.8 X # X & # X & X # ",
"2 2 2 2 2 2 7 Z.9X,X>X>X>X>X>X>X>X>X>X>X>X>X>X>X>X>X,X=X=.q 2 2 2 1 w %X,X>X>X>X>X>X>X>X,X,X>X>X>X>X>X>X>X>X>X.X! q 2 2 2 2 2 2 9 S.,X,X>X>X,X5X .1 2 2 2 2 2 3 2 8 2 2 2 2 2 3 2 2 2 2 2 2 2 2 2 3 3 2 2 2 7 W .XoXC.! q 2 8 &.%X>X>X>XoX~ w *.>X=X~ T Z.5X=XC.T A *.A.! 9 2 2 2 2 2 2 2 2 2 2 2 3 2 2 2 3 3 2 2 2 2 3 2 2 2 2 2 2 2 2 2 2 2 3 9 2 2 2 2 2 2 2 2 2 2 2 2 2 2 3 2 2 2 2 3 2 2 2 2 2 2 2 2 2 2 2 2 2 2 2 2 9 2 2 2 2 2 2 2 3 2 2 2 2 2 2 2 2 2 2 2 2 2 2 2 2 2 2 2 2 2 2 2 2 2 2 2 2 2 2 2 2 2 2 2 2 2 2 2 2 2 2 2 2 2 2 2 2 2 2 2 3 2 2 2 3 2 2 2 2 2 2 2 2 2 2 2 2 2 2 2 2 2 2 2 2 2 2 2 2 2 2 2 2 2 2 2 2 2 2 2 2 2 2 2 2 2 2 2 2 2 2 2 2 2 2 2 2 2 2 2 2 2 2 3 2 2 2 2 7 2 2 2 2 2 2 2 2 2 2 3 2 2 2 2 2 2 2 2 2 2 2 2 2 2 3 2 9 2 2 2 2 2 2 2 2 2 2 2 3 3 2 2 2 3 2 3 2 2 2 2 2 2 2 2 2 3 3 2 2 2 2 2 2 2 2 2 2 2 3 2 2 2 3 2 2 3 2 2 3 3 2 2 2 2 7 2 2 2 2 2 2 2 2 2 2 2 2 2 2 2 2 2 2 2 2 2 2 2 2 2 2 2 2 2 2 2 2 2 2 2 2 2 2 2 3 2 2 2 3 2 2 2 2 2 2 2 2 2 2 2 2 2 2 2 # # X # # X # X # # # X & # X # # X # # X # X # X # : ] Z.U * # # # # X X # # # # X # # # X # X # # X X & # X X # # # X X X X # # # # X X # & X & # X X & X # X # X # # # # # X # # & X X X X & # X # # # X # X # # X X # X # & X 1 X # X # X X & # X # X # X # 1 8 2.sXp.>./.sX3.R R R R 0 9 uXy.J Q.sX>.R R 3.J D ,.fX,.X # X # o U.(.>.X # # # # X e tXi.9 X X 0 sXi.3 6.tX1.1 X 9 U.fX,.R 3.3.R t # 2 F e.wXrX>.G rX6XR R R J R 7 D eXy.9 o # o # #   # o # # X X & # # # X X # # X # # X # # # X # X # # X & # # # # X X # # # X & X X X # & # X # # # # X & # # # # # X X & # # X X # # # # X # # X X # X # # # X # X # # X #   # * I Z.] , & X # X # # X # # X X # # X # X X # # X X # # 1 & 1 $ % % $ 1 1 & % & % * $ & % $ * % & $ * - s g.g p p p i f.s y - % * % * & * * % & % 1 $ * = = = = = * * * * = [ @.I = # & $ $ * $ * * $ & $ * % $ % P N.N.= & # , O.|.U : % * & * & % & % * * & $ % * & * & * * 1 1 # X # # # & X X X X & # & X # # X # # # I [ , B B B , B B B C  .Y X # # X X 2./.2.4 (.p.,.y.Q.8 8.(.q.o 2 (.W.R X O # # X 8.(.6.% 1 U.6Xy.q.eXt   8.wX8.1 # # X G tXy.9 X # X X X X # # # # # o P | X # # U C.} # # # I I X X X # # X t _.lXgXsXfXhXhX3.% 6.6Xq.1 # $ 1.(.(.2 % _.wXD # # X # X >.fX8.2 q.wX2.# # X o ,.rXq.2 X # X t dXq.8 X X # X # # # # X ",
"2 2 3 2 2 2 7 S.5X5X5X;X5X5X5X5X5X5X5X5X5X5X5X5X5X5X5X=X=.q 2 2 2 2 w =X5X5X5X5X5X5X5X5X,X,X,X,X5X5X5X>X>X.X*.W q 2 2 2 2 2 2 2 7 S.5X,X,X,X,X5X&.2 2 2 2 2 2 2 2 2 2 2 2 2 2 2 3 2 2 3 2 2 2 2 2 2 2 2 2 2 3 8 S Y Z 8 2 2 8 Z.>X>X>X>XZ.Z 4 ( %X=X*.C *.A.( A ~ C.=.! 0 2 2 2 2 2 2 2 2 2 2 3 2 2 2 2 2 2 2 2 2 2 2 2 2 2 2 3 2 2 2 2 2 2 4 3 2 2 2 2 2 2 2 2 2 3 2 2 2 2 2 2 2 2 2 2 2 2 2 2 2 2 2 2 2 2 2 2 2 2 2 2 2 2 2 2 2 3 2 2 2 2 2 2 2 2 2 2 2 2 2 2 2 2 7 2 2 2 2 2 2 2 2 2 2 2 2 2 2 2 2 2 2 2 2 2 2 2 2 2 2 2 2 2 2 2 2 2 3 2 2 7 2 2 2 3 2 3 3 2 2 2 2 2 2 2 2 2 2 2 2 2 2 2 2 2 2 7 2 2 2 2 7 2 2 2 2 2 2 2 2 2 2 2 2 2 2 2 2 2 2 2 2 2 2 2 2 3 2 2 2 2 2 2 2 2 2 2 2 2 2 2 2 2 2 2 2 2 2 2 2 2 2 2 2 2 3 2 2 2 2 2 2 2 2 2 4 3 2 2 2 2 2 2 2 2 2 3 2 2 2 2 2 2 2 2 2 2 2 2 2 2 2 2 2 2 2 2 3 2 2 2 2 2 2 9 2 2 2 2 2 2 2 2 2 2 2 3 3 2 2 2 3 2 2 2 2 2 2 2 2 2 2 2 2 2 2 2 9 2 2 2 2 2 2 2 2 9 2 2 2 2 2 2 2 2 2 2 2 2 2 2 2 2 2 2 2 2 2 2 2 2 2 2 2 2 2 2 2 2 2 2 9 2 2 1 # # # # X X # X # # # X X # # # X X # # # # # # # X X # : ] C.[ $ # # X X & X # & X # # # X & X # # # # # # # X # # # X X & # # X # # X X & X # # X # # X X & X # # X # # # X X # # X # # # # # # X # # # X # # # # # # X # # # # # X # # # # X # # # # X # X # # X o 0 _.Q.R T.tXt % % % % # 9 sXe.t P.sXt % % $ # % J fX8.% # # X # I.(.>.# # X X # X e sXU.t X # D fXq.2 8.tX1.2 X 2 i.dXG % # # % # # X % 7 6.6XU.G wX(.9 % % % % X F wXe.9 o # # # # o # # #   # # # X # X X & X X # # X # X # X & # # X X & X X # & X # # X # # X # # # # # X # # X X # X # # # X # X # # X X # X X & X # & X # # # # # X # # # X # X # # # # # # # U C.] , # X # # # X X # # # X # # # # # # # # # X # # $ & 1 $ % * * $ * $ * $ 1 * $ 1 * % % & * & % * p s s p & & & y g f.f * 1 $ $ & $ * * & * % $ 1 * % # # # $ # # # # & B B : # $ * $ % % & & & % & * & * 1 % P N.{.I P I O.{.{.P = $ % & * & $ 1 & * * % * & % $ 1 $ % & % # # # X # X # # # # # # X X & X X & X X X P V.C.Z.Z.Z.Z.Z.Z.Z.C.#.P o X # # o 2.6X6.1 q.Q.Q.Q.8.1 8.(.q.X 2 (.E.G X X X # X 8.(.2.% X J (.tXp.eXt o 1.wXa.1 X X X J dX8.2 X # # # # # X # # # X o P ! # # # I %.I # # # I I o # # # X # >.dXW.y.q.0.p.sXa.2 8.6X0.1 # X J (.wX2 X U.eX8.# # # X 8 e.fXJ # 8.wXq.% # # X 2.sX4.1 # # X t dXe.8 # # # X X # X X # ",
"2 2 2 2 7 2 7 ) &.&.-...&.&.&.&.&.&.&. ...&. .*.*...&...W 8 2 2 2 3 7 ..*.&. ...*...&.&.&.&.....&.&.&. ...~ w 2 2 2 2 2 2 2 2 2 7 ..&...&.&.&.&.S 2 2 2 3 2 2 2 2 2 2 2 2 2 2 2 2 2 2 2 3 2 2 2 2 2 2 2 2 2 2 2 2 2 2 2 2 2 8 XX>X>X5X=X=.e 1 ~ XX>XA.C w T T  .=.*.W 7 2 2 2 2 3 2 2 2 2 2 2 2 2 2 2 2 2 2 2 2 3 2 2 2 2 3 2 2 2 2 2 2 2 3 2 2 2 2 2 2 2 2 2 2 2 2 2 2 2 2 2 2 2 2 2 2 2 2 3 2 2 2 2 2 2 2 2 2 2 2 2 2 2 2 2 2 2 2 2 2 2 3 2 7 3 2 2 2 3 2 2 3 2 2 2 2 2 2 2 2 2 2 2 2 2 2 2 2 2 2 2 2 2 2 2 2 7 2 2 9 2 2 2 2 2 2 2 2 2 2 2 2 2 3 2 2 2 2 2 2 2 2 2 2 2 2 2 2 2 2 2 2 2 2 2 2 2 2 2 2 2 2 2 2 2 2 2 2 9 2 2 2 2 2 2 2 2 2 2 2 3 2 2 2 2 2 2 2 2 2 2 2 2 2 2 2 2 2 2 2 2 2 2 2 2 2 2 3 2 3 2 2 2 2 3 2 2 2 3 2 2 2 2 2 2 3 2 2 2 2 2 2 2 2 2 2 2 2 2 2 2 2 2 2 2 2 2 3 2 2 2 3 2 2 2 2 2 2 2 2 2 2 2 2 2 2 2 2 2 2 2 2 2 2 2 2 2 2 2 2 2 2 2 2 2 2 2 2 2 2 2 2 2 2 9 2 2 2 2 2 2 2 2 2 2 2 2 2 2 2 2 2 7 2 2 2 3 2 2 2 2 2 2 3 3 2 2 2 3 2 2 2 2 2 2 2 2 2 2 2 2 2 2 2 2 % # # X # # # # # # X # X & X X # # # # X X # X X # # # # # < O.A.` = # # # # X # X # # X X & X # # X X & X X X & # X # # # X & X # # # # # # X # # X X # # # X # # X # # X X # # # X X # X # # X # X # X X & X X & X X # # # # X X # # X X # # # # X X # # $ 8 t 8 % % >.tXi.0 q.tXa.9 % 3 9 3 0 tXe.9 8.pXp.0 1 2 e 9 0 tX(.R % 3 9 % i.wX0.% % # # X X 9 sXtX8.2 9 y.dX>.o 8.tX1.1 X X 6.uXp.t % 2 9 9 9 t 7 o G /.Q.e I.tXq.2 % 7 0 % D wXQ.t # %   # # # # o # # # X # X # # # # # # # X & # X # # # X X # # X # X # X # # X & X # # X # # X # X X # # # # # # X # X # # X # # # # # # # X # X # # X X # # # # X # X # # # X X # # * [ C.%., # # # # X X # # # X # # # X X & X X X X # # # $ & $ & & * & & % % * $ 1 $ & 1 $ * & * & % $ & * g g.g # $ $ $ # i f.s - % * 1 $ 1 & $ % * & * & % & $ * * $ * $ $ * # = & % $ * # * & * * % & $ * % & & % # I N.#XN.N.N.{.B.[ = $ 1 * % $ % & $ 1 $ & $ % % & * $ 1 * & # # X # # # X # X # # X # X # X # # X # X % P V.V.Z.Z.Z.Z.Z.Z.Z.=.=.A X # # # o 6.6X8.2 F /.hX6Xt & 8._.q.X 2 Q.E.R X # X # X 8.(.2.& # $ 0.pXtXeXt o D I.rX>.2 % D I.sXJ $ X # X # # X # # X # # X P I X o # U C.` o o o I W X X # # X 8 q.sXR 2 2 2 t Q.wXF 2.6Xq.% # 3 q.eXU.1 X >._.wXR 2 % 8 8.eX^.9 o J Q.wXG 1 1 J Q.tXt $ X X X e dXq.8 X X # # # # # # # ",
"2 2 2 2 2 2 2 2 4 % % % % 2 % 2 2 4 % 2 2 1 2 1 1 2 1 2 2 2 3 2 2 2 2 2 1 2 1 2 2 2 2 % 4 % 2 2 2 1 2 1 2 2 2 2 2 2 2 2 2 2 2 2 2 2 % 4 2 % 2 % 3 2 2 3 2 2 2 3 2 2 2 2 2 2 2 2 2 2 2 3 2 2 2 3 2 3 2 2 2 3 2 2 2 2 2 2 2 2 q XX5X5X>X=X| q 2 Z =.>X%X( T ( *.C.&.w 3 3 2 2 2 2 2 3 2 2 2 3 2 2 2 2 2 2 3 2 2 3 2 2 3 2 2 2 2 2 2 2 3 2 2 2 2 2 2 2 2 2 2 2 2 2 2 2 3 2 2 2 3 2 2 2 2 2 2 2 2 2 3 3 2 2 2 2 2 2 2 2 2 2 2 2 2 2 2 2 7 2 2 2 2 2 3 2 2 3 2 2 2 3 2 2 2 2 2 2 2 2 2 2 2 2 2 2 2 2 2 2 2 2 2 2 2 2 2 2 2 2 2 2 2 2 2 2 2 3 3 2 2 2 2 3 2 2 2 2 2 2 2 2 2 2 2 2 2 2 2 2 2 2 2 9 2 2 2 2 2 2 2 2 2 2 2 2 2 2 2 2 2 2 2 2 2 2 7 2 2 2 2 3 2 2 2 2 2 2 2 2 2 9 2 2 2 2 2 2 2 2 2 7 2 2 2 2 2 2 2 2 2 2 2 2 2 3 2 3 2 2 2 2 3 2 2 2 2 2 2 2 2 2 2 2 2 2 2 2 2 2 2 2 2 2 2 2 2 2 3 2 2 2 2 2 2 2 2 2 2 2 2 2 2 2 2 2 2 2 2 2 2 2 7 2 2 2 2 2 3 2 3 2 2 2 2 2 2 2 2 2 2 2 2 2 2 2 2 2 2 2 2 2 2 2 2 2 2 2 2 2 2 2 2 2 2 2 3 2 2 2 2 2 2 3 2 2 2 2 2 2 2 3 2 2 2 9 2 2 2 2 2 2 2 1 % # # X # # # X X X # # # X # & X # # # & X X # # # # X # # X X , | &.= & X # # # X # # X # # # # # # X X # # # # X X # X # # X X # # X X X # # X # # # # X X # # # # X # X & # X # # # # X # # X # # # X # # # # # # X X & X X X & # X # X # # X X # # # # X 1 J a.a.q.e.U.wX>.$ G W.eXp.q.e.9.D e pXa.9 t U.eXp.q.e.9.G % q.wXQ.q.q.8.2 1._._.8.J 1 # # X 9 sXuXW.q.p.wXE.0   8.pX1.1 # X t p.eXp.w.a.9.3.G a.i.0.I.6X9.3 R Q.wXa.q.a.8.t 9 p.tXI.,.e # # o # # # # # # # X # # # X X # # X # X X # # X # # # # X X & # X & X X # # # X X # # X # # # # X X # X # # X & X # # # X # # X X # # # X # # X # & X X # # X # X # # # X # . # = ] ` B   # # X # # # # # # X X # # X # # # # # # # # & & $ 1 * * % * % & & & $ 1 $ * $ % $ & * $ $ 1 & * i g p # $ $ % % ; f g - % * $ 1 * % 1 $ & * % * $ & % * $ * * & & * & 1 $ & * & $ 1 $ * * % * % & * & & * $ B } #.@.@.@.} I : * $ & * & $ 1 * * % & 1 $ 1 * % * 1 % $ # # X # # X X # # # X X # # # # # # X & # X X U =.` ' ' ' ] ] ' ' ` V.I X X X #   6.6X8.1 1 Q.lX^.$ # 9._.q.o 2 (.eXU.8.9.9.R 1 8.6X6.1 # X t E.lXuXt X % 1.eXT.e.w.U.6XI.2 X # # X # # # X X X # # X Q ] B B B ] C.] B B C &.! X # # #   R (.(.2 o # X 2 2.sX6.8.eX_.q.0.a.6X_.3.% # 1 9.wX!.e.9.a.(.(.J $ X 1 8.eXT.e.e.E.6Xy.1 # # # X t dXy.3 X % X & X X X # & ",
"3 2 2 2 3 2 2 3 2 2 9 2 2 2 2 2 2 3 3 2 9 3 2 2 2 2 2 2 2 2 2 2 2 2 2 2 2 2 2 2 2 2 2 2 2 2 2 2 2 3 2 2 2 2 2 2 3 2 2 2 2 2 2 3 2 2 3 3 2 2 3 2 3 2 2 2 3 2 2 2 2 2 3 2 2 2 2 2 2 2 2 2 2 2 2 2 2 2 2 2 2 2 2 2 2 2 2 3 2 2 8 =.oX=X=XA.w 3 2 3 ~ oX=X=.C.Z.*.S 3 2 2 2 2 2 2 3 2 2 2 2 2 2 2 2 2 2 3 2 2 2 2 2 2 2 2 2 2 2 2 3 2 2 2 2 2 2 2 2 2 2 2 2 2 2 2 2 2 2 2 2 2 2 2 2 3 2 2 2 3 2 2 2 3 4 2 2 2 2 2 2 7 2 2 2 2 2 7 2 2 2 2 2 2 2 3 2 2 2 2 2 2 2 2 2 2 2 2 2 2 2 2 2 2 2 2 2 2 2 2 2 2 2 2 2 2 2 2 2 2 2 2 2 2 2 2 2 2 2 2 2 2 2 2 3 2 2 2 2 2 2 2 2 2 9 2 2 2 2 2 2 2 2 2 2 2 2 2 2 2 2 2 2 2 2 2 2 2 2 2 2 2 2 2 2 2 2 2 2 2 2 2 9 2 2 2 2 2 2 2 2 2 2 2 2 2 2 2 9 2 2 2 7 2 2 2 2 2 2 2 7 3 2 2 2 2 2 2 2 2 2 2 2 2 2 2 2 2 2 2 2 2 2 2 2 2 2 2 2 2 2 3 2 2 2 3 2 2 3 2 2 2 2 2 2 2 2 3 2 3 2 2 2 2 2 2 7 2 2 2 2 2 2 2 2 3 2 2 2 2 2 2 2 2 2 2 2 2 2 2 2 9 2 2 2 2 2 2 2 2 2 2 2 2 2 2 2 2 2 2 2 2 2 2 2 2 2 2 2 2 2 2 2 2 2 2 2 2 2 2 2 3 2 2 2 2 2 2 2 2 2 2 2 2 2 2 1 X # # X X X # # # # # X # X # X & # X X X # # # # X # # X # # # # X X # X # # X # X # X # # X X # X # # # # X # # # # # & X # # # # X & # # & X # # X # # # # # # X # # # X X # & # X X X & # X # # X # # # X X # X # # # # # # # X # # # & X X # # & X X # # & D E.eXuXtXQ.>.1 X # t I.eXuXeXr.e 9 (.8.7 X e p.yXpXtXi.D # 2 9.6XpXeXa.2 2 q.eXeX8.2 X # X 9 pXi.I.eXtXE.D % o 1./.R 1 # X # 9 a.eXtXtXI.G D Q.tXtX6Xy.3 # % J T.tXtXyX9.9 % D ^.tXE.G   # # # #   # # X # X # X # # # X X & X # # # X # # X # # # # X X & # # # # X # # # & X # # X # # # # # & X # # X # # X X & X X # # & X # X # X # # X # & X # # # X # X # # # # # # # . # # # . & X X # X X # & X # # X # X X # & X # & * & $ * % & % $ $ * * % & $ 1 & & * $ 1 & & 1 $ & & & % # $ & % $ * $ $ $ $ % * & $ & % 1 & % * % $ 1 $ & & % % $ $ & $ % $ * % % $ 1 $ % & % * % * 1 $ $ * $ $ & $ * % & & & * & % $ & % $ 1 $ % & $ * $ * $ & $ $ 1 1 $ # # # X # # # # X # # & X X # X X # # X # & X U #.' ' ' ' ' } ` ' | #.Q X # # X o >.U.,.# X 9.Q.8.# # 2.U.2.X 2 p.tXsXsXsXuXi.8 ,.p.,.1 X # # R eX/.0 X # 1 K Q.tXtX6Xq.7 # # X # X # X # # # # # # . I V.' ' ] [ ' ' ` ] ` #.U X X # # X >.Q.6.2 X # # X 8 _.8.8.(.sXsXsXeXQ.,.# # X # 1 3.E.rXtXeXi.G # X # # 2 1./.rXtX(.8.2 # # X # X 9 wX6.3 X # # X # # # # X ",
"2 2 2 2 2 2 2 2 2 2 2 2 2 2 2 2 2 2 2 2 2 2 2 2 2 2 2 2 2 2 2 2 2 2 2 2 2 2 2 2 2 2 2 2 2 2 2 2 2 2 2 2 3 2 7 2 2 2 2 2 2 2 2 2 2 2 2 2 2 2 2 2 2 2 2 2 2 2 2 2 2 2 2 2 2 2 2 2 3 2 2 2 3 2 2 2 2 2 2 3 3 2 2 3 2 2 2 2 2 2 8 Z | =.=.S 3 2 2 2 w ! V.*.W w 3 3 2 2 3 2 2 2 2 2 2 2 2 2 3 2 2 2 2 2 3 2 2 2 2 2 2 2 2 2 2 3 2 2 3 2 2 2 2 2 2 2 2 2 2 2 2 2 2 2 2 2 2 3 2 2 2 2 2 2 2 2 2 2 2 2 2 2 2 2 2 2 2 2 2 2 2 2 2 2 2 2 2 2 2 2 2 2 2 2 2 2 2 2 2 2 2 2 2 2 2 2 2 2 2 7 2 2 2 2 2 9 2 2 2 2 2 2 2 2 2 2 2 2 9 2 2 2 2 2 2 2 2 2 2 2 2 2 3 2 2 3 2 2 2 2 2 2 2 2 2 2 2 2 2 2 2 2 2 2 2 2 2 2 2 2 2 2 2 2 2 2 2 2 2 2 2 2 2 2 2 2 2 2 2 2 2 2 2 2 2 2 2 2 2 2 2 2 7 2 2 2 2 2 2 2 2 2 2 2 3 2 2 2 2 2 2 2 2 7 2 2 3 2 2 3 3 2 2 2 2 2 2 2 2 2 2 2 2 2 2 2 2 2 3 2 2 2 2 2 2 2 2 2 2 2 2 2 2 2 2 2 2 2 2 2 2 2 2 2 2 7 2 2 7 2 2 2 2 2 2 2 2 3 2 3 2 2 2 2 2 7 2 2 2 2 2 2 2 2 2 2 2 2 2 2 2 2 2 2 2 2 2 2 2 2 2 2 2 2 2 2 2 2 2 2 2 2 2 2 2 2 2 2 2 2 2 2 2 2 2 2 2 2 2 2 2 2 % X # # # # # # X # # # # X # # X # X # # # # # # X # X X # X # # # # X # X # # # X # # X # # X X & X # X # # X X # X # & X X # X # # X # X X # X # # X X # X # # X X # X # # # X # X # # # X # # X & X X & # X # # # X X # # X # X # X X # X # # # X # X # X # # # $ 1 2 1 2 % $ # # # # % 1 1 2 # # # 1 % # X % % % 1 1 $ # # # # 1 % 1 % # # $ % 2 % # X # X e uXa.e 1 2 % # # X % 1 $ # # # X # % % 2 % % % # % 2 2 % % # X # # 2 % 1 1 % # # # % 2 % % # # # #   # # o # # & X X # & X # # X & # # # X & X X # X # # # X # X # # X # X X # X # # X X # X # & X X # X # X # # # & X # # X # X # X % # # # X & X X # X # # # X # X # . # # # # # . # # # X # # X # # # X & X & # # X # # X # & & $ * $ & % $ & & * % $ * * % * % & % * % $ & & $ & * % & 1 $ & & % & * & # & 1 & * * % $ $ & * & & % & * * % $ * $ 1 & & & * % * & * & * & * & & & % $ 1 & & & * & & $ & * & & & & * % $ & * & * $ * % & % & * % 1 $ 1 # # # X # X # # # # X X # X # # X # # X # # # # X # # # # $ $ # # # # $ * & X # X # # $ 1 $ X # % 1 % # # % % # # # # 2 1 2 2 2 % # $ 1 % # X # X % % 1 # # # # # % 1 1 % % # X X # X # # X # # # # X # . # $ $ $ # # # # $ # # & $ X # # # X & 1 % # X # X # # 2 % 1 1 2 2 2 1 % % X # # X # % % 1 2 1 % % # X # # # # % 1 1 1 $ # X # X # # # 1 1 # X # X & # # # X X ",
"2 2 3 2 2 3 2 2 2 2 2 2 2 2 2 2 2 2 2 2 2 2 2 2 2 2 2 2 2 2 2 2 2 2 3 2 2 2 2 2 2 2 2 2 2 2 2 2 2 2 2 2 2 2 2 2 2 2 2 3 2 2 2 2 2 2 2 2 2 2 2 3 2 2 2 2 2 3 2 2 2 2 2 2 8 2 2 2 2 2 3 2 2 2 2 3 2 3 2 2 2 2 2 2 2 2 3 2 2 2 2 8 r e w 3 2 2 2 2 3 8 w w 0 7 2 2 2 2 2 2 2 3 2 2 2 2 2 2 2 2 2 2 2 2 2 2 2 2 2 2 3 2 2 3 2 2 2 2 2 2 2 2 2 2 2 2 2 2 2 2 2 2 2 9 2 2 2 2 2 2 2 2 2 3 2 2 2 2 3 2 2 2 2 2 2 2 2 2 2 2 2 2 2 2 2 2 2 2 2 2 2 2 2 2 2 3 2 2 3 2 2 2 2 2 2 7 2 2 2 2 2 2 2 2 2 2 2 2 2 2 2 2 2 2 2 2 2 2 2 2 2 2 2 2 3 7 2 2 2 2 2 2 2 2 2 2 2 2 2 2 2 2 2 2 2 2 2 2 2 2 2 2 2 2 2 2 2 2 9 2 2 2 2 7 2 2 2 2 2 9 2 2 2 2 2 2 2 2 2 2 2 2 2 2 2 2 2 2 2 2 2 2 2 2 2 2 2 2 2 2 2 2 2 2 2 2 2 2 2 2 2 3 2 2 2 2 2 2 2 2 2 2 2 2 2 2 2 2 2 2 2 2 2 2 2 9 2 2 2 2 2 2 2 2 2 3 2 2 3 2 2 2 2 2 2 2 2 3 2 2 2 2 2 2 2 2 2 2 2 2 2 2 2 3 2 2 2 2 2 2 2 2 2 2 2 2 2 2 2 2 2 2 2 2 2 2 2 2 2 2 2 2 2 9 2 2 2 2 2 2 2 2 2 2 9 2 2 2 2 2 3 2 2 2 2 2 2 3 2 3 2 2 2 2 2 2 2 2 2 2 1 % X % # X X # # X # # X X # # X # # # X # X # # X # X # % X # # # X X # # # X X X # # X # # # X & # X & # X # # X & # X # X # # # X # # X # # # # X # # X & # X # # X & # X # X # # # X # X # # # X & X # # X X & X & X & X # # X # & X # # # X # X # # # X # # # X X # # # X X # X # # X X # # # # # X # # # # # # # # # # X # # # # # # # # X # # # X # # X # # 9 pXe.8 X X % # X # X # # X X # # # # # X # # # X X X X % % # # X # X # # X # # # X # X # # o # # o # # # # X X # # # # X # # X # # X X # # X # # # X # X # # # X # # X # # # # X # # X & # X # X # # # X # # # X X # # X # # # X # # # X X # # X # # # X # X # # # X # # # #   . # # # # . & X # # # X # X X # X # X & # X & & & & & & $ & & * % * & & % % * & & % * $ * & $ * & * & & * & $ 1 $ * * & % $ % $ $ & % & & * * % $ % & * * % * & 1 & & $ $ * % * & & $ % % * & % $ % * * & $ & $ * & & & 1 $ & & * & % * & * & % % $ 1 & % * * & % $ * & # # X # X # # # X X # & X # & X # # # X # # X X # #   # # # # # # # # # # # # X # # # X X # X # # # X # X X # # X # # # X X X X X # # X # X # # # X # X # # # # X # # # # # # # # # # # # X # # X X # # # # #   # # # # # # # # # # X # # X X # # # X % # X # # X X % X # X X X X # X # X # # # X % X # # # X # # # # X # # # X # # # X # # # X & X # X # # # # X X # # # ",
"2 2 2 2 2 2 2 2 2 2 2 3 2 2 2 3 2 2 2 2 2 2 2 3 2 2 3 2 2 2 2 2 2 2 2 2 2 3 2 2 2 2 2 2 2 2 2 2 2 2 2 2 2 2 2 2 2 2 2 2 2 2 2 2 3 2 2 2 3 2 2 2 2 3 2 2 2 2 2 2 3 2 2 2 2 2 3 2 3 2 2 2 2 2 3 2 2 2 3 2 2 2 2 2 2 2 2 2 2 2 2 2 2 2 2 2 2 2 2 2 2 2 2 4 2 2 2 2 2 3 2 2 2 2 2 2 2 2 2 3 2 2 2 2 2 2 2 2 2 2 2 2 3 2 2 2 2 2 2 2 2 2 2 2 2 2 2 2 3 2 2 3 2 2 2 2 2 2 2 2 2 2 2 2 3 2 2 2 3 2 3 2 2 2 3 2 2 2 3 2 2 3 2 2 2 2 2 2 2 2 2 2 2 2 2 2 2 2 2 3 2 3 2 2 2 2 3 2 2 2 2 2 3 2 2 2 2 2 2 2 2 2 2 2 2 2 2 2 2 2 2 2 3 2 2 3 2 7 2 2 2 2 2 2 2 2 7 3 2 2 2 2 2 2 2 2 2 3 2 2 2 2 2 2 2 2 2 7 2 2 2 2 3 2 2 2 2 2 2 2 3 2 2 2 2 2 2 2 2 2 2 2 2 2 2 2 2 2 2 2 2 2 2 2 2 2 2 2 2 7 2 2 2 2 2 2 2 3 2 2 2 2 3 2 2 2 2 2 2 2 2 2 2 2 7 2 2 2 2 2 2 2 2 2 2 2 2 2 2 3 3 2 2 2 2 2 2 2 3 2 2 3 2 3 2 2 2 2 2 3 2 2 2 3 2 2 2 3 2 2 2 2 3 2 2 2 2 2 3 2 2 3 2 2 2 3 2 2 2 2 3 2 2 2 3 2 2 2 2 2 2 2 2 2 2 2 2 3 2 2 3 2 2 2 2 2 3 2 3 2 2 3 2 2 2 2 2 3 2 2 2 2 2 2 3 7 2 2 2 2 2 2 # # # # # # # X # X # # X # # # X # X # # # X # X # # # X # X # # # X # X # # # & X X # # X # # # X # # # X # # X # X # # # X & X # # # X # X # # X # X # # # X X # # # X # X # # X # X # # # X X # X X # # X % # # # X # # X X # # # # X X & X X # # # X # # X # # # X # # X X X & # X # X # # X # # # # # # X X X # # # # X X % X # X # & X # # X # # # X X # # X t uXy.8 X # # # # # # # # # # # # # o # X # # # X # X # # # X # X # # # X # # X # # # X # X # o # # # # # # # # X # # # X # # # o # # o o # # # # o # o # # # X # % X # X # # X # X # # # X # X # & X # # X & X # # X # # X # # X X # # # # X X & X X & X X # # # # X X # # # # X X # # X # # # X # X # # # X # # # X # # # $ * % $ 1 $ % * & & * % & & * % & * & * % % & * * % & * $ % * % * & 1 $ & * $ 1 % * 1 $ % $ % * $ 1 & % * % % * $ * % & & * $ * % & $ 1 $ % & * % & * $ % & & * % $ & * * % & 1 * $ * $ % * % * $ % & % & * $ & * % % * $ # # # # # X X # # # # X # X # X # # X X # # # X # # X # # # # X X # # # # X X # # X # # # X # # # X X # # # # X X & X X # # # X # X # # # X # X # # # # X X # & X # # X # # # % X X # X X # # # X # & X # # X & X & X X # # X & X # X # # # X # # X X # # # X & X X # # # X # X % # X # X # # & X # X # # # # X X # # X # # # X # # X # % X # # # X # X # # X # # # X # X # ",
"2 2 2 3 2 2 2 2 2 3 2 2 2 2 2 2 3 2 2 2 3 2 2 2 2 2 2 2 2 3 3 2 2 2 2 2 2 2 2 2 2 3 2 2 2 3 2 2 2 2 2 2 2 2 2 2 3 2 2 2 3 2 2 3 2 2 2 2 2 2 3 2 2 2 2 2 3 2 2 3 2 2 2 2 2 2 2 2 2 2 2 2 2 2 2 2 2 2 2 2 2 2 2 3 2 2 2 2 3 2 2 2 2 2 2 2 2 2 2 2 2 2 2 2 2 2 2 2 2 2 2 2 2 3 3 2 3 2 2 2 2 2 3 2 2 3 2 2 3 2 2 2 2 2 2 2 3 2 2 3 2 2 2 2 2 2 2 2 2 2 2 2 2 2 2 2 2 2 2 2 3 2 2 3 2 2 2 2 2 2 2 2 2 2 2 2 2 2 2 2 2 2 2 2 3 2 2 2 2 3 2 2 2 3 2 2 2 2 2 2 2 2 2 2 2 2 2 2 2 2 2 3 2 2 2 2 2 2 3 2 9 2 2 2 2 2 2 2 2 3 2 2 2 2 2 2 2 2 2 2 2 2 2 2 2 2 2 2 2 2 2 2 2 2 2 2 2 2 2 2 2 2 2 7 2 2 2 2 2 2 2 2 2 2 2 2 2 2 2 2 2 2 2 3 7 2 2 2 2 2 2 2 2 2 2 2 2 2 2 2 2 2 2 2 2 2 2 2 2 2 2 2 2 2 2 2 2 2 2 2 2 2 2 2 2 2 2 2 2 2 2 2 2 2 2 2 2 2 2 2 2 3 3 2 3 2 2 2 2 2 2 2 2 2 2 2 2 2 2 2 2 2 2 2 2 3 2 2 2 2 2 2 2 2 2 2 2 2 2 2 2 2 2 2 2 2 2 2 2 2 2 2 2 2 2 2 2 3 2 2 2 2 2 3 2 2 2 2 2 2 2 2 2 2 2 2 2 2 2 2 2 2 2 2 2 2 2 2 2 2 2 2 2 2 3 2 2 2 2 2 3 2 2 3 2 2 2 2 2 2 1 1 # # X X X X # # X & # X # # X # X # # # X # X # # # X # X # % X X # X # & X X # X # # # X & # X # X # X # # X # X # # # X # # X # # X # X # % X # # # X # X # # # # X # X # # # # # # X # X X & # # # # # X # # # X # # X # # # & X X # # # # # # # X # X # # X # X # # X # # # # X # # # & X X # # X X X X # # # # # X X # # # X & # X # X X # # X # X # # # # X X 0 sXa.9 X # o #   # #   # #   # o # # # # # X # X # # # X # X # # # X # X # # # # X # # # # # # o # o # #   # X # # X # X # #   # # # # # # #   # # # # # # # X # X X # & X # # # X # X # # # X # X X # # X # # X # & X # # X # # # # X X # # # # # # X # # # X X # # # # X X # # # # X # # X # X # # # X # # # X X # # # & % & & * $ * & & * % $ * % $ % * 1 $ $ % & * & % & % * % & & & & % $ % * % * 1 $ & & $ 1 & * & $ 1 $ * $ $ * & & % & $ * % * % & % * % * & * & % * & % * * & $ 1 $ 1 & % & % * $ & $ % * & & & % * % & * * % 1 $ * & 1 1 # # X # X # # # # X X # X # & X & X # # # # X # X # # X 1 X X # # # # X X # # # # X # # X # X # X # # # & X X # # # # # # # X # X # # # X # X # # # X # # # # # X # X X # # X X X # # # # # # X # X # X X # # X X # # # # # X % # # # X # X # # X # # # X X # # X # # # X X & # # X # # X % # X X # X & # X X & # # # X # # X # X # # X # X X # X # % X X # # X # X # # # X # ",
"2 2 2 2 2 2 2 2 2 2 2 2 3 2 2 2 2 2 2 2 2 2 2 2 2 3 2 2 2 2 2 2 3 2 2 2 2 2 2 2 2 3 2 2 2 2 2 2 2 2 2 2 2 2 2 2 2 3 2 3 2 2 2 2 2 2 2 3 2 2 2 2 2 2 3 2 2 2 2 2 2 2 2 2 2 2 2 2 2 2 2 2 2 2 2 2 2 2 2 2 2 2 2 2 2 3 2 2 2 3 2 2 2 3 2 2 2 2 2 2 2 2 2 2 2 2 2 2 2 2 2 2 2 2 2 2 2 2 2 3 3 2 2 2 2 2 2 3 2 2 2 2 2 2 2 3 2 2 2 2 2 2 2 2 2 2 2 2 2 2 2 2 2 2 2 2 2 2 2 3 2 2 2 2 2 2 2 3 2 2 2 2 2 3 2 2 3 2 2 2 2 3 2 2 2 2 2 2 2 2 2 2 2 2 2 2 3 2 2 2 2 2 2 2 3 2 2 2 3 2 2 2 2 2 2 2 2 2 2 2 2 2 2 2 2 2 2 2 2 2 2 2 2 2 2 2 2 2 2 2 2 2 2 2 2 2 2 2 2 2 2 2 2 3 2 2 2 2 2 2 2 2 2 2 2 2 2 2 2 2 2 2 2 2 2 2 3 2 2 2 2 2 2 2 2 2 2 2 2 2 2 2 2 2 2 7 2 2 2 2 2 2 2 2 2 2 2 2 2 2 2 2 3 2 3 2 2 2 2 2 2 2 2 2 7 2 2 2 2 2 2 3 2 2 3 2 2 7 2 2 2 2 2 2 2 2 2 3 2 2 2 2 2 2 2 3 2 3 2 2 2 2 2 2 2 2 2 2 2 2 3 2 2 2 2 2 2 2 2 2 2 2 3 2 2 2 2 2 3 2 2 2 2 2 2 2 2 3 3 2 2 2 2 2 2 2 2 2 2 2 2 2 2 2 2 2 2 2 2 2 2 2 2 2 2 2 2 2 2 2 2 3 2 2 2 2 2 2 3 2 2 2 2 2 2 2 2 2 2 2 % X X # # # # # X # # # # X & X X # # # # X X # # # # X # X # # # # # X # # # # X # & # X X # # # X # # X # X X # # & # X X # # # X # X # X # # # # X X & # # X X & # X # X & # X X X # # # # X # # # X # X # # X X X # X # X # X & X X # # X # X # # X # X # # # # % X X # X # & X # X X # X # X & # X # # # # X # # # # X X # # # # # # # # X # # # # X # X % X X # X 8 U.2.2 X # # #   # # o # o # # o # # # # X # X # # # X # X # # # X # X # # # X # X X X # o # # # # # # # # # X & X # # # # # # # # # # # # # # #   # #   # # # X # # # # # X X # & # X X # # # X # # # # # X X # # X # X # X # # # # # X # X # X # X & # # # # X # X # # X X # # X # # X X # # # # # X X # # X # # # # $ & & & * % 1 $ $ % * & 1 $ % * & & $ & * * & % * $ & * & $ * $ 1 $ % * & * % & & & * % * $ * % & 1 $ & $ 1 % & * % % * 1 $ % & & & & 1 $ & & % * $ & & & $ % & * $ & % * % & * & & & $ $ & & $ * $ & * & $ $ 1 $ % % $ $ # # X # # X # # # # # X # # # # # # X X # # X # X # # # # X X # # # # # X X # # # # X # X # X # # X # & X X X # # X # X # # X # X % # X X # X # # # X # X X # & X # # # # # X # # # # # X # # # X # # X # # # # # X # X # # X # X X X & # # X X # X # # # & X X # # X # X # # # X # X X # # # # X X # # # # # X X X & # X # X # X # # # # # X # # X # # # # # # # X # X # # # X ",
"3 2 2 2 2 2 2 2 2 3 2 3 2 2 2 3 2 3 2 3 2 2 3 2 2 2 2 3 2 2 3 2 2 2 3 2 2 2 2 3 2 2 3 2 2 2 2 2 2 2 2 2 2 2 2 2 2 2 2 2 3 2 3 2 3 2 2 3 3 2 3 2 2 3 2 2 2 2 2 2 2 2 2 2 3 2 2 2 2 2 2 3 2 2 2 2 2 2 3 2 3 2 2 2 2 2 2 2 2 2 2 2 2 2 2 2 2 2 2 2 2 2 2 2 2 2 2 2 2 2 2 3 3 2 3 2 2 3 2 3 2 2 3 2 2 3 2 2 2 2 2 3 3 2 2 2 2 2 2 2 2 2 2 7 2 2 2 7 2 3 2 2 3 2 2 3 3 2 2 2 3 2 2 3 3 2 2 3 3 2 3 2 2 2 2 2 2 2 3 2 2 2 2 2 2 2 3 2 2 2 3 3 2 2 2 3 2 2 2 2 2 2 2 2 3 2 3 2 2 2 2 3 2 2 2 3 2 2 2 3 2 2 2 2 2 2 2 2 2 3 2 3 2 2 2 3 2 2 2 2 2 3 2 3 2 3 2 2 2 2 2 2 2 2 3 2 2 2 3 3 2 2 2 2 2 2 2 2 2 2 2 2 2 2 2 2 2 2 2 3 3 2 2 3 2 2 2 2 2 2 7 2 2 2 2 2 2 2 2 2 2 2 2 2 2 2 2 9 2 2 2 7 2 2 2 2 2 2 7 3 2 3 2 2 2 2 2 2 2 7 2 2 2 2 2 2 2 2 2 2 2 2 3 3 2 3 2 2 3 2 3 2 2 2 2 2 2 2 2 3 2 3 2 3 2 2 2 7 3 2 2 2 2 2 3 2 2 3 2 2 2 2 2 2 3 2 2 3 2 2 2 3 3 2 2 2 2 2 2 2 2 3 2 2 2 2 2 3 2 2 2 2 2 2 2 2 3 2 2 2 2 2 3 2 2 3 2 2 2 3 2 3 3 2 3 2 2 3 2 2 2 2 2 2 2 2 3 2 1 # # # X # X # # X # # X X # # X # # # # X X & & X & X # X # # # X X # # # # X X # # # X # # # X X # # X # # # # # # X X # # # X X # # # X # # # X X # # # X # # # # X # X # & X # # # & X X # # # # X # X # # X # # # & # X # & X # X # # # X # # X # # X # # # X X # X # X # # # X # # # # # X # # X # # X # # X # # X X # # # # X X # X X # # # # X X # # # # X # # # # X # & X # # # # # # # # # # # # # # # X # X # # # X # X # # # X X % # # # X # X # # # # # # # o # # #   # # X # X & X X & X # #   #   # o # # o # # X X # # X # # # # X X # # # # X # & X # X # # # # X X # # # # X # # X # # # X X X # # X # # X # # # X X X # & X # # X & # X # # X # # # X X % X # X & # # # X # # # & & % * & % * & * & % & $ 1 * $ 1 & 1 $ % & * * & % & & & 1 % * $ 1 & & % $ $ * & & * & & % * & & & % * * % * & & & & & $ 1 * & & & * $ 1 $ * * & % & $ 1 1 * % $ 1 * $ * & % $ * & & * & & * 1 $ 1 % * & 1 1 $ & * & * # # # # # X # # X X X # # X # X X # # & X # # X # # # X X # # # # X X X # # # # X X X & X & # # # X # # X # # # # X # # X # # X # # X # # # # # # X # X # # X # X # # X X & X & X # # X # X X X # # X # # # # X X # # # X # # X # # # # X # X & X # # # X X # # # # X & # X # X # X # # # # X X # # # # X X X # # # # X # # # X # # # X X # # # # X # # X X # X X # # # X # X # # ",
"2 2 2 2 2 2 2 2 2 2 2 2 2 2 2 2 2 2 2 2 2 3 2 2 2 2 2 2 2 2 2 2 2 3 2 2 3 2 2 3 2 2 2 2 2 2 2 2 2 2 2 2 2 2 2 2 2 2 2 2 2 2 2 2 2 2 2 2 2 2 2 2 2 2 2 2 2 2 2 2 2 2 2 2 2 2 2 2 2 3 2 2 2 2 2 2 2 2 2 2 2 2 2 2 2 2 2 3 2 2 2 2 3 2 2 2 2 2 2 2 2 2 2 2 2 2 2 2 2 2 2 2 2 2 2 2 3 2 2 2 2 3 2 3 2 2 2 2 2 2 2 2 2 2 2 2 2 2 2 2 2 2 2 2 2 3 3 2 2 2 2 2 2 2 2 2 2 2 2 3 2 2 2 2 2 2 2 2 2 2 2 2 2 2 2 2 2 2 3 2 2 2 2 2 2 2 2 2 2 2 2 2 2 2 2 2 2 2 3 2 2 2 2 2 2 2 2 2 2 2 2 2 2 2 2 2 2 2 2 2 2 2 2 2 2 2 2 2 2 2 2 2 2 3 2 2 $ 2 2 7 2 2 $ 7 2 2 2 2 2 2 2 2 2 2 2 2 2 $ 2 7 2 2 2 2 $ 7 7 7 2 2 2 2 2 2 2 2 2 2 2 2 2 2 2 2 7 7 7 7 7 $ 7 $ 2 2 2 1 7 2 2 2 2 2 2 2 2 2 2 2 $ 2 2 2 7 $ 7 7 2 2 2 2 2 2 2 2 % 7 2 2 2 2 2 2 2 2 2 2 2 3 2 2 2 2 2 2 2 2 2 2 2 2 2 2 2 2 2 2 3 2 2 2 2 3 2 3 2 2 2 2 2 2 3 2 2 2 2 2 2 2 2 2 3 2 2 3 2 2 2 2 2 2 2 2 2 2 3 2 2 2 2 2 2 2 2 2 2 2 2 2 2 2 2 2 2 2 2 2 2 2 2 2 2 2 2 2 2 2 2 2 3 2 2 2 2 2 2 2 2 2 2 2 2 2 2 2 2 2 2 2 1 # X X # # # X # # X X # # X # # X # X X # # # X X # # # # X X X # # # X # X # # X # X # # # X # & X # # # X X # # # X # # X # # # # X # X # # # X X # # # # X X & X # # # X X # # # X X & # X X X # # # X # # # X X # X # # X & X # # X & # X # # X & # X # # # X X # & X # # X & X # X X # # # X # % X X # # # # X X % X # # X # X # X & X & X X & X # # X X X # # # X # # X # # # X o # o # # # # # o # #   X # # # X # # X # # X # # X X # X # # X $ X # # $ X   % #   # #   # # o # X X # # # # X # # # # o # # o X # # # # # # X # # X X X # # # # # # X X X # # X # # X # # # X # # # X # X # X X # # # # # # X # X # X # # # # # # # X # # X # # X # # # X X # # # X # # X # X X X # # & & & $ & $ $ & % & & & & $ $ & & & $ & 1 % 1 # $ $ 1 $ % 1 $ $ 1 # $ $ * $ % & & & $ & $ $ % & & & & $ & $ $ & 1 & & $ * $ % & & & $ $ & & % $ $ $ 1 $ % $ & $ 1 # 1 $ % & $ & & & $ & 1 # 1 $ % $ $ & # 1 % & & $ $ 1 1 1 % X X X # # X # # # # # # X X # # # X X # # # X # # # X X # # # # X # % X & X # # # # # # X X # # X & X X # X & # X # # X & # X # # # X X # X % # # X # X # # & X # # # X X # # # X X # # # # # X # # X & X X # # # # X # # # X # # # X X # & X # X # # # # X X # # X # # # # # X # # # X X # # # X # # # # # # # X # # X # # X # # # X X # X # # X % X # # X # # # # # X # # X # ",
"# % # # # # # $ # # # # # % # # # % # # # # # # % # # # # # # % # # % # # % # # # % # # # # # # % % # % # # # % # # # 1 # % # # # # # # # # # # % # # # # # # % # $ # # # 1 # % # # # # # # # # $ # $ # # # & # # # # # # # # # # # # % # # # # # # # # # # % # # % # # $ # # # # # # # # # # # # # # % % # # # % # # # # # # # # % # % % % # % % # # # # # # # # # # % # % # # # # # # # # # # % % % # # # # # # % # # % # # # % # # # # # # # # # # % # # # 1 # % # # # & # # # $ # # & # # # % % # 1 # # % # # # # & # # % # # # # # # $ $ $ % # # # # # % # % # # # # # # # # # # # # $ $ $ % % # 1 # # # 1 # # # # # % # # # $ # # $ $ $ % # # # # % # # # # % # 1 % % X % # # # # $ $ # $ # # # # % # # # # # # # # # # # # # # % % % # % # # # # # # # # # % # # % # # # # # # # # # # # % % % # # # # # # # % # % # # # # 1 # # # # # # # # # % # # # % # % # # # 1 # # # $ # # # # # # % % & 1 # # # & # # # # # # % # # # # # # # # # % # # # # # # % $ # # # # # # # # X # # X # # # & X # # # # # X # # X X # # # X X # # # # # X X X # # # # # # X X X # & # X X # X # # # X X # # X X & # # X X & # X # X # # # # X X # # # X X # X # # # X X # # # X # # # # & X # X # X # # # # X # # X # # X # # X # # X # # X # X # X # # # # # # X # # X # # # # # X # X # X # # # X X # # # # # X # X # % X # X # X # # # # X # # # # # X X X # # X # X # X # # # #   # #   # # # # # # X # X # # X # X # # # # # # & X # # X # # X X X % $ # # # # # # # # # # # # # X # #   # # o # # # # # # X X # X # # X # # # # # X X X X # # # # # X # # X & X X # # X X # & X & X & # # X # X X # # # # # X # X X # X X # # X # X # # X # X # # # # # X # # X & # X # # X # # # # # $ # # # X # # # # $ # # # # # # # # # # # # # # # # # # # # # # # # # # # $ # # # # # # # # # # $ # # # X # # # # # # # # $ # # # # # # # # # # # # # # # # # # # $ # # # # # # # # # # # # # # # # # # # # # # # # X # # # # X # # X # X X # # # # X X # # # X # X # X # # # # X X # # # X # X # # X # X X # # X # # X # # & X # X # # X # # X # X # X # # # # # X X # X # # # # X X # X # # # # X # # # # X # # X # # # # X # # # X X X & # X # X # X # # # # # # # X # X X & # # # X & X X # X # X # X # # # # X # X # X X # X X # # X # X # # X # X # # # # X # # X # # X # # # X X X # X # # X # ",
"# # # # # # X o # X X # # # # X X # # X # # # X X X # # # X # # X # X # # X # X # # # X X # # # % X # # X # # # X # X # # X X # X # # # # X X # X X # # X X # # X # X # # X X # # X # # # # X # # # X X X X # # # X X # # X # # X # # X # X X # # # o # X X # # X # X # # X # # X # # X # X # X # X # X X # X # X # # X # # # X X # # X X # X # X # # # # X X # # X # X X # X # X # X # # X X # X X # # X X # # X # X # X # # X X # # X # # # X # # X X # # X X # X X # X # # X X # X # # X # X X X X # X # # # # X # X # X X # # # # o # # o # # X # # # # # X o # # # # # # o # o # # X # $ X % % X X # X # # X # # # X # # X # o o $ X $ X % # # o # # X # # X # # X X # X X # # # o # # # o # o X # # # # # # # # # # # # o # X # X X # X # X # X # # X X # X # # # X # X # X # # # # X # X # # # # X X # # X # # # X # # X # X X # X # # # # # X X # # X X X # X # X # # X X # X # # # X # X X % X X X # # X # # # X # # X # X # X # # # X X X # # # # X X # X X # # X # X X # X # X # # # X & X X X # # # # X # # X # # X X # # # # X # # # & X X X X & # # # # X # X # # X # # # # # X # # # # X # X # # # # X # X # # X & X X # # # # # X # # X # # X # # X X # # # X # # # X # X # # X # # # # X X # # X & X # # # # X # # X # X # # X X X # # # # X X X # # X # # X # # # # X X # # # X X # # # # # # # X # # X # X # X # # # # X # # # # # # # # X # # o #   # # # # # # # # # X $ X # # # # # # X X X # & X X # X # $ X X $ $ X %   # # # o # # # # X & # X # X X # # # # # # # # # # X # # X # X # X # # # # X # # # # X # X & # X # X # X # # # X # # # X # X # # # X # X # # X # X # # # # X # # & X X # # # # # # # X # X # # X # # X X # # # # # X # # # X # X X # X # # # X # # # X X # # X X # # # # X # X # X # # # # X # X # # X X # # X X # X # X X # # # # X X # # # X # # # X X # # X X X # # # X # # X X # # # # X # # # # X X # # X X # X X # # # # X # # X # X # # X # X X # # # # X # X # X # # X # # X # # # # # X # # X # X # # X & X X # # # X & # X # X # # X # # # # # X X # # X & X # # # # X # # X # X # # X X X # # 1 # X X # X # # X # # # X # X # # X # X # # X X X X # # # X X & # # # X # # X # X # # X X X # & # # X X X & # X # # X # # # & X X # # # # X & # # # X # # # X # & X # # # # X # X # o # # # # # X X # # # X # # % X # # # # X ",
"# o # X X # # # # # # # X X # # # # X # # X # X # # X # X # # X # # X # # X # # X X # # # # X X X % X # # X X # X # # X # # # X # # X X # # # # # # X # # # # X # # X # X # # # X # # X X # # # # X # # # # # X # # # X # # # X # # X # # # # X X # # # # # # X X # # X # # # X # # X # # # X # # # X # # # X # # # X # # X # X X # X # # # X # # # X X # # # # # # X # # # X # # # # X # # # # # # # X # # # X # X # # # X # # # X # # # X # X # X # # X # # # # # # X # X # # # # X # # X # # X % 1 X # X X # # # # X # # # X o # # # # # # $ # # # X o # X # # X # # o # # # # # # # # # X $ X X # # X # # X X # X # # X # # # # # o $ X $   # # # # # # # X X # X # # # X 1 o # # # # # # # # # # X # o # # # o # o # # # # # # X # # # X # # # # X # # # # # X X # # # X # # # X X # # # X # o # X # # # X # X X # # X # # X # # # X # X # # X # # # X # # # # X # # X # # # # X # X # # # % X X # # # # X X # X # # X # # # X # # # X X # # # # X X # # # # # X # # X # # # # X # # # X X # X # # & X X # X & X # # # X & # # X X # # X # # X # # # # X # # X # X # # # X # # X X # X # # # X # X # # # X X # # # X # # X # # # # X X & X # X # # # X # # # # # # X X & X X # # # X # # # # X X # # # # X # X # # X X # # X # # # X # # # # # # X X # # # # # X & X # # # X X # # # # X # # # # X # X X # # # X # # # X # # # X X # # X # # X X # X # % X # # # # # o # #   # # o $ X X $ # X X # X # # # X # X # # # X # X X $ X X $ X $ #   # # o # #   # X # X # & X # # o # #   # o # # # X # # # X # # # X X # # X # & X & X # X # # # X # # # X # # # X # X # # # X # X # # # X # # & X X # X & # X X # # # X X & X X # # # X # # # X # # # # X X # # # # X # X # # # # X # X # # # X # # # # X # # # X X # # # X # # # X X # # # # X # # # X # # # X # # # # # X X # # X # X # # # X # # # X # # # X # X # # X # # # # X X # # X # X # # # # X # # # # # # X X # # X # # # X # # X # # # # X X # # # X # # # X # # # # X & X X # # X # # # X # # X # # # # X X & X # X # # # X # # # X X # # # # X # X # # X X # # X # # # X # # X # # # X X # # # # # # X # # X X & # X # # X # # X # # # # # # X # # # # X X # # X # # # X # # X # # # X X # # # # X # # X # # # X X # # # # X X X % X # X # & X # X # # X # # X X # # # X # # # # X X # # # # X # # X # X # # X X # # ",
"X # X # X # X # X X # # X # # X # # X # X # # # X # # # # X # # X # # X # X # X # # X # # X # # X # X # X # # X # X # # X X # X X # X # # X # X # # X # # X # # X # # X # X # X # # # X # # # X # # X # X X # # X # X # # X # X % # X # # X # # # # % o % o % o # # X # # X # X # # X # # X # # X # # X # X # # X # # X # # X # # X # X # X # # X # # X # X # X X # X # X # # X # # X # X # X # # # X # # # X # X # # X # X # # # # X # # X # # X # X # # X # # X # # X # X # X % X # # X # # X X # # # # # # # X # X # # # X # o X $ X $ X # o # # # $ o # o $ # # # # # # # X % X X X X $ X X # # # $ # # o $ # X # X # # # X o $   o $   X $ $ X   $ $ o o % # # X # # # # # # # #   X X $ o # # X # # # # # # # # # # # # o X # X # # X # X # # X # X # X # X # # X # X # # X # X # # X # # # X # # # X # # X # # X # X # X # # X # X # X # # X # # # # X # X # # # X X # X # # # X # X # X X # # X # # X # # X # # X X # X # X # # X # # # X # # # X # # X X # # # X # X # # X # X # X # # X # X # X # # X # X # X # # X # # X # X # # # # X # X % % o % % X # # X # X # # X # # X # # X # X # # X # X # X # X # X # # X # X # X # X # # X # # X # # # X # X # # X # # X # # # X # X # # X # # X # # X # & # X # X # # X # # X # X # X # X # # X # X # # X X # # # # # X # # # X X # # # X # # X # X # X # X # # # X # X # # # # # X # X # # # # # $ X $ X #   # # # # # o % X X X X $ X X # # # # # # # $ # X # # X X # # o $ o $   $ X X   $ o $ o   $ % X # X # # # # # # #   # X $ o # X # # X # # # # o # o # # # # X X # # X # X # # X # # X X # # X X # X # X X X # # X # X # # X # X # # # # # X # # X # X # # X # # X # X # X # X # # X # X # # X X # # X # # X # # # X # X # # X # # X # X # # X X # # X # # X # # # # X # X # X X # # X # # X # # X # X # X # X X # # X # X # X # # X # # # X # # X # X # X # X # X # # X # # # X # X % o % o o X # # X # X # # X # # X # X # # X X # X # X # # X # # X # # X # X # X # # X # X # # X # # X # # X # X # X # X # # X X # # X # X X # X # # # X # X # # # X # # X # # # # # X # # # X # X # X # X X # X # X # X # # X # # X # X # # X # X # X # X X # X # X # X # X # # X # X X # # X # X X # # X # X # X # X # X X # X # # X X # # X # X # X # X X & X # # X # X # o # # # X o # # o # X # o # # X # X # X # # X # X # ",
"& $ 1 % 1 1 1 1 1 % % 1 % & & $ 1 1 1 $ $ $ 1 1 & & % 1 & & % 1 & 1 1 1 $ $ & 1 1 1 % 1 $ $ 1 1 & $ 1 1 & & % 1 1 1 1 1 $ $ & 1 % 1 1 1 $ $ 1 1 $ 1 1 1 & & % 1 1 1 % 1 $ & & 1 1 1 % % 1 # % 1 $ 1 1 1 1 $ % 1 $ 1 1 1 $ # 1 1 1 1 1 % 1 $ % 1 % % % % % % % O % 1 # $ 1 1 1 % & & & $ 1 1 % & 1 % & % 1 1 % & & & & $ 1 1 1 $ 1 $ 1 1 1 1 % % & & & $ 1 1 1 $ 1 1 $ $ 1 1 % 1 & & $ $ 1 1 1 1 $ % 1 1 $ 1 1 1 1 % % 1 $ 1 % # 1 1 % 1 $ $ 1 1 & $ 1 1 & & % 1 % 1 1 1 $ $ 1 1 1 % % % $ 1 % 1 # # X # o # # $ 1 # $ $ # # # # $ % $ X $ $ $ $ # # $ $ $ $ $ % # # # % # # # # % $ $ $ X $ $ $ # # # % # $ $ % % 1 # $ # # $ # $ % $ $ $ $ $ $ $ $ $ $ $ % $ $ & # # # $ $ # # # # # # $ $ $ # # # # # $ $ # $ # # # # # # # # # # % % $ $ $ & & & $ $ 1 1 1 1 1 % & % 1 1 % 1 & $ & $ 1 1 % & & & % 1 $ 1 % 1 1 % 1 % $ $ 1 1 1 1 1 $ # $ % 1 & & % 1 $ % 1 1 % 1 1 1 $ $ 1 1 1 1 $ % & 1 1 1 & & % 1 $ % 1 1 1 1 1 1 $ $ 1 1 1 1 % & & $ 1 1 % % # 1 1 1 1 1 & % 1 1 $ & # $ 1 1 $ % & 1 & 1 $ $ 1 1 & 1 1 1 & 1 & 1 & & & $ 1 1 % % & & 1 1 1 % 1 1 % % % % & & & & & * & & & & & & 1 1 & & 1 1 & & 1 1 1 $ & $ & 1 1 1 1 $ & & & & & * & & & & & & & & & & & & & & 1 1 & & & & # $ 1 1 & & $ 1 1 1 & & & 1 & & & * & & & & 1 1 $ % & 1 & 1 $ & 1 % 1 1 1 1 & 1 1 1 # 1 $ $ 1 1 1 $ 1 # % 1 $ & & % 1 1 1 1 & & 1 1 & & & $ % % # $ $ $ # # o $ o $ $ X $ $ # # $ $ # # # # % $ $ $ X $ $ $ # # # % # $ # $ & 1 $ % # $ # # $ $ $ $ $ $ $ $ $ $ $ $ $ $ % $ & & & # $ $ # # # # # # $ % $ $ # # # # # $ # # # # # # % % $ $ & & & & & * & & & & & & & * & & * & & & 1 2 1 1 1 $ & 1 1 1 1 % 1 1 # 1 $ & 1 1 & * 1 1 & & & & 1 1 $ 1 $ 1 1 1 $ & & % 1 1 1 1 1 1 1 1 % % $ & 1 1 % 1 $ $ 1 1 $ 1 1 % 1 1 1 1 $ $ 1 1 $ # & $ 1 1 $ % & 1 1 1 & & % 1 $ 1 1 1 $ 1 1 1 $ $ & & % 1 % & & 1 $ 1 $ 1 1 1 $ 1 1 1 & 1 $ 1 $ & & & % 1 % 1 $ $ 1 1 1 1 % 1 1 % 1 O % & & $ 1 1 $ # 1 1 $ $ 1 1 % 1 $ 1 $ 1 1 1 $ # 1 % & & 1 1 % 1 1 1 & & 1 1 $ & & & & $ 1 1 % & & & & & 1 1 1 & $ $ & & 1 1 & $ & $ 1 1 $ 1 1 1 & & 1 1 & & & & 1 % # X # # # # # # # # # # # # # & & X & # # # X # # # % # # X # # # # # # # # # & & X & # # # # # # # % # # # # # # # # # # # # & X # & # # & # # # # # # # # # # # # # # # # # # & X # # & & # # # # # # # # # # # # % # # % 1 # # # % X # # # # & ",
"D D D D D D t F D D D D D D t D F t D D t D F t D D D t D D F t D D D D D D D D F t D D t D D D D D D D D D D F D D D D D D D D D F D D t D D D t D D D t D F t D D D D D D D D D t D D D D D D t D D D D D D D t F t F D D D D D t D D t D t D t D t F t F D F D D t D t F F t D D t D t F F t D D D D t F D D D t D D F t D D t D D D D D D D D D D D t F D D t F t t t F F t F t t t t F F t t t D D t D F t D D t D D D D D F t D D t D D D D D D D D D F t t D D D D D D D F t D D t D D F D 7   # # # 7 7 8 9 9 9 9 9 8 9 9 9 9 9 7 9 9 7 7 7 7 7 7 7 9 9 7 7 9 9 7 9 7 9 9 9 9 9 9 9 9 9 7 7 7 9 7 7 9 9 8 9 9 9 9 9 8 8 7 0 0 7 7 7 9 9 7 7 7 9 7 7 7 0 9 9 8 9 9 9 9 9 9 9 7 7 9 9 9 9 9 9 9 7 9 7 9 9 9 9 7 7 7 $ # # # 1 t D D D D D F t t t t F F t D D D D t F t F D D t D t F F t t D D D t D F t D D D D D D D D F t D D t F t F D D F t t t D D D D D D t D D D D t D D D D D D D D D F t t D D D t F D D D D D t F D D t D D D D D D D D D t F t D D D D D t F t F F D D D D D D D D D D D t F D D D D D D t D t F t D t D D D D D t F t F F 6 D D D D D D D F D D D D t D D D D D D D t F t D D D D D F t t D D D D D F D D F D D D D D D D D D D D D t D D t t D t D t F F t t D D D D t t t D D D D D D t D t F F D D D D D t t D D D D t F D D D t F D t t F t D D D D D D t D D D D D t F t D D t t D t D F D D D t t 1 # # # $ 7 7 9 9 9 7 9 9 9 9 9 7 7 9 9 9 9 9 9 9 9 7 7 9 9 7 7 9 7 8 9 9 9 9 9 8 0 7 7 7 0 7 7 9 9 7 7 0 7 9 7 0 7 0 7 7 0 9 9 9 9 9 7 7 7 9 9 9 9 9 9 7 9 9 7 o # # # 2 D D D D D D D D D D D D F D D D D D D D D D t t D t t t t D D D D F t t F D D D D t D t F t t D D D D D D t F F D D D D D t t D D D D t F t D t D D D t D F t D D t D D F t D D D D D t F t D D F F t t D D t D D D D D D D D D F t t t F D D t D D D D D D F D D D D D D t D D D t t t F D D D D D D D D t F D D t D D t D D t F D D F F D D D t t F F D F t t D t F t F D D D D t F F D D D D D F t D D t D D D t F F t D D t D t F t F D D D D t F F t D D D D t F F t D D D D t D D D D D D t D D D D D D 2 X X X # 1 2 2 2 2 2 2 2 2 2 2 2 2 2 2 2 2 2 2 2 2 2 2 2 2 2 2 2 2 2 2 2 2 2 2 2 2 2 2 2 2 2 2 2 2 2 2 2 2 2 2 2 2 2 2 2 2 2 2 2 2 2 2 2 2 2 2 2 2 2 2 2 2 2 2 2 2 2 2 2 2 2 2 2 2 2 2 2 2 2 2 2 2 2 2 2 2 2 2 2 2 2 2 2 2 2 2 2 2 2 2 2 2 2 2 2 ",
"F G F G F G F F G G F F F F G G F F F F F F F F F G G F F F F F F F F G F F G F F F F F G F F F F G F G F F G F G G F F F F F G F G F F G F F G F F F F G G F G F F F G G D G G G F F F F F F G F F F G F G F F F F G F F F G G G F F F G G G G F G F F F F F G G F G G F F G F F F F G F G F G F F F G G F F G G G F F F F G F G G F G F G F F F G G D F F G G G F G G F G F G F G G G F F G G G G F G F F F F F G G G F F F F F F F G G F F F G F G F F F F F G F F G F F F G F F F G G F F F J 9 # # o # 7 0 9 9 9 9 9 9 9 9 0 9 9 9 9 9 D 7 0 9 0 9 0 0 9 9 9 0 0 9 0 9 9 0 9 9 9 0 9 9 9 9 9 0 0 9 9 0 9 9 9 9 9 0 9 0 9 9 0 7 0 9 0 9 0 9 9 0 0 9 0 0 0 7 0 9 9 9 9 9 9 0 9 9 0 9 9 9 9 9 9 9 0 9 9 9 9 9 9 9 9 9 7 # o # # 1 F G F G F F F G G G F F G G F F F G G F G F F F F G F G F G G G F F F G F F F F F G F F F G F F G F G F G F F F F F G G F G F F F F G G F G G F F F G D G G F G F F G G F G G G F F F F F G G F F G G F F F F G F F F G F G G G F F F F F F F F F F G G F F F F F F G F G F G F G F G G D G F F J G G F F F G F F F F F F G F F F F F F F F F F F F G F G G G D G F G G G F F F G G F G G G F F F D F F F F F F F D F G G G G G F D G G G F G F G G F F G F F F F F G G F F F F F F G F F F F F F G G F F G G G G F F G F F F F G F F F G G F G F F F F F G F F F G F G F G G G G G G G F G F F F F F D 2 X o # $ 9 9 9 9 9 9 9 9 9 9 9 0 0 9 9 9 0 9 9 9 9 9 0 9 0 9 9 9 9 9 9 9 9 9 9 9 8 0 0 0 7 9 9 9 0 0 0 7 0 0 0 7 0 8 0 8 0 9 9 9 q 0 9 0 0 0 9 9 9 0 9 9 0 7 7 # # o # 2 F F G F F F F F D F F F F F F F F G F G F G F G G G G J G F F F G F F G F F G F F F F G F G G G G F G G D F F F G F F F G G G G F F G F G G G G G G F F G G F F F F F F F F F F F G F G F F F F F F G F F G F F F G D G G F G F F G G F G F G G G F F F G F G F F G F G F F F F F G G F G G F F G F F F G G F F G F F G F F G G F F G G F F F G G F F F G F G F F G F G F F F G F F F F G F F G F F F F G G G F F G F F G F F F G G F G F G G G D F F G G F F G F F F G G F G F G F F F G F G G F G F F F G D 1 # # # # 2 2 2 3 2 2 2 2 2 2 2 2 2 2 2 2 2 2 2 2 3 2 2 2 2 2 2 3 2 2 2 2 2 2 2 2 2 2 2 2 2 2 2 2 3 2 2 2 2 2 2 2 2 2 2 3 2 2 2 2 2 2 3 2 2 2 2 2 2 3 2 2 2 2 2 2 2 2 2 2 2 2 2 2 2 2 2 2 2 2 2 2 3 2 2 2 2 2 2 2 2 2 2 2 2 2 3 2 2 2 2 2 2 2 2 2 ",
"F F F F F F F F F F F F F F F F F F F F F F F F F F F F F G F F F F F F F F F F F F F F F F F F F F F F F F F F F F F F F F F F F F F F G F F F F F F F F F F F F F F F F F F F G F F F F F F F F F F F F F F F F F F F F F F F G F F F F F F F F F F F F F F F F F F F F F G F F F F F G F F F F F F F F F F F F F F F F G F F F F G F F F F F F F F F F F F F F F F F F F F F F F F F F F F F F F F F F F G F F F F F F F F F F F F F F F F F F F F F F F F F F F F F F F F F F F F F G D F F F 9 # # #   $ 9 0 9 0 9 0 0 9 9 9 0 9 9 D 9 9 9 9 9 9 0 9 9 9 0 9 9 9 9 0 0 7 0 0 9 9 9 7 C 9 9 9 9 9 0 9 9 C 9 9 9 9 0 9 9 9 0 7 0 0 0 0 9 9 9 9 9 0 9 7 0 0 0 9 9 9 9 9 0 9 9 9 9 9 9 9 9 D 7 9 0 7 0 0 9 9 0 9 0 0 9 9 $ #   X 1 F F F F F F F F F F F F F F F F F F F F F F F F F F F F F F F F F F F F F F F F F F F F F F F F F F F F F F F F F F F F F F F F F F F F F F G F F F F F F F F F F F F F F F F F F F F F F F F F F F F F F F F F F F F F F F F F F F F F F F F F F F F F F F F F F F F F F F F F F F F F F F F F F F F F F F F F F F F F F F F F F F F F F F F F F F F F F F G F F F F F F G F F F F F F F F F F F F F F F F F F F F F F F F F F F F F F F F G F F F F F F F F F F F F F F F F F G D F F F F F F F F F F F F F F F F F F G F F F F F F F F F F F G F F F F F F F F F F F F F F F F F F F F F F F F F F D $   # o # 7 9 9 9 9 9 9 9 9 9 0 9 9 0 9 9 9 9 7 9 9 9 9 9 0 9 9 9 9 9 9 9 9 9 9 0 9 7 0 0 0 9 9 9 9 9 9 9 0 0 7 0 0 0 9 9 9 9 9 9 9 9 9 0 9 9 9 9 9 7 0 9 0 9 7 # # # # 2 F F F F F F F F F F F F F F F F F F F F F G G F F F F F F F F F F F F F F F F F F F F F F F F F F F F F F F F F F F F F F F F F F F F F F F F F F F F F F F F F F F F F F F F F F F F F F F F F F F F F F F F F F F F F F F F F F F F F F F F F F F F F F F F F F F F F F F F F F F F F F F F F F F F F F F F F F F F F F F F F F F G F F F F F F F F F F F F F F F F F F F F F F F F F F F F F F F F F F F F F F F F F F F F F F F F F F F F F F F F F F F F F F F F F F F F F F F F F F F F D G F F F F F F 2 X # # X 2 2 2 2 2 2 2 2 2 3 2 2 3 2 2 2 2 2 2 2 2 2 2 3 2 2 2 2 2 2 2 2 2 2 2 2 3 2 2 2 2 2 2 2 2 2 2 2 2 2 2 2 2 2 2 2 2 2 2 2 3 2 2 2 2 2 2 2 2 2 2 2 2 2 2 2 2 2 2 3 2 2 2 2 2 2 2 2 2 2 2 2 2 2 3 2 2 2 2 2 2 2 2 2 3 2 2 2 2 2 2 2 2 2 2 2 ",
"F F F F F F F F F F F F F F F F F F F F F F F F F F F F F F F F F F F F F F F F F F F F F F F F F F F F F F F F F F F F F F F F F F F F F F F F F F F F F F F F F F F F F G F F F F F F F F F F F F F F F F F F F F F F F F F F F F F F F F F F F F F F F F F F F F F F F F F F F F F F F F F F F F F F F F F F F F F F F F F F F F F F F F F F F F F F F F F F F F F F F G F F F F F F F F F F F F F F F F F F F F F F F F F F F F F F F F F F F F F F F F F F F F F F F F F F F F F F F G F G F 9 o # # # 7 9 9 9 9 9 9 9 9 0 9 9 9 0 7 9 9 9 9 0 9 9 9 C 9 9 9 0 9 0 9 9 7 0 9 9 9 9 9 9 9 7 0 9 0 7 9 9 9 9 0 9 9 9 9 0 9 9 0 9 7 0 9 9 9 9 9 9 9 9 0 0 7 0 0 9 9 9 9 9 9 0 0 9 9 9 9 0 9 9 9 9 0 0 9 9 9 0 9 9 9 9 7 $ # # $ 1 F F F F F F F F F F F F F F F F F F F F F F F F F G F F F F F F F F F F F F F F F F F F F F F F F F F F F F F F F F F F F F F F F F F F F F F F F F F F F F F F F F F F F F F F F F F F F F F F F F F F F F F F F F F F F F F F F F F F F F F F F F F F F F F F F F F F F F F F F F F F F F F F F F F F F F F F F F F F F F F F F F F F F F F F F F F F F F F F F F F F F F F F F F F F F F F F F F F F F F F F F F F F F F F F F G F F G F G F F F F F G F F F F F F F F G F F G G F F G F F F F F F F F F F F F F F F F F F F F F F F F F F F F F F F F F F F F F F F F F F F F F F F F G F F F F F D % # # # $ 9 9 9 D 7 9 0 9 C 9 9 9 0 9 9 9 9 9 D 9 9 0 9 9 9 0 9 9 C 0 9 0 0 0 9 0 9 0 9 7 0 0 9 9 9 9 9 9 9 0 7 0 7 0 9 9 9 9 0 0 9 9 9 9 9 9 9 0 7 9 0 9 9 9 9 # # # o 7 F F F F F F F F F F F F F F F F F F F F F F F F F G F F F F F F F F F F F F F F F F F F F F F F F F F F F F F F F F F F F F F F F F F F F F F F F F F F F F F F F F F F F F F F F F F F F F F F F F F F F F F F F F F F F F F F F F F F F F F F F F F F F F F F F F F F F F F F F F F F F F F G F F F F F F F F F F F F F F F F F F F F F F F F F F F F F F F F F F F F F F F F F F F F F F F F F F F F F F F F F F F F F F F F F F F F F F F F F F F F F F F F F F F F F F F F F F F F F F F G F F F F F F F 1 # X X # 2 2 2 2 3 2 2 2 3 2 2 2 2 2 2 2 2 2 3 3 2 2 2 2 2 2 2 2 2 2 2 2 3 3 2 2 2 2 2 2 2 2 2 2 2 2 2 2 2 2 2 2 3 3 2 2 2 2 2 2 2 2 2 2 2 3 2 2 2 2 2 2 3 2 2 2 2 2 2 2 2 3 2 2 2 2 2 2 2 3 2 2 2 2 2 2 2 2 2 2 2 2 2 2 2 2 2 2 2 2 3 2 2 2 2 2 ",
"F F F F F F F F F F F F F F F F D F F F F F F F F F F F F F F F F F F F F F F F F F F F F F F F F F F F F F F F F F G F F F F F F F F F F F F F F F F F F F F F F F F F F F F F F F F F F F F F F F F F G F F F F F F F F F F F F F F F F F F F F F F F F F F F F F F F F F F F F F F F F F F F F F F F F F F F F F F F F F F F F F F F F F F F F F F F F F F F F F F F F F F F F F F F F F F F F F F F F F F F F F F F F G F F F F F F F F F F F F F F F G F F F F F F F F F F F F F F F F G D G 9 # # # # 7 9 9 0 9 9 9 9 9 9 0 9 7 C 9 9 9 0 0 0 0 7 9 9 9 9 9 9 9 9 9 0 0 0 0 9 0 9 9 0 9 D 9 9 0 7 7 9 9 0 9 9 9 9 7 0 0 9 0 9 9 9 9 9 9 0 0 9 9 9 7 0 0 0 9 9 9 9 9 9 9 9 9 9 9 9 9 D 7 9 0 0 7 7 9 9 9 9 0 9 9 9 7 $ # # # 1 F F F F F F F F F F F F F F F F F t F F F F F F F F F F F F F F F F G F F F F F F F F F F F F F F F F F F F F F F F F F F F F F F F F F F F F F F F F F F F F F F F F F F F F F F F F F F F F F F F F F F F F F F F F F G F F F F F F F G F F F F F F F F F F F F F G F F F F F F F F F F F F F F F F F F F F F F F F F F F F F F F F F F F F F F F F F G F F F F F F F F F F F F F F F F F F F F F F F F F F F F F F F F F F F F F F F F F F F F F F F F F F F F F F F F F F F F F F G D G F F F F F F F F F F F F F F F F F F F F F F F F F F F F F F F F F F F F F F F F F F F F F F F F F F F F F F $ # # # $ 7 9 9 9 9 9 9 9 9 9 0 9 9 9 9 9 7 9 9 7 9 9 0 9 9 9 9 0 9 9 9 9 9 0 9 9 9 0 9 0 9 9 9 9 0 > 0 9 9 0 0 0 7 9 9 9 0 9 0 9 9 0 9 0 9 D 9 9 C 9 9 0 9 0 7 $ # # # $ F F F F F F F F F F F F F F F F F F F F F F F F F F F F F F F F F F F F t F F F F F F F F F F F F F F F F F F F F F F D F F F F F F F F F F G F F F F F F F F F G F F F F F F F F F F F F F F F F F F F F F G F F F F F F F F F F F F F G F F F F F F F F F F F F F F F G F F F F F F F F F F F F F F F F F F F F F F F F F F F F F F F F F F F F F F F F F F F F F F F F F F F F F F F F F F F F F F F F F F F F F F F F F F F F F F F F F G F F F F F F F F F G F F F F F F F F F F F F F F F F F F F F F F 2 # # # # 2 3 2 2 2 2 2 2 2 2 2 2 2 2 2 2 2 2 2 3 2 2 3 2 2 3 2 2 2 3 2 2 2 2 2 2 2 2 2 2 2 2 3 2 2 3 2 2 2 2 2 2 2 2 2 2 2 2 2 2 2 2 2 2 2 2 2 2 2 2 2 2 2 3 2 2 3 3 2 2 3 2 2 2 2 2 2 2 2 2 2 2 2 2 2 2 2 2 2 2 2 2 2 2 2 2 2 2 2 2 2 2 3 2 2 2 ",
"F F F F F F F F F F F F F F F J 3.G F F F F F F F F F F F F F F F F F F F F F F F F F J 3.F F F F F F F F F F F F F F F F F F F F F F F F F F F F F F F F F F F F F F F F F F F F F F F F F F F F F F F F F F F F F F F F F F F F F F F F F F F F F F F F F F F F F F F F F F F F F F F F F F F F F F F F F F F F F F F F F F F F F F F F F F F F F F F F F F F F F F F F F F F F F G F F F F F F F F F F F F F F F F F F F F F F F F F F F F F F F F F F F F F F F F F F F F F F F F F F F G D G 8 # o # # 7 0 9 9 9 0 9 9 9 0 9 9 9 9 9 9 9 9 9 7 0 0 9 0 9 9 9 0 9 9 9 9 9 9 9 9 9 9 9 9 9 9 9 9 0 D D 9 9 9 9 9 9 0 0 9 9 9 9 9 0 0 9 9 0 0 > 9 0 9 0 0 7 7 9 0 9 0 9 0 0 9 9 9 9 C 9 9 9 9 9 9 0 0 9 0 9 9 9 9 0 9 9 $ # # X 1 F F F F F F F F F F F F F F F F J 3.G F F F F F F F F F F F F F F F F F F F F F F F F F F F F F G F F F F F F F F F F F F F F F F F F F G F F F F F F F F F F F F F F F F F F F F F G F F F F F F F F F F F F F F F F F F F F F F F F F F F F F G F F F F F F F F F F F F F F F F F F G F F F F F F F F F F F F F F F F F F F F F F F F F F F F F F F F F F F F F F F F F F F F F F F F F F F F F F F F F F F F F F F F F F F F F F F F F F F F F F F F F F F F F F F F F F F F F F F G D G F F F F F F F F F F F F F F F F F F F F F F F F F F F F F F F F F F F F F F F G F F F F F F F F F F F F F F $ # # # $ 9 7 D 9 9 0 9 9 9 9 9 9 9 9 7 D D 7 C D 9 9 9 9 9 9 9 9 9 9 0 9 9 9 9 9 9 9 9 9 9 0 9 9 0 0 9 9 0 0 7 0 0 9 9 9 9 9 9 9 0 9 9 9 9 7 9 9 9 9 9 9 9 9 7 # # # o 7 F F F F F F F F F F F F F F F F F F F F F F F F F F F F F F F F F F F J 3.G F F F F F F G F F F F F F F F F F F F F G 3.G F F F F F F F F F F F F F F F F F F F F F F F F F F F F G F F F F F F F F F G F F F F F F F F F F F F F F F F F F F F F F F F F F F F F F F F F F F F F F F F F F F F F F F F F F F F F F F F F F F F F F F F F F F F F F F F F F F F F G F F F F F F F F F F F F F F F F F F F F F F G F F F F F F F F F G F F F F F F F F F F F F F F F F F F F F F F F F F F F F G D G F F F F t 2 X # X X 2 3 2 2 2 3 2 2 3 2 2 2 2 2 2 2 2 2 2 2 2 2 2 2 2 2 2 2 2 2 2 2 3 2 2 2 2 2 2 2 2 2 2 2 2 2 2 3 2 2 2 2 2 2 2 2 2 2 3 2 2 3 2 2 2 2 2 2 2 3 2 2 2 2 2 2 2 2 2 2 2 2 2 2 2 2 2 2 2 2 3 2 2 2 3 2 2 2 2 2 2 3 2 2 2 2 2 2 2 2 2 2 2 2 2 2 ",
"F F F F F F F F G G G G G G D 8./.J G G F F F F F F F F F D G F F F F F F F F F F G D !.).D F F F F F F F F F F F F F F F F F F F F F F F F F F F F F F F F F F F F F F F F F F F F F F F F F F F F F F G F F F F F F F F F F F F F F F F F F F F F F F F F F F F F F G F F F F F F F F F F F F F F F F F F F F F F F F F F F F F F F F F F F F F F F F F F F F F F F F F G F F F t G G G G t G F F F F G F F F F F F F F F G F F F F F F F F F F F F F F F F F F F G D G F F G F F F F F F F F G 9 o % # X 2 0 9 9 0 9 9 9 9 0 7 9 9 9 9 9 9 9 9 9 0 9 9 0 9 9 9 9 9 9 9 9 0 9 0 0 0 0 7 0 9 0 7 7 H R./ 7 9 9 0 9 9 9 9 9 0 9 9 9 9 9 0 9 0 7 0 0 0 7 7 0 0 0 0 7 7 0 0 7 7 0 9 0 0 0 0 0 0 0 9 9 9 0 9 9 7 D 0 9 9 9 9 # # X o 2 D F F F F F F F G G G G G F G D 6.(.3.D D G F F G F G G G F F F F F F F F F F F F F F F F F F F F F F F F F F F F F F F F F F F F F F F F G F F F F F F F F F F G G G t G G F F F F F F F F F F F F F F F F F F F F F F F F F F F F F F F F F F F F F F F F F F F F F F F G G F F F F F F F F F F F F F F F G F F F F F F F F F F F F F F F F F F F F F F F F F F F F G F F F F F G F F F F G F F F F F G F F F F F F F F F F F F F F F F F F F F F F F F F F F F F F F F F F F F F F F F F F F F F F F F F F F F F F F F F F F F G F F F F F F F F F F F F F F F F F G F F F F F F F F F F F F F F F D % # X X $ 8 9 9 0 0 9 9 q 9 9 9 C 9 7 0 / 7.0 7 9 9 0 0 7 0 9 0 9 9 9 0 7 0 0 0 7 0 0 9 0 0 7 0 7 0 0 0 7 0 0 7 0 0 7 0 0 0 0 0 0 7 9 0 0 9 9 9 9 0 9 9 9 9 9 7 # X # o 3 G F F F F F F G F F F F F F F G F F F F F F G G D F F F F F F F F F G 1.).,.D F G F F F F G G D F G D F F F F F F F 2._.>.D G F F F F F F F F F F F F F F F F F F F F F F F F F F F F F F G F F F F F F F F F F F F F F F F F F F F F F F F F F G F F F F F F F F F F G F F F F F F F F F F F F F F F F F F F F F F F F F F F F F F F F F F F F F F F F F F F F F F F F F F F F F F F F G G F F F F F F F F F F F F F F F F F F F F F G F F F F F F F F F F F F F F F F F F F F F F F F F F F F F F F F F F F 2 # # # # 1 7 2 2 2 2 2 2 2 2 2 3 2 2 2 3 2 2 2 2 2 7 2 2 2 2 2 2 2 2 2 2 2 2 2 2 2 2 2 2 2 3 3 3 2 2 2 2 2 2 2 2 2 2 2 2 2 2 2 2 2 2 2 2 2 2 2 2 2 2 2 2 2 2 2 2 2 2 2 2 2 2 2 2 2 2 2 2 2 2 2 2 2 2 2 2 2 2 2 2 2 3 2 2 2 2 2 2 2 2 2 2 3 2 2 3 ",
"F F F F F F F F ,.p.8XyX7Xe.3.3.2.G G D F F F F F F F G F G F F G G F F F F F F F F F /.8XF F F F F F F F F F F F F F F G F F F F F F F F F F G G F F F F F F F F F F F F F F F F F F F F F F F F F F F F F F F F G F F F F F F F F F F F F F F F F F F F F F F F F F F F F F G F F F F F F F F F F F F F F F F F G F F F F G F F F F F F F F F F F F F F F F F G F F F F F F F F G G F G G G G F F F F F F F F F F F F F F F F F F F F F F F F F F F F F F F F F F G G F F F F F F F F F F F F G 6 o % # X 2 7 0 9 9 9 0 9 D K K.L.L.7.H 0 9 0 9 9 0 9 9 9 9 9 9 0 0 9 0 9 0 9 7 0 7 0 7 0 0 0 0 0 H './ 9 9 9 9 9 9 9 9 9 0 9 9 9 9 9 9 9 9 9 0 7 0 0 0 0 7 0 0 0 0 0 0 0 0 0 9 0 7 7 7 0 7 7 0 0 9 9 C 9 9 9 9 9 9 0 7 # X # # 1 F F G F F G J ~.rXrXyX_.i.3.F D R 2.G F G G F F F F >.1.G F F F F F F F F F F F F F F F F F F F F F F F F F F F F F F F F F F F F F F F F F F F F F F F F F F F F F G G G G F F F F F F F F F F F F F F F F F F F F F G F F F F F F F F F F F F F F F F F F F F G F F F F F G F F F F F F F F F F F F F G F F F F F F F F F F F F G F F F F F F F F F F F F F F F F F F F F F F F F F F F F F F F F F F F F F F F F F F F F G F F F F F F F F F F F F F G F F F G F F F F F F G F F F F F F F F F F F F F F F F F F F F F G F F F F F F F F F F F F F F F F F F G F F F F F F F F G F F F F F F F F F F $ # # # % 8 0 9 9 9 9 0 7.K.L.K.K.K.L./ H H 0 0 9 9 7 0 9 0 9 9 9 0 0 7 0 0 7 0 7 0 0 7 7 0 7 0 0 0 7 0 7 0 0 7 0 7 0 0 7 7 7 7 0 0 9 9 9 9 0 9 9 9 0 9 9 0 0 2 # # # # 3 D F F F F F <._.).2.F F F G w.7XW.3.F F F F F F G F F F F F F F F F D J 2.J D >.2.G G F F D G G F F G F F F F F F D R 2.G D G F G F F F F F F F F F F F F F F F F F F F F F F F F F F F G F F F F F F F F F G F F F F F F F F F F G F F F F F F F F F F F F F F F F F F F F F F F F F G G F F F F F F F F F F F F F G F F F F F F F F F F F F F F F F F F F F F F F F F F F F G F F F F G F F F F F G F F F F F F F F F F F F F F F F F F F F F F F F F F F F F F F F F F F F F F F F F F F F F F F F F F F F % # #   # 2 2 2 2 2 2 3 2 3 3 2 2 2 2 2 2 2 2 2 2 2 2 2 2 2 7 2 2 9 2 2 2 2 2 2 2 2 2 1 2 2 1 2 2 3 2 2 2 2 2 2 2 2 2 2 2 2 2 2 2 2 2 2 2 2 2 2 2 2 2 2 2 2 2 2 2 2 2 2 2 2 2 2 2 2 2 2 2 2 2 2 2 2 2 2 2 2 2 2 2 2 2 2 2 2 2 2 2 2 2 2 2 2 2 2 2 ",
"F F F F F F F J P.].U.P.T.9.>.t t G G D D D D D D D G D D D t D t D F F D t t D D F F /.8XF F F F F F F F F F F F F G F F F F F G F F F F F F F F F F F F F F F F F F F F F F F F F F F F F F F F F F F F F F F F F F F F F F F F F F G F F F F F F F F F F F F F F F F F F F F F F F F F F F F F F F F G F F F F F F F F F F F F F G F F F F F F F F F G F F F F F F F F F F F F F F F t G F F F F F F F F F F F F F F F F F F F F F G F F F G F F F F F F F F F F F G F F F F F F F F F F F F F 9 o % # # 7 9 9 9 9 9 9 7 K K.7.5.7./ H 9 9 7 7 7 > 0 9 9 9 7 9 9 9 7 9 7 7 9 7 0 0 7 0 7 7 7 0 7 e './ 9 7 7 9 9 9 9 9 9 7 9 7 9 9 9 0 9 0 0 7 0 7 0 7 0 0 0 7 0 0 7 0 7 0 7 9 0 0 0 0 0 0 0 9 9 9 9 7 9 9 9 9 9 9 9 9 $ X # # % F G D G F D J iXwXI.I.T._.T.1.D t t F F D t t t F t y.i.G D F D t t t D F F D D D t t t F F F D D t t D G D F t t D F F F F F F F F F F F F F F F F F F F F F F F F F F F F F F G F F F F F F F F F F G F F F F F F F F F F F F F F F F F F F F F F F F F F F F F F F F F F F F F F F F F F F F F F F F F F F F F F F F F G F F F F F F F F F F F F F F F F F F F F F F F F F F F F F F F F F F F F F F F F F F F F G F F F F F F F F F F F F F F F F F F F F F F F F F F F F F F F F F F F F F F F F F G F F F F F F F F F F F F F F F F F F F F F F F F F F F F F F F F F F F F F F F F F G F F F F F 1 # # X $ 8 9 9 9 9 9 0 K 5.7.K.R.7.7./ 9 7 7 0 7 7 7 7 7 0 9 9 7 7 9 0 7 7 9 9 0 7 9 0 0 9 0 0 0 7 0 7 0 0 0 0 0 7 0 7 0 0 0 0 7 0 0 7 9 0 9 9 9 9 9 9 9 9 9 7 X # # o 3 G F F F F D 1.gXgXy.F F F G ).gX].>.F F t t t D G F F D D D t D D D G D t F t q.I.J t F F D D D D D F F D t t t F D D t F G D D t D t D F F F F D t F D D F F F F F F F F F F F F F F F F F F F F F F F G F F F F F F F F F F G F F F F F F F F F F F F F F F F F F F F F F F G F G G G G F F F F F F F F F F F F F F F F F G F F F F F F F F F F F F F F F F F F F F F F F F F F F F t G F F F F F F F F F F F F F F F F F F F F F F F F F F F F F F F F F F F F F F F F F F F F F F F F F F F F F G F F F F % # # # # 2 2 7 2 2 2 2 2 2 2 2 2 2 2 2 2 3 2 2 2 2 2 2 2 2 2 2 2 2 2 2 2 2 2 2 2 2 t 0.W.W.U.2.e 4 3 2 2 2 2 2 2 2 2 2 t t 9 2 2 2 2 2 2 2 2 2 3 2 2 2 2 2 2 2 2 2 t t 3 2 2 2 2 2 2 3 2 2 2 2 2 2 2 2 2 9 2 2 2 2 2 2 2 2 2 2 2 2 2 2 2 2 2 2 2 ",
"F F F F F F F 1._._.G D 3.3.G 1.e.G F J 6.a.e.2.q.,.D >.q.2.e.i.9.>.F F ,.q.i.y.8.J F ^.wXF F F F F F F F F F F F F F F F F F F F F F F F F F F F F F F F F F G F F G F F F F F G F F F F F F F F F F F F F F F F F F F F F F F F F F F F F F F F F F G F F F F F F F F F F F F F F F G F F F F F F F F F F F F F F F F F F F F F F F F F F G F F F F F F F F F F F F F F F F F F F F F F F F F F F F F F F F F F F F F F F F F F F F F F F F F F F F F F F F F F F G G F F F F F F F F F F F F G 9 o % # # 2 0 9 9 9 0 9 D 5.R.H 9 0 H 0 > H / 5./ K 0 9 H / K 5./ D H / 5./ 0 0 7 H / K / 5.K 0 7 H './ 7 0 H / 5./ t 9 0 / / 5./ H 9 9 9 9 9 0 0 7 0 0 0 7 7 9 0 0 7 0 0 0 7 0 7 7 0 0 7 7 0 9 9 0 9 9 9 9 9 0 9 9 9 9 # # # # 1 D F F F G F J iXi.J D >.I.iXi.G >.e.R F 1.e.i.a.6.6.].iXP.w.J ,.0.i.a.8.J F 2.0.6.u.i.6.R D F 3.0.i.u.8.G R 9.i.y.2.G F F F G F F F F F F F F F F F F G F F F F F F F F F F F F F F F F F F F F F F F F F F F F F F F F F F F F F F F F F F F F F F F F F F F F F F F F F F F F F F F F F F F F F F F F F F F F F F F F F F F F F F F F F F F F F F F F F F F F F F F F F F F F F F F F F F F F F F F F F F F F F F F F F F F F F F F F F F F F F F F F F F F F F F F F F F F F F F F F F F F F F F F F F F F F F F F F F F F F F F F F F F F F F F F G F F F F F F F F F F F F F F F F F F F F F F F D 1 # # # # 0 0 9 9 9 9 9 9 9 H 5.t.D 7 7 H / 0 0 / / / 5./ D H / 5.K 0 0 0 0 H / 5./ t 9 9 9 0 7 9 0 0 0 0 7 0 7 0 0 0 0 7 0 0 7 0 0 0 0 9 0 9 9 9 0 9 9 0 9 0 7 # # # # 3 G D G F F F 1.aXuXP.,.F F 3.7XgX/.,.F R 9.a.a.6.J F F 2.9.6.i.y.2.R F 3.r.3.,.).iXp.e.R G 2.r.a.9.>.F F >.q.2.q.0.>.>.t.J F 2.q.6.a.a.2.R F G 3.0.a.9.6.0.G F F F F F F F F F F F F F F F F F F F F F F F F F F F F G F F F F F F F F F F F F F F F F F F F F F F F F F F F F F F t G G t F F F F F F F F F F F F F F F F F F F F F F F F F F F F F F F F F F F F G F F F F F F F F F G G F F F F F F F F F F F F F F G F F F F F F F F F F F F F F F F F F F F F F F F F F F F F F F F F F F F F F F F F F D 2 X # X # 1 2 2 2 2 2 2 3 2 2 2 3 2 3 2 2 2 2 2 2 2 2 2 2 2 2 2 2 2 2 2 2 2 2 2 2 F y.(.(././.(.0.e 2 2 2 2 3 3 2 % 2 1 3.y.0 2 2 1 1 2 1 2 2 2 2 2 2 2 2 2 2 2 2 1 8.8.9 2 2 2 2 2 2 2 2 2 2 2 2 2 2 2 2 2 2 2 2 2 2 2 2 2 2 2 2 2 7 2 2 2 2 2 2 ",
"F F F F F F F 1._._.>.F D F F a.aX3.G 9.).tXwXT.aXy.t 9.aX^.].uXwXr.F F 9.).rXrX].2.H /.8XD F F G F F F G F F F F F F F F F F F F F F G F F F F F F F F F F G F F F F F F F F F F F F F F F F F F F F G F F F F F F F F F F F F F F F F F F F F F F F F F F F F F F F F F F F F F F F F F F F F F F F F F G F F F F F F F F F F F F G F F F F F F F F F F F F F F F F F F F F F F F F F F F F F F F F F G F F F F F F F F F F F F F F F F F F F F F F F F F F G F F F F F F F F G F F F F F F F G 9 # X % X 3 9 9 9 D 9 9 D 5.L.H 7 7 9 7 0 / K.R.R.K.0 0 K.K.t.R.R.7.7.K.R.K./ 0 7 5.R.7.L.R.7./ 7 t './ 7 H 5.L.R.K./ D H K.K.R.K./ 9 9 9 9 9 0 7 0 0 0 7 0 0 9 9 9 9 9 9 0 0 0 0 7 0 0 7 0 0 9 9 9 9 9 9 9 7 9 9 9 0 9 # # X # % D G F F F D J iXP.J D F R yX!.,.e.gX>.R I.yXrXyXU.I.iXgXiX/.>.0.^.rXtX7X2.J T.pXE.8XiX).8.D R y.6XyXyXE.J u.7XrXyX!.,.G F F F F F F F F F F F F F F F F F F F F F F F F F F F F F F F F G F F F F F F F F F F F F F F F F F F F F F F F F F F F F F F F F F F F G F F F F F F F F F F F F F F F F F F F F F F F F F F F F F F F F F F F F F F F F F F F F F F F G F F F F F F F F F F G F F F F F F F F F F F F F F F F F F F F F F F F F F F G G t F F F F F F F F F F F F F F F F F G F F F F F F F F F F F F F F F F F F F F F F F F F F F F F F F F F F F F F F F F F F F F F F F F F F F F F F F F $ X X # $ 8 9 9 0 9 0 9 9 9 H 7.K.D 9 9 7.'.0 0 K.K.t.L.'.5.7.K.R.K.K 0 7 H 7.K.L.K./ 0 9 9 9 9 9 0 7 0 0 7 0 0 7 0 7 7 0 0 0 7 0 7 7 7 0 0 > 0 0 9 9 9 0 9 9 7 % # # X 2 F F F F F D 1.sX/.!.w.F J 9.^.iX`.>.R e._.rXrX).9.G G ^.iX!.wXiX/.4.D 6.gX1.w.iXhXrX).,.4.!.yXrX8Xu.>.D 9.aXU.].Q.4.9.gX>.F T.iX!.yXiX/.6.D R i.yXrX/._.pX3.F F F F F F F F F F G F F F F F F F F F F F F F F F F F F F F F F F F F F F F F F F F F F F F F F F F F F F F F F F F F F F F F F F F F F F F F F F F F F F F F F F F F F F F F F F F F F F F F F F F F F F F F F F F F F G G F F F F F F F F F F F F F F F F F F F F F F F F F F F F F F F F F F F F F F F F F F F F F F F F F F F F F F F F F F 1 # # # # 2 2 2 2 2 2 2 2 2 2 2 2 2 2 2 2 3 2 2 2 2 2 2 2 2 2 2 2 2 2 2 9 2 2 3 3 y.wXp.t 2 t Q.wX6.3 9 G t 2 2 9 3.0 0 a.tX2.3.0 t J D 3.3.t 3 3 0 3.8 2 2 9 3.9 t 6X6X,.J 9 2 2 2 2 2 2 2 2 2 2 2 2 2 2 2 2 2 2 2 2 2 2 3 7 2 2 2 3 2 2 2 3 2 2 ",
"F F F F F F F J T.iXI.1.J F F u.aXJ J _.).2.>.T.gXi.t q.gXT.,.,.^.yXJ F 1.1.J 4.rXp.K ^.8XF F F F F F F F F F F F F F F F F F F F F F F F F G F F F F F F F F F F F F F F F F F F F F F F F F F F F F F F F F F G F F F F F F F F F F F F F F F F F F F G F F F F F F F F F F F G F F F F F F G F F F F F F F F F F F F F F F F F F F F F F F F F F F F F F F F F F F F F F F F F F F F F F F F F F F F F F F F F F F F F F F F F F F F F F G F F F F F F F F F F F F F F F F F F F F F F F F F G 9 X # # # 7 9 9 9 7 9 9 9 K R.K.H e 0 0 7 H H 0 / K./ 9 K.R./ t 7.'.7.t H K.7.H 7 7.~.5.e H K.t.0 H './ 7 / K./ t 5.t.5.5.K.H 0 D 0 9 9 0 9 9 0 0 7 0 0 0 7 0 9 0 9 9 0 9 7 0 7 0 9 0 0 0 0 7 0 9 9 9 9 9 9 D 9 0 9 9 9 # # # # % D G F F F F R tXP.J F F G ^./.6.w.aX>.6.).I.R R 1.J ^.7X3.G D 1.1.R 4.yXi.>.!.aXu.^ 6.yXE.D 2.pXI.>.R ^ 2.iXP.>.w._.p.J F F F F F F G F F F F F F F F F F F F F F F F F F F F F F F F F F F F F F F F F F F F F F F F F F F F F F F F F G F F F F F F F F F F F F F F F F F F F F G F F F F F F F F F F F F G F F F F G F F F F F F F F F F F F F F F F F F F F F F F F F F F F F F F F F F F F F F F F F F F F F F F F F F F F F F F F F F G G G G F F F F F F F F F F F F F F F F F F F F F F F F F F F F F F F F F F G F F F F F G F F F F F F F F G F F F F F F F F F F F F F F F G F F F F F F F D 1 # # X 1 9 0 9 9 9 9 9 9 9 H 5.t.D 9 9 5.R.0 > K.L./ t 7.'.7.D H K.7.H 7 5.L.K 0 7.t./ 9 9 0 0 9 9 7 0 0 7 0 7 0 0 0 0 7 0 0 7 0 0 0 0 0 7 0 9 9 9 0 9 9 9 0 7 # # o # 3 F F F F F t 1.aXy._.I.t R E.i.yX).3.1.iXI.>.2.T.8X>.F ).aXy.R 6.iXI.D 6.gX2.D E.yX>.J J /._.2.>.i.yXe.D 9.gX_.2.F D 9.gX,.F /.aXr.R 6.tXY.D 6.aXr.^ 8.8XaXR F F F F F F F F F F F F F F F G F F F F G F F F F F F F F F F F F F F F F F F F F F F F F F F F F F F F F F F F F F F F F F F F F F F F F F F F F F F F F F F F F F F F F F F F F G F F F F F F F F F F F F G F F F F F F t G F F F F F F F F F F F F F F F F F F F F F F F F F F F F F F F F F F F F F F F F F F F F G F F F F F F F F F F F F F 2 # X # # 2 2 2 2 2 3 2 3 2 3 2 2 2 2 2 2 2 2 2 2 7 2 2 2 2 2 2 2 2 2 2 2 2 2 3 9 wXQ.t 3 2 2 3.Q.Q.8 D tX0.% 2 D dX2.2.tXlXsXwX3.a.eXp.sXuXp.t 3 ,.sXJ 1 2 6.sXt a.dXhXuX(.0 2 2 2 2 2 2 2 2 2 2 2 2 2 2 2 2 2 2 2 4 2 2 2 2 2 2 2 2 2 2 2 2 2 2 ",
"F F F F F F F F ,.P.rXiXT.,.D u.aX3.2._.Y.F G 4.aXP.t w.gX6.G D P.iX3.G J J F <.).U.>.^.wXD F F F F F F F F F F F F F F F G F F F F F F G t t G F G F F F F F F F F F F F F F F F F F F F F F F F F F F F F F F F F F F F F F F F F F F F F F F F F F F F F F F F F F F F F G F F F F F F F F F F F F F F F F F F F F G F F F F F F F F F F F F F F F F F F F F G G F F F G F F F F F F F F F F F F F F F F F F F F F F G F F F F F F F F F F F F F F F F F F F F F F F F F F F F F F F F F F F G 9 X X X # 2 9 9 9 9 9 9 9 C / K.L.K.H 9 0 7 0 9 H K.5.e K.K.0 0 / '.5.7 t / K.H 7 7.'.H 7 0 t.K.H e './ e 5.K.0 9 K t.t./ L./ 0 0 0 9 0 > 9 9 7 7 0 0 7 7 0 0 9 9 9 0 0 9 0 9 9 0 9 9 0 7 0 7 0 9 0 9 9 9 9 9 9 9 9 0 7 $ #   # % D G F F F D J iXI.R F F G Y./.q.w.dX>.1._._.2.G G D ^.7XR F G G J D >.^.U.<.!.tX>.F F 7X^.>.e.rX6.D F R 0.yX6.D 1.U._.3.D F F F F F F F F F F F F F F F F F F F G F F F F F F F F F F F F F F F F F F F F F F F F F F F F F F F F F F F F F F F F F F F G F F F F F F F F F F F F F F F F F F F F F F F F F F F F F F F F F F F F F G F F F F F F F F F F F F F F F F F F F F F F F F F F F F F F F F F F F F F F F F F F F F F F F F F F F G G G G F F F F F F F F F F F F F G F F F F F F F F F F F F F F F F F F F F F F F F G F F F F F F F F F F F F F F F G F F F F F F F F F F F F F D G F F G D 1 # # X % 8 9 9 9 9 9 0 9 9 H 7.t.C 9 9 5.'.0 0 L.t.9 0 / R./ 7 H 5.t.H t t.t.7 0 / K./ 7 9 9 9 9 9 0 0 0 0 0 0 7 7 0 7 0 0 0 0 7 0 0 0 0 7 9 9 0 7 9 9 9 0 9 7 # # o # 2 F F F F F F 1.iX9.).E.J <.yX6./.).2.w.rX6.F F q.pX6.G _.yX3.F G yX!.F 4.gX2.e E.yX^ G 2.7XU.F D >.tXI.H 0.gX9.J D D 9.gX>.D ).yX>.F J wX^.K y.rX2.D K I.aXR F F F F F F F F F F F F F F F F F F F F F F F F F F F F F F F F F F G F F F F F F F F F F F F F F F F F F F F F F F G F F F F F G F F F F F F F F F F F F F F F F F F F F F F F F F F F F F F F F F F F F F F F F F F F F F F F F F F F G F F F F F F F F F F F F F F F F F F F F F G F F F G F F F F G F t G F F F F F F F F F F F F F F F F F F % # # # # 1 7 2 2 2 2 2 3 2 2 2 2 2 2 2 2 2 2 2 2 2 2 7 2 2 2 2 2 2 2 2 2 2 2 3 G eXp.2 2 2 2 0 Q.eX0 F sX0.1 1 D gX2.3 a.sX3.t 9 Q.dXq.J 8.eXa.3 ,.dXJ 1 1 6.dXt 9 wXwXt t 2 2 2 3 2 2 3 2 2 2 2 2 2 2 2 2 2 2 2 2 3 2 2 2 2 2 2 2 2 2 2 2 2 7 2 ",
"F F F F F F F F H K 9.I.rXI.,.a.aX3.9._.a.D G R aXi.t w.aX,.D t P.iX>.F 8.Q.wXyXaXT.1.^.8XD F F F F F F F F F F F F F F F F F F F F F G G G G G F F F F F F F F F F F F F F F F F F F F F F F F F F F F F G F F F F F F F F F F F F F F F F F F F F F F F F F F F F F F F F F F F F F F F F F F F F F F F F F F F F F F G F F F F F F F F F F F F F F F F F F F F G F F F F F F F F F F F F F F F F F F F F F F F F F F F F F F F F F F F F F F G F F F F F F F F F F F F F F F F F F F F F F G G 9 # # # X 2 9 9 9 7 D 9 7 7 D H K K.K.K 0 K K.K.R.R.5.t K.7.7 0 K R./ 7 e / t.H 7 7.R.0 > 7 7.K.H H R./ H K.'.K.K.L.R.t.t 5.K.K./ 0 9 0 0 0 0 0 0 0 7 0 0 0 7 0 0 9 9 9 9 9 9 9 9 9 9 0 7 0 0 9 9 0 9 C 9 9 9 0 9 9 9 7 # # # X 2 D G F F F F J tXi.R F F G !./.9.w.aX3.G q.^.7X!.1.D /.].R F F 9.!.8XyXaXE.1.!.yXF F D 7X^.,.u.8X1.D D ^ i.gXtX8XyXiXyX>.F F F F F F F F F F F F F G F F F F F F F F F F F F F F F F F F F F F F F F F F F F F F F F F F F F F F F F F F F F F F F F F F F F F F F F F F F F F F F F F F F F F F F F F F F F F F F F F F F F F F F F F F F F F F F F F F F F F F F F F F F F G F F F F F F F F F G F F F F F F F F F F F F F F F F F F F F F G G t G F F F F F F F F F F F F F F F F F F F F F F F F F F F F F F F F F F F F F F F F F F F F F F F F F F F F F F F F F F F G F F F F F F F F G F F G G D $ # X # $ 8 9 0 0 9 9 9 9 7 D 7.t.0 9 > 5.'.0 0 R.7.7 0 K R./ 9 t 5.t.t K t.~.K.K.R.'.5.0 9 9 0 0 9 0 7 7 0 7 0 0 0 0 0 0 7 7 0 0 0 7 7 0 0 9 9 0 0 9 9 9 9 9 2 # # # # 7 F F G F F D 2.iX6.P.E.0.9.7X<././.6.u.7X2.D D 4.aX9.J ).].F F F yX^.H 4.gX1.t T.yX3.G 9._.p.D F H yXT.R q.gX<.F F G 9.gX,.D ).wXF F F ].^.,.P.7X>.D F r.aXR F F F F F F F F F F F F F F F F F F F F F F F F F F F F F F F F F F F F F F F F F G F F F F F F F F F F F F F F F F F F F F G F F F F F F F F F F F G F F F F F F F F F F F F F F F F F F F F F G F F F F F F F F F F F F F F F F G F F F F F F F F F F F F F F F F F F F F F F F F F F F F F F F F F G G G G F F F F F F F F F F F F F F F F F D 2 X # X # 2 2 2 2 2 2 2 2 2 2 2 2 3 2 2 7 2 2 2 2 2 2 2 2 2 2 2 2 2 2 2 2 2 3 2 ,.eXa.1 2 2 3 2 p.uXt F tXq.1 2 D fX6.1 q.uXt 3 2 /.tXt 2 0 wXW.F 1.sXJ 2 1 6.dXG 2 Q./.4 3 2 2 2 2 2 2 2 2 2 2 9 2 2 2 2 2 2 2 2 2 3 3 2 2 2 2 2 2 2 2 2 2 3 2 2 ",
"F F F F F F F t G t G ,.^.).8.e.sXR 0.].i.D F 3.aXa.t q.aX>.D t P.iX,.2./._.I.Q.rXT.>.^.eXt F F F F F F F F F F F F F F F F F F F F F F F F F F F F F F F F F F F F F F F F F F G F F F F F F F F G F F F F F F F F F F F F F F F F F F F F F F F F F G F F F F F F F F F F F F F F F F F F F F F F F F F F F F F F F F F F F F F F F F F F F F F F F F F F F F F F F F F F F F F F F F F F F F F G t G G G G t F F F F F F F F F F F F F F F F F F F F F F F F F F F F F F F F F F F F F F F F H 9 X X X % $ 0 9 9 9 9 0 9 9 9 9 0 5.K.5.K K.7.5.7.L.5.S K.t.7 0 K K./ 7 e 5.t.H 7 5.R.0 7 7 5.K.H H './ H t.R.5.5.5.5./ 9 D / K.7./ 7 0 7 0 7 9 9 9 9 q 0 9 9 9 9 0 9 9 9 0 > 0 7 0 0 0 7 7 0 9 0 9 9 9 9 9 0 0 9 9 9 9 $ # # # 1 F F F F F F J iXP.R F F J wX!.1.w.dX3.D R 6.I.).T.>.^.7XR G 2.^.).U.E.yX!.1.E.yXD G D 7X^.,.u.8X1.D D R u.pX!.P.U.i.w.R D F F F F F F G F F F F F F F F F F F F F F F F F F F F F F F F F F F F F F F F F F F F F F F F F F F F F F F F F F F F F F F F F F F F F F F F F F F F F G F F F F F F F F F F F F F F F F F F F F F F F F F F F F F F F G F F F F F F G G G t G G F F F F F G F F F F F F F F F F G F F F F F F F F F F F F F F F F F F F F F F F F F G F F F F F F F F F F F F F F F F F G t F F F F F F F F F F F G F F F F F F F F F F F F F F F F F F F F F F F F F F F F F F F F F F G D % # # # % 0 9 9 0 9 9 9 0 9 D 7.K.0 7 0 5.'.0 0 R.7.7 0 / K./ 7 H 5.t.H K t.R.5.7.5.5.H 0 9 9 9 9 9 9 9 9 9 9 9 9 0 7 0 0 0 7 7 0 0 9 0 9 0 > 0 7 0 0 9 9 9 D 7 % X X X 3 F F F F F D 1.aX6.6.E.`.P.W.3.^.).6.a.yX2.D D 6.pX9.G ).].t F G yX!.J 6.gX2.t E.yX3.G 8._.P.t F G rXY.J w.aX>.D F F 8.gX,.D ).7XD F G wX^.,.P.7X,.F F r.sX3.t F F F F F F F F F F F F F F F F F F F F F F F F F F F F F G F F F F F F F G F F F F G F F F F F F G F F F F F F F G F F F F F F F F F F F F F F F F F F F F F F F F F F F F F F F F F F F F F F G F F F F F F F F F F F F F F F F F F F F F F F F F F G F F F F F F F F F F F F F F F F F F F G F F F F G G F F F F F F F G F F F F F F F F F F 2 # # # # 2 3 3 2 2 2 2 2 2 2 2 2 2 2 3 2 2 2 2 2 2 2 2 3 2 2 2 2 2 2 2 2 2 3 7 ,.eXa.1 3 2 2 2 p.tXt F uXq.1 2 t fX6.1 e.uXt 4 3 (.6X2 2 2 Q.Q.R ,.dXJ 2 1 8.fXF 1 (./.9 2 2 2 2 2 2 2 2 3 2 2 9 2 2 2 2 2 2 2 2 2 2 2 2 2 2 7 2 2 2 2 2 2 2 2 2 ",
"F F F F F F F J 3.t t G I.).9.r.aXR 2.].T.G F 8.gXi.t w.gX3.D D i.iX1.r.yXr.t 1.].T.1.^.wXF F F F F F F F F F F F F F F F F F F F F F F F F F F F F F F F F F F F F F F F F F F F F F F F F F F F F F F F F F G F F F F F F F F F F F G F F F F F F F F G F F F F F F F F F F F F F F F F F G F F F F F F F F F F F F G F F F F F F F F F F F G F F F F F F F F F F F F F F F F F F F F F F F F F G G F t G G G F F F F F F F F F F G F F F F F F F F F F F F F F F F F F F F F F F F F F F F F H 9 $ X X $ 7 0 0 9 0 9 9 0 0 0 9 7 / t.7.5.L.K 9 K K.7.D K.7.8 0 K K./ 7 H 5.K.H 7 7.'.K 0 e K.K.H e './ 0 5.K.D 7 7 7 9 0 9 7 H 7.K.7 0 0 0 7 9 0 9 9 9 9 9 9 0 9 9 9 0 9 0 0 0 0 0 7 0 0 0 0 9 9 9 9 0 9 0 > 9 9 9 0 7 $   # # 1 D G F F F D R rXi.G D 3.e.iXP.G t.aX3.G G D R i.iX2.!.7X3.G e.yXi.t >.7XT.1.!.8XF F D 7X).^ 0.pX9.F D R 9.tX9.D t t G F F F F F F F F F F F F F F F F F G F F F F F F F F F F F F F F F F F F G F F F F F F F F G F F F F F F F F F F F F F F F F F F F F F F F F F F F G F F F F F F F F F F F F F F F F F F F F F F F F F F F F F F F F F F F F F F F F F F F F F G G G G F F F F F F F F F F G F F F F F F F F F F F F F F F F F F F F F F F F F F F G F F F F F F F F F F F F F F F G F F F F F G G G F F F F F F F F F F F F F F F F F F F F F F F F F F F F F F G F F F F F F F F F F F F F F G D % # # # $ 7 9 9 9 9 0 9 0 7 H 7.t.0 0 7 5.R.e 0 L.7.7 0 H K./ 7 e 5.t.H e 7.t.e 7 > 9 7 > 0 9 0 9 9 9 9 9 9 9 9 9 9 7 0 7 0 0 0 7 0 9 9 9 9 9 0 0 0 9 9 9 9 7 7 $ $ # # 2 F F F F F F 1.pX6.J Y.aX_.9.G ^.).1.9.iX9.F G r.aX1.F _.7XF F F wX!.G 4.gX1.t T.yX>.F 1.].^.J G 2.rXp.F 9.gX>.D F F 7.gX,.F /.8XD F D 8X!.3.q.iX6.D K T.gX3.F F F F F F F F F F F F F F F F F F F F F F F F F F F F F F F F F F F F F F F G F F F F F F F F F F F F F F F F F F F F F F F F F F F F F F F F G F F F F F F F F G F F F F F F F F F F F F F F F F F F F G F F F F F F F F F F F F F F F F F F G F F F F F F F F F F F F F F F F F F F F F F F F F F F F t G F F F F F F F F F F F F F F F F F F 1 # # X # 1 2 2 2 2 2 3 2 2 2 2 2 3 2 2 2 2 2 2 2 3 2 2 2 2 2 2 2 2 2 2 3 2 2 2 t eXW.2 2 2 2 e Q.eXe t uX0.2 4 G fX2.1 e.uXt 9 3 Q.wX3 2 2 Q.Q.3.,.sX3.2 1 8.fXt 2 (.(.9 2 2 2 2 2 2 2 2 2 2 2 2 2 2 2 2 2 2 2 2 2 2 2 2 2 2 2 2 2 2 7 2 2 2 2 2 ",
"F F F F F F F ,.8.8.6.8._.U.1.a.aXR F ^.].e.6.!.gXu.D w.dX>.D t i.iX,.q.].U.5.r.tXQ.,.^.wXF F F F F F F F F F F F F F F F F F F F F F F F F F F F F F F F F F F F F F F F F F F F F F F F F F F F F F F F F F F F F F F F F F F F F F F F F F F F F F F F F F F F F F F F F G F F F F F F F F F F F G F F F F F F F F F F F F F F F F F F F F F F F F G F F F F F F F F F F F F F F F F F F F F F F F F G G t G F F G F F F F F F F F F F F F F F F F F F F F F F F F F F F F F F F F F F F F F H 7 X $ $ X 7 0 9 9 9 9 9 0 H / K H 5.K./ / K./ K 5.L.5.D K.t.7 9 K K./ 7 e 5.t.H 7 5.[.7.K / K.5.> D './ $ / L.5./ H H H H / K / K.7.9 9 0 0 0 9 9 9 C 9 9 9 0 > 9 9 9 7 0 7 0 0 7 0 7 7 7 0 7 9 9 9 9 9 9 0 9 9 0 9 9 9 # # # # % D G F F F F R rX^.8.6.r.yX).6.D e.gX3.<.6.6.6.P.wX2.I.7Xe.6.r.].I.4.u.rXE.,.!.yXD G D 7X/.R 1.rXT.7.6.6.3.wXE.7.2.6.2.G D G F F F F F F F F F F F F F F F F F F F F F F F F F F F F F F F F F F F F G F F F F F F F F G F F F F F F F F F F F F F F F F F F F F t G F F F F F F F F F F F F F F F F F F F F F F F F G F F F F F F F F F F F F F F F F F F F F F F F F F F F F F F F F F F F F F F F G F F F F F F F F F F F F F F F F F F F F F F F F F F F F F F F F F F F F F F F F F F F F F F F G G G F F F F F F F F F F F F F F F F F F G F F F F F F F F F F F F F F F F F F F G F F F F F F G D 1 # # # $ 7 C 9 9 9 0 0 9 9 H 7.K.e 0 7 7.R.q e R.7.7 0 / K./ 7 e 5.t.H 7 5.L./ / H K H 0 7 9 9 9 9 9 D 9 C 9 D 9 9 0 7 0 0 0 7 0 0 9 9 9 9 0 0 7 7 C 9 9 9 9 7 X # # o 3 G F F F F F 1.pX8.F a.dXrX3.D /.).3.,.yXE.9.q.^.^.3.F _.].D F G wX^.J 8.gX2.t p.yXe.2.J Q._.t.8.T._.9.t q.gXK D F D 9.gX,.D ).].D D G 8X^.G 2.rXU.6.e.yXaX3.F F F F F F F F F F F F F F F F F F F G F F F F F F F F F F F F F F F F F F F F F F F F F F F F F F F F F F F F F F F F F F F F F F F F F F F F F F F F F F F F F F F F F F F F F F F F F F F F F F F F F F F F F F F F F F F F F F F F F F F F F F F F F F F F F F G F F F F F F F F F F F F F F F F F F F F F F F F F F F F F F F F F F F F F F % X # # # 2 3 2 2 3 2 2 2 3 2 7 2 2 2 2 2 3 2 2 2 2 2 2 3 7 3 2 2 2 2 2 2 2 2 2 9 6X(.R 2 3 3 6.(.W.4 t sXy.1 8 2.hX2.1 q.uXF 2 3 /.eXF 3 9 wXQ.t >.dX3.2 9 a.fXF 2 /./.0 2 2 2 2 2 2 2 2 2 2 2 2 2 2 2 2 2 2 2 2 2 2 2 2 2 2 2 2 2 2 2 2 2 2 2 7 ",
"F F F F F F F 2.^.aXsXtX^.2.D e.iXR D 2.^.sXtXT.gXr.t 9.pX>.D D i.yX>.3.Q.pXiX_.U.P.>.!.].F F F G F F F F F F F F F F F F F F F F F F F F F F G F F F F G F F F F F F G F F F F F F F F F F F F F F F F F F F F F F F F F F F F F F F F F G F F F F F F F F F F F F F F F F F F F F F F F F F F F F F F F F F F F F F F F F F F G F F F F F F F F F F F F F F F F F F F F F F F F F F G F F F G F G F F G G 3.t F F F F F F F F F F F F F F F F F F F F F F F F F F F F F F F F F F F F F F F F H 9 X $ X $ $ 9 9 0 9 0 > D 5.R.R.R.K./ 0 H K.R.K.K.5.5.D t.7.8 0 H K./ 7 H / t.H 9 5.'.t.R.R.7.H 9 H R./ 7 e / K.R.R.K./ / R.R.'.7.H 0 0 7 7 0 0 9 9 9 9 9 9 0 0 9 9 0 0 0 7 0 0 7 0 0 0 0 0 0 0 9 9 0 9 9 0 9 9 9 0 9 9 $ # # # $ D G F F F F R yXaXsXpXrXY.,.G D q.iX3.1.).pXpXeX0.J 6.^.pX].1.E.pXiX_.U.P.,.E.7XD G D /.^.J J 9.7XpXaXE.J 6.).pXaX8Xq.J F F F F F F F F F F F F F F F F F F F F F F F F F F F F F F F F F F F F F F F F F F F F F F F F F F F F G F F F F F F F F F F F F F F F F G F F F F F F F F F F F F F F F F F F F F F G F F F F F F F F F F G F F F F F F F F F F F F F F F F F F F F F F F F F F F F F F F F F F F F F F F F F F F F F F F F F F F F F F F F F F F F F F F F F F F F F F F F F F F F F F F G t G F F F F F F F F F F F F F F F F F F F F F F F F F F F F F F F F F F F F F F F F F F F F F F D 1 #   # % 9 9 9 9 0 7 7 0 9 D 5.t.e 7 0 5.R.0 0 K.7.9 0 H K./ 7 H 5.t.H 7 e / R.'.R.7.H 9 0 0 9 9 0 9 7 9 9 9 7 9 9 0 0 0 7 0 0 0 7 0 9 9 9 7 0 0 0 9 9 9 0 9 7 $ X % X 3 G F F F F t 1.tX6.F 8.`.!.R D !./.>.G 6._.iXiX!.,.F F ^._.D F G 6XT.G 6.pX1.t 1.^.pXwX,.>.T.iXuX7X8.J D 9.iX>.F F F 8.pX,.F ^._.F G G _.T.G R w.yXpX].(.aX3.t F F F F F F F F F F F F F F F F F F F F F F F F F F F F F F F F F F F F F F F F F F F F F F F F F F F F F F F F F F F F F F F F F F F F F F F F F F G F F F F F F F F F F F F F F F F F F F F F F F F F F F F F F F F F F F F F F F F G F F F F F F F F F F F F F F F F F F F F F G F G F F F F F F F F F F G F F F F F F F F G F F F F F F F D 2 # X # # % 3 2 2 2 2 3 2 2 2 2 2 2 2 2 2 2 2 2 2 2 2 2 2 2 2 2 3 2 2 2 2 2 2 2 2 8.6XQ.G t 3.(.(.>.3 9 eXW.G J E.hX2.1 0.eX6.t 7 Q.dXq.t 6.eXa.2 J sXq.t ,.wXfXt 1 Q.(.3.0 3 2 2 2 4 2 2 2 2 2 2 2 2 2 2 2 2 2 2 7 2 2 2 2 2 2 2 2 9 2 2 2 3 2 2 ",
"F F F F F F F J >.,.2.,.3.G F R ,.G F G 3.1.,.2.iXa.t J <.F F F R ,.F F >.,.1.>.3.R H 3.,.F F F D G F F F F F F F F F F F F F F F F F F F F F F F F F F F F F F F F F F F F F G F F F F F F F F G F F F F F F F F F F F F F F F F F F F F F F F F F F F F F F F F F F F F F F F F F F F F F F F F F F F F F F F F F F F F F F F F G F F F F F F F F F F F F F F F F F F F F F F F F F F F F G F F F F F G G t G F F F F F G F F F F F F F F F F F F F F F F F F G F F F F F F F F F F F F F F F F 9 o % X % $ 0 9 9 7 0 9 0 e H H H D e 9 9 D H S D D C 0 D D 9 9 0 t 0 0 0 t H 0 0 7.R.H H H 0 0 9 0 H 0 0 0 0 D H H D 0 0 H H H D 9 9 0 9 9 9 9 D 7 9 9 9 0 9 0 0 0 0 0 0 0 7 0 7 0 0 0 7 7 0 7 0 0 0 9 9 9 9 9 9 9 9 7 # X # # 1 D F F F F F F ,.,.,.2.>.3.G F F R ,.G J >.1.2.,.J G J ,.,.,.G 3.,.,.>.3.3.G R >.F F F >.>.G G R >.,.2.3.F J >.,.,.,.R G F F F F F F F F F F F F F F F F F F F F F F F F F F F F F F F F F F F F F F F F F F F F F F F F F F F F F F F F F F F F F F F F F F G G t G F F F F F F F F F F F F F F F F F F F F F F F F F F F F F F F F F F F F F F F F F F F F F F F F F F F F F F F F F F F F F F F F F F F F F F F F F F F F F F F F F F F F F F F F F F F F F F F F F F G F F F F F F F F F F F F G F F F F F F F F F F F F F F F F F F F F F F F F F F F F F F F F F F F F F F F F F F F F F F F F F D # # # o # 7 0 9 9 9 0 0 0 0 0 e t 0 0 0 t t 0 7 H e 0 0 0 H 0 0 0 0 t 0 0 0 e H H H D 0 > 9 0 9 9 9 9 D 7 9 9 9 0 q 0 9 9 9 7 7 0 0 9 0 9 0 9 9 7 D 9 7 9 9 9 9 $ # # X 3 G F F F F F F 1.G F G 3.3.G F 3.3.G G J >.1.,.3.G F F >.3.F F F ,.3.G 3.,.J F J 3.,.>.J F 3.,.1.,.G F F R 1.G F F F J ,.J F 3.>.F G F >.3.F G R >.2.>.u.pX3.F F F F F F F F F F F F F F G F F F F F F F F F F F F F F F F F F F F F F G F F F F F F F F F F F F F F F F F F F F F F F F F F F G F F F F F F F F F F F F F F F F F F F F F F F F F F F F F G F F F F G F F F F F F F F F F F F F F F F F F F F G F F F F G F F F F F F F F F F F F F F F F G F F F F F F F F F F F F F F F G F F F G F F F F F 2 # # # # 1 2 2 2 2 2 2 2 2 3 2 2 2 2 2 7 2 7 3 2 2 2 2 2 2 2 2 2 2 2 2 3 2 2 2 2 9 6.(.tXuXtXW.,.8 2 8 8.wXsXwXW.sX,.2 J Q.uXwXR W.sXQ.tXsXi.J 1 t a.eXuX/./.uXt 2 2._.sXQ.0 2 3 2 3 2 2 2 2 2 2 2 2 2 2 2 2 2 2 2 2 2 2 7 2 2 2 2 2 2 2 2 2 2 2 ",
"F F F F F F F F D D D D F D F F D D G >.R t G e.yXe.D F D F F F F F F F D D D D D F F D t F F F D G F F F F F F F G F F F F F F F F F F F F F F F F F F G F F F F G F F F F F F F F F F F F F F F F F F F F F F F F F F F F F F F F F F F F F F F F F F F F F F F F F F F F F F F F F F F F F F F F F F F F F F F F F F F F F F F F F F F F F F F F F F F F F F F F F F F F G F F F F F F F F F F F F F G G G G F F F F F F F F F F F F F F F F F F F F F F F F F F F F F F F F F F F F F F F F F 9 # # $ X 7 0 9 0 0 0 9 9 9 7 9 7 7 9 9 9 7 9 7 9 7 7 9 9 9 9 9 9 0 7 0 7 7 0 0 7 5.R.0 7 0 7 9 9 9 7 0 7 7 0 7 9 7 9 9 9 9 7 9 9 > 9 9 9 0 9 9 9 9 9 0 9 9 9 7 7 0 7 7 0 0 0 0 7 0 7 0 0 0 0 0 0 7 7 0 9 0 9 9 9 9 0 0 # # # # 1 F F F F F F F F t F t F D F F F D D F F D D F t t F t F t t F D D D D F F F D D F F F D D F F D D D t F F F D F D D D F F F F F F F F F F F F F F F F F F F F F F F F F G F F F F F F F F F G F F F F F F F F F F F F F F F F F F F F F F F F F F F F G F F G F G G F F F F F F F F F F F F F G F F F F F F F F F F F F F F F F F F F F F F F F F F F F F F F F F G F F F F F F F F F F F F F F F F F F F F F F F F F F F F F F F F F F F G F F F F F F F F F F F F F F F F F F F F F F F F F F F F F F F F F F F F F F F F F F F F F F F F F F F F F F F F F F G F F F F F F F F F F F F F F F F F F F % # # # % 7 9 9 0 9 0 7 7 0 0 7 9 9 7 0 0 7 0 0 0 7 0 7 9 7 9 9 9 9 7 9 9 7 0 9 0 $ 9 9 0 9 9 9 0 9 9 9 9 9 0 9 9 9 9 9 9 9 0 0 0 9 9 0 9 9 9 9 9 9 9 D 9 9 9 7 # # # X 3 D F F F F F F F F F F F F F F D F F G D D D D F F F F D F F F F F t F t t F F F F F t F F D D D D F F F F D F G F F F t F F F D F D G D D F G >.F t >.!.7X3.t F F F F F F F F F F F F F F F F F F F F F F F F F F F F F F F F F F F F F F F F F F F G F F F F G F F F F F F F G F F F F F F F F F F F F F G F F F F F F F F F F F F F F G F F F F F F F F F F F F F F F F F F F F F G F F F F F F F F F F F F F F F F F F F F F F F F F F F F F F F F F F F F F F F G F F F F F F F F F F F F F F F F F F F F % # # # # 2 3 2 3 2 2 2 3 2 2 2 2 2 2 2 2 2 2 2 2 2 2 2 2 2 2 2 2 2 2 2 2 2 2 2 2 2 9 3.2.6.2.J 9 2 2 2 t >.2.,.R ,.0 2 8 J 6.,.e Q.eXG 2.2.t 9 2 9 t 2.6.>.J ,.9 2 0 R 2.,.7 2 2 2 3 3 2 2 2 2 2 2 2 2 2 9 2 7 2 2 2 2 2 2 2 2 2 2 2 2 2 2 2 2 2 ",
"F F F F F F F F D D G F F F F F F F D e.!.T.Q.].T.1.F F F F F F F F F F F F F F F F F F F F F F G F G F F F F F F F F F F F F F F F F F F F F F F F F F F F F F F F F F F F F F F F F F F F F F F F F F F F F F F F F F F F F F F F F F F F F F F G F F F F G F F F F F F F F F F F F F F F F G F F F F F F F F F F F F F F F F F F F F F F G F F F F F F F F F F F F F F F F F F F F F F F F F F F F F G t G G F G F F F F F F F F F F F F F F F F F F F F F F F F F F F F F F F F F F F F F F F 9 # # $   7 0 9 9 0 7 0 9 0 9 9 0 9 9 0 9 9 9 9 0 9 9 0 9 9 9 0 0 9 0 0 0 7 7 0 7 7.R.0 0 7 9 9 9 9 9 0 0 9 0 9 9 9 0 9 9 9 9 9 9 9 9 9 0 9 9 9 9 9 9 9 9 9 0 0 0 0 0 7 0 7 0 0 0 7 0 7 0 0 7 0 7 9 0 9 0 9 9 0 9 0 9 7 $ # X X 1 F F F F F F F F F F F F F F F F F F F G G D F F F F F F F F F F F F F F F F G F F F F F F F F F G F F F F F F F F F F F F F F F F G F F F F F F F F F F F F F F F F F F F F F F F F F F F F F F F F G F F F F F G F F F F F F F F F F G F F F F F F F F F F F F F F F F F F F F F F F F F F F F F F F F F F F F F F F F F F F F F F F F F F F F F F F F F F F F F F F F F F F F F F F F F F F F F F F F F F F F F F F F F F F F F F F F F F F F F F F F F F F F F F F F F F F F F F F F F F F F F F F G F F F F F F F F F F G F F F F F F F F F F F F F F F F F F F F F F F F F F F F F F F G F F F F F % # # # $ 7 q 9 9 9 0 0 9 0 9 0 9 9 0 0 0 0 7 7 0 0 0 0 0 9 0 9 9 9 0 9 0 0 7 0 9 9 0 9 9 9 9 0 9 9 7 D 9 9 0 9 q 9 9 9 0 0 7 0 7 0 9 9 0 9 9 9 9 9 9 9 9 9 9 7 X # # X 3 F F F F F F F F F F F F F F F F F F F F F F F F F F F F F F F F F G G F F F F F F F F F F F F F F F F F F F F F F F F F F F F F F F F G F F 3.U.!.W.).(.y.J F F F F F F F F F F F F F F F F F F F F F F F F F F F F F F F F F F F F F F F F F F F F F F F F F F F F F F F F F F F F F F F F F F F F F F F F F F F G F F F F F F F F F F F F F F F F F F F F F F F F F F F F F F F F F F F F F F F F F F F F F F F F F F F F F F F F F F F F F F F F G F F F F F F F F F F F F F F F F F F F F F F F F F F F F % # X # # 2 2 3 2 2 3 2 2 2 2 2 2 3 2 2 2 2 2 2 2 3 2 2 2 2 2 2 2 2 2 2 2 2 2 2 3 2 2 2 1 1 1 2 2 2 2 2 2 1 % 2 2 1 2 2 2 2 % 1 3 /.(.% 1 1 2 2 2 2 2 1 2 1 2 % 4 2 2 2 % 2 3 3 2 2 2 2 2 2 2 2 2 2 2 2 2 7 2 2 2 2 2 2 2 2 2 2 2 2 2 2 2 2 3 2 2 ",
"F F F F F F F F G G F F F F F F F F F w./.7X_.T.2.G F F F F F F F F F F F F F F F F F F F F F F F F F F F F F F F F F F F F F F F F F F F F F F F F F F F F F F F F F F F F F F F G F F F G F F F F F F F F F F F F F F F F F F F F F F F F F F F F F F F F F F F F F F F F F F F F F F F F F F F F F F F F F F F F F F F F F F F F F F F F F F F F F F F F F F F F F F F F F F F F F F F F F F F F F F G G t G G t F F F F F F F F F F F F F F F F F F F F F F F F F F F F F F F F F F F F F F F 7   # $   7 9 0 9 9 9 9 9 9 0 9 0 9 0 9 9 9 0 9 9 9 0 9 9 9 9 9 9 9 9 7 0 0 0 7 0 / t.0 7 0 0 9 9 9 9 7 0 9 9 9 0 9 9 9 0 9 9 9 0 9 0 9 9 9 9 9 9 7 D q 9 9 9 0 7 7 0 0 0 7 0 7 0 0 0 7 0 0 7 0 0 9 0 9 9 9 0 9 9 0 9 8 # # . # 1 F F F F F F F F F F F F F F F F F F F D G G F G F F F F F F F F F F F F F F G G F F F F F F F F F F F F F F F F F F F F F F F F F F F F F F F F F F F F F F F F F F F F F F F F F F F F F F F F F F F F F F F F F F F F F F F F G F F F F F F F F F F F F F F F F F F F F F G F F F F F F F F F F F F F F F F F F F G F F F F F F F F F F F F F F F F F F F F F F F F F F F F F G F F F F F F F F F G F F F F F F F F F F F F F F F F F F F F F F F F F F F F F F F F F F F F F G F F F F F F F F F F F F F F G F F F F F F F F F F F F F F F F F F F F F F F F F F F F F F F F F F F F F F F F F F F D $ o # # $ 0 9 0 9 9 7 0 0 7 0 > 9 0 0 7 7 0 0 0 0 7 7 7 0 9 9 9 9 9 0 9 7 0 0 0 7 0 9 9 9 0 9 9 9 9 9 9 9 9 9 9 9 9 9 9 7 0 0 0 7 0 0 9 9 9 9 9 9 7 D 9 9 9 9 7 # # # X 3 F F F F F F F F F F F F F F F F F F F F F F F F F F F F F F F F F F F F F F F F F F F F F F F F F F F F F F F F F F F F F F F F F F F F F D R I._.].).a.3.F F F F F F F F F F F F F F F F F F F F G F F F F F F F F F F F F F F F F F F F F G F F F F F F F F F F F F F F F F F F F F F F F F F F F F F F F F F F F F F F F F F F F F F F F F G F F F F F F F F F F F F F F F F F F F F F F F F F F F F F F F F F F F F F F F F F G F F F F G F F F F F F F F F F F F F F F F F F F F F F F F F F F F F F F D 2 X # X # 2 2 2 2 2 2 2 2 2 2 2 2 2 2 3 2 2 2 2 2 2 2 3 2 2 2 2 2 2 3 2 2 2 3 2 2 3 3 2 2 2 2 2 2 2 2 2 2 2 2 2 2 3 2 2 2 2 2 2 2 (.wX2 3 3 2 2 2 2 3 2 2 2 2 2 2 2 2 3 3 2 2 2 2 2 2 3 2 2 2 2 2 2 2 2 2 2 2 2 2 2 2 2 2 2 2 2 2 2 2 2 2 2 2 2 2 ",
"F F F F F F F F F F F F F F F F F F F F F F t F F F G G G G G F F F G F F F F F F G G F F F F F F F F F F G F F F F F F F F F F F F F F F F F F F F F F F F F F G F F F F F F F F F F F F F F F F F F F F F F F F F F F F F F F F G F F G G G G F F F F F F F G F F F F G F F F F F F F F F F F F F F F F F F F F F F F F F F F F F F F F F F F F F F F F F F F F F F F F F G G F F F F F F F G F F F F F F F F F F F F F F G F F F F F F F F F F F F G F F F F F F F F F G F F F F F F F F F G G 9 o % # X 2 9 9 9 9 9 9 9 9 0 9 9 9 9 9 q 9 9 9 9 9 0 9 q 9 9 9 9 9 9 9 q 9 9 9 9 9 9 9 9 9 9 0 9 0 9 9 9 0 9 q 9 9 0 9 9 9 9 q 9 9 9 0 9 9 9 9 9 9 q 9 9 9 9 0 0 7 0 q 9 9 9 9 9 9 9 9 9 9 C 9 9 9 9 q 9 9 9 9 9 9 0 9 # # # # 1 F F F G F F F F F F F G F F F F F F F F G F G G G G F F F F G G G G F F F F G G G G F F F F F F F F G F F F F F G F F F F F F F F G G G F F F F F F F F F F F F F F F F F F G G F F F F F F F F F F F F F F F F F F F F F F F F F F F F F F F F F F F F F F F F F F F F F F F G G F G G F F F F F F F F F F F F F F F F G G G F F F F F F F F F F F F F F F F F G G G F F F F F F F F F F F G F F F F F F F F F F F F F F F F F F F F F G F F G G G F F F F G t F F F F F G F F F F F F F F F F F F F G G F F F F F F F F F G G F F F G F F G G G G F F F F F F F F F F F F F F F F F F F F F F F F F F 2 X # X & 8 9 9 0 9 q 9 9 9 9 9 9 9 9 9 9 9 q 9 9 9 0 0 9 9 0 0 7 0 9 9 9 q 9 9 9 q 9 9 9 9 9 9 9 9 q 9 9 0 9 9 9 9 9 0 9 0 9 9 9 C 7 9 9 9 9 9 9 D 0 9 9 9 9 9 #   # # 2 F F F F F F F F F F F F F F F F F F F F F G G G G G G G F F G G G F G F F F F F F F F F F G G F F F F F F F G F F F F F F F F F F F G G G F F F F F F F F G G G F F F F F G G F F F F G G F F F F G G F F F F F F F G F F F F F F F F F G F F F F F F F F F F F F F F F F F F F F F F F F F F F F F F F G F F F G F F F F F F F F F F F F F F F F F F F F F F F F F F F F F F F F F F F F F G F F F F F F F F F F F F F F F F F F F F F F F F F F F G G D G G F F F F F G F F F F F F F F F F F F F F G F F F 2 o X X 1 2 2 2 2 2 2 3 2 2 2 2 2 2 2 2 2 2 2 2 2 2 2 2 3 2 2 2 2 2 2 2 2 2 2 2 2 2 2 2 2 2 2 2 2 2 2 2 2 2 2 2 2 2 2 2 2 2 2 3 3 p.W.2 2 2 2 2 2 2 2 2 2 2 2 2 2 2 2 2 2 2 2 2 2 2 2 2 2 2 2 2 2 2 2 2 2 2 2 2 2 3 2 2 2 2 2 2 2 2 2 2 2 2 2 2 2 ",
"F F F F t F F F F F F t F F F F F D F F F F F F F F t F t G G t D F F F F D F t F t F F F F F F D F F F F F t F F D F F F F F t F F F F F F F t F F F F F F F F F F F F F t F F F F F F t F F F F F F t F F F F F F F t F F t F F t F F t G t t t F F F D F F F F F F F D F F F D F F F F F F F F F F F t F F F F F F F F F F t F F F F F F t F F F F F F F D F F D F D F F t t F F G t F F t F t F F F F F F F F F F F F F G t t F F F F F t F F F t G t F F F F D F t F F t t F F F t D F D G F 9 # % # X 2 0 9 9 9 9 9 9 9 9 9 9 9 9 9 9 9 9 9 9 9 9 9 9 9 9 9 9 9 9 9 9 9 9 9 9 9 9 9 9 9 9 9 9 9 9 9 9 9 9 q > 9 9 9 9 9 9 9 9 9 9 9 9 9 9 9 9 9 9 9 9 9 9 7 0 0 7 9 9 9 9 9 9 9 q 9 9 9 9 9 9 9 9 9 9 9 9 9 9 9 9 7 # # # # % D F D t F F D F D D D F F D F F F F F t F t t G G t F F F F G G t t t F F F F t G t t F F F F F D F F t F F t F D D D F D F F t F t G t F F t F F F F F F D t F F F F F t F t G t F F F F F F F F F t F F F F t F F F F F t F F G j F F F F F F F F F F F F F D F D F F F t F t F F t F F F F F F t F D F D F F F t F F D D F F F F t F F F F F F F F F F F F t t G G t F F F F t F F F F t F F F F F F F F D F F F F F t F F F F F F t F t F t G t F F F F G G F t F t F F F F F F F t F F F F F F t G G t F D F D F F F F F t F F F t F F F t F t t F F F F F F F F F F D F F D F F F D F F F D F F t 1 X X # # 0 9 9 9 9 9 9 9 9 9 9 9 9 9 9 9 9 9 9 9 9 0 7 0 9 7 0 0 7 9 9 9 9 9 9 9 9 9 9 9 9 9 9 9 9 9 9 9 9 9 9 9 9 9 9 9 9 7 C 9 9 9 9 9 0 9 9 7 7 9 9 9 9 9 8 # # # . 2 D D F F F F F F F F F F F t F F F F F F F t t t G G t F t F t G t F t F F F F F F F F F F F t F F F D F F D F F D F F F t F F F t F t t F F F t F F F G t t G G t F F F F F t F t t F F t F F F F t G t t F D F t F F t t F F D D F F D G F F F F F F F F F F F F F F F F F D F F D F F F F D F F D D F D F F D D F F F t F F F D F D F F F F F F t F F F F F F F F F t F F t F F D F F t F t F F F D F D F F F F F F F t F F F F F F t F F t F D D F D D D F D F F F F t t F F t F D F F F t F F F F t t F F 3 X & X X 2 3 2 2 2 2 2 2 2 2 2 2 7 2 2 2 2 3 2 2 2 2 2 2 2 2 2 2 2 2 2 2 2 2 2 2 2 2 2 2 2 2 3 2 2 3 2 3 7 2 2 2 3 2 3 2 2 2 2 2 8 0 2 2 2 2 2 3 2 2 2 2 2 2 2 2 2 2 2 2 2 7 2 3 2 2 2 2 2 2 3 3 2 2 2 2 2 2 2 2 2 2 2 2 2 2 2 9 2 2 2 2 2 2 2 2 ",
"2 9 2 3 9 9 9 9 3 9 3 9 2 9 9 9 2 9 9 2 2 9 9 2 2 9 9 2 9 2 9 9 3 7 9 9 9 2 9 9 2 3 9 9 7 9 9 7 7 9 3 7 9 9 9 9 7 9 3 2 9 9 9 9 9 2 9 7 2 9 9 9 2 9 9 2 2 9 9 9 2 9 4 4 9 9 9 9 2 9 2 9 9 2 2 9 9 9 9 9 9 2 9 2 2 9 9 2 9 9 9 9 9 3 2 9 9 9 9 9 9 9 2 9 7 9 7 9 9 2 6 2 2 9 9 9 2 7 9 7 9 2 2 9 9 3 3 9 9 3 9 3 9 2 3 9 2 9 9 9 9 2 4 4 2 9 9 9 9 2 9 2 9 9 2 9 7 9 9 7 9 2 9 9 4 9 9 9 2 9 9 7 6 7 9 2 9 2 2 9 9 2 9 7 2 9 2 9 9 9 9 2 9 2 9 9 2 9 9 7 9 9 9 2 9 9 3 9 9 9 9 9 9 9 3 9 9 9 8 8 9 % # # # # $ * * & * * * * $ * * * * * $ * $ * * * $ * * * * * $ * * * $ * * * $ * * * * * * * $ $ $ $ $ $ $ $ * * * $ * $ $ $ $ * * $ * * * $ * * * * $ * * $ $ $ $ $ $ $ $ $ $ $ $ * $ $ $ $ * * * * $ * $ * * * $ * * # # # X $ 8 8 3 9 9 8 9 9 9 3 9 2 9 7 7 9 9 7 9 2 9 9 9 9 9 9 9 2 2 9 3 9 3 9 9 9 2 9 9 9 9 2 9 9 7 9 9 3 8 9 3 9 9 3 9 9 9 3 9 9 9 9 9 9 9 9 9 9 9 2 9 2 9 9 3 2 9 9 9 9 3 9 9 3 9 9 9 9 9 2 7 9 9 7 3 9 9 2 9 2 9 9 9 2 9 9 9 2 9 9 9 9 9 9 9 9 9 9 2 7 7 9 9 2 2 9 7 9 9 7 9 2 9 9 7 3 9 9 7 9 9 7 9 9 2 9 9 9 7 9 9 9 2 9 9 9 3 7 9 9 4 4 2 9 9 9 2 9 2 9 9 9 2 2 9 9 9 9 9 9 4 7 2 9 9 9 9 4 9 9 9 2 4 4 2 9 9 9 2 9 9 2 9 2 9 9 7 9 9 7 9 2 9 9 9 2 9 9 9 3 7 9 9 9 3 9 7 3 9 9 7 9 9 7 9 2 9 2 9 2 9 2 9 2 9 9 2 9 9 7 9 2 9 2 9 3 9 3 9 3 7 9 9 9 2 9 9 9 9 9 9 2 6 4 2 9 9 9 2 9 2 9 9 9 2 9 8 8 8 8 9 9 % % # # # 1 * * * * $ * * * * * * * * * * * $ * * * % $ $ $ $ $ $ $ * * * * $ * * $ * $ * * $ * * * * * * * $ * $ * $ $ $ $ $ $ $ $ $ $ $ $ * $ $ 7 * * * * $ $ # # # # $ 7 8 9 8 8 2 9 7 7 9 2 2 9 9 2 9 2 7 9 2 9 9 9 2 9 9 9 4 9 4 9 9 9 2 9 9 9 9 2 9 2 9 2 7 7 9 9 9 2 7 9 7 9 9 7 8 9 7 9 7 3 9 9 2 9 7 2 0 9 7 9 0 7 2 9 3 9 9 2 9 9 9 3 3 9 9 4 9 9 9 9 9 9 9 2 2 2 0 9 9 9 9 9 3 9 9 9 9 9 9 9 3 9 8 9 8 8 7 2 6 4 2 9 9 9 2 7 7 9 2 9 2 7 8 9 8 8 9 3 9 3 9 3 9 9 3 9 9 7 9 9 3 7 9 9 9 3 9 9 3 9 9 3 8 8 9 3 4 9 2 9 9 9 3 9 3 9 9 9 9 3 8 9 9 8 9 9 3 9 9 3 9 9 2 9 9 2 9 9 4 4 9 9 3 9 9 2 9 2 2 9 9 2 8 9 8 8 9 9 9 3 9 2 9 9 9 2 2 9 0 9 4 9 7 3 9 9 8 9 8 3 9 9 3 9 9 9 % X # X # 2 2 2 2 2 2 2 2 3 2 2 2 2 2 2 2 7 2 2 2 2 2 2 2 2 2 2 2 2 2 9 2 2 2 2 2 2 2 2 2 2 2 2 2 2 2 2 2 2 2 2 2 2 2 2 2 2 2 2 2 2 2 2 2 2 2 3 3 2 3 2 2 2 2 2 2 2 2 2 2 2 2 2 3 2 2 2 3 2 2 2 2 2 2 2 3 2 2 2 2 2 2 2 2 2 2 2 2 2 2 2 2 2 2 2 2 ",
"2 2 2 2 2 2 2 2 2 4 2 2 2 2 2 2 2 2 2 3 2 2 2 2 2 2 2 2 2 2 2 4 2 2 4 2 2 2 2 2 2 2 2 4 2 2 2 2 2 2 2 2 2 4 2 2 2 2 2 2 2 4 2 2 2 2 2 2 2 4 2 2 2 2 2 2 2 4 2 2 2 2 2 4 2 2 4 2 2 2 2 2 2 2 2 2 4 2 2 2 2 2 2 2 2 2 2 2 2 4 2 2 2 2 2 4 2 2 2 2 2 2 2 2 2 2 2 2 2 2 2 2 2 2 2 2 4 2 2 2 2 2 2 2 2 2 2 2 2 2 2 2 4 2 2 2 2 2 2 2 4 2 2 4 2 2 2 2 2 2 2 2 % 2 2 4 2 2 3 2 2 2 2 2 2 2 2 2 2 2 2 2 3 2 3 2 2 2 2 2 2 2 2 2 2 2 2 2 2 2 2 4 2 2 2 2 2 2 2 2 2 2 4 2 2 2 2 2 2 4 2 2 2 2 2 2 2 2 2 2 2 % # o X # # # $ $ # $ # $ # $ $ # $ # $ $ $ $ # $ $ $ $ # $ # $ $ $ $ $ $ # # $ $ # $ $ $ # * $ $ $ $ $ $ $ $ # # $ # $ $ $ $ $ $ $ $ # $ $ $ # $ # * $ $ $ $ $ $ $ $ $ $ $ $ $ $ $ $ $ $ $ % $ # $ # $ $ $ $ # $ $ $ # . # . # $ 2 2 2 2 2 2 2 2 4 2 2 2 3 3 2 2 2 2 2 2 2 2 4 2 2 1 2 2 2 2 2 2 2 2 2 2 2 2 2 4 2 2 2 2 2 2 2 2 2 2 2 2 2 2 3 3 4 2 2 2 2 2 2 2 1 2 2 2 4 2 2 2 2 2 2 2 4 2 2 2 2 2 2 2 2 2 2 2 2 2 2 2 2 2 2 4 2 2 2 2 2 2 2 2 2 4 2 2 2 2 4 2 % 4 2 2 % 2 4 2 2 2 2 2 2 2 2 2 3 2 2 2 2 2 3 2 2 4 2 2 2 2 2 4 2 2 2 2 2 2 2 4 2 2 2 2 2 2 4 2 2 2 2 2 2 2 2 2 2 2 2 2 2 2 2 2 1 2 2 2 2 2 2 2 2 2 2 2 2 2 2 2 2 4 2 2 2 2 4 2 2 2 2 2 2 2 2 2 3 2 2 2 2 2 2 4 2 2 2 2 2 2 4 2 2 2 3 4 2 2 2 2 3 2 2 2 2 2 2 2 2 2 2 4 2 2 2 2 3 2 2 2 2 2 2 2 2 2 2 2 2 2 2 4 2 2 2 2 2 2 4 2 2 2 2 2 2 2 2 2 2 2 % 2 2 4 2 2 2 2 2 2 X X X X # $ # # # * $ $ # # $ $ # * $ $ # $ $ $ # # $ $ $ % $ $ $ $ # $ # # $ $ $ $ $ $ $ $ $ # $ $ # $ # # $ $ $ $ $ $ $ $ # $ $ # $ $ $ $ $ # $ # # $ # # $ # # # # # & 3 2 2 2 2 2 2 2 2 2 2 2 2 2 2 2 2 2 2 2 4 2 2 2 2 2 2 2 2 2 2 2 2 2 2 2 2 2 2 2 2 2 2 2 2 2 4 2 2 2 2 2 2 2 2 2 3 2 3 3 2 2 2 2 2 2 2 2 4 2 2 2 2 2 2 2 2 2 2 4 2 2 2 2 2 2 2 2 2 2 2 2 2 2 2 2 2 2 4 2 2 2 2 2 2 2 4 2 2 2 2 2 2 2 2 2 2 2 2 2 2 2 2 2 2 4 2 2 2 2 2 2 2 2 2 2 2 2 2 2 2 4 2 2 2 2 2 2 2 2 2 2 2 2 4 2 2 2 2 2 2 2 3 2 2 4 2 2 4 2 2 2 2 2 2 2 2 2 2 2 4 2 2 2 2 2 2 2 2 2 2 4 2 2 2 2 2 2 2 2 4 4 2 2 2 2 2 2 2 2 2 2 2 3 3 3 2 2 2 4 2 2 2 2 2 2 2 2 2 3 3 2 2 3 4 2 2 2 3 3 2 2 2 2 2 2 2 % X # # X 2 2 2 3 2 2 2 7 2 2 2 2 2 2 2 2 2 2 2 3 7 2 2 2 2 2 2 2 2 2 2 2 2 2 2 2 2 9 2 2 2 2 2 2 2 2 2 2 2 2 3 2 2 2 2 2 2 2 2 2 2 2 2 2 2 2 2 2 2 2 2 2 2 2 2 2 2 2 2 2 2 2 2 2 2 2 2 2 2 2 2 2 7 3 2 2 2 2 3 2 2 2 2 7 3 2 2 2 2 2 2 2 2 2 2 2 ",
"2 2 2 2 2 2 2 2 2 2 2 2 2 2 2 2 3 2 3 2 2 2 3 2 2 2 2 2 2 2 2 2 2 2 2 2 2 2 2 2 3 2 2 2 2 2 2 2 2 2 2 2 2 2 2 2 2 2 2 2 2 2 2 2 2 2 2 2 2 2 2 2 2 2 2 2 2 2 2 2 2 2 2 2 2 2 2 2 2 2 2 2 2 2 2 2 2 3 2 2 2 2 3 2 2 2 2 2 2 2 2 2 2 2 2 2 2 2 2 2 2 2 2 2 2 2 3 2 2 2 2 2 2 2 2 2 2 2 2 2 2 2 2 2 2 2 2 2 3 2 2 2 2 2 2 2 2 2 2 2 2 2 2 2 2 2 2 2 2 2 2 2 2 2 2 2 2 2 2 2 2 2 2 2 2 3 3 2 2 2 2 2 2 2 2 2 2 2 2 2 2 2 2 2 2 2 2 2 2 2 2 2 2 2 2 2 2 2 2 2 2 2 2 2 2 2 2 2 2 2 2 2 2 2 2 2 2 2 2 2 7 % # X # # # $ # # $ # $ # * # # # * * # # $ # $ # # * # $ * # $ $ # * # $ * * $ # * # # # * # $ $ $ # $ $ $ $ * # # * * $ * # # * # * $ $ # * # # * # * # # $ $ $ $ $ $   $ $ # * # * $ # $ # # # * * $ # # * $ $ $ # * # # # # # 2 2 2 2 3 2 2 2 2 2 2 2 2 2 2 2 7 2 2 2 2 2 2 2 2 2 2 2 2 2 2 2 2 2 2 2 2 2 2 2 2 2 2 2 2 2 3 2 2 2 2 2 2 2 2 2 2 2 4 2 2 2 2 2 2 2 2 2 2 2 2 2 2 2 2 2 2 2 2 2 2 2 2 2 4 2 2 2 2 2 2 2 2 2 2 2 2 2 2 2 2 2 2 2 2 2 2 2 2 2 2 2 2 2 2 2 2 2 2 2 2 2 2 2 2 2 2 2 2 2 2 2 2 2 2 2 2 2 3 2 2 2 2 2 2 2 2 2 2 2 2 2 2 2 2 2 2 3 2 2 2 2 2 2 2 2 2 2 2 2 4 2 2 2 2 2 2 2 2 2 2 2 2 2 2 2 2 2 2 2 2 2 2 2 2 2 2 2 2 2 2 2 2 2 2 2 2 2 2 2 2 2 2 2 2 2 2 2 2 2 2 2 2 2 2 2 3 2 2 2 2 2 3 2 2 2 3 2 2 2 2 2 2 2 2 2 3 2 2 2 2 2 2 3 2 2 2 2 2 2 2 2 2 2 2 2 2 2 2 2 2 2 2 2 2 2 2 2 2 2 2 2 2 2 2 2 2 2 2 2 2 2 # X # # # # $ # $ # $ $ # $ # * # # $ $ # $ # $ * * # $ $ # $ $ $ $ # * # * * # # $ # * * # $ & $ # $ # * * # * * # $ $ $ $ $ $ $ $ * # $ # $ $ $ # * # $ # # # . # X # & 2 2 2 2 2 2 2 2 2 2 2 9 2 2 2 2 2 2 2 2 2 2 2 2 9 2 2 2 2 2 2 2 2 2 2 2 2 2 2 2 2 2 2 2 2 2 2 2 2 2 2 2 2 2 2 3 2 2 2 2 3 2 2 2 2 2 2 2 2 2 2 2 2 2 2 2 2 2 2 2 2 2 2 2 2 2 2 2 2 2 2 2 2 2 2 2 2 2 2 2 2 2 2 2 2 2 2 2 2 2 2 2 2 2 2 2 2 2 2 2 2 2 2 2 2 2 2 2 2 2 2 2 2 2 2 2 2 2 2 2 2 2 2 2 2 2 2 2 2 2 2 2 2 2 2 2 2 2 2 2 2 2 2 2 2 2 2 2 2 2 2 2 2 2 2 2 2 2 2 2 2 2 2 2 3 2 2 2 2 2 2 2 3 2 2 2 3 2 2 2 2 2 2 2 2 2 2 2 2 2 2 2 2 2 2 2 2 2 2 2 2 2 2 2 2 2 3 2 2 2 2 2 2 3 3 2 2 2 3 2 2 3 2 2 3 2 2 & # X X & 2 2 2 2 2 3 2 2 2 2 2 2 7 2 2 2 2 2 2 2 2 2 3 2 2 2 2 2 2 2 2 2 2 2 2 2 2 2 2 2 2 2 2 2 2 2 2 2 2 2 3 2 2 2 2 3 3 2 2 2 2 2 2 2 2 2 2 2 2 2 2 2 2 2 2 2 2 2 2 2 2 2 2 2 2 2 2 2 2 3 2 2 3 2 2 2 3 2 2 2 2 2 2 2 2 2 2 2 2 2 2 2 9 2 2 2 ",
"2 2 2 2 2 2 2 2 2 2 2 2 3 2 2 2 3 2 2 2 3 2 2 2 2 2 2 2 2 2 2 2 2 2 2 2 2 2 2 9 2 2 2 2 2 2 2 2 2 2 2 2 2 2 2 2 2 2 2 2 2 2 2 2 2 2 2 2 2 2 2 2 2 2 2 2 2 2 3 2 2 2 2 2 2 2 2 2 2 2 2 2 2 2 2 2 2 2 2 2 2 2 2 2 2 2 2 2 2 2 2 2 2 2 2 2 2 2 2 2 2 2 2 2 2 2 2 2 2 2 2 2 2 2 2 2 2 2 2 2 2 2 2 2 2 2 2 2 2 2 2 2 2 2 2 2 2 2 2 2 2 2 2 2 2 2 2 7 2 2 2 2 2 2 2 2 2 3 2 2 2 2 2 2 2 2 2 2 2 2 2 2 2 2 2 2 2 2 2 2 2 2 2 2 2 2 2 2 2 2 2 2 2 2 2 2 2 2 2 2 2 2 2 2 2 2 2 2 2 2 2 2 2 2 2 2 3 2 2 2 7 1 X # # X # $ * * # * # $ # $ * $ # # * * # * # $ # * * # # $ # $ # # * # # # # $ # $ * # # $ $ $ # $ $ $ $ $ # * * # # # # * # # $ # # $ $ # * # # $ # # * # $ $ $ $ $ $   $ # # $ # $ $ $ $ * $ # # # * # # $ # # * # # # . # # 2 3 2 2 2 2 2 2 2 2 2 2 2 2 2 2 3 2 2 2 3 2 2 2 2 2 2 2 2 2 2 2 2 2 2 2 2 2 2 2 2 2 2 2 2 2 3 2 2 2 2 2 2 2 2 2 2 2 2 2 2 2 9 2 2 2 2 2 2 2 2 2 2 2 2 2 2 2 2 2 2 2 2 2 2 2 2 2 2 2 2 2 2 7 2 2 2 2 2 2 2 2 2 2 2 2 2 2 2 2 2 2 2 2 2 2 7 2 2 2 2 2 2 2 2 2 2 2 2 2 3 2 2 2 2 2 2 2 2 2 2 2 2 2 2 2 2 2 2 2 2 2 2 2 2 2 2 2 2 2 2 2 2 2 2 2 2 2 2 2 2 2 2 2 2 2 2 9 2 2 2 2 2 2 2 2 2 2 2 2 2 2 2 2 2 2 2 2 2 2 2 2 2 2 2 2 2 2 2 2 2 2 2 2 2 2 2 2 2 2 2 2 2 2 2 2 3 3 2 2 2 2 2 2 2 2 2 2 2 2 2 2 2 2 2 2 2 2 2 2 2 2 2 2 2 2 2 2 2 2 2 2 2 2 2 2 2 2 2 2 2 2 2 2 2 2 2 2 2 2 2 2 2 2 2 2 2 2 3 2 2 2 # # # X # & & & # * $ # & $ # * $ & $ # # $ * # # # $ $ # $ $ $ $ $ # * # $ # # * # $ # # $ # $ # * # * # # $ # # # $ $ $     $ # $ # # * * $ $ $ $ # $ # * # # # # X # & 2 2 2 2 2 2 2 2 2 2 2 2 2 2 2 2 2 2 2 2 2 2 2 2 2 2 2 2 2 2 2 2 2 2 2 2 2 2 2 2 2 2 2 2 2 2 2 2 2 3 3 2 2 3 2 2 2 2 2 2 2 2 2 2 2 2 2 2 2 2 2 2 2 3 2 2 2 2 2 2 2 2 2 2 2 2 2 2 2 2 2 2 2 2 2 2 2 2 2 2 2 2 2 2 2 2 2 2 2 2 2 2 2 2 2 2 2 2 2 2 2 2 2 2 7 2 2 2 2 2 2 2 2 3 2 2 2 2 2 2 2 2 2 2 2 2 2 2 2 2 2 2 2 2 2 2 2 2 2 2 2 2 2 2 3 2 2 2 2 2 2 2 2 2 2 2 2 2 2 2 2 2 2 2 7 3 2 2 2 2 2 2 2 2 2 2 2 2 2 2 2 2 2 2 2 2 2 2 2 2 2 2 2 2 2 2 2 2 2 2 2 2 2 2 2 2 2 2 2 2 3 2 2 2 2 2 2 2 2 2 2 2 2 2 2 2 2 & X # # X 2 3 2 2 2 2 2 2 2 2 2 2 2 2 2 2 2 2 2 2 3 2 2 2 2 2 2 2 2 2 2 2 2 2 2 2 2 2 2 2 2 2 2 3 2 2 3 2 2 2 2 2 2 2 2 2 3 2 2 2 2 2 2 2 2 2 3 2 2 2 2 2 2 2 2 2 2 2 2 2 2 2 2 2 2 2 2 2 2 2 2 2 2 2 2 2 2 3 2 2 2 2 2 2 3 2 2 2 2 2 2 2 2 2 2 2 ",
"2 2 2 2 2 2 7 2 2 2 2 2 2 2 2 2 2 2 3 2 2 2 3 2 2 2 2 2 2 2 2 2 2 2 2 2 2 2 2 2 2 2 2 2 3 2 2 2 2 2 2 2 2 2 2 2 2 2 2 2 2 2 2 2 2 2 2 2 2 2 2 2 2 2 2 2 2 2 3 2 2 2 2 2 2 2 2 2 2 2 2 2 2 2 2 2 2 2 2 2 2 2 2 2 2 2 2 2 2 2 2 2 2 2 2 2 2 2 2 2 2 2 2 2 2 2 3 2 2 2 2 2 2 2 2 2 2 2 2 2 2 2 2 2 2 2 2 2 2 2 2 2 2 2 2 2 2 2 2 2 2 2 2 7 2 2 2 2 2 2 2 2 2 2 2 2 2 2 2 2 2 3 2 3 2 2 2 2 2 2 2 2 2 2 2 2 2 2 2 2 2 2 2 2 2 2 2 3 2 2 2 2 2 2 2 2 2 2 2 2 2 2 2 2 2 2 2 2 2 2 2 2 2 2 2 2 2 2 2 2 7 1 $ # # # # # # $ $ # & $ * # # # * # # $ $ # * # * # # * # # # * * # # # * # # $ * # # $ * # $ # $ # # $ $ $ # # # * # * # # * # # $ $ # # * # $ # * $ # # * $ $ $ $ $ $ $ $ * # # $ * # # $ * # # $ * # # $ # $ # # # # # # X # 2 2 2 2 2 2 2 2 2 2 2 2 2 2 2 2 3 2 2 2 2 2 2 2 2 2 2 2 2 2 2 2 2 2 2 2 2 2 2 2 2 2 2 2 2 2 2 2 2 3 2 2 2 2 2 2 2 2 2 2 2 2 2 2 2 2 2 2 2 2 2 2 2 2 2 2 2 2 2 2 2 2 2 2 2 2 2 2 2 2 2 2 2 2 2 2 2 2 2 2 2 2 2 2 2 2 2 2 2 2 2 2 2 2 2 2 2 2 2 2 2 2 2 2 2 2 2 2 2 2 2 2 2 2 2 2 2 2 2 2 2 3 2 2 2 2 2 2 2 2 2 2 2 2 3 2 2 3 2 2 2 2 2 2 2 2 2 2 2 2 2 2 2 2 2 2 2 2 2 2 2 2 2 2 2 2 2 2 2 2 2 2 2 2 2 2 2 2 2 2 2 2 2 2 2 2 7 3 2 2 3 2 2 2 2 2 2 2 2 2 2 2 2 2 2 3 2 2 2 3 2 2 3 7 2 2 2 2 2 2 2 2 2 2 2 2 2 2 2 2 2 2 2 2 2 2 2 2 2 2 2 2 2 2 2 2 2 2 2 2 2 2 2 2 2 2 2 2 2 2 2 2 2 2 2 2 2 2 2 2 2 2 # # # # # # # # * # $ # # * $ # $ # # * * # * # * # $ # $ $   $ $ % # $ # * $ # # * # * * # # * # * $ # # * # * # * $ $ $ $ $ $ $ $ # $ # # # $ # $ * # # $ * # . # # # $ 2 2 3 2 2 2 2 2 2 2 2 2 2 2 2 2 2 2 2 2 2 2 2 2 2 2 2 2 2 2 2 2 2 2 2 2 2 2 2 2 2 2 2 2 2 2 2 2 2 4 3 2 2 2 2 2 2 3 2 2 2 2 2 2 2 2 2 2 2 2 2 2 2 2 2 2 2 2 2 2 2 2 2 2 2 2 2 2 2 2 2 2 2 2 2 2 2 2 9 2 2 2 2 2 2 2 2 2 2 2 2 2 2 3 2 2 2 2 2 2 2 2 2 2 2 2 2 2 2 2 2 2 2 7 2 2 2 2 2 2 2 2 2 2 2 2 2 2 2 2 2 2 2 2 2 2 2 2 2 2 2 2 2 2 2 2 2 2 2 2 2 2 2 2 2 2 2 2 2 2 2 2 2 2 2 2 2 2 2 2 2 2 2 3 2 2 2 2 2 2 2 2 2 2 2 2 2 2 2 2 2 2 2 2 3 2 2 3 2 2 2 2 2 2 2 2 2 2 3 2 2 2 2 3 2 2 2 2 2 2 2 2 2 2 2 2 2 & # # X # 2 2 2 2 2 2 2 2 2 2 2 2 2 2 2 7 2 2 2 2 2 2 2 2 2 2 2 2 2 2 2 2 2 2 2 2 2 2 2 2 2 2 2 3 2 2 2 3 3 2 2 2 7 0 e w e D w e w r e q 3 2 3 2 2 2 2 2 2 2 2 2 2 2 2 2 2 2 3 2 2 2 3 7 3 2 2 2 2 2 2 2 2 2 7 2 2 2 2 2 2 2 2 2 2 2 2 2 2 2 2 2 ",
"2 2 2 2 2 2 2 2 2 2 2 2 2 2 2 2 2 2 2 2 2 2 2 2 2 2 2 2 2 2 2 2 2 2 2 2 2 2 2 2 2 2 3 2 2 2 2 2 2 2 2 2 2 2 2 2 2 2 2 2 2 2 2 2 2 2 2 2 2 2 2 2 2 2 2 2 2 2 2 2 2 2 2 2 2 2 2 2 2 2 2 2 2 2 2 2 2 2 2 3 2 2 2 2 2 2 2 2 2 2 2 2 2 2 2 2 2 2 2 2 2 2 2 2 2 2 2 2 2 2 2 2 2 2 2 2 2 2 2 2 2 2 2 2 2 9 2 2 2 2 2 2 2 2 2 2 2 2 2 2 2 2 2 2 2 2 2 2 2 2 2 2 2 2 9 2 2 2 2 2 2 2 2 2 2 3 2 2 2 2 3 2 2 2 2 2 2 2 2 2 2 2 2 2 2 3 2 2 2 2 2 2 2 2 2 2 2 2 3 2 2 2 2 2 2 2 2 2 2 2 2 2 2 2 2 2 2 2 2 2 7 1 # # X # # $ # & # * # # * # * $ # # * # # * # $ # $ $ # # * $ # & $ * $ # # * # * # * # # $ $ $ # $ # # $ $ * $ # $ # # * $ & $ * # & * # # * # $ # # * # * $ $ $ $ $ $ $ $ # $ * # # $ $ # # # * # * # * # * # * # # # # # # # 2 2 2 2 3 2 2 2 2 2 2 2 2 2 2 2 2 2 2 2 2 2 2 2 2 2 2 2 2 2 2 2 2 2 2 2 2 2 2 2 2 2 2 2 2 2 2 2 2 2 3 2 2 2 2 2 2 2 2 2 2 2 2 2 2 2 2 2 2 2 2 2 2 2 2 2 2 2 2 2 2 2 2 2 2 2 2 2 2 2 2 2 2 2 2 2 2 2 2 2 2 2 2 2 2 2 2 2 2 2 2 2 2 2 2 2 2 2 2 2 2 2 2 2 2 2 3 2 2 2 2 2 2 3 3 2 2 2 2 2 2 2 2 2 2 2 2 2 2 2 2 2 2 2 2 2 2 2 2 2 2 2 2 2 2 2 2 2 2 2 2 2 2 2 2 2 2 2 2 2 2 2 2 2 2 2 2 2 2 2 2 2 2 2 2 2 2 2 2 2 2 2 2 2 2 2 2 2 2 2 2 2 3 2 2 2 2 2 2 2 2 2 2 3 2 2 2 2 2 2 2 2 2 2 2 2 2 2 2 2 2 2 2 2 2 2 2 2 2 3 2 2 2 2 2 2 2 2 2 2 2 2 2 2 2 2 2 2 2 2 2 2 2 2 2 2 2 2 2 2 2 2 2 9 2 2 2 2 2 2 2 2 # X X # X $ & & # $ # * # # # * # * # # & $ # $ # $ # $ $ $ $ $ $ $ * # $ # # * $ # $ # # & $ # $ # # * # # $ # # * $ $ $ $ $ $ $ $ # * * # $ # $ # # # * # * # # # # X # 2 2 2 2 2 2 2 2 2 2 2 2 2 2 2 2 2 2 2 2 2 2 2 2 2 2 2 2 2 2 2 2 2 2 2 2 2 2 2 2 2 2 2 2 2 2 2 2 2 2 2 2 2 2 2 3 2 2 2 3 2 2 2 2 2 2 2 2 2 2 2 2 2 2 2 2 3 2 2 2 2 2 2 2 2 2 2 2 2 2 2 2 2 2 2 2 2 2 2 2 2 2 2 2 2 2 2 2 2 2 2 2 2 2 2 2 2 2 2 2 2 2 2 2 2 2 2 2 2 2 2 2 2 2 2 2 2 3 2 2 2 2 2 2 2 2 2 2 2 2 2 2 2 2 2 2 2 2 2 2 2 2 3 2 2 2 2 2 2 2 2 2 2 2 2 2 2 2 2 2 2 3 2 2 2 2 2 2 2 2 2 2 2 2 2 2 3 2 2 2 2 2 2 2 2 2 2 2 2 2 2 2 2 2 2 2 2 2 2 3 2 2 2 2 2 2 3 2 2 2 2 2 2 2 2 2 2 3 2 2 3 2 2 2 2 2 2 & X # # X 2 3 2 2 2 2 2 2 3 2 2 2 2 2 2 2 2 2 2 2 2 2 2 2 3 2 2 7 2 2 2 2 7 2 2 2 2 2 2 2 2 2 2 2 2 2 2 7 4 8 0 Z ) &.-.D.+X&X+XOXD.-.-...w 7 7 3 2 2 2 2 2 2 7 2 2 2 2 2 2 2 2 2 2 2 2 2 2 2 2 2 2 3 2 2 3 2 2 2 2 3 2 2 2 2 2 2 2 2 2 2 2 2 9 2 ",
"2 2 2 2 2 2 2 2 3 2 2 2 3 2 3 2 2 2 2 2 2 2 2 2 2 2 2 2 2 2 2 2 2 2 2 2 2 2 2 2 2 2 2 2 2 2 2 2 2 2 2 2 2 2 2 2 2 2 2 2 2 2 2 2 2 2 2 2 2 2 2 2 2 2 2 2 2 2 2 2 2 2 2 2 2 2 2 2 2 2 2 2 2 2 2 2 2 2 2 2 3 2 2 2 2 2 2 2 2 2 3 2 2 2 2 3 2 2 2 3 2 2 3 2 2 2 2 2 2 2 2 2 2 2 2 2 2 2 2 2 2 2 2 9 2 2 2 2 2 2 2 3 2 2 2 2 2 2 2 2 2 2 3 2 7 2 2 2 2 2 2 2 2 2 2 2 2 2 2 2 2 2 2 2 2 2 2 2 2 2 2 2 2 2 2 2 2 2 2 2 2 2 2 2 2 2 2 2 2 2 2 2 2 7 2 2 2 2 2 2 2 2 2 2 2 2 2 2 2 2 2 2 2 2 2 2 2 2 3 2 2 * # . # # # * * # & # * # * # # $ * * # # # # # # & $ $ # & $ # * # # * * # # $ # * * # $ * # # * # # $ # * * # * # $ # * # # # # * # # $ # # * # * # * # $ # # $ # # # * * $ * # $ # * & # * * # # $ * # # $ & $ # & & X X # X % 2 2 2 9 2 2 2 2 2 2 2 2 2 2 2 2 2 2 2 2 2 2 2 2 2 2 2 2 2 2 2 2 4 2 2 2 2 2 2 2 3 2 2 3 2 2 2 2 2 2 2 3 2 2 2 2 2 2 2 3 2 2 2 2 2 2 2 9 2 2 2 2 3 2 2 2 2 2 2 2 2 2 2 2 2 2 2 2 2 2 3 2 2 2 2 7 2 2 2 2 2 2 2 2 2 2 2 2 2 2 2 2 2 2 2 2 2 2 2 2 2 2 2 2 2 2 2 3 2 2 2 2 2 2 2 2 2 2 2 2 2 2 2 2 2 2 2 2 2 2 2 3 2 2 2 3 2 2 2 2 2 2 2 2 2 2 2 2 2 2 2 2 9 2 2 2 2 2 2 2 2 2 2 2 2 2 2 2 2 2 2 2 2 2 2 2 2 2 2 2 2 2 2 2 2 2 2 2 3 2 2 2 2 2 3 2 2 3 3 2 2 2 2 2 2 2 2 2 2 2 2 2 2 2 7 2 2 2 2 2 2 2 2 2 2 2 2 3 2 2 3 2 2 2 2 2 2 3 2 2 2 3 2 2 2 2 2 2 2 2 2 2 2 2 2 2 2 2 2 2 2 2 2 2 2 2 2 2 2 2 2 2 # # # # # * * # # # * # & # * * # # # $ # # * # * # $ $ # $ # # * # * # * # $ # * * # # * # * # $ # # $ # * # $ # $ # * # * * # # $ # * # * # * # # # $ # $ & #   # X # % 2 2 2 2 2 2 2 2 2 2 2 2 2 2 2 2 2 2 2 2 2 2 2 7 2 2 2 2 2 2 2 2 2 2 2 2 2 2 2 2 2 2 2 2 2 2 2 2 2 2 2 2 2 2 2 2 2 2 2 2 2 9 2 2 2 2 2 2 2 2 2 2 2 2 2 2 2 2 2 2 2 2 2 2 2 2 2 2 2 2 2 2 9 2 2 2 2 2 2 2 2 2 2 2 2 3 2 2 2 2 2 2 3 2 2 3 3 2 2 3 3 3 7 2 3 9 2 2 2 2 2 2 2 2 2 2 2 3 2 2 7 7 7 3 2 7 2 2 2 2 2 3 2 2 2 2 2 2 2 3 8 2 2 3 3 7 8 2 2 7 7 2 2 2 2 7 7 2 2 2 2 3 3 2 2 2 2 2 3 7 7 2 3 3 3 3 2 3 7 2 3 3 3 2 2 9 2 2 2 2 2 2 2 3 3 2 3 3 2 3 3 3 3 3 2 2 2 2 3 2 2 2 2 2 2 2 2 2 3 2 2 2 2 2 2 3 2 # # X # # 2 2 2 2 2 2 2 2 2 2 9 2 2 2 2 2 2 2 3 2 2 2 2 2 7 3 2 2 2 2 2 2 2 2 2 2 2 2 2 2 2 2 3 2 2 2 2 0 S ) A.OX+X&X&X:X-X;X;X-X:X&X&X+XOXA.) w 2 2 2 2 2 2 2 9 2 2 2 2 2 2 2 2 2 2 2 2 2 3 2 2 3 2 2 2 2 2 3 2 2 2 2 2 2 2 2 2 2 2 2 2 2 2 2 2 ",
"2 2 2 2 2 2 2 2 2 2 2 2 2 2 2 2 2 2 2 2 2 2 2 2 2 2 2 2 2 2 2 2 2 2 2 2 2 2 2 2 2 2 2 2 2 3 2 2 2 2 2 2 2 2 2 2 2 2 2 2 2 2 2 9 2 2 2 2 2 2 2 2 2 2 2 2 2 2 2 2 2 2 2 2 2 2 2 2 2 2 2 2 2 2 2 3 2 2 2 2 2 2 2 2 3 2 2 2 2 2 2 2 2 2 2 2 2 2 2 2 2 2 2 2 2 2 2 2 2 9 2 2 2 2 2 2 2 2 2 2 2 2 2 2 2 2 2 2 2 2 2 2 2 2 2 2 2 2 9 2 3 2 2 2 2 2 2 2 2 2 2 2 2 2 2 2 2 2 3 2 2 3 2 2 2 2 2 2 2 2 2 2 2 2 2 2 2 2 2 2 2 2 2 9 3 2 2 2 2 2 2 2 2 2 2 2 2 2 2 2 2 2 2 2 2 2 2 2 2 3 3 2 3 2 2 2 3 2 2 2 2 # # # # # # $ # $ $ # # $ * # * # # # # * * # * * # # # * # # $ # * # # # # * # * # # * # # # $ # # * # * # # $ # # * $ # * # * # * # * # * # # $ # $ # # * # * # * * # # # # & $ # * # $ # # # $ * # * # * # # & & # $ # # # X % 2 2 2 2 2 2 2 2 2 2 2 2 2 2 2 2 2 2 2 3 2 3 2 2 2 2 2 2 2 2 2 2 2 2 2 2 2 2 2 2 2 2 2 2 2 2 2 2 2 3 2 2 2 2 2 2 2 2 2 2 2 2 2 2 2 2 2 2 2 2 2 2 2 2 3 2 2 2 2 2 2 2 2 2 2 3 2 2 2 2 2 2 7 2 2 2 2 2 2 7 2 2 2 2 2 2 9 2 2 2 2 2 2 9 2 2 2 2 2 2 2 2 2 2 2 2 2 2 2 2 2 2 2 2 2 2 2 2 2 3 2 2 2 2 2 2 2 2 2 2 2 2 2 2 2 2 2 3 2 2 2 2 2 2 2 2 2 2 2 2 2 2 2 2 2 2 2 2 2 2 2 2 2 2 2 2 2 9 2 2 2 2 2 9 2 2 2 2 2 2 2 2 2 2 2 2 2 2 2 2 2 2 2 2 2 2 2 2 2 2 2 2 2 2 2 2 2 2 2 2 3 2 2 2 2 2 2 2 2 2 2 2 2 3 2 3 2 2 2 2 2 2 2 2 2 2 2 2 2 2 2 2 2 2 2 2 2 2 2 2 3 2 2 2 2 2 2 2 2 2 2 2 2 2 2 2 2 2 3 2 2 2 # # # # # # # # * * # $ $ # # # # * * # * # # $ # # $ # $ # * # # $ # $ * # # * # # * # & $ # # # * * # $ # * # * # # # $ # # # * # # # $ # $ # # * * # * # * # # # # % % 2 2 2 2 2 9 2 2 2 2 2 2 2 2 2 2 2 2 2 2 2 2 2 2 2 2 2 2 2 2 2 2 2 2 2 3 2 2 2 2 2 2 2 2 9 2 2 2 2 2 2 2 2 2 2 2 2 2 2 2 2 2 2 2 2 2 2 2 2 2 2 2 2 4 2 2 2 2 2 2 9 2 2 2 2 2 2 2 2 2 2 2 2 2 2 2 2 2 2 2 2 2 2 2 2 2 2 2 3 2 2 & 1 1 1 1 1 1 2 1 1 2 1 1 1 2 % 2 % % 1 1 2 2 1 1 1 1 2 1 $ 2 1 1 1 1 1 1 $ 1 1 1 1 1 2 1 1 1 1 1 1 1 2 1 1 2 1 1 1 1 1 1 1 2 % 1 % 2 1 1 1 1 1 1 2 1 1 1 1 2 1 1 1 1 1 1 1 2 1 1 1 1 1 1 1 2 % 2 1 1 1 % 2 1 1 1 1 2 1 1 1 1 1 1 1 1 2 1 1 1 2 2 % 1 2 1 2 1 1 1 2 2 2 2 2 2 2 & X # # # 2 2 2 2 2 2 2 2 2 2 2 2 2 2 2 2 2 2 2 2 2 2 2 2 2 2 2 2 2 2 2 3 2 2 2 2 2 2 2 2 2 2 3 2 2 3 T ..D.+X:X;X;X-X-X-X-X-X;X-X-X-X;X;X;X+X-.I Y w 3 2 2 2 2 2 2 3 2 2 2 2 3 2 2 2 2 2 2 2 2 2 2 3 2 2 2 2 2 2 2 3 2 2 2 2 2 2 2 2 2 2 2 2 2 2 ",
"2 2 2 2 2 2 2 2 2 2 2 2 2 2 2 2 2 2 2 2 2 2 2 2 2 2 2 2 2 2 2 2 2 2 2 2 2 2 2 2 2 3 3 2 2 2 2 2 2 2 2 2 2 2 2 2 7 2 2 2 2 7 2 2 2 2 2 2 2 2 2 2 2 2 2 2 2 2 2 2 2 2 2 2 9 2 2 3 2 2 2 3 9 2 2 2 2 2 2 2 2 2 2 3 2 2 2 2 2 2 2 2 2 2 2 2 2 2 2 2 2 2 2 3 2 7 3 2 2 2 2 2 2 2 2 2 2 2 2 2 2 2 2 2 2 2 2 2 2 2 2 2 2 2 2 2 2 2 2 2 2 2 2 2 2 2 2 2 2 2 2 2 2 2 2 2 2 3 3 2 2 2 3 2 2 2 2 2 2 2 2 2 2 2 2 2 2 2 2 2 2 2 2 2 2 2 2 2 2 2 2 2 2 2 2 2 2 2 2 2 2 2 2 2 2 2 2 2 2 3 2 2 2 2 2 2 2 2 2 2 2 * # # # # # # * # * * * # # $ * # * # $ # # $ # # # * * # # * # # * & # * $ # $ # $ # # # * * * # $ # # # * # # * # # * # * # * # # # * # $ # # $ * # # * # $ # # $ # * # # * # $ # # # # * # * # * # # # $ # * # & & & # # X X 1 2 2 2 2 2 2 2 2 2 2 2 2 2 2 2 3 2 2 2 2 2 2 2 2 2 2 2 2 2 2 2 2 2 2 2 2 2 2 2 3 2 2 2 3 2 2 2 2 2 2 2 2 2 2 2 2 2 3 3 2 2 2 2 2 2 2 2 2 2 2 2 2 2 2 2 2 2 2 2 2 2 2 2 2 2 2 2 2 2 2 2 2 2 2 2 2 2 2 2 2 2 2 2 2 2 2 2 2 2 2 2 2 2 2 2 2 2 2 2 2 2 2 2 2 2 2 3 2 2 3 2 2 2 2 2 2 2 2 2 2 2 3 2 2 2 2 2 2 3 2 3 2 2 2 2 2 2 2 2 2 2 2 2 2 2 2 2 2 2 2 2 2 2 2 2 2 2 2 2 2 2 2 2 2 2 2 2 2 2 2 2 2 2 2 2 2 2 2 2 2 2 2 2 2 2 2 2 2 2 3 2 2 2 2 2 2 2 2 2 2 2 2 2 2 2 3 2 3 2 2 2 2 2 7 2 2 2 2 2 2 2 2 2 2 2 2 2 2 3 2 2 2 2 2 3 2 2 2 2 2 2 2 2 2 2 2 2 2 2 2 2 2 2 2 2 2 2 2 2 2 2 2 2 2 2 2 2 2 2 2 2 2 # # # # # # $ # # $ * # * * # * # * * # $ # * * # * # $ $ # # $ * # # * # $ # # * $ # * # * # * & $ * # * # # $ * # * # * # $ # # * * # * * # * $ # * # * # # # # # # X % 2 2 2 2 2 2 2 2 2 2 2 2 2 2 2 2 9 2 2 2 2 2 2 2 2 2 2 9 2 2 3 3 2 2 2 2 2 2 2 2 2 2 2 2 2 2 2 2 2 2 2 2 2 2 2 2 2 2 2 2 2 2 2 2 2 2 2 2 2 2 2 2 2 3 2 2 2 2 2 2 2 2 2 2 2 2 2 2 2 2 2 2 2 2 2 2 2 2 2 2 2 2 2 2 2 2 2 2 2 2 2 & & 1 $ & & % 1 1 # # 1 # & % % % % % 1 % % % # 1 # 1 % 1 O # 1 & & 1 & O $ 1 % 1 1 1 # 1 % 1 1 & # % & & & # % # 1 1 1 $ # % % % O & $ 1 % # 1 1 # 1 $ 1 1 # 1 & & 1 % & & # 1 & & 1 1 & & % % % % & % % & & & 1 # % # 1 & 1 1 & & $ 1 # $ # & % % X 1 & & # 1 1 2 2 2 2 2 2 2 & # # X # 1 2 2 2 2 2 2 2 2 2 2 2 2 2 2 2 2 2 2 2 2 2 2 2 2 2 2 2 2 2 2 3 2 2 2 2 2 2 2 2 2 3 2 8 e ) F.+X-X-X-X-X;X;X;X-X;X;X;X;X-X;X;X;X-XZ.*.' ` ! Z r 2 2 2 2 2 2 2 2 2 2 2 2 2 2 3 2 2 2 2 2 2 2 2 2 2 3 2 2 2 7 2 2 2 2 2 2 2 2 2 2 2 2 2 2 ",
"2 2 2 2 2 2 2 3 3 2 2 2 3 2 2 2 2 2 2 2 2 2 2 2 2 2 2 2 2 2 2 2 2 2 2 2 2 2 2 2 2 2 2 2 2 2 2 2 2 2 2 2 2 2 2 2 2 2 2 2 2 2 2 2 2 2 2 2 2 2 2 2 2 2 2 2 2 2 2 2 2 2 2 2 2 2 2 2 2 2 2 2 2 2 2 2 3 2 2 2 2 2 2 2 2 2 2 3 2 2 2 2 2 2 2 3 3 2 2 3 2 2 2 2 2 2 2 2 2 2 2 2 2 2 2 2 2 2 2 2 2 2 2 2 2 2 2 2 2 2 2 2 2 2 2 2 2 2 2 2 2 2 3 2 2 2 2 2 2 2 2 2 9 2 2 2 2 2 2 2 2 2 2 2 2 2 2 2 2 2 2 2 2 2 2 2 2 2 2 2 2 2 2 2 2 2 2 2 2 2 2 2 2 2 2 2 2 7 2 2 2 2 2 2 2 2 2 2 2 2 2 2 2 2 2 2 2 2 2 7 2 *   # #   # # # $ # # # # * # # $ # $ # * * # # * $ # * # # * * # # $ $ # # * # * # * $ & # # # $ # * * # # # # $ # * $ # # * # $ # * # $ # $ * # * # $ # * # # * # * # $ # * * # * # * * # $ # $ # # # * # * * # # $ # # # X X % 2 2 2 2 2 2 2 2 2 9 2 2 2 2 2 2 2 2 2 2 2 2 2 2 2 2 2 2 2 2 2 2 2 2 2 2 2 2 2 2 2 2 2 2 2 2 3 2 2 2 2 2 2 2 2 2 2 2 2 2 2 2 2 2 2 2 2 2 2 2 2 2 2 2 2 2 2 3 2 2 2 2 2 2 3 2 3 2 2 2 2 2 2 2 2 2 2 2 2 2 2 2 2 2 2 2 2 2 2 2 2 2 2 2 2 2 2 2 2 2 2 2 2 9 2 2 2 2 2 2 3 2 2 2 2 2 2 2 2 3 2 2 2 2 2 2 2 2 2 2 2 2 2 3 2 3 2 2 2 2 2 2 2 2 2 2 2 2 2 2 2 2 2 2 2 2 2 2 2 9 2 2 2 2 2 2 2 2 2 2 2 2 2 2 2 2 2 2 2 2 2 2 2 2 2 2 2 2 2 2 2 3 2 2 2 2 2 2 3 2 2 2 2 2 2 2 2 2 2 2 2 3 2 2 2 2 2 2 2 2 2 2 2 2 3 2 2 2 2 2 2 2 2 2 2 2 2 3 2 2 2 3 2 2 2 2 2 2 2 2 2 2 2 2 2 2 2 2 2 2 2 2 2 2 2 2 3 2 2 2 2 2 # # #   # # # * # * # $ # # $ # $ # # # * * # # $ # $ $ # $ * # # # # # # * * # # # # # $ # # * # # # # * # * # # $ # $ # $ # * # * # $ # # $ # # * # $ # $ * # # # X # % 2 9 2 2 2 2 2 2 2 2 2 2 2 2 2 2 2 2 2 2 2 2 2 2 2 2 2 2 2 2 2 2 2 2 2 2 2 2 2 2 2 2 2 2 2 2 2 2 2 2 2 2 2 2 2 2 2 2 2 2 2 2 2 2 2 2 2 2 2 2 2 2 2 3 3 2 2 2 2 2 2 2 2 2 2 2 2 2 2 2 2 2 2 2 2 2 2 2 2 2 2 2 2 2 2 2 2 3 2 2 2 & & 1 & & & 1 # 1 # 1 % $ # % % O % 1 1 % 1 1 # 1 1 # 1 # 1 # 1 & & & & 1 1 % 1 1 % 1 $ 1 1 # 1 & $ % & & & % 1 1 & & $ O 1 % % % % 1 $ 1 1 & & & $ % 1 # 1 % 1 & & & 1 1 # & % & & % 1 % 1 % O % % & 1 # 1 & & & & & & 1 % & % % 1 1 # # $ 1 & % % 1 1 # & 1 % 1 2 2 2 2 2 2 2 & X # X # 2 2 2 2 2 3 2 2 2 2 2 2 2 2 2 2 2 2 2 2 3 3 2 2 2 2 2 2 3 2 2 2 2 2 9 2 2 2 2 2 2 3 3 S ..+X-X-X-X-X-X:X:X+XOXD.D.D.A.D.D.OX+X:X+XA.] ' ] ] U Y q 2 2 2 2 2 2 3 2 2 3 2 2 2 2 2 2 2 2 3 2 2 2 2 2 2 2 2 2 2 2 2 2 2 2 2 2 2 2 2 2 2 2 2 ",
"3 2 2 2 2 2 3 2 3 2 2 3 3 2 2 2 2 7 2 2 2 2 2 2 2 2 2 2 2 3 2 2 2 2 2 2 2 2 2 2 2 2 2 2 2 2 2 2 2 2 2 2 2 2 2 2 2 2 2 2 2 2 2 2 2 2 2 2 2 2 2 9 2 9 2 2 2 2 2 3 2 2 2 2 2 2 2 2 2 2 2 2 2 2 2 2 2 3 2 2 2 2 2 3 2 2 2 2 2 2 2 2 2 2 2 2 2 2 2 2 2 2 2 2 2 2 2 2 2 2 2 2 2 2 2 2 2 2 2 2 2 2 2 2 2 2 2 2 2 2 2 2 2 2 2 2 2 2 2 3 2 2 2 2 2 2 2 2 2 2 2 2 2 2 2 2 2 2 2 2 2 2 2 2 2 2 2 2 2 2 2 4 9 2 2 2 2 2 2 2 2 2 2 2 2 2 3 2 2 2 2 2 2 2 2 2 2 2 2 2 2 2 2 2 2 2 2 2 2 2 2 2 2 2 2 2 2 2 2 2 2 1 $ # # # # # # * * # $ # # * # * # # # * * # $ # # * $ # * # # $ $ * # # * # # $ # # $ # # * * # # * # $ # * * # # # $ # $ # # * $ * 7 * # $ # $ # # * # # * $ # $ # # # * # * # # $ # * # $ # * # * * $ * # # # $ # & # # # # 1 2 2 2 2 2 2 2 2 2 2 2 2 2 2 2 4 3 2 2 2 2 2 2 9 2 2 2 2 2 2 2 2 2 2 2 2 2 2 2 2 2 2 2 2 2 2 2 2 2 2 3 3 3 3 2 2 2 3 2 2 2 2 2 2 2 2 2 2 2 2 2 2 2 2 2 2 2 2 2 2 2 2 2 2 2 2 2 3 2 2 2 2 3 3 2 2 2 2 2 9 2 2 2 2 2 2 2 2 2 2 2 4 2 2 2 2 2 2 2 2 2 2 2 2 2 2 2 2 2 2 2 3 2 3 2 2 2 9 t 2 2 2 2 2 2 3 2 3 2 2 2 3 2 2 2 2 3 2 7 2 2 2 2 2 2 2 2 2 2 2 2 2 2 2 2 2 2 2 2 2 2 2 2 2 2 2 2 2 2 2 2 2 2 2 2 2 2 2 2 2 2 2 2 2 2 2 2 2 2 2 2 2 2 2 3 2 2 3 2 2 2 2 2 2 2 2 3 2 2 2 2 2 2 2 2 2 2 2 2 2 2 2 2 2 2 2 2 2 2 2 3 2 2 3 2 2 2 2 3 2 2 3 2 2 2 2 2 2 2 2 2 2 2 2 2 2 2 2 2 2 2 2 9 2 2 2 2 2 2 2 7 2 # # # # # # * # # $ # # $ # # # * # # # * # * # # $ # $ # # * # # * $ * # * # # # $ = 7 # * # # * # # * # * # $ * # * * # $ * # $ # $ # # * # $ * # # $ & # # $ X # % X % 3 2 2 2 2 2 2 2 2 2 2 2 2 2 2 2 2 2 2 2 2 7 2 2 2 2 7 2 2 2 2 2 2 2 2 2 2 2 2 2 2 2 2 2 2 2 2 2 2 2 2 2 2 2 2 2 2 2 2 2 9 2 2 2 2 2 2 2 2 2 2 2 2 2 2 2 2 2 2 2 2 2 2 2 2 2 2 2 2 2 2 2 2 2 2 2 9 2 2 2 2 2 2 3 2 2 2 2 2 2 1 & & & & 1 1 1 1 & & & # 1 $ & & & & % # 1 % 1 1 % & 1 # 1 1 1 & & & & & & # & & & 1 % & 1 & # 1 1 # O 1 & & & & & & # 1 1 1 1 # % 1 # % & & # 1 1 # 1 1 & & & & & & 1 1 O $ & & & & 1 # 1 1 & & 1 1 & & & & 1 O $ & # 1 # $ & & & & 1 % # O 1 1 % & & & & & 1 % & 2 2 2 2 2 2 2 # # X # # 2 2 2 2 3 2 2 2 2 2 2 2 2 2 2 2 2 2 2 2 2 2 2 2 2 2 2 2 3 2 2 3 2 2 2 3 2 2 2 2 2 9 C -.-X-X-X-X-X-X+XD.-...P w : : : : > T ..=.D.%.' ] ' ' ' ] Q e 3 2 2 2 2 3 2 2 2 2 2 7 2 2 2 3 2 2 2 2 2 3 2 2 2 2 2 2 2 3 2 2 2 2 4 2 2 2 2 2 2 2 ",
"2 2 2 2 2 2 2 2 2 2 2 2 2 2 2 3 2 2 2 2 2 2 2 2 2 2 2 2 2 2 2 2 2 9 9 2 7 9 2 2 2 2 2 2 2 2 3 2 2 2 2 2 2 2 2 2 2 2 2 2 2 2 2 2 2 2 2 2 2 2 2 2 2 2 2 2 2 2 2 2 2 2 2 2 2 3 2 2 2 2 2 2 2 2 2 2 2 2 2 2 2 2 2 2 2 2 2 9 3 3 2 2 2 9 7 2 2 2 9 3 7 2 2 2 2 2 2 2 2 2 2 2 2 2 2 2 2 2 2 2 2 2 2 2 2 2 2 2 2 2 2 2 2 2 2 2 2 2 2 2 3 2 2 3 2 2 2 2 2 2 2 2 9 2 9 2 8 3 3 2 2 2 2 2 2 2 2 2 2 2 2 2 2 2 2 2 2 2 2 2 2 2 2 9 9 2 3 3 2 9 2 2 2 2 2 2 2 2 2 3 2 3 2 2 2 3 2 2 2 3 2 2 2 2 2 3 2 3 2 2 2 1 # # # # # # $ # # $ # * $ # $ # # * # # # # # * $ # & & # $ $ * * 1 * $ * # * # * # # * # $ * # # * * # # * * # * # # * # # $ # $ 0 R.D # # # & * # # $ # * # * # * * # # $ # # * # $ # * # # * $ # # # # # # * # * # # X # # # 2 2 2 2 2 2 2 2 2 2 2 2 2 2 2 2 3 3 2 2 2 2 2 2 2 2 2 2 9 2 3 9 2 2 2 2 2 9 9 7 3 2 2 2 2 2 2 2 3 7 3 3 2 2 3 2 2 3 2 2 2 2 2 2 2 2 2 2 2 2 3 2 2 2 2 2 2 2 2 2 3 2 3 2 2 3 2 2 2 2 2 2 3 4 2 2 2 2 2 2 2 2 2 2 2 2 2 2 2 2 2 9 9 9 2 2 2 2 2 2 2 2 2 2 2 2 2 2 2 2 2 2 3 3 2 2 2 0.I.7 2 2 2 2 2 3 2 2 2 2 2 2 2 2 2 2 2 2 2 2 2 2 2 2 2 2 2 2 2 2 2 2 2 2 2 2 2 2 2 2 2 2 2 2 2 2 2 2 2 2 2 2 2 2 2 2 2 2 2 2 9 4 9 9 2 2 3 3 2 2 2 2 2 2 2 2 2 2 2 2 2 2 2 2 2 2 2 2 7 2 2 2 2 2 2 2 2 2 2 2 2 2 2 2 3 2 2 3 2 3 2 2 2 2 2 2 3 2 2 2 2 2 2 2 2 3 2 2 2 2 3 2 2 3 2 2 2 2 2 2 2 2 2 2 2 2 2 2 2 7 2 1 # # #   # # # $ * # * * # * * # * $ * # # $ # # * * * * * = $ * & $ # # # * # * $ * w.7.# # # * & # $ # # * * # # # # # # * # # * # # * # # * # * # * # # * $ # # # X # % 3 2 2 2 2 2 2 2 2 2 2 2 2 2 2 2 2 2 2 2 2 2 2 2 2 2 2 2 2 2 2 2 2 2 2 3 2 2 2 2 2 2 2 2 2 2 2 2 9 2 2 2 2 2 2 9 2 2 2 2 2 2 2 2 2 2 2 9 2 2 2 2 2 2 2 2 2 2 2 2 2 2 2 2 2 2 2 2 2 2 2 2 2 2 2 2 2 2 2 2 2 2 2 2 2 3 2 2 3 2 2 & & & & % # % & & & & & 1 O & & & & 1 1 & 1 # 1 & & 1 & % # % 1 # 1 & & & & # & & & & & & & & & O $ $ 1 # & & 1 & & & & 1 # 1 1 & 1 1 1 & & % 1 O $ # # 1 & & & & & # & $ # & & & & & & 1 # & & % # & 1 & & 1 # # $ 1 # $ O & & & & % - 1 1 1 X 1 1 O & & & & & & 2 2 2 2 2 2 2 # # X # X 2 3 2 2 2 2 2 2 2 2 2 2 2 2 2 2 2 2 2 7 2 3 2 2 2 2 2 2 2 2 2 2 2 2 2 2 2 2 2 2 9 E F.-X-X-X-X-X&XA.) w 8 & & # # # # # # & * * : , I ] ' ' ' ' ' ! w 2 2 2 2 2 2 2 2 2 2 2 3 2 3 2 2 2 2 3 2 7 2 2 2 2 2 2 2 2 2 2 2 3 3 2 2 2 9 2 2 2 ",
"2 2 2 2 2 2 2 2 2 2 2 2 2 2 2 2 2 2 2 3 2 2 2 2 2 2 2 2 2 2 2 2 2.eXeXtXeXW.,.2 2 2 3 2 3 2 2 2 2 2 2 2 2 2 9 2 2 2 2 2 2 2 2 2 2 2 2 2 2 2 2 2 2 2 2 2 2 2 2 2 2 2 2 2 2 2 2 2 2 2 2 2 2 2 2 2 2 2 2 2 2 2 2 2 2 3 2 6.p.3.2 2 3.W.p.2 2 2 y.i.D 2 2 2 3 2 2 2 2 R G 2 2 2 2 2 2 2 2 2 2 2 2 2 9 2 2 2 3 2 3 2 2 2 2 2 2 2 2 2 2 2 2 2 2 2 2 2 2 2 2 0.eXeXeXwXU.3.2 2 2 2 2 2 2 2 2 2 2 2 2 2 2 2 2 2 3.6XQ.0.t 2 0 8.(.3.4 1 t Q.6.0 2 2 2 2 2 2 2 e 3.e 2 2 2 3 3 2 2 3 3 2 2 2 2 2 2 2 2 2 7 1 X # # # # # # * * # * # * # # * $ # * # $ * $ # # * $ # # 2 J r.K.u.5.q # $ # # $ # * # # # # * $ # # # # # # * # * * $ * * # * # 0 ~.D # # * # # # * * # # # # # * # $ * # $ # # * # * # # $ # # * # * $ * # * # * # # # X X # 2 2 2 2 2 2 2 2 9 2 2 2 2 2 2 2 2 2 2 2 2 2 2 2 2 2 2 2 2 0 /.wX6.1 2 2 2 2./.Q.D 2 2 2 2 2 2 2 2 G G 7 2 2 2 2 7 7 2 2 2 3 2 2 2 2 2 2 2 2 2 2 2 2 2 3 3 2 3 2 2 2 2 2 2 2 2 2 2 2 2 2 2 2 2 2 2 2 2 2 2 2 2 2 2 2 2 2 % t 8.(.eXeXW.,.2 2 2 2 2 2 2 2 2 2 2 2 2 2 2 2 e R 9 2 2 t F 7 2 2 2 2 7 7 2 2 2 2 3 3 2 2 2 2 3 2 2 2 2 t 3.9 2 2 2 2 2 2 2 2 2 2 2 2 2 2 2 2 2 2 2 2 2 2 2 2 2 2 2 2 2 2 2 2 2 t /.wXtXtXtXeXeX,.7 3 3 3 2 2 2 2 3 3 2 2 2 2 2 2 3 2 2 2 2 7 3 2 2 2 2 2 2 2 2 2 2 2 2 2 2 2 3 3 2 2 2 3 2 2 2 3 2 9 3.0 2 2 2 2 2 2 2 2 2 2 2 2 2 2 2 2 2 2 2 3 2 2 2 2 2 2 2 2 2 2 2 2 2 2 # # # # # # * # # $ # $ # # * $ # # # $ * # $ # # ^ K.K.K.u.7.D $ # * $ # # # # * * r.w.# # $ # $ # # * # # # # $ * $ * # * # * # $ * # # $ * # # # * # & & $ # # X # # 1 2 2 2 2 2 2 2 2 2 2 2 2 2 2 2 2 2 2 2 2 2 2 2 2 2 2 2 2 2 2 2 2 2 2 2 2 2 2 2 2 2 2 2 2 2 2 2 2 2 2 2 2 2 2 2 2 2 2 2 2 2 2 2 2 2 2 2 2 2 2 2 2 2 9 2 2 2 2 2 2 2 2 2 2 2 2 9 2 2 2 2 2 2 2 2 2 2 2 2 2 2 3 2 2 2 2 2 2 2 7 2 O & & & # 1 O 1 & & 1 & 1 1 # 1 & & $ # # 1 # 1 & 1 O $ 1 1 & % 1 1 & & # $ 1 1 & & % # & & 1 % & & # $ & 1 # $ & # % & 1 1 # 1 # # 1 1 & & # 1 1 & 1 1 1 & $ O & & # 1 & & & & O $ & & # $ & # 1 1 $ O & & & & & & 1 % 1 1 & & & & & & & & 1 1 X 1 $ # 1 & & & 1 2 2 2 2 2 2 2 $ # # # # 2 2 2 2 2 2 2 2 2 2 2 2 2 2 2 9 2 2 2 2 2 2 2 2 2 2 2 2 2 2 3 2 3 3 2 2 2 2 2 2 e A.:X;X-X-X-X:X .< = # # X # # X X # # # X # X # & : B U ' ] ' ] | ! q 2 2 2 2 2 2 3 2 2 2 2 2 2 2 2 2 3 2 2 2 2 7 2 2 2 3 2 2 2 2 2 3 2 2 2 2 2 2 2 2 ",
"2 2 2 2 3 2 2 2 3 2 2 2 3 2 2 2 3 2 2 2 2 2 2 2 2 2 2 2 2 2 2 2 q.dXp.y.a.Q./.8.7 2 1 2 2 1 2 1 2 2 2 2 2 1 2 2 2 2 2 2 4 2 2 2 2 2 2 2 2 2 2 2 2 2 2 3 2 2 2 2 2 2 2 2 2 2 2 2 2 2 2 2 2 2 2 2 2 2 2 3 2 2 2 2 2 3 % 8.(.e.9 2 e.sXwXe 2 4 (.(.t 2 2 2 1 1 1 4 2 i.8.2 2 2 2 2 2 2 2 2 2 2 2 2 2 2 2 2 2 2 2 2 2 2 2 2 3 2 2 2 2 3 2 2 2 2 2 2 2 2 % p.sXp.y.a./.Q.2.2 2 2 1 2 1 2 1 2 2 2 2 2 1 2 3 t 0.tX6XW.,.1 t /.hX0.2 2 3.sX6.4 2 2 % 1 2 2 1 G W.t 2 2 2 2 2 2 2 2 2 2 2 3 7 2 2 2 2 2 2 & X # # # # * # # # $ # # * # # * # * # $ # * # * # # # $ * H u.5.<.5.^ 8 * # # # # # * # # # #   # # # # # # # $ # # . # . # # # # C !.D # # # # # # # # # # # # # # * # # $ # * # * # $ # * # * # # $ # # * # # $ # # # # # # # 2 2 2 2 2 2 2 2 2 2 2 2 2 2 2 2 2 2 2 2 2 2 2 2 2 2 2 2 1 e sXhXa.2 2 2 2 p.hXeXJ 2 2 2 2 1 1 2 2 0.e.7 % 2 2 2 1 1 1 2 2 2 1 2 % 2 2 2 2 % % 2 2 3 2 2 2 2 2 2 3 2 2 3 2 2 2 2 2 3 2 2 2 2 2 2 2 2 2 2 2 2 2 2 2 2 2 2 t q.6XU.y.a.y.,.2 2 2 2 % 2 2 2 % 2 2 1 1 2 3 % R U.e 2 2 1 % 2 2 2 1 2 1 1 2 1 2 1 1 2 2 2 2 2 1 2 2 2 % 3.W.e % 2 2 2 2 % % 2 2 2 1 2 % 2 2 2 % 2 % 2 2 2 2 2 2 2 2 2 2 2 2 2 2 9 8.q.W.tXwXy.q.F 3 2 1 1 % 2 2 2 2 1 2 1 2 2 1 1 1 2 2 2 2 1 2 1 1 2 2 2 2 2 2 1 2 2 2 2 2 % 2 % 2 2 2 % % 2 1 2 2 t W.F 2 2 2 1 2 2 3 2 2 2 2 % 2 2 % 2 2 2 2 % % 2 2 2 2 2 2 2 2 2 2 2 2 2 #   # # # # # # * # * # * # # # * # * # # $ # * # 4.Y.5.1.1.0.7.H $ # # # # # # # * t.w.# # # # # # # # # # # * # # # # # # $ # * # * # * # # $ # * # & # # $ # # X # # 1 2 2 2 2 2 2 2 2 2 2 2 2 2 2 2 2 2 2 2 2 2 2 2 2 2 2 2 2 2 2 2 2 2 2 2 2 2 2 9 2 2 2 2 2 2 2 2 2 2 2 2 2 2 2 2 2 2 2 2 2 2 2 2 2 2 2 2 2 2 2 2 2 2 2 2 2 2 2 2 2 2 2 2 2 2 2 2 2 2 2 2 2 2 2 2 2 2 2 2 2 2 2 2 3 2 2 2 3 2 2 1 $ & & & $ # $ 1 # & % 1 1 X 1 1 & 1 # $ O 1 1 & & # $ # # 1 & 1 1 # & & 1 # $ O & & % $ O X 1 # & & 1 # & & $ O 1 1 1 1 1 X % % # $ O # & & 1 1 # & & % # $ # 1 1 # & & & & & & $ # 1 # $ O 1 1 % # # % 1 X & & & & & & # & & 1 & & & & & & % 1 1 1 # $ & & & & 1 2 2 2 2 2 2 2 & X # X # 2 3 2 2 2 2 2 2 3 2 2 2 2 2 2 2 2 3 2 2 2 2 2 2 3 2 2 2 2 2 2 2 2 2 2 3 2 2 3 r -.:X;X-X-X+XA.( : # X # # # X # # # X # $ e J 1 X X X = < I ' ] ' ] ' I r 2 2 3 2 2 2 2 2 2 2 2 2 2 3 2 2 2 2 2 2 2 2 3 2 2 2 2 2 2 2 2 2 2 2 2 2 2 2 2 ",
"9 2 2 2 2 2 2 2 2 2 2 2 2 2 2 2 2 9 2 2 2 2 2 2 2 2 2 2 2 2 2 % e.tXF % 2 ,./.wXD 9 ,.>.3.0.3.6.3.9 2 9 J 2.t 2 2 2 2 2 2 2 2 2 2 2 2 2 2 2 2 2 2 2 2 2 2 2 2 2 2 2 2 2 2 2 2 2 2 2 2 2 2 2 2 2 2 2 2 2 2 2 2 2 2 2 2 3.U.E.9 2 W.sX(.,.2 t 6XW.1 2 e 6.q.0.J 9 ,.tXwXq.2.4 % 2 2 2 2 2 2 2 2 2 2 2 2 2 2 2 2 2 2 2 2 2 2 2 2 2 2 2 2 2 7 2 2 2 2 2 2 p.wXt 1 8 2.wX(.t 9 2.3.,.8.>.8.R 9 2 0 3.2.e 1 R W.i.a.Q.8.1 t tXpXa.t 9 2.sX3.1 9 G 0.q.6.e t a.fXp.q.F 2 2 2 2 2 2 2 2 2 2 2 2 2 2 2 2 2 1 % % # X # & # & * # $ # $ # $ # * * # $ $ # * * # $ # # 8 <.R.7 # * 7 * * 0 K 1.K D $ $ F H H / ^ 7 D ^ ^ H 2 $ * e J D <.^ C $ # D '.D # $ 0 K <.J 7 # 7 H / / H 0 $ & # * * # $ # # * * # $ # # * # $ # # * # # $ # # # # X # 3 2 2 2 3 2 2 3 2 2 3 2 2 2 2 2 2 3 2 2 2 2 2 2 2 2 2 9 1 t tXsXp.J 2 2 9 Q.hX6XG 9 0 ,.q.0.,.9 3.wXeXq.6.9 6 ,.0.0.,.2 3 3.2.R 0.3.0 t 8.q.q.,.0 2 2 2 2 2 2 2 2 2 2 2 2 2 2 2 2 2 2 2 2 2 2 2 2 2 2 2 2 2 2 2 2 2 2 2 6.wXW.F 2 2 t t 4 e 2.e.8.3.2 9 ,.2.,.e.0.J 7 F p.dXp.0.t 3.6.2 9 2.,.2.e.8.t >.8.q.,.9 3 3 8 J 0.q.2.e t p.dXp.8.t 4 G 0.q.2.t 4 t 6.J 8.2.t e 2.0.q.2.t 3 3 3 2 2 2 2 2 2 2 2 2 2 2 1 >.W.p.2 1 2 9 3.0.q.2.0 4 F 8.3.q.q.3.t 6.q.8.D 3 2 e 8.3.8.q.2.t 4 2 9 3.0.q.,.0 2 G 2.J 8.,.e 0 ,.0.q.8.t 0 e.dXW.q.R F 8.9 2 2 R 6.2 9 2.3.,.8.J 3 4 ,.q.q.,.9 2 2 2 2 2 2 2 2 2 3 2 # # # # X & # * # * # $ # $ * * # # $ # * * # $ # 4.r.7 # * H u.t.7 $ 2 F >.K D * $ t.w.# $ 0 J <.^ D * H e * # 2 e S 7 # $ # $ * # * # # $ # * # * # # $ # # $ # # # # * 2 2 2 2 2 3 2 2 % 2 1 4 1 2 2 >.3.2 2 2 2 2 2 2 2 2 2 2 2 2 2 2 2 2 2 2 2 2 2 2 2 2 2 2 2 2 2 2 2 2 2 2 2 2 2 2 2 2 2 2 2 2 2 9 2 2 2 2 2 2 2 2 2 3 2 2 3 2 2 2 3 2 2 2 2 2 2 2 2 2 2 2 2 2 2 2 2 2 2 2 2 2 2 2 2 2 2 2 2 2 2 O $ # % 1 # & # 1 1 1 O & & & & & # $ # 1 1 % & & & O $ # 1 & & O $ # 1 # 1 & & & # 2 : , , q 1 & & & & & & # 1 1 % 1 & X 2 , , < 2 & & & & & & 1 & 1 1 O $ # 1 1 # 1 # 1 1 1 1 O $ # 1 & & # # & 4 w w r = * 1 & # 1 $ & & & & & & & = , , , = & & $ O & & 1 1 % 2 3 2 3 2 2 2 # X # # # 2 2 2 2 2 2 2 2 2 2 2 2 2 9 2 2 2 2 2 7 2 2 2 2 2 2 2 2 2 2 2 2 2 2 2 2 3 2 0 ..+X-X-X;X&X-.T & . # # X # # X & # X # # 7 9.).y./ 2 X X # : P ` ] ' ' ' Y 8 2 2 2 2 2 3 2 2 2 2 2 2 2 2 2 2 2 2 2 2 2 7 2 2 2 2 7 2 2 2 2 2 2 2 2 2 2 2 ",
"2 2 2 2 2 2 2 9 2 2 2 2 2 2 2 2 2 2 2 2 2 2 2 2 2 2 2 2 2 2 2 % q.tXJ 9 2 2 8.tX6.e (.wXU.(.0.wXU.J 1 t W.Q.,.1 2 2 2 2 2 2 2 2 2 2 2 2 2 2 2 2 2 2 2 9 2 2 2 2 3 2 2 2 2 9 2 2 2 2 2 2 2 2 2 2 2 2 2 2 2 2 2 2 2 2 2 t a.wX9 9 /.eXp.y.0 2.(.q.1 e 0.(.tXeXW.J a.fXfXwXp.9 2 2 2 2 2 2 2 2 2 2 2 2 2 2 2 2 9 2 2 2 2 2 2 2 2 2 2 2 2 2 2 2 2 2 7 2 2 p.wXF 3 2 2 y.eX1.t eX(.W./.q.wXi.F % F E.Q.J 1 6.wX3.,.wXy.4 3.sXE.p.,.t q.wXG 2 J p.eXeXwX8.,.(.lXtX6X2.1 2 3 2 2 2 2 2 2 2 2 2 2 2 2 2 2 1 X X # X $ & # & # # # * # * # * # # # * # * # # * # & $ 8 5.R.e * # $ # 2 <.t.K.P.9.7 2 u.u.9.I.I.5.7.u.R.r.D 1 $ 5.Y.5.K.K.7.D # 0 '.D # 0 5.P.P.r.K 7 D r.u.K.9.H # $ $ # # # # * $ # # # # * $ # * # * # # $ * # # # # # # # 2 3 2 2 2 2 2 2 2 2 2 2 2 2 2 2 2 2 2 2 2 2 2 2 2 2 2 2 2 e pX/.p.0.4 9 ,.p.tX6XG 9 6./.tXeXQ.R q.sXhXeXW.e 2./.eXeX(.R 9 U.tXi.wXq.J q.eXeXwXp.F 2 2 2 2 2 2 2 2 2 2 2 2 2 2 2 2 2 2 2 2 2 2 2 2 2 2 2 2 2 2 2 2 2 2 2 p.tXJ 2 2 2 2 2 9 0.(.tXeXW.F e 6XwXE.eXtXU.F 3.6XlXtX(.3.U.tX2 t eX6XQ.tXtXi.W.wXuX(.3.3 2 3.U.eXeX6X2.2.wXlXuX(.3.3.p.eXeXwX6.0 2.sXi.wXp.3.,.wXwXeXQ.,.4 3 3 2 2 2 2 2 2 2 2 2 2 2 2 ,.Q.p.2 3 3 ,.W.tXeX6X,.9 q.sXW.wXpXQ.p.(.eXtX0.e 2 3.sXW.(.tX(.0.0 2 ,.W.eXeX6X,.9 q.sXi.wXa.F t i.wXeXtX0.R Q.lXuX6X8.0.sXe % % U.uX0 e eX(.W.(.8.0 2./.eXeX(.3.9 2 2 2 2 2 2 2 2 2 2 # X X # # $ # * $ # * # * # # # # * # * # # # * # 4.u.9 * # # 2.K.D $ J w.R.P.w.0 * t.w.# 2 >.t.P.P.7.0 u.5.0 # 7 7.9.D # $ $ # * # $ # * # # # $ # # * # * # # # # # # # 2 2 2 2 2 2 9 R 3.,.>.3.,.>.e y.9.2 2 2 2 2 2 2 2 2 2 2 2 2 2 2 2 2 2 2 2 2 2 2 2 2 2 0 G t 2 2 2 2 2 2 2 2 2 2 2 2 2 2 2 2 2 2 2 t D 9 2 2 2 2 2 2 2 2 2 2 2 2 2 2 2 2 2 2 2 3 2 2 2 2 2 2 2 2 7 2 2 2 2 3 2 3 2 2 2 2 2 2 2 1 % # 1 1 1 & & 1 # # $ & & & & 1 1 # $ # 1 & & 1 & 1 1 $ # & & 1 1 $ # % 1 & & - w Q  .=.=.] I 8 & % # & & & & 1 1 & & < ! *.=.&.P = & & & & & # & # & $ # & & 1 # % 1 X 1 # & $ # 1 # & & 1 q P ' #.=.%.I w * & & 1 O & & & & & 8 P U *.=.*.( , * # & & & # # 1 2 2 2 2 2 2 2 % # X # # 1 2 2 3 2 2 2 2 2 2 2 2 2 2 2 2 2 2 2 2 2 2 2 7 2 2 2 2 2 2 2 2 2 2 2 3 2 3 ~ +X;X-X-X-XA.Y & # X X # X # # X X # X # X J ).kXjXE.t X # # # * P ` ' ' ' U Z 2 2 2 2 2 2 2 3 2 2 2 2 9 2 2 2 2 2 2 2 2 2 2 2 2 2 2 2 3 2 3 2 2 3 2 2 2 2 ",
"2 2 2 2 2 3 2 2 2 2 2 2 2 2 2 2 2 2 2 2 2 2 2 2 2 2 2 2 2 2 2 2 q.tXJ 2 2 1 ,._.a.t eXsXq.3 9 0./.8.% F eXq.t 2 2 2 2 2 2 2 2 2 2 2 2 2 2 2 2 2 2 2 2 2 2 2 2 2 2 2 2 2 2 2 2 2 2 2 2 2 2 2 2 2 2 2 2 2 2 2 2 2 2 2 2 4 q.pXF 3.Q.p.0./.e e.Q.6.4 G uXy.e 2.(.y.t eXp.0 2 9 2 2 2 2 2 2 2 2 2 2 2 2 2 2 2 2 2 2 2 2 2 2 2 2 2 2 2 2 2 2 2 2 2 2 3 3 % p.wXD 3 2 1 8._.e.t uXuX8.2 0 q.(.2.% 3.eX8.e 4 y.wX0 0 eXp.t 8.wX8.Q.0.F U.p.t 4 a.eX,.e p.Q.,.,.fX3.9 2 3 2 2 2 2 2 3 2 2 2 2 2 2 2 2 2 2 2 # # # # # $ & # $ * # # # * # # # * # # * # * # # # $ # $ H Y.9.D 2 $ $ $ 0 9 * >.r.J 7 K.K.F 8 7.!.5.7 D t.5.7 # 6.!.^ 2 D K.7.$ 0 '.D $ <.I.D 2 4.w.<.1.t.e = 9 7 # * # * # * # # # $ * * $ # # * * # * # * * # # # # # # X $ 2 2 2 2 3 2 3 2 2 3 2 2 2 2 2 2 2 2 2 2 2 2 2 2 2 2 2 2 2 e uXy.Q.W.2 9 i.e.Q.wXG t tXp.t 3.(.i.t (.(.e 9 e wXW.F R (.p.D W.fXi.9 2 3.Q.p.9 e F 9 3 3 2 2 2 2 2 2 2 9 2 2 2 2 2 2 2 2 2 2 2 2 2 2 2 2 2 2 2 2 2 2 2 2 F Q.wX2 2 2 2 2 2 F uXy.t 2.(.a.t eXtX2.0 2.sX6.O 8.sXJ 9 2 U.tX2 0 pXwX3.t W.hXa.t ,./.p.e 3 W.wX3.t Q.W.3.8.sXG 9 4 p.eX3.e W.E.,.2.hXQ.F 2 F a.(.F e t t 3 2 3 3 2 2 2 2 2 2 2 2 2 2 2 ,.Q.p.2 2 9 Q.6XJ t Q.W.R e.hXq.e 8.uXeX3.e U.Q.,.1 3.hXW.F F p.tXt 9 /.(.R t /.W.J a.hXU.t 9 4 t 3.e 0 Q.Q.R R fX2.9 9 q.pXe 2 % p.tX9 e tXtX8.2 2 e wXW.t J (.i.t 4 2 2 2 3 2 2 2 2 2 # # X # # # & # # $ # # $ # # * $ # # # # * # # # 4.u.9 $ # # J r.>.9 K.4.9 D t.5.9 t.w.# * 0 9 * K K.^ / w.J # 0 K./ 7 # # * # # # * # $ # * # * * # * $ * # # #       # 2 2 2 2 2 2 t 6XuXdXgXhXsXuX2.9 3 2 2 2 2 2 2 2 2 2 2 2 2 2 2 2 2 2 2 4 2 2 2 2 2 2 7 3./.e.1 2 2 2 2 2 2 2 2 2 2 2 2 2 2 2 2 2 e 0.Q.R 4 2 2 2 2 2 2 2 2 3 2 2 2 2 2 3 2 2 2 3 2 2 2 2 2 2 2 2 2 2 9 2 2 3 2 2 2 2 2 2 2 2 2 % % & & % & & & & & $ # 1 & & & O $ 1 O 1 # O 1 & & & # & & & & & # & 1 & & & & Z =.%X*X=X=X*X=X` < O $ & & & & & 1 * < =.=X*X=X*X%X( 2 & & & & 1 1 & & & & & & & 1 & 1 1 1 & & & & 1 & & & = %.oX*X*X=X*X*X=.N & & & & & & & & = ] XX>X=X=X*X*XZ.N $ & & & 1 1 1 2 2 2 2 2 2 2 # # # o # 2 7 3 2 2 3 2 2 2 2 2 2 2 2 2 2 2 2 2 2 2 2 2 2 2 2 2 2 9 2 2 2 2 2 2 2 3 T -.;X-X-X-XA.Y & # # # # X # # # # X # # # X 0.aXkXgX5.2 # # X # # : I ' ' ' ' I r 2 2 2 2 2 2 2 2 2 2 2 2 2 2 2 2 2 2 2 2 2 2 2 2 2 2 2 2 2 2 2 2 2 2 2 2 2 ",
"2 2 2 2 2 2 2 2 2 2 2 2 2 2 2 2 2 2 2 2 2 2 2 2 2 2 2 2 2 2 2 4 q.tXR 2 2 2 ,./.p.D eX(.t 4 9 t wXp.2 3.sX,.2 2 2 2 2 2 2 2 2 2 2 2 2 2 2 2 2 2 2 2 2 2 2 2 2 2 2 2 2 2 2 2 2 2 2 2 2 2 2 2 2 9 2 2 2 2 2 9 2 2 2 2 2 2 2.eX2.q.U.2.8.tXt Q.p.J 9 6.tX>.2 G i.(.t eXU.9 2 2 2 2 2 2 2 2 2 2 2 2 2 9 2 2 2 2 2 2 2 2 2 2 2 2 2 2 2 2 2 2 2 2 2 2 3 3 1 p.wXF 3 3 2 1.(.a.t sXU.e 2 2 R eXq.2 2.sXJ 2 3.p.p.9 2 Q.W.2.p.p.t (.i.3.6X0.e t W.(.0 4 6./.q.3.dX3.2 2 3 3 2 2 2 2 2 2 2 2 2 2 2 2 9 2 2 1 # X X # # # # * & # * * $ # * # $ # * # # $ # $ # * # $ $ > J u.Y.w.D # $ * % # H w.<.9 I.7.* * J Y.H # 9 5.9.9 $ 8.R.7 # * 9.w.9 D !.D 7 6.t.7 $ H w.4.K Y.H 8 # * # # $ # $ # * * * # # # # * # # # $ # $ # # $ * # # # # # # 2 2 2 2 2 2 2 2 2 2 2 3 2 2 3 2 2 2 2 2 2 3 2 2 2 2 2 2 2 e uX8.p.(.e e wX6.i.wX3.2.eX8.4 t q.wXt /.(.9 9 >.wX0.2 e q.6X>.Q.tXG 2 2 F Q.wX3.9 4 3 3 2 2 2 2 2 2 2 2 2 2 2 2 2 2 2 2 2 2 2 2 2 2 2 2 2 2 2 2 2 2 2 9 2 G Q.(.2 2 2 2 2 9 6.tX,.2 F i.(.G eXE.9 2 e sXq.% 8.sXG 2 2 W.eX2 e sXI.4 0 8.sX,.1 J i.Q.e J /.E.3 9 6.(.6.6.sXF 2 J E./.9 9 2.(.q.6.hX2.9 1 t q.uX2.0 3 9 3 2 2 2 2 2 2 2 2 2 2 2 2 2 2 ,.Q.p.2 2 R (.p.2 0 0.(.2.y.sXt 9 J wXQ.4 9 8./.8.4 3.fX2.3 4 6.uX2.3.(.p.2 0 8.6X2.a.sX3.3 2 2 2 9 2 4 a.E.,.J dX,.4 4 q.pXe 2 % p.tX0 e sXW.e 4 9 ,.eXq.2 t q.6X3.% 2 2 2 2 2 2 2 2 2 # # # # X $ $ # * # # * # * $ # # * * # $ # # * # 5.r.9 * * # H w.4.H K.K $ 7 <.r.0 t.9.# $ $ * # F 0.<.D u.5.# F T.D # $ $ # $ # * # # * * # $ # # $ # # # # # # # # # * 2 2 2 2 2 3 3 t t 8.(.W.t t 9 3 3 2 2 2 9 2 9 2 2 9 7 7 4 2 2 2 2 2 9 3 3 2 2 2 2 7 6 p.p.R 2 2 2 2 9 2 2 2 9 2 2 2 2 2 2 2 9 2 2 t eX0.0 2 2 2 2 2 3 2 2 2 2 2 3 2 2 2 2 2 2 2 2 7 2 2 2 2 2 2 2 2 2 2 2 2 2 2 2 2 2 2 2 2 2 % % & & & & & & & $ # 1 1 % & & $ # 1 # 1 & $ 1 # & & & & & & & & & & & & & & & N .X.X%.I | =.*X%XP % X 1 & & & & X = | %X%X=.I =.=XXXP X 1 & # $ O & & & 1 & & & & & % 1 1 & & & & % & & 1 = C.oX=.( I &.=X>X%.# 1 & & & & & & = *.XXC.( Q &.%X*X=.& & & & 1 # 1 2 2 3 3 2 2 2 # # # # # 2 2 2 2 2 2 2 3 2 2 2 2 2 2 2 2 2 2 2 2 2 2 2 2 2 2 2 2 2 2 2 2 9 2 2 2 9 ..+X;X-X;X+X) & # # X # # # # X X # # # # X e !.jXjXiXw X X # # # X # , U ' ' ' ' Y 2 2 2 2 2 2 2 2 3 2 2 2 2 2 2 2 2 2 2 2 2 2 2 2 2 2 2 2 2 2 2 2 2 2 2 2 2 ",
"2 2 2 2 2 2 2 2 2 2 2 2 2 2 2 2 2 2 2 2 2 2 2 2 2 2 2 2 2 2 2 % q.tXJ 9 4 % ,.(.i.D eXU.2 3 3 3 Q.W.3.q.6XF 2 2 2 2 2 2 2 2 2 2 2 2 2 2 2 2 2 2 2 2 2 2 2 2 2 2 2 2 2 2 2 2 2 2 2 2 2 2 2 2 2 2 2 2 2 2 2 2 3 2 2 2 2 % 3./.y./.a.D ,.wX,.tXa.9 t y.fXuXwXeXsXwXt eXU.9 2 2 2 2 2 2 2 2 2 2 2 2 2 2 2 2 2 2 2 2 2 2 2 2 2 2 2 2 2 2 2 2 2 2 2 2 3 2 % p.wXD 3 3 1 8.(.a.F sXe.2 2 2 9 (.i.3.a._.t 1 0.Q.2.3 3 a.U.p.(.6.9 E.p.q.tX3.2 3.(.hXwXwXuXsXy.3.dX3.2 2 2 2 2 2 2 2 2 2 2 2 2 2 2 2 2 2 2 1 X # # X # $ # # $ # # # $ # * # $ # $ # # * # * * # $ # # $ 2 0 / u.w.e 2 ^ t.r.Y.I.1.8 I.5.# * H R.D # 8 / t.8 # 7.i.$ $ # 7.w.e e !.D 0 t.~.r.K.I.T.5.9 5.r.r.H * * * # $ $ # * # $ # # * * # * # $ * * # # $ # # # # # # X % 2 2 2 2 2 2 2 2 3 2 2 2 2 3 3 2 2 2 2 2 2 3 2 2 2 2 2 2 2 e uX6.8.W.8.3.6X>.y.wX3.0.sXpXwXeXsXtXG Q.(.9 9 6.sXsXwXeXuXuX>.Q.wX2 2 2 9 ,.W.wXQ.R 3 2 2 3 2 2 2 2 2 2 2 2 2 2 2 2 2 2 2 2 2 2 2 2 2 2 2 2 2 2 2 2 2 2 2 F /.(.2 2 2 2 1 e e.fXtXwXrXpXeXG tXp.1 2 e sXq.1 6.sXF 2 2 U.eX3 t pXy.1 8 6.tXR 1 G a./.e ,.wXdXwXwXuXsX8.6.sXF 2 3.6XfXwXwXtXsXy.2.dXt 3 2 3 G i.wX(.6.9 2 2 3 2 2 2 2 2 2 2 2 2 2 2 2 ,.Q.p.3 3 2.eXdXwXwXuXpX6.y.uX0 2 F Q.Q.1 9 8./.8.1 >.hX3.1 1 ,.eX8.8.eXdXwXeXuXpX6.a.uX9 2 2 2 D a.6XwXsX6X2.G dX,.2 9 q.uXe 2 O I.tX0 e pXy.2 2 9 8.uXsXwXeXuXtX>.2 2 2 2 2 3 2 2 3 2 # # # X # # & # # * # * * # # $ # * # # * & # $ # 5.u.9 $ # # J r.5.>.Y.Y.u.K.Y.I.D t.w.# 1 K w.r.Y.Y.2.8 t.7.e <.r.q # # $ $ # # * # $ # # # $ # # * # # $ # # # # # # & 3 2 2 3 2 2 2 2 2 >.E.p.2 2 3 p.a.2 t Q.q.W.wXU.3.a.wX6X0.9 2 2 t q.wXwXa.t 2 2 2 2 t eXq.2 3.Q.q.(.eXy.,.U.wX(.2.2 4 0 y.6XwXQ.6.0 U.p.3.4 2 2 2 2 2 2 3 2 2 2 2 2 3 2 2 2 2 2 2 2 2 2 2 2 2 2 2 2 2 2 2 2 2 2 2 2 2 2 2 2 1 & & & & & # # 1 1 # # $ O 1 & & 1 O $ # & & # $ & # 1 1 & & $ O # & & 1 1 O & & 2 P B 8 = 2 I oX>X! & # & & & & 1 # < .X*X*.q - Z .X*X .* $ & & # 1 1 1 & & & & 1 # & 1 1 O # $ # & & & & # & A Z , = 2 < C.5XC.= & # # 1 & & & 1 w N , = 2 = =.5XZ.: & & & 1 & 1 2 2 2 2 2 2 2 $ # # # # 1 2 2 2 2 2 2 2 2 2 2 2 2 2 2 2 2 2 7 2 2 7 2 2 2 2 2 2 2 2 2 2 2 3 3 3 S -.;X-X-X+X*.w X # X # # X # # X # # & X # # w.iXkXgX).9 X # # # # X X * N ] ] ' ] Q q 2 2 2 2 2 2 2 2 2 2 2 2 2 2 2 2 2 2 2 2 2 2 2 2 2 2 2 2 2 2 2 2 2 2 2 2 ",
"2 2 2 2 2 2 2 3 2 2 2 3 2 2 2 2 2 2 2 2 2 2 2 2 2 2 2 9 2 2 2 % 0.tXJ 2 2 2 8.tX8.t eXp.% 3 2 2 q.U.p.E.a.t 2 2 2 2 2 2 2 2 2 2 2 2 2 2 2 2 2 2 2 2 2 2 2 2 2 2 2 2 2 3 2 2 2 2 2 2 2 2 2 2 2 2 2 2 2 2 3 2 2 2 2 2 2 2 G p.Q.pX0.2 R Q.i.sX0.1 e q.pXW.y.a.e.6.0 eXp.7 2 2 2 2 9 2 2 2 2 2 2 2 2 2 2 2 2 2 2 2 2 2 2 2 2 2 2 2 2 2 2 2 3 2 2 2 2 2 2 p.wXF 3 2 2 y.eX2.t sXq.1 2 2 3 a.U.p.W.y.0 2 p./.e 3 3 6.p.wXeXF 9 q.W.Q.tXt 4 R Q.eXy.y.y.0.J >.sXR 2 2 2 2 2 2 2 3 2 2 2 2 2 2 2 2 2 2 3 1 # # # # # $ * * # * # * # * # $ # * # * # # $ # # # # * $ # # # 2 <.t.<.H r.4.<.9.K.1.7 R.2.# * D P.D # 8 1.w.9 # 7.K.* $ # 7.t.e e !.D 0 w.I.1.1.<.>.C $ 9 R 7.w.R # # * # # * # $ * * # # # $ # # # # # # * # * * # #   # # # 2 2 2 2 2 2 3 2 2 2 2 2 2 2 2 2 2 2 2 2 2 2 2 2 2 2 2 2 1 e tX8.R a./.y.p.F a.wX3.8.tX/.q.y.e.8.9 (.(.9 9 6.tX(.q.a.a.8.t Q.wX1 2 2 1 9 3.q.Q.W.J 2 2 2 2 2 2 2 2 2 2 2 2 2 2 2 2 9 2 2 2 2 2 2 2 2 2 2 2 2 2 2 2 2 2 9 W.tXt 4 2 2 2 e q.sXW.y.r.y.8.t eXp.1 2 9 sXq.2 6.sXF 2 2 W.eX3 e sXe.1 0 2.tX>.1 G a.Q.t ,.wXeXe.y.y.q.F 8.sXF 2 3.(.eXa.a.a.q.G 6.dXt 1 2 3 3 F 8.W.Q.6.2 2 2 2 2 9 2 2 2 2 2 2 2 2 2 >.Q.p.2 9 ,.wXwXq.a.y.0.F y.uX9 2 F Q.W.2 3 6.Q.0.1 3.fX3.2 1 1.tX8.6.wXwXq.y.y.0.t i.tX9 2 2 e q.wXi.y.wX(.,.R dX,.7 9 q.pX9 2 2 U.tX9 e pXe.% 3 9 6.tX(.q.a.a.8.t 2 2 2 2 2 2 2 2 2 2 # X # # # & # & # * # $ # # * # # # * # # $ & $ # 7.r.9 * $ # <.u.K ^ I.w.1./ ^ K 7 e.w.$ F r.7.2.7.u.<.2 / 7.5.7.2.= # * # # * $ # * # * # * # * * * # * # # * # # # # & 7 2 2 2 2 2 2 2 2 ,.Q.p.3 2 9 wX/.1 G fX(.a.W.eX6Xp.a.(.Q.2.2 9 a.Q.p.p.wX8.e 2 2 9 ,.wX6.% 8.hXW.a.Q.eXQ.i.a.6XU.R 9 ,.(.p.a.y.,.9 8.(.8.1 2 2 2 2 2 2 2 2 3 2 2 2 7 2 2 2 2 2 2 2 2 2 2 2 2 2 2 2 2 2 2 2 2 2 2 2 2 2 2 2 2 & & & 1 1 1 & & O $ 1 # $ 1 & & # % & & & & 1 # & & # % & & # 1 1 & & # # $ & & & & X % X X w %X>XQ & O & & & & O & , %X*X! % % = *.*X=., O & & & 1 1 # & & 1 1 % 1 & # # $ $ O 1 & & & & $ & & 1 X X # = C.5X=.* & & & $ O & & & & $ O X & * =.5X.X= & & & % & & 2 2 2 2 2 2 2 $ X o # # 2 3 2 2 2 2 2 2 2 2 2 9 2 2 2 2 2 2 2 2 2 2 2 2 2 2 2 2 2 2 2 2 2 2 3 3 ) +X;X;X:XOXY & X # & X X X # # X # X X # # 1 `.jXkXaX7.2 X X # X # # # # : I ' ' ' ( A 2 2 3 2 2 2 2 2 2 2 2 2 2 2 2 2 2 2 2 7 2 2 2 2 2 2 2 7 2 2 3 2 2 9 2 2 ",
"2 2 2 2 2 2 2 2 2 9 2 2 2 2 2 3 2 2 2 2 2 2 2 2 2 2 2 2 2 2 2 2 q.tXF 2 3 R Q.eXG 0 eXI.% 3 2 2 J p.tXwX,.9 2 2 2 2 2 2 2 2 9 2 2 2 9 2 2 2 2 2 2 2 2 2 2 2 2 2 2 2 2 2 2 2 2 2 2 2 2 3 2 2 2 2 2 2 3 2 2 2 2 2 2 2 2 2 e 8.tXdX6.O t a.eXtX2.% 9 2.tX,.1 O % 3 2 eXU.0 4 2 2 2 2 2 2 2 2 2 2 2 2 2 2 2 2 2 2 2 2 7 2 2 4 9 2 2 3 2 2 2 2 2 2 2 2 2 2 p.wXt 2 9 3./.6Xt t sXq.1 3 2 4 3.U.tX(.3.0 t Q.W.4 2 3 F W.dXwX0 2 ,.Q.tX(.0 2 e p.wX0 % % 1 4 ,.dX,.2 2 2 2 2 2 2 3 2 2 2 2 2 9 2 2 2 2 3 1 # # X # # $ # $ $ # # * # * * # # $ * # * # # $ * * # # * * $ # # K 9.7.<.K.D # H r.1.7 P.5.# 2 H K.D # q <.w.9 # 7.Y.e # 2 r.9.7 e '.D 7 5.t.7 # # # $ * $ . S r.7.# # # $ # # * $ # # # $ * * # * * * # * # # $ # # # # # # # 2 2 2 2 2 2 2 2 2 2 3 2 2 2 2 2 2 2 2 2 2 2 2 2 2 2 2 2 2 e uX8.6 0.sXwX6.9 a.wX3.3.eX0.4 % 1 3 4 Q.(.0 2 R wXq.2 % 1 3 3 (.6X2 2 2 0 9 1 9 8.tX6.1 3 2 2 3 2 2 2 2 2 9 2 2 2 2 2 2 2 2 2 2 2 9 2 2 2 2 2 2 2 9 2 2 2 4 y.eXq.e 2 1 2 e ,.tX,.1 O 1 2 0 eXp.1 2 e sXq.2 8.sXR 2 2 W.eX4 e pXq.1 9 2.rX3.1 G a.Q.e t E.W.3 O O 2 % 8.sXG 2 t U.(.9 % % 4 2 8.dXt 4 2 8 9 2 % ,.wXU.2 3 2 3 2 2 2 2 2 2 2 2 2 2 1 ,.Q.I.3 3 F (.p.2 % % 2 2 a.uX9 3 F Q.Q.2 9 6.(.8.1 3.hXq.9 3 0.sX3.G (.U.3 1 % 4 2 i.uX3 2 2 3.Q.(.9 2 p.Q.2.J dX2.2 2 0.sXt 2 F (.tX9 t pXe.1 3 3 R wXq.2 % 1 3 3 2 2 2 2 2 2 2 2 2 2 # # X X # # * * # # * # # * # # * # # $ # * & # # 5.r.8 # * D w.t.9 D P.K # # # $ * t.9.7 1.K.D # F r.1.2 0 5.I.r.D $ $ # * $ # # * * # * # # $ $ # # # $ # $ # # # . # & 2 2 2 2 2 3 2 2 2 ,.Q.p.3 2 3 wXQ.2 J fXp.t t W.fX2.3 2.Q.a.9 t wXp.5 0 p.E.3.1 2 0 0./.,.1 8.hX0.9 3.6XuXR 2 q.Q.8.0 8.eX2.2 9 e 9 3.6Xq.2 2 2 2 2 2 2 2 2 2 2 2 2 3 2 2 2 3 2 2 3 2 3 2 2 7 2 2 2 2 7 2 2 2 2 2 3 2 2 2 2 2 & & & 1 O $ & & & & # 1 & # & 1 1 1 & & & & & & & & 1 # & & $ # & & & & $ # 1 % 1 1 8 w B P %.*X.XP # & & & & & & * P *XoXP X 1 * ` %XS.Y 1 & & & # 1 # # & X 1 # 1 & & $ # 1 1 & & & & 1 O & & = < w P ( %X%X` & & & & # & & & # 1 = w , N U .X%X%.& & 1 1 & % 1 2 2 2 2 2 2 2 # # # # % 2 2 2 2 2 3 2 2 2 2 2 2 2 2 2 2 2 2 2 2 2 2 2 2 2 2 2 2 2 2 2 2 2 2 2 9 -.:X;X-X:X&.q . # X # # # # # # # # # X # # D rXkXjXyXt # # # X # X # # X # , ' ' ] ' W 3 2 2 2 2 3 2 2 2 2 2 2 2 2 2 2 2 2 2 2 2 2 2 2 2 2 2 2 2 2 3 2 2 2 2 2 ",
"2 2 2 2 2 2 2 2 2 2 2 2 2 2 2 2 2 2 2 2 2 2 2 2 2 2 2 2 2 2 2 % q.pX8.3.1.W.6Xy.8 9 tXp.2 2 2 2 4 y.fXeXe 2 2 2 2 2 2 2 2 2 2 2 2 2 2 2 2 2 2 2 2 2 2 2 2 2 2 2 2 2 2 2 2 2 2 2 2 2 2 2 2 3 2 2 2 2 2 2 2 2 2 2 2 2 2 2 4 >.fXeX,.1 9 6.fX(.R 2 2 t wXp.2.3.>.G 9 Q./.6.G 2 2 2 2 2 2 2 2 2 2 2 2 2 2 2 2 2 2 2 2 2 2 2 2 2 2 2 2 2 2 2 2 2 3 2 2 2 % p.tX2.>.2.Q.6X0.2 t sXq.1 3 3 3 0 p.fX6X0 3 8.W.8.2 2 2 9 W.fXW.9 2 t Q.fXi.7 2 2 0.wXq.3.,.R e 3.eXa.>.0 2 2 2 2 2 2 2 2 2 2 2 2 2 2 2 2 3 % # # # X # $ * # # * # # $ # # # * # * # $ # * # # # * # 8 D H D D 7.7.J <.u.K D 4.P.5.7 R.5.# 1 F R.F # 8 <.w.9 $ 7.~.5.D <.u.5.% 0 '.D # >.r.K D D D 0 D F D J w.5.$ # * # * # # # # * * # # # $ # # # $ # # * # # # #   # X $ 2 2 2 2 2 2 2 2 3 2 2 2 3 2 2 2 2 3 2 2 2 2 2 2 2 2 2 2 2 t uX8.2 2.sXsXG 1 a.wXG e (.W.2.3.3.R 3 p.wX8.J 9 Q.Q.6.3.3.R 0 Q.6X1 2 2 t ,.,.,.q.wX,.1 2 2 2 2 2 2 2 2 2 2 2 2 2 2 2 2 2 2 2 2 2 2 2 2 2 2 2 2 2 2 2 2 2 1 J W.wX0.,.>.3.t t wXp.2.3.>.R 0 tXp.1 2 e sXq.% ,.tXy.>.9 W.rX2 t sXq.1 0 2.uX3.1 G i.(.e 4 a.wX0.3.3.R e ,.tXy.3.0 q.wX0.3.3.3.t 8.fXt 2 2 e 3.2.3.8.Q.y.2 2 2 2 2 2 2 2 2 2 2 2 2 2 2 ,.Q.I.3 3 3 p.6X0.3.3.3.e a.uX9 3 F /.W.1 9 6.Q.8.2 3.hX(.2.6.Q._.0 3 U.(.8.3.3.3.e i.uX2 2 2 R U.(.,.,.wX6X2.G eXp.,.9 2.uXy.3.q.uXtX9 t pXy.1 3 3 9 Q.Q.8.3.>.J 9 2 2 2 2 2 2 2 2 2 2 # # # # # & # # $ & $ # $ # * * # $ * # $ # & & # 5.R.H D H w.r./ # 2 t.7.J D D 0 7 t.w.2 ^ u.^ 0 5.R.1.= $ 5.!.u.* # # # * # * # # # $ # # * # # * # * # * * # # # X # & 2 3 7 2 2 2 2 2 3 ,.Q.p.3 2 9 6XQ.1 J hX2.1 t q.tXt 1 3.U.U.9 2.eXU.3.2.a.wX,.1 2 e i.W.3.1 8.fXt 2 t W.wX2 2 2.Q.y.2 3.wXp.2.t 4 2 t wXi.% 2 2 2 2 2 2 2 2 2 2 2 2 2 2 2 2 2 2 2 2 2 2 2 2 2 2 2 2 2 2 2 2 2 3 2 2 2 2 2 2 2 & & & # $ # & & & & % 1 & & & # # 1 & & & & & & & & O $ & & # 1 & & & & & 1 1 # 1 2 Q #.A.XX5X=XU < # 1 & & & & & 1 Q =X.XY & & * I %XXXQ X & & & & O $ & & 1 1 1 & & & & 1 # & & & & & # % & # Z &.C..X=X*X=., & & & & & & % 1 1 $ , ] C.Z.=X>XC.N # $ O # & 1 # 2 2 2 2 2 2 2 % X o # # 2 2 2 3 2 2 2 2 2 2 2 2 2 2 2 2 2 2 2 2 2 2 2 2 2 2 2 2 2 2 2 2 2 2 3 t D.;X;X;X+XI * X # X # X # # X X # X # # X $ 8.aXkXaXP.# # X # # # X # X # # = U ' ' ] ! w 7 3 2 2 2 2 2 2 2 2 2 2 2 2 2 9 2 2 2 2 2 7 2 2 2 2 2 2 2 2 2 2 2 2 2 ",
"2 2 2 2 2 2 2 2 2 2 2 2 2 2 2 2 2 2 2 2 2 2 2 2 2 2 2 2 2 2 % 2 8.fXsXsXpX(.8.7 3 9 wXa.% 3 2 2 2 8.tXW.9 2 2 2 2 2 2 2 2 2 2 2 2 2 2 2 2 2 2 2 9 2 2 2 2 2 2 2 2 3 2 2 2 2 2 2 2 2 2 2 2 3 2 2 2 2 2 3 3 2 2 2 2 2 2 2 2 F tXp.F 2 2 G pXp.t 2 2 9 3./.sXsXwX6.0 2.6XpXQ.7 2 2 2 2 2 2 2 2 2 2 2 2 2 2 2 2 2 2 2 2 7 2 2 2 2 2 2 3 2 2 2 2 2 2 2 2 % y.fXsXsXuXQ.2.3 3 t eX0.1 3 3 2 2 y.eXp.2 3 p.i.G 3 2 2 2 y.eX0.2 2 2 a.tX6.9 2 2 e 0.eXsXsXU.J t a.tXtX6.2 2 2 2 2 2 2 2 2 2 2 2 2 2 2 2 2 * # # # # # * # # # * # # $ # * # # $ # * # * # * # * $ # 8 1.L.Y.Y.r.H * q t.Y.P.9.5./ 9 u.1.# $ D u.D # 8 / 7.9 # 5.T.7.Y.I.5.7 # 0 Y.D # = K K.Y.T.7.H K R.T.Y.5.9 # $ * * # # $ # * # $ # # * * $ $ # # * $ # # * # # # # # # 2 2 2 2 2 2 2 2 2 2 2 2 2 2 2 2 2 3 2 3 2 2 2 2 2 2 7 2 2 e eX6.2 J Q.Q.t 1 y.6XF 3 R W.pXsXeX0.0 ,.Q.sX(.t R U.pXsXrXq.e E.Q.2 2 2 G U.sXsXeX8.e 2 2 2 2 2 2 2 2 2 2 2 2 2 2 2 2 2 3 2 2 2 2 2 2 2 2 2 2 2 2 2 2 2 2 2 2 G U.tXsXsX/.,.9 3./.pXpXwX6.t wXa.% 2 0 tX0.2 F i.uXeX>.a.wX2 t eX0.1 9 2.wX3.1 F y.E.e 2 t y.rXpXpXp.F D i.pXeX,.e q.tXpXsXp.J 2.uXe 2 2 t q.tXsXtXi.F 2 3 2 2 2 2 2 2 2 2 9 2 2 2 2 ,.U.i.2 2 2 t a.tXsXuXi.D q.eX9 3 F U.p.2 9 2.E.6.% 3.fXQ.wXsX(.>.3 2 D a.tXsXuXa.t a.eX9 2 2 3 6.tXsXwXU.a.,.e q.tXtX8.t a.uXuXW.(./.9 t eXq.1 2 2 3 G U.tXsXtXq.t 2 2 2 2 2 2 2 2 2 2 # X # # # # # # # * * * # $ # * # # $ # # * # # # 1.!.T.'.I.w.F $ $ $ 0 7.R.'.K.^ 7 w.9.# q t.T.R.9.5.^ 2 # ^ K.7.* $ # $ # # # * # * * # $ * # # # * # * # & # X # # # & 2 2 2 2 2 2 2 3 2 ,.Q.p.3 2 2 wXQ.1 J dX,.1 e q.eXt 2 R U.W.0 6.uXhXpXsXdXeX3.1 2 t p.W.R 1 8.dXt 1 t W.(.2 2 2.Q.y.1 9 2.Q.tXW.G 9 t eXp.1 2 2 2 2 2 2 2 2 2 2 2 2 2 2 2 2 4 3 2 2 2 2 2 2 2 2 2 2 2 2 2 2 2 3 2 2 2 2 2 2 2 1 1 X 1 1 1 1 1 # O $ # & & 1 # # & # $ 1 # # & & & # $ O 1 1 1 1 1 O $ # 1 & & # * &.oX*X*X=X.XI 3 # & & & & & # = ! =X.XZ X # 2 W %XXXI % & & & 1 & & 1 # 1 1 % 1 & 1 1 O 1 1 O $ # 1 1 1 & & I Z.=X=X*XoX&., & & & & # O $ & & # P C.=X=X*XoX%., - & & & 1 & 1 2 2 2 2 2 2 2 1 # # X # 2 2 2 2 2 2 3 2 2 2 2 2 2 2 2 2 2 2 2 2 2 2 2 2 2 2 3 2 2 2 2 2 2 2 3 ) +X;X;X:XF.: X # X # # X # # # # X X # # X 7 `.gXkXyXK $ # # # # X # X # # # & P [ ] ] ` B 3 3 3 2 3 2 2 2 2 2 2 9 2 2 2 2 2 3 2 2 2 2 2 2 2 2 2 2 2 2 2 2 2 2 2 ",
"2 2 2 3 2 2 2 2 2 2 2 2 2 2 2 2 7 2 2 2 2 2 2 2 2 2 2 2 7 2 2 2 0 F G D F t 9 2 3 3 t 0 3 3 3 2 % 0.(.6.3 2 2 3 2 2 2 2 2 2 2 2 2 3 2 2 2 2 2 2 2 2 2 2 2 2 2 2 2 2 2 2 9 2 2 2 2 2 2 3 2 2 2 2 2 2 2 2 2 2 2 2 2 2 2 2 2 9 t t 9 2 2 2 t e 2 2 2 2 9 t F F t 9 4 9 t F t 2 2 2 2 2 2 2 2 2 2 2 2 2 2 2 2 2 2 2 2 2 2 2 2 2 2 2 2 2 2 2 2 2 2 2 2 2 2 0 G G G F t 9 2 3 3 t 9 3 3 3 2 2 a.(.2.3 2 t e 3 2 3 2 2 0 t 0 2 2 2 e t 9 2 2 2 2 0 t t D t 8 3 0 D t 8 2 2 2 2 2 2 2 7 2 2 2 2 2 2 2 2 2 *     # # # # # * # * # * # * # $ * # # # $ # $ # $ # # $ $ > 9 9 q 7 * # $ 9 0 9 7 2 * * 8 = # # * 8 * # $ = 7 * * 7.K.7 9 q 7 % $ % 9 2 # # * q 9 9 7 2 = 9 9 9 7 $ # * # # # * # * # $ # * # # # # # * # # # * # * # # # # # % 2 2 2 2 2 2 2 2 2 2 2 3 2 2 2 2 2 2 2 2 2 2 2 2 2 3 2 2 2 2 t 9 2 8 t t 8 2 0 e 3 2 3 t F G D 8 3 8 t F t 3 3 e D D D e 8 e t 2 2 2 9 t F D D 9 3 2 2 2 2 2 2 2 2 2 2 2 2 2 2 2 2 2 2 2 7 2 2 2 2 2 9 2 2 2 2 2 2 2 2 2 2 9 t F F F t 3 2 3 t F F t 0 2 t 9 2 2 2 F 0 2 2 t F F 9 e t 2 2 F 9 2 3 9 t 3 2 3 0 e 3 2 3 e D D F e 7 7 e F t 9 2 9 t F t e 9 0 D 2 2 2 3 e D F t t 3 2 3 2 2 3 2 2 2 2 2 2 2 2 2 2 9 e e 2 2 2 9 e t G D 9 8 e t 3 3 3 t 0 3 3 4 e 9 2 3.fX,.t D e 9 3 3 7 e t F D 0 3 0 t 2 2 2 2 9 t F t e 0 9 4 9 F F 9 2 0 F F t t t 2 2 t 9 2 3 2 2 8 t D F D 0 3 2 2 2 2 2 8 2 2 2 2 # # # # # # * * $ # # # * # $ # # * # * $ # * # # > 9 0 9 q 7 * $ # * * 8 9 0 9 2 * 7 7 # * 8 9 9 7 2 2 $ # / r.J & # * # * * # # $ # # * # $ # * # # $ # # & # # # # . & 3 2 2 3 2 2 2 2 2 ,.Q.p.3 2 2 wXQ.1 J fX,.2 0 q.eXt 1 R p.W.9 ,.wXp.t G t t 9 2 2 e a.W.R 1 8.dXt 2 t U.(.9 2 2.E.y.4 2 9 t 8./.Q.9 t wXi.2 2 2 2 2 3 2 2 2 3 3 2 2 2 2 2 2 2 3 3 2 2 2 2 2 2 2 2 9 2 2 2 2 2 2 2 2 2 3 2 2 1 1 # 1 1 & % # 1 1 1 # $ 1 & 1 1 1 & $ O 1 & 1 & 1 & 1 # $ 1 & % # & $ # 1 # & & 1 & w P Q ` C.=X%XI 1 & & & & & & * Q =X.XP O # * I oXXXQ # # & & % 1 1 % 1 1 # 1 1 & # # $ # 1 $ # & & # & & & 8 N Q U =.%X*X*.= & 1 # 1 1 # & 1 # = A Q ( =.oX*X=.q & & & & % & 2 2 2 2 2 2 2 # # X # # 2 3 2 2 2 2 2 2 3 2 2 2 2 2 2 2 2 2 2 4 2 2 2 2 3 2 2 2 2 2 3 2 2 3 8 -.+X;X;X&X..= # # # # X # # X X # # & # X # D aXkXgXU.% # # # X # # # X # X # # , U ] ] ` Y 3 2 3 2 2 2 2 2 2 2 2 2 2 2 2 2 2 2 2 2 2 2 2 2 2 2 2 2 2 2 2 2 2 2 2 ",
"2 2 2 2 2 2 2 2 2 2 2 2 2 2 2 2 2 2 2 2 2 2 2 2 2 2 2 2 2 2 2 2 2 2 2 2 2 1 2 2 3 2 2 2 2 2 2 2 0 W.6Xt 3 2 2 2 2 2 2 2 2 2 2 2 2 2 2 2 2 3 2 2 2 2 2 2 2 2 2 2 2 2 2 3 2 2 2 2 2 2 2 2 2 2 2 2 2 2 2 2 2 2 2 2 2 2 2 2 2 2 2 2 2 2 2 2 2 2 2 2 2 2 2 2 % 2 2 2 2 2 2 % 2 2 2 2 2 2 2 2 2 2 2 2 2 2 2 2 2 2 2 9 2 2 2 2 2 2 2 2 2 2 2 2 2 2 2 2 2 2 2 2 2 2 2 2 2 2 2 2 2 2 2 3 3 3 1 t Q.Q.0 3 2 4 2 2 2 2 2 2 2 2 2 2 2 2 2 2 2 2 2 2 2 2 4 3 2 2 2 2 2 2 2 2 2 2 2 2 2 2 2 2 2 2 2 2 2 2 2 2 2 * # # # # # # $ # $ # # * $ # * # * # * # * * * # * # $ # # # # # # # # * # # # # # # # * # # # $ # # # $ $ # # # * 7.u.# # # $ # $ $ # $ $ $ * # # # # # $ # # # $ $ # # * # # * $ # * # # $ * # # * * # # $ $ # # $ # # # # # # 2 2 2 2 2 2 2 2 2 3 2 2 2 2 7 2 2 2 2 2 2 2 2 2 2 2 2 2 2 2 2 2 2 2 1 2 2 3 4 2 2 2 2 2 2 1 2 2 2 2 2 1 2 2 2 2 2 1 2 2 2 2 2 2 2 2 2 2 2 % 2 2 2 2 2 2 2 2 2 2 2 7 2 2 2 2 2 2 2 2 2 2 2 2 2 2 2 2 2 2 2 2 2 2 2 2 2 2 2 2 2 % 2 2 2 2 2 2 2 % 2 2 2 2 2 2 2 2 2 % 2 2 2 2 % 2 2 2 2 2 2 % 2 2 2 2 2 2 2 2 2 1 2 2 3 2 2 2 % 2 2 2 2 2 2 2 2 2 2 1 2 2 2 2 2 2 3 2 3 2 2 1 2 2 2 2 2 2 2 2 2 2 2 2 2 2 2 2 2 2 2 2 2 2 2 7 2 2 3 2 2 2 2 2 2 2 3 2 2 2 3 2 2 3 3 2 3.fXJ 1 2 2 2 2 3 2 2 2 2 2 2 2 2 4 2 2 2 2 2 2 1 2 2 2 2 2 2 2 2 2 2 2 2 % 2 2 2 2 2 2 2 3 2 2 2 2 2 2 2 1 2 2 2 2 2 2 2 2 2 2 2 2 # # # # # # # # * # * # # # # * # # $ # # * # $ * # # # # # # * $ # # # # # # # # # $ # $ $ # # $ # # # # 7 7.w.3 & # * $ # * # # * * # # # # * $ # $ & # * # & # X # X $ 2 2 2 2 2 2 2 2 2 ,.Q.p.3 2 9 wXQ.1 R dX,.1 e q.eXt 2 R U.p.9 t wXW.e % 2 0 9 2 2 0 q.(.,.2 8.dXt 4 t U.(.2 2 2.Q.y.2 t 0 4 t p.wX0 3.wXq.1 7 2 3 2 2 2 2 2 2 2 2 2 2 3 2 2 2 2 2 2 3 2 2 2 2 2 2 2 2 2 2 3 2 2 2 2 2 2 2 3 2 # & O 1 & & & & & & 1 1 % & % # & & & & & & 1 O & & # 1 1 # & 1 & & & & 1 % & & 1 1 * * = = P .X>X%.r & & & & & & 1 I =X.XY X & 2 I %X.XP # 1 1 # 1 X 1 # 1 % & & 1 1 % $ # # 1 & & & & & & & & 1 2 = = , =.*X.XY & & & & & & % 1 % & * - = < *.=XoXW * & & # 1 # 2 2 2 2 2 2 2 $ X # X # 2 2 2 2 2 2 2 2 2 2 2 2 2 2 2 2 2 2 2 3 3 2 2 2 2 2 2 3 2 2 2 2 3 3 8 -.+X;X;X+XT * . X # # # X X & X X # X # X & 7 K Y.).4.# X # X # X # # # X # # # : U ] ] ` W 8 3 2 2 2 2 2 3 2 2 2 2 2 2 2 2 2 2 2 2 2 2 2 2 2 2 7 2 2 9 2 2 2 2 2 ",
"2 3 2 2 2 2 2 2 2 2 2 2 2 2 2 2 2 2 2 2 2 2 2 9 2 2 2 2 4 9 2 2 2 2 2 2 2 2 2 2 3 2 2 2 2 2 3 0.Q./.q.2 2 3 2 2 2 2 2 2 2 2 2 2 2 2 2 2 2 2 2 2 2 2 2 2 2 2 2 2 2 2 2 2 2 2 2 2 2 3 2 2 2 2 2 2 2 2 2 2 2 2 2 3 2 2 2 2 2 2 2 2 2 2 2 2 2 2 2 2 2 2 2 2 2 2 2 2 2 2 2 2 2 2 2 2 2 2 2 2 2 2 2 2 2 2 2 2 2 2 2 2 2 2 2 2 2 2 2 2 2 2 2 3 2 3 2 2 2 2 2 2 2 2 2 2 2 2 2 2 2 2 2 2 2 9 e.Q.(.8.2 2 2 2 2 2 2 2 2 2 2 2 2 2 2 2 2 2 2 2 2 2 2 2 3 3 2 2 2 2 2 3 2 2 2 2 2 2 2 2 2 2 7 2 2 2 2 2 2 2 2 * #   # # # # * # * # $ # # * # $ # # # $ # # # # # $ # * * # # $ $ $ $ # * # $ # $ $ # # * # $ # $ * $ $ # $ * # * 7.P.$ # & # $ $ # $ # $ # # # # * $ # # $ & # $ # * $ # # $ # # * # # * # # $ $ # * # * # # * * # # # #   o # 2 2 2 2 2 2 2 3 2 2 2 2 3 2 2 2 2 2 2 2 2 3 2 2 2 2 2 2 2 2 2 2 2 2 2 2 2 2 2 2 2 2 2 3 3 3 2 2 2 2 2 2 3 2 2 2 2 2 2 2 2 2 2 2 2 2 2 2 3 2 3 2 2 2 2 2 2 2 9 2 2 2 2 2 2 2 2 7 2 2 2 2 2 3 2 2 2 2 2 2 3 2 2 2 2 2 2 2 2 2 2 2 2 2 2 2 2 2 2 2 2 2 2 2 2 2 2 2 2 2 2 2 2 2 2 2 2 2 2 2 2 7 2 2 2 2 3 2 2 2 3 3 2 2 2 3 2 2 7 2 2 2 2 2 2 2 2 2 2 2 2 2 2 2 2 2 2 2 2 2 2 2 3 2 2 2 2 3 2 2 2 2 2 2 2 2 2 2 2 2 2 2 2 2 2 2 2 3 2 2 2 2 2 2 2 2 2 3 2 2 2 2 2 2 3 2 ,.hX3.1 2 2 2 2 3 3 2 2 2 2 2 2 2 2 2 2 2 2 2 3 2 2 2 2 2 2 2 2 2 2 2 2 2 2 2 2 2 2 2 2 2 2 3 2 2 2 2 3 2 2 2 2 2 2 2 2 2 2 2 2 2 2 # # # # # $ # * # $ # $ # * $ # * * * * # # * # # # # $ $ # # # # * # * # * # # * # $ # $ # # $ $ $ $ * / 9.w./ & & $ # # * # & $ # # $ # * # * # * * # $ # * # # . X # & 2 2 2 2 2 2 2 2 2 ,.Q.U.3 2 9 wX(.1 J hX2.1 e q.tXt 1 3.U.Q.9 2 q.Q.Q.U.I.8.t 2 1 9 ,.eX6.1 8.fXt 3 t p.wX2 2 2.Q.y.2 ,.p.W.W.Q.y.0 8.Q.8.2 2 2 2 2 2 2 2 2 2 7 2 2 2 2 2 2 2 2 2 2 2 2 2 2 2 2 2 2 2 2 2 2 2 3 2 2 2 2 2 3 2 1 % $ 1 # & & & & & # 1 & & O 1 & & & & & & # $ & & % 1 1 # & & & & & & & & # $ O # & & # O 8 *.=XC.N & & & & & & & , =X=XI % & =  .=XC.A O $ O 1 1 1 1 1 & 1 & X 1 X 1 # 1 & & & & & & & & & & # % 1 # & | %XoXI & & & & & # 1 1 # 1 % 1 & # Q XX%X( * & & 1 & 1 2 2 2 2 2 2 2 # # # # # 1 2 2 3 2 2 2 2 2 2 2 2 2 2 2 2 2 2 2 2 3 2 2 3 2 3 2 2 2 2 2 2 2 2 8 A.:X-X;X+XT * X # # X # # # # # # # X # # # #   t J 0 # # X # # X # X # # # # # = U ] ' ] I 7 2 2 3 2 2 2 2 2 2 2 2 2 2 2 2 2 2 2 3 3 2 2 2 2 2 2 2 2 2 2 2 2 2 2 ",
"2 2 2 2 2 2 2 2 2 2 2 2 2 2 2 2 2 2 2 2 2 2 2 2 2 2 2 7 2 2 2 2 2 2 2 2 2 2 2 2 2 2 2 2 2 2 7 a./.q.t 2 2 2 2 2 2 2 2 2 2 2 2 2 2 2 2 2 2 2 2 2 2 2 2 2 2 2 2 2 2 2 2 2 2 2 2 2 2 2 2 9 2 2 2 2 3 2 2 2 2 2 2 2 2 2 2 2 2 2 2 2 2 2 2 2 2 2 2 2 2 2 2 2 2 2 2 2 2 2 2 2 2 2 2 2 2 2 2 2 2 2 2 2 2 2 2 2 2 2 2 2 2 2 2 2 9 2 2 2 2 2 2 2 2 2 3 2 3 2 2 3 2 2 2 2 2 2 2 2 2 2 2 2 2 9 p.^.8.e 2 2 2 3 2 2 2 2 2 2 2 2 2 2 2 2 2 2 2 2 2 2 2 2 2 2 2 3 2 2 2 3 2 2 2 2 3 2 2 2 2 2 2 2 2 2 7 2 2 2 2 1 # # # # # # $ # # * # # * # # $ * * # $ # # * * # # * # $ # & & # * # $ # * # * # # * # * # # $ # # # $ & # # $ & ^ 5.# # $ # * $ # # $ # * * # $ # $ # # * # & # $ # * * # # * # * # $ # * * * # $ * # $ # $ # # * # # # # # # 2 2 2 2 2 2 2 2 2 2 2 2 3 2 3 2 2 2 2 2 2 7 3 2 2 2 2 2 2 2 2 2 2 2 2 2 2 2 2 2 2 2 2 2 2 2 2 2 2 2 2 2 2 2 2 2 2 2 2 2 2 2 2 2 3 2 2 2 2 2 2 2 3 2 3 2 2 2 2 2 2 2 2 2 2 2 2 2 2 2 2 2 2 2 2 2 2 2 2 2 2 2 2 2 2 2 2 2 2 2 2 3 2 2 2 2 3 2 2 2 2 2 2 2 2 2 2 2 2 2 2 2 2 2 2 2 2 2 2 2 2 2 2 2 2 2 2 2 2 2 3 2 2 2 2 3 2 2 7 2 2 2 7 2 2 3 2 2 9 2 2 2 2 2 2 2 2 2 2 2 2 2 2 2 2 2 2 2 2 2 2 2 2 2 2 2 2 2 2 2 2 2 2 2 2 2 2 2 2 2 2 2 2 2 2 2 2 2 2 3 2 2 2 2 2 2 F Q.t 2 2 2 2 2 2 2 2 2 2 2 2 2 2 2 2 2 3 2 2 2 3 2 2 2 2 2 2 2 2 2 2 2 2 2 2 2 2 2 2 2 2 2 2 2 2 3 2 2 3 2 2 2 2 2 2 2 2 2 2 2 2 2 # .   #   # # * # # # * $ * # # $ # # # # # * # # * * # * # $ * # $ # # * # # & * # # # $ # & & # & # = 5.w.^ = # * & # # $ # * # $ $ * * # $ # $ # # * # # & # # # # X * 2 2 2 2 2 2 3 2 2 G q.8.2 2 2 a.q.2 t Q.F 2 9 ,.p.0 4 D 8.8.9 2 0 8.Q.(.Q.6.0 2 2 2 t eXq.3 R Q.9 2 e 8.y.3 3 R 0.2.7 >.W.(.(.q.t 9 Q.p.3.2 2 2 2 2 2 7 2 2 2 2 2 2 3 2 2 2 2 2 2 2 2 2 2 2 2 2 2 2 2 2 2 2 2 2 2 2 2 3 2 2 2 1 X # 1 & & 1 # 1 & 1 1 1 1 $ & & & % & & & $ & & & & & & & 1 1 1 # & & # 1 & * = = & & X & , C.>X=., & & & & & & # q XX>X( 1 O = C.*X*.< # # 1 & & & & & & & & * q w = * & & & & & & & & 1 = 8 - # $ # 1 ] =XXXI * & & & & 1 1 3 = = # & # & ` %XoXU = & & & & 1 2 2 3 2 2 2 2 # # X X # 2 2 2 2 2 2 2 2 2 2 2 2 9 2 2 2 2 2 2 3 2 2 2 2 2 2 2 3 2 2 2 2 2 2 8 D.:X-X;X+Xw & # X X X # # # X X # # # # X X # # X X X # # # # X # # X # # X   # & U ] ' ] | 8 3 3 2 2 2 2 2 2 2 2 2 2 2 2 2 2 2 2 2 3 4 2 2 2 2 2 2 2 2 2 2 2 2 2 ",
"2 2 2 2 2 2 2 2 9 2 2 2 2 2 2 3 2 7 2 2 2 2 7 2 2 2 2 2 2 2 2 2 2 2 2 2 2 2 3 2 2 3 2 2 2 2 3 3 2 2 2 2 2 2 2 2 2 2 2 2 2 2 2 2 2 9 2 2 2 2 2 2 2 2 2 2 2 2 2 2 2 2 2 2 2 2 2 2 2 2 2 2 2 2 2 2 2 2 2 2 2 2 2 2 2 2 2 2 2 2 2 2 2 2 2 2 2 2 2 2 2 2 2 2 2 2 2 2 2 2 2 2 2 2 2 2 2 2 2 2 2 2 2 2 2 2 2 2 2 2 2 2 2 2 2 2 2 2 2 2 2 2 2 2 3 2 2 2 2 2 2 2 2 2 2 2 2 2 2 2 2 2 2 3 3 3 2 2 2 2 3 2 2 2 2 2 2 2 2 2 2 3 2 2 2 2 2 2 2 3 2 2 2 2 2 2 2 2 2 2 2 2 2 2 2 2 2 2 2 2 2 2 2 2 2 2 2 2 2 2 2 1 # # # # # # # * # # * # # $ * # # # * # * * # $ # * # $ # * & # $ # # * $ # $ # * # # $ $ # * # * * * # # * * # # # * # * # # # & * $ # $ # # # * # # * # # $ & * # # # $ # # # $ # # * # * # # * # # # # * # * # # # # # # # # 2 2 2 2 2 2 2 2 2 2 2 2 2 2 2 2 2 2 2 2 2 2 2 2 2 2 2 2 2 2 2 2 2 2 2 3 2 2 2 2 2 2 2 2 2 2 2 3 2 3 2 3 2 2 2 2 2 2 2 2 2 2 2 2 2 2 2 2 2 2 3 2 2 2 2 2 2 3 2 2 2 2 2 2 2 2 2 2 2 2 2 2 2 2 2 2 2 2 2 2 2 2 2 2 2 2 2 2 2 2 2 2 2 2 2 2 2 2 3 2 2 2 2 2 2 2 2 2 2 2 3 2 2 2 2 3 2 2 2 2 2 2 2 2 2 2 2 2 2 2 2 2 3 2 2 2 2 2 2 2 2 2 2 2 2 2 2 2 2 2 2 2 2 2 2 2 2 2 2 2 3 2 2 3 2 2 3 2 3 2 2 2 2 2 2 2 2 2 2 2 2 2 2 2 2 2 4 2 2 2 2 2 2 2 2 2 2 2 2 2 2 3 2 2 2 3 2 2 2 2 2 2 2 2 3 2 2 2 2 2 2 2 2 2 2 2 2 2 2 2 2 2 2 3 2 2 2 2 2 2 2 2 2 2 2 2 2 2 2 2 3 2 2 3 2 2 2 2 2 2 2 2 2 2 2 2 2 2 2 2 2 2 # # # # # # $ # # * $ # # * * # # * # * * # # $ $ # # $ # # & # * # * # # $ * $ # # * * # * # & # * # * # # $ * # # # * * # $ # * # # # # # # * # * $ # # * & # # # # # $ 3 2 3 2 2 2 2 2 2 2 2 2 2 2 2 2 2 2 2 2 2 2 2 2 2 2 2 2 2 4 3 2 2 3 3 2 2 4 2 2 2 2 9 U.U.3.2 2 2 3 2 2 2 2 2 2 2 2 2 2 2 2 2 4 9 F eXq.9 2 2 2 2 2 2 2 3 2 3 2 2 2 2 2 2 2 2 2 2 2 2 2 2 2 2 2 2 2 2 2 2 3 2 3 2 2 2 2 2 2 2 1 1 $ # & & # $ 1 % 1 1 X 1 # & & & 1 1 & & # 1 & & & & & & % # 1 & & & O 1 & 2 P ! B < r , I =X>X] 8 # & & & & & # : %.=XC.P > Q %X*X| 1 & $ # 1 & & & & & - # < &.C.Y = & & & & & & & & * , I P w < , Y S.5XC., & & & & & & 1 , I W < < < N C.>X.X, 1 & 1 & & 1 2 2 2 2 2 2 2 & # # # # 2 3 2 2 2 2 3 2 2 2 2 2 2 2 2 2 2 3 2 2 2 2 2 2 2 2 2 2 2 2 2 3 2 2 4 D.-X-X;XOX= X # # # # # X X # # # X X # # # X # # X # # X # # # X # X # # X # # & I ] ' ] U 8 2 3 2 2 2 2 2 2 2 9 2 2 2 2 2 2 2 2 2 3 2 2 2 2 2 2 2 2 2 2 2 2 2 2 ",
"2 2 2 3 2 2 2 2 2 2 2 2 2 2 2 2 2 2 2 2 2 2 2 2 2 2 2 2 2 2 2 2 2 2 2 2 2 2 3 2 2 2 2 2 2 3 3 3 2 2 2 2 2 2 2 2 2 2 2 9 9 2 2 2 2 2 2 2 2 2 2 2 2 2 2 9 2 2 2 2 2 2 2 2 2 2 2 2 2 2 2 2 2 2 2 2 2 2 2 2 2 2 2 2 2 2 2 2 2 2 2 2 2 2 2 2 2 2 2 2 2 2 2 2 2 7 2 2 2 2 2 2 2 2 2 2 2 2 2 2 2 2 2 2 2 2 2 2 2 2 2 2 2 2 2 2 2 2 2 2 3 2 2 2 2 2 2 2 2 2 2 2 2 2 2 7 2 2 2 2 2 2 2 2 3 2 2 3 2 2 2 2 2 2 2 2 2 2 2 2 2 2 2 2 2 3 2 3 2 2 2 2 2 3 2 2 2 2 2 2 2 2 2 2 2 2 2 2 2 2 2 2 2 2 2 2 2 2 2 2 2 $ # X # # # $ * # * # # # * # * # * # # $ $ # # * # * * # # $ # # * * # # * * & # # $ * # * * # $ $ # # * # * * # * # # # # * * # # # # * # * # * # # * # # $ # # * & * # * * * # * * # # * # * # # # # * # * * # $ & # .   # # # 2 2 2 2 2 3 2 2 3 2 3 2 2 3 2 2 2 3 2 2 2 2 2 2 2 2 2 7 2 2 2 2 2 2 2 2 2 2 2 3 2 3 2 2 2 2 2 2 2 2 2 3 2 2 2 2 2 2 2 2 2 2 2 2 2 3 3 2 2 3 2 2 2 2 2 2 2 2 2 2 2 2 2 2 2 2 2 2 2 2 2 2 2 2 2 2 2 2 2 2 2 2 2 2 2 2 2 2 2 2 2 2 2 2 2 2 2 2 2 2 2 2 2 2 2 2 2 2 2 2 2 2 2 2 2 2 2 2 2 2 2 2 2 3 2 2 2 3 3 2 2 2 2 2 2 2 2 2 2 2 2 2 2 2 2 2 2 2 2 2 2 2 2 2 3 2 2 3 2 2 2 2 2 2 2 2 2 2 2 2 2 2 2 2 2 2 2 2 2 2 2 2 2 2 7 2 2 2 2 2 2 2 2 2 2 2 2 2 2 2 2 2 2 2 2 2 2 2 2 2 3 2 2 2 2 2 2 2 2 2 2 2 2 2 2 2 2 2 2 2 2 2 2 2 2 2 2 2 2 2 2 2 2 2 2 2 2 2 2 2 2 2 2 2 2 2 2 2 2 2 2 2 2 2 2 2 2 2 2 2 2 2 # # # # # # # * # * # $ # # # # # # # $ # $ * * # * $ # # * * # # $ # $ * # # # # * # $ $ # # * # * $ # # * $ # # $ $ # $ # & # $ # * * # * # $ # # * # $ # $ # X # # X & 2 2 2 2 2 3 2 2 2 2 2 2 2 2 2 2 2 2 2 2 2 2 2 2 2 2 2 2 2 2 2 2 2 3 3 2 2 2 2 2 2 2 3 G Q.q.2 2 2 2 2 2 2 2 2 2 2 2 2 2 2 2 2 2 9 8.W.3.2 2 2 2 2 2 2 2 2 2 2 2 2 2 3 2 2 2 2 2 2 2 2 2 9 2 2 2 2 2 2 2 2 2 2 2 2 3 2 2 2 2 2 % & 1 1 & & $ # # & % 1 1 # & & & & 1 # $ O # & & & & & & & # 1 & & & & $ # # : ' =XoX.X.X.X=X*XZ.P # $ 1 # & 1 1 # * w XX>XoX.X%X*XC.Z # & 1 % # 1 # 1 % 1 % o P oX*X=.r # # & 1 # & & & * W XX=XXXS.S.%X*XoX` & & & & O & & 1 Y Z.=XXXZ..X%X*XoX&.1 % & & 1 % 1 2 2 2 2 2 3 2 % X X # X 2 2 2 2 2 2 2 2 3 2 2 2 2 2 2 2 2 2 2 2 2 2 2 2 2 2 2 2 2 2 2 2 2 2 8 OX-X-X;XOX* X # X & # X # # X & # X X # & X # # # # X X # # X X # # # # # # # # = U ] ' ' ( 3 2 2 2 2 2 2 2 2 2 2 2 2 2 2 2 2 2 2 2 3 2 2 2 2 2 2 2 2 2 2 2 2 2 2 ",
"9 2 2 2 2 2 2 2 2 2 3 2 2 2 2 2 2 2 2 2 2 2 2 2 2 2 2 2 2 2 2 2 2 2 2 2 2 2 2 2 2 2 2 2 2 2 2 2 2 2 2 2 2 2 2 2 2 2 2 2 2 2 2 2 2 2 2 2 2 2 2 2 2 2 2 2 2 2 2 2 2 2 2 2 2 2 2 2 2 2 2 2 2 2 2 2 2 2 3 2 3 2 2 2 2 2 2 2 2 2 2 2 2 2 2 2 2 2 2 2 2 2 2 2 2 2 2 2 2 2 2 2 2 7 2 2 2 2 2 2 2 9 2 2 2 2 2 2 2 2 2 2 2 2 2 2 2 2 2 2 2 2 2 2 2 2 2 3 2 2 3 2 2 2 2 2 2 2 2 2 2 3 2 2 3 2 2 2 2 2 2 2 2 2 2 2 2 2 2 2 2 2 2 2 2 2 2 2 2 2 2 2 2 2 2 2 2 3 2 2 2 2 2 2 2 2 2 2 2 2 2 2 2 2 2 2 2 2 9 2 2 $ # # # # # # * # $ # * * # $ # $ # # * # # * # # $ # # # * # & & # # * # # # # * * # # $ # # # * # * # # $ # # $ # $ # * $ # * # * # $ # $ # $ # * * # $ * # * # # $ # $ # # # $ # # * # # $ # $ # * # * # # & $ $ # # # # # # % 2 2 2 3 2 2 2 2 2 2 2 2 2 2 2 2 2 2 3 2 2 2 2 7 2 2 2 2 2 2 2 2 2 2 2 2 2 2 2 2 2 2 2 2 2 2 2 2 3 2 2 2 2 2 2 2 2 2 2 2 2 2 3 2 2 2 2 2 2 2 2 2 3 2 2 2 3 2 2 2 2 7 2 2 2 2 7 2 2 2 3 2 2 2 2 2 2 2 2 2 2 2 2 2 2 2 2 2 2 2 2 2 2 3 2 2 2 2 2 2 3 2 2 2 9 2 2 2 2 2 2 2 3 2 2 3 2 2 2 2 2 2 2 2 2 2 2 2 2 2 2 2 2 2 2 2 3 2 2 2 2 2 2 2 2 2 2 2 2 2 2 2 2 2 2 2 2 2 2 2 3 2 2 2 3 2 2 3 2 2 2 2 2 2 2 2 2 2 2 2 2 2 2 2 2 2 2 2 2 2 2 2 2 2 2 2 2 2 2 3 2 2 2 2 2 2 3 2 2 2 2 2 2 2 2 2 3 2 2 2 2 2 2 2 2 2 3 2 2 2 3 2 2 2 2 2 2 2 2 2 2 2 2 2 2 2 2 2 2 2 2 3 2 2 3 2 2 3 2 2 2 2 3 2 2 2 2 2 2 2 2 2 #   # # # $ # * # # * # * # $ * * # * # * # # # $ # # * & $ # # * # * # # $ # * $ # * # # * # # $ # # * # # $ $ * # # * # * # * # * # # $ # * # * # # $ # * $ # # # X # & 7 2 3 2 2 2 2 2 2 2 2 2 2 2 2 2 2 2 2 2 2 2 2 2 2 2 2 2 2 2 2 2 2 2 2 2 2 2 2 2 2 2 2 9 t e 3 2 2 2 2 2 2 3 2 2 3 2 2 2 2 2 3 3 3 0 t 9 2 2 2 2 2 2 2 3 2 2 2 2 2 2 2 2 7 2 2 2 2 2 2 2 2 2 2 2 2 2 2 2 2 2 3 2 2 2 2 2 2 3 1 1 1 # # 1 & O 1 1 & & & 1 # & & & & # $ # 1 1 & & & & & & # $ O & & & & & $ & 2 P C.%X=X*X=XoX*.Z 1 # O 1 & & # O & & = I C.%X*XoX=.N * & & & 1 # 1 # $ O 1 1 % N C.=X| = # $ O 1 & & & & * , *.oX%X*X*X%XC.I 4 & & & & $ # # 1 < &.XX=X*X*X%XZ.( = 1 - & & 1 # 1 2 2 2 2 2 2 2 # # # X # 2 3 2 2 2 2 3 2 2 2 2 2 2 2 2 2 2 2 2 2 2 2 2 3 2 3 2 2 3 2 2 2 2 2 q D.:X;X;XOXq & X # X # # X # # X # # # # X # # X X # # # # X # # # X # X X # X # = I ] ' ' ! 9 2 2 2 2 2 2 2 2 2 2 2 2 2 2 2 3 2 2 2 2 2 2 2 2 2 7 2 2 2 2 7 2 2 2 ",
"2 2 2 2 2 2 2 2 2 2 2 2 2 2 2 9 2 2 2 2 2 2 2 2 2 2 2 2 2 2 2 2 2 2 2 2 2 2 2 2 2 2 2 2 2 2 2 2 2 2 2 7 2 2 2 2 2 2 2 2 2 2 2 2 2 2 2 2 2 2 2 2 2 2 2 2 2 9 2 2 2 2 2 2 2 2 2 2 2 2 2 2 2 9 2 2 2 2 2 2 3 2 2 2 2 2 2 2 2 2 2 2 2 2 2 2 2 7 2 2 2 2 2 2 2 2 2 2 2 7 2 2 2 2 3 2 2 3 2 2 7 2 2 2 2 2 2 2 9 2 2 2 2 2 2 2 2 2 2 2 2 2 7 2 2 2 2 2 2 2 3 2 2 2 2 2 2 2 2 2 2 2 2 2 2 2 3 2 2 2 2 2 2 2 3 2 2 2 2 3 2 2 3 2 2 3 2 2 2 2 2 2 2 2 2 7 2 2 2 2 2 2 7 2 2 2 3 2 2 2 3 2 3 2 2 2 2 2 2 2 2 1 $ # . # # # * # * # $ # # * # * # * # # * # # $ # * # * # * # * * # # $ # # * # * # * # * # # # * # * # # $ & # # $ # # * # # $ # # * # # $ # # * # * # $ # $ # # * * # # $ * # * # * # * # $ # # * # * # * # # # $ # # # # # # 3 2 2 2 2 2 2 2 2 2 2 3 2 2 2 2 2 2 2 2 2 2 2 2 2 2 2 2 3 2 2 2 2 2 2 2 2 2 2 2 2 2 3 2 2 2 2 2 2 2 2 2 2 2 2 2 2 2 2 2 2 2 2 2 2 3 2 2 3 2 2 2 2 2 2 2 2 2 2 2 3 2 2 2 2 2 2 2 2 3 2 2 2 2 2 2 3 2 2 2 2 2 2 2 2 2 2 2 2 2 2 2 2 2 2 2 2 2 2 2 2 2 2 2 2 2 2 2 2 2 2 2 2 2 2 2 2 2 2 2 2 2 2 2 2 2 2 2 2 2 2 2 2 2 2 2 3 2 7 2 2 2 2 7 2 2 2 3 2 2 2 2 2 2 2 2 2 2 2 2 2 2 2 2 2 2 2 2 3 2 2 2 2 2 2 2 2 2 2 2 7 2 2 2 2 2 2 2 2 3 2 2 2 2 2 2 2 3 3 2 2 3 3 2 2 3 2 2 2 2 2 2 2 2 2 2 2 2 2 2 2 2 2 2 2 2 2 2 2 2 2 2 2 3 2 2 2 2 2 2 2 2 2 2 9 2 2 2 2 2 2 2 2 2 2 2 2 2 2 2 3 2 2 2 2 2 2 2 2 2 2 2 # # # # # # # $ & # # # $ # # * * # # * # * # # # * # $ * # & # * # * # & # * * # # $ # * & # * $ # * * # $ * # $ # * # * # # # $ # # # # * # $ # # # $ & # $ # # # # # # 2 2 2 2 2 2 2 2 9 2 2 2 2 2 2 2 2 2 2 2 9 2 2 2 2 2 2 2 2 2 2 2 2 2 2 7 2 2 2 2 2 3 2 2 2 2 2 2 2 2 2 2 2 2 2 2 2 2 2 2 2 2 2 2 2 2 2 2 2 2 2 2 2 2 2 2 2 2 2 2 2 2 2 2 2 2 2 2 2 2 2 2 2 2 2 2 2 2 2 2 2 2 2 2 2 2 2 2 2 2 1 1 1 % 1 O $ # $ & # 1 $ # $ % & & 1 1 # # 1 1 O & & & & & # 1 X 1 1 1 % 1 & & & 2 w P W Q W N < * 1 # 1 & & - & & & & & 2 w Y I Y w & # 1 1 & 1 1 # % # 1 X 1 1 2 w P q & & # 1 1 & 1 & & & * w P Y W Q Y B * # 1 1 & % # 1 & & 1 w Z P Q W I w = & 1 1 # % & & & 2 2 2 2 2 2 2 $ X # X # 2 2 2 2 2 2 2 2 2 2 2 2 2 2 2 2 2 2 2 2 2 2 2 2 2 2 2 2 3 2 2 2 2 2 8 D.:X;X;X+XC & X # X # # X # # # X # # X # # # X X & X # # # # X X # X # # # # # = U ] ' ` I 8 3 2 2 2 2 3 2 2 2 2 2 2 2 2 2 2 2 2 2 2 2 2 2 2 2 2 2 2 2 2 2 2 2 2 ",
"2 2 2 2 2 2 2 2 2 2 2 3 2 2 2 2 2 2 2 2 2 2 2 2 7 2 2 2 2 2 2 2 2 2 2 3 2 3 3 2 2 2 3 2 2 2 3 2 2 2 2 2 2 3 2 2 2 2 2 2 2 2 2 2 2 2 2 2 2 2 2 2 2 2 2 2 2 2 2 2 2 2 2 2 2 2 2 2 2 2 2 2 2 2 2 2 2 2 2 2 2 2 2 2 2 2 2 2 2 2 2 2 2 2 2 2 2 2 2 2 2 2 2 2 7 2 2 2 3 2 2 2 2 2 2 2 2 2 2 3 2 2 2 2 2 2 9 2 2 2 2 2 2 2 2 2 2 2 2 2 2 2 2 3 2 2 2 2 2 2 2 2 2 2 2 2 2 3 2 2 2 2 2 2 2 2 2 2 2 2 2 2 2 2 2 2 2 2 2 2 2 2 2 2 2 2 2 2 2 2 2 7 2 2 2 2 2 2 2 2 2 2 2 3 2 2 2 2 3 2 2 2 2 2 2 2 2 2 3 2 2 1 X # # # # # * # # $ # * $ # # * $ # # * # $ * # $ # # * $ # $ # # $ * # * * # $ # $ # $ # $ * # # $ # $ * # # * * # * # # $ * # * # # $ * # * # & $ # # # * # * # # # # * # # $ # # # $ # $ # * $ # # * # $ # * * # * # # # X & 2 3 2 2 2 2 2 3 2 2 2 2 2 2 2 2 2 2 2 2 3 2 2 2 2 2 2 2 2 2 2 3 3 2 2 2 3 2 2 2 2 2 2 2 2 3 2 3 2 3 3 2 3 2 2 2 2 2 2 2 4 2 2 2 2 2 2 2 2 2 2 2 3 2 2 2 2 2 3 7 2 2 2 2 2 2 2 2 2 2 2 2 2 2 3 2 2 2 2 2 2 2 2 2 2 2 2 2 2 2 2 3 3 2 2 2 2 2 2 2 2 2 2 2 2 2 2 2 2 2 2 2 2 2 2 2 2 2 2 2 2 2 3 2 3 2 2 3 2 2 2 3 3 2 3 2 2 2 2 2 2 2 2 2 2 2 2 2 2 2 2 2 2 3 2 2 2 2 2 2 2 3 2 2 2 2 2 2 2 2 2 2 2 2 2 3 3 2 2 2 3 2 2 2 2 2 2 2 2 2 3 2 2 2 3 2 2 2 2 2 2 2 2 2 2 2 2 2 2 2 2 2 2 2 2 2 2 7 2 2 2 2 2 2 2 2 2 2 2 2 2 2 2 2 2 2 2 2 2 2 2 2 2 2 2 2 2 2 2 2 3 2 3 2 3 2 2 2 3 2 2 2 2 2 2 2 2 2 2 2 2 2 # X X # # # * # # * * * # * $ # # $ $ # $ # # * $ # * # # # $ # # $ # $ $ # # # # * # * # $ $ # # * # # # & # # # * # $ # $ * * # * * * # $ * # * * * # # * # # # # #   * 2 2 2 2 8 2 2 2 2 2 2 2 2 2 2 2 2 2 2 2 2 2 2 2 2 2 2 2 2 2 2 9 2 2 2 2 2 2 2 2 2 2 2 2 2 2 2 2 2 2 2 2 2 2 2 2 9 2 2 2 2 2 2 2 2 2 2 2 2 2 2 2 2 2 2 2 2 2 2 2 2 2 2 2 2 2 2 2 2 2 2 2 2 2 2 2 2 2 2 2 2 2 3 3 2 2 3 2 2 2 2 1 # & & & & 1 # & & 1 O 1 # 1 1 1 # 1 1 & & # $ & & 1 & 1 1 1 1 1 1 & & # $ & & X % 1 X # O O % $ # % 1 & & % 1 # & & & & X # O X X $ $ O # 1 # 1 1 1 1 1 1 1 1 1 X & & # & 1 1 % & # & & & & # % X % o X O $ $ O # & 1 1 # & 1 1 X # O % X X 1 & & 1 1 1 1 & & # 2 2 2 2 2 3 2 # # # # X 2 2 2 2 2 2 3 2 3 2 3 2 2 2 3 2 2 2 2 3 2 2 2 2 2 2 2 2 2 3 2 2 2 2 9 -.&X;X;X+XT * # # # # X # # X # X # # X # X # # # X # # X X # # # # # # X X # # , U ] ] ] ! 8 2 2 2 2 2 2 2 2 2 2 2 2 2 2 2 2 2 2 2 2 2 2 2 2 2 2 2 2 2 2 2 2 2 2 ",
"2 2 2 2 2 2 2 2 2 2 2 2 2 2 3 2 2 2 2 2 2 2 2 2 2 2 2 2 2 2 2 2 2 2 2 2 2 2 2 2 2 2 7 7 2 2 2 2 2 2 3 2 2 3 2 2 2 2 2 2 2 2 2 2 2 2 2 2 2 2 2 2 2 3 2 2 2 2 2 2 2 2 2 2 2 2 2 2 3 2 2 2 2 2 2 2 2 2 2 2 2 2 2 2 7 2 2 2 2 2 7 2 2 2 2 2 2 2 2 2 2 2 7 7 2 2 2 2 2 2 2 2 2 2 2 2 2 2 2 2 2 2 2 2 2 2 2 2 2 2 2 2 2 2 2 2 2 2 2 2 2 2 2 2 2 2 2 2 7 2 2 2 2 2 2 2 2 2 2 2 2 3 2 3 2 2 2 2 2 2 2 2 2 2 2 2 2 2 2 2 2 2 2 2 3 2 2 3 2 2 2 2 2 2 2 2 2 2 2 3 2 2 2 2 2 3 2 2 2 2 2 2 2 2 3 2 2 2 2 2 2 1 # # # # # & # * # # * # # * # # * # $ # $ # * # * # $ # # * # * * # # # $ # # * * # # * * # # $ * # * # * # $ # $ # # * * # # $ * # * & # $ # * # * # * # * * # # $ $ # # * # * # * # * * # $ # # * # # * # $ # # $ # # # # # # 2 2 2 3 2 2 2 3 2 2 3 2 2 2 3 2 3 2 2 2 2 7 7 3 2 2 2 2 2 2 2 2 2 2 2 2 2 2 2 2 2 2 2 2 2 2 2 3 2 2 2 2 2 2 2 2 2 2 2 2 2 2 3 2 2 2 2 2 2 2 2 2 2 2 2 2 3 2 2 2 2 2 2 2 3 2 2 2 2 2 2 2 2 2 2 2 2 2 2 2 3 2 2 2 2 2 2 2 2 2 2 2 2 2 9 2 3 2 2 2 2 2 2 2 2 2 2 2 2 2 2 2 2 2 2 2 2 2 2 2 2 2 2 2 3 2 2 2 3 2 2 2 3 2 2 2 3 2 2 2 2 2 2 2 2 2 2 2 2 2 2 2 2 2 2 2 3 2 2 2 2 2 2 2 2 2 2 2 2 2 2 3 2 2 2 2 2 2 2 2 2 2 2 2 3 2 2 2 2 2 2 2 2 2 2 2 2 2 2 2 2 2 2 2 2 2 2 2 2 2 2 2 2 2 2 2 3 2 2 2 2 2 2 2 2 2 2 2 2 2 2 2 2 2 2 2 2 2 2 2 2 2 2 2 2 2 2 2 2 2 3 2 2 2 2 2 2 2 2 2 2 2 2 2 2 3 2 2 2 2 2 2 # # # # # # # $ * # # $ $ # # * * # # * * # * # * # * # * # # * & # * * # * $ # # * & # * $ # # * # * # * # # * & $ # * * # # $ # # # $ * # # # $ # $ # # * # # # # # # # 2 2 2 2 2 2 2 2 2 2 2 2 2 2 2 2 2 2 2 2 2 2 2 2 2 2 2 2 2 2 2 2 2 2 2 2 2 2 2 2 2 2 2 2 2 2 2 2 2 2 2 2 2 2 2 2 2 2 2 2 2 2 2 2 2 2 2 2 2 2 2 2 2 2 2 2 2 2 2 2 2 2 2 2 2 2 2 2 2 2 2 2 2 2 2 2 2 9 2 2 2 2 3 2 2 2 3 3 2 2 2 1 1 1 1 # % & & & & 1 & & & 1 # & & % 1 & & $ # 1 & # 1 O $ & # % 1 & 1 1 # & 1 1 1 1 # # # 1 # & & & & & & 1 % & & & & & & % # & & & & & & O 1 % & 1 # & & % & # 1 & & & & 1 # & & 1 # 1 # & $ 1 1 1 1 # 1 & & & & & & # $ & & & & # % & & & & & & X 1 & & # O $ 2 3 2 2 2 2 2 # # X X # 2 3 2 2 2 2 2 2 2 2 2 2 2 2 2 2 3 2 3 3 2 3 2 3 2 2 2 2 2 2 2 2 2 2 7 ..+X;X-X&X..= X # X # # X X & X # # # # X & X # X # # X # # X # # X # X # # # # B [ ] ] | P 8 2 2 2 2 2 2 2 2 2 2 2 2 2 2 2 2 2 2 2 2 2 2 2 2 2 2 2 2 2 2 2 2 2 2 ",
"2 2 2 2 2 2 2 2 2 2 3 2 2 2 2 2 2 2 2 2 2 2 2 2 2 2 2 2 2 2 2 9 2 2 2 2 2 2 2 3 3 3 7 7 7 2 2 2 2 2 2 2 2 2 2 2 2 2 2 2 2 2 2 2 2 2 2 2 2 2 2 3 2 2 2 2 2 2 2 2 2 2 2 2 2 2 2 3 2 2 2 2 2 2 2 2 3 2 2 2 2 2 2 9 2 2 2 2 2 2 2 2 2 2 2 2 2 2 2 2 2 7 7 7 2 2 2 2 2 2 2 3 2 2 2 2 3 2 2 2 3 2 2 2 2 2 2 2 2 2 2 2 2 2 2 2 2 2 2 2 2 3 2 2 2 2 3 2 3 2 2 2 2 2 2 2 7 2 2 2 2 2 2 2 2 2 2 2 2 2 2 2 2 2 2 2 2 2 2 2 3 2 3 2 2 2 2 2 2 2 2 2 2 2 2 2 2 2 2 2 2 3 2 2 2 2 3 2 2 2 2 3 3 2 2 2 2 7 2 2 2 & # X # # # & $ # # * # & $ # * $ # # # * # * # # * # # * # # # # # $ # * # * $ # # & $ # # # * # * # # $ # # # * # * $ # & $ * # # $ # $ * # $ # $ # # * $ # * $ * # # * $ # $ # # * $ # # # * * # # * $ # $ # * * # # # #   X # 2 2 2 2 2 2 2 2 2 2 2 2 2 3 2 2 2 2 2 2 2 2 2 2 3 2 2 2 2 2 2 2 2 2 2 2 2 2 3 2 2 2 2 2 2 2 2 2 2 2 2 2 3 2 2 2 2 2 2 2 2 2 2 2 2 3 3 2 2 3 2 2 3 2 2 2 2 2 2 2 2 2 2 2 2 2 3 2 2 2 2 7 2 3 2 2 2 2 9 2 2 2 2 2 2 2 2 2 2 2 2 2 2 2 2 2 2 2 2 2 2 2 2 2 2 2 2 2 2 2 2 2 3 2 2 2 2 2 2 2 2 2 2 2 2 2 2 2 2 2 2 2 2 2 2 2 2 2 2 2 2 2 2 2 2 2 2 2 2 2 3 2 2 2 2 2 2 2 2 2 3 2 2 2 3 2 2 2 2 2 2 2 7 2 2 2 2 2 2 2 2 2 2 2 2 2 7 2 2 2 2 2 2 3 2 2 2 3 2 2 2 2 2 2 3 2 2 2 2 2 2 2 2 2 2 2 2 2 2 2 2 2 2 2 2 2 2 2 2 2 2 2 2 2 2 2 2 2 2 2 2 2 2 2 2 2 2 2 2 2 2 2 2 2 2 2 2 2 2 2 2 7 2 2 2 2 2 2 2 2 2 2 # # X X # $ * # # $ # * # * # # # # # # # # * $ # $ # # * $ & # & $ # # $ # # * # # $ # # # * # # $ # # * # # * # # $ # # # * # * # * # # $ # * # * # * # # # # #   #   & 2 2 2 2 2 2 2 2 2 2 2 2 2 2 2 2 2 2 2 2 2 2 2 2 2 2 2 2 2 2 2 2 2 2 2 2 2 3 2 2 2 2 2 2 2 2 2 2 2 2 2 2 2 2 2 2 2 2 2 2 2 2 2 2 2 2 2 2 2 2 2 2 2 2 2 2 2 2 2 2 2 2 2 2 2 2 9 2 2 2 2 2 2 2 2 2 2 2 2 2 2 2 2 2 2 2 2 2 2 2 2 # % # 1 1 1 & & & & # & & & 1 # 1 & & & & & # 1 1 % 1 # $ # & & & 1 & # O $ 1 # # 1 1 1 % 1 & & & & & & 1 & 1 # & & & & & & 1 1 & & & & & & $ 1 # & 1 # 1 & 1 & 1 1 # % - & & & & & 1 % O $ & # $ O # 1 1 & & & & & & 1 $ O & & & & & 1 & & & & & 1 1 & & & 1 1 $ 2 2 2 2 2 2 2 # # # # # 2 2 2 2 3 2 2 3 2 2 2 2 2 2 3 2 2 2 2 2 2 2 2 7 2 3 2 2 3 2 2 2 2 2 2 ~ D.;X-X-X-.8 X # # X # # # X # # X X # # X X # & X # # X & X # # X # # X # . = I ' ]  .U Z 3 2 2 2 2 2 3 2 2 2 2 2 2 2 2 9 2 2 2 2 2 2 2 2 2 2 2 2 2 2 2 2 2 2 2 ",
"2 2 3 2 2 2 2 2 2 2 2 2 2 2 2 2 2 2 2 3 2 2 2 2 2 2 2 2 7 2 2 2 2 2 2 7 2 2 2 2 7 7 2 7 7 7 2 2 2 2 2 2 2 2 2 2 2 2 2 2 2 2 2 2 2 2 2 2 2 2 2 3 2 2 3 2 2 2 2 2 2 2 2 9 2 2 3 2 2 2 3 2 2 2 2 2 2 2 2 2 2 2 2 2 2 2 2 2 2 2 7 7 2 7 7 9 7 9 9 9 7 7 9 7 7 7 7 7 2 2 2 2 2 3 2 2 2 2 3 2 2 2 2 2 2 2 2 2 2 2 2 2 2 2 2 2 2 2 2 2 2 2 2 2 2 2 2 2 2 2 2 2 2 2 2 7 2 3 2 2 2 2 2 2 3 2 2 2 2 2 3 2 3 3 9 4 3 4 9 3 3 2 3 2 2 2 2 2 2 2 2 2 2 2 2 2 2 2 3 2 2 2 2 2 2 2 2 2 2 3 2 2 2 2 2 3 2 2 3 2 2 1 # # X # # # # * # * $ # # * # * # * # * # * # * $ # * # * # * * # # * # # # & # # * # * # * # # # $ # * $ $ # $ * $ * # # $ & * # # * # * # # * # * # $ * # # * # $ # # * * # $ # * # * # * # # $ # * # * # # # $ # # # # # # # 2 2 2 2 2 3 2 2 2 2 3 2 2 2 2 2 7 2 2 2 3 2 2 2 2 2 2 7 3 2 3 2 2 2 2 2 2 2 2 2 2 2 2 2 2 3 3 3 3 3 8 3 7 8 2 2 2 2 2 2 2 2 3 2 2 2 2 2 2 3 2 2 2 2 2 2 2 2 2 3 2 2 2 3 2 2 3 2 2 2 2 2 2 2 2 2 2 2 2 2 2 2 9 2 2 2 2 2 2 3 2 2 2 2 2 2 2 2 2 2 2 2 2 2 2 2 2 2 2 2 3 2 2 2 2 2 2 2 2 8 2 8 8 3 8 2 7 3 3 3 2 2 2 2 2 2 2 2 2 2 9 2 2 2 2 2 2 2 2 2 2 2 2 2 2 2 3 2 2 2 2 2 2 7 2 2 2 2 2 2 2 2 3 2 2 2 2 2 2 2 2 2 2 2 2 2 3 2 2 2 2 2 2 2 3 2 2 2 3 2 2 3 3 2 2 2 2 2 2 2 2 2 3 3 7 7 8 8 9 3 4 2 q 8 8 7 2 2 2 2 2 2 2 2 2 2 2 4 2 2 2 2 2 2 2 2 2 2 2 2 2 2 2 2 2 2 3 2 2 3 2 2 2 2 3 2 2 2 2 2 2 2 # # # # # # & # * # # # * # # * # * * # * # * # $ # # * $ # * # $ # # $ # $ * $ # * $ $ $ $ $ # # $ # * # * # $ # * # $ * # # * # # # # $ # # # * # * # # # * # # # # # $ 2 2 2 2 2 2 2 2 2 2 2 2 2 2 2 2 2 2 2 2 2 2 2 2 2 2 2 2 9 2 2 2 2 2 2 2 2 2 3 2 2 2 2 2 2 9 2 2 2 2 2 2 2 2 2 2 2 2 2 2 2 2 2 2 2 2 2 2 2 2 3 2 2 2 2 3 2 2 2 2 2 2 2 2 2 2 3 2 2 2 2 2 2 2 2 2 2 2 2 2 2 2 2 2 2 2 3 2 2 2 2 # 1 & & % 1 & & % 1 1 1 % 1 % & & & & & 1 % & & % 1 1 1 % & 1 1 1 # # % 1 1 & & $ 1 # % & & & & 1 & $ O 1 1 O $ & & 1 & & & % & & & 1 % 1 & # $ & & & & & & & & 1 % 1 $ # # % & & & & & 1 % & & % 1 & # & & & & & & 1 1 1 1 & & & & 1 1 % & & & & & & & 1 % 1 # # 2 2 2 2 2 2 2 # X # # X 2 3 2 2 2 2 2 2 2 2 3 2 2 2 2 2 2 2 2 2 2 2 2 2 2 2 2 2 2 3 2 3 2 2 2 9 A.;X-X-X&XY & X # # X X # # # X & X # # # & # X # # # X X # # # X # # X # # : ` ' ' ' ! w 2 2 3 2 3 2 2 2 2 2 2 2 2 2 2 2 2 2 2 2 2 9 2 2 2 2 2 2 2 2 2 2 2 2 2 ",
"2 2 2 2 2 2 2 2 2 2 2 2 2 2 2 2 2 2 2 2 2 2 2 2 2 7 2 2 2 2 2 2 2 7 2 7 6 + u u k k k k k k + 4 2 2 2 2 2 2 2 2 2 2 2 2 2 2 2 2 2 2 2 2 2 2 2 2 2 2 2 2 2 2 2 2 2 2 2 2 2 2 2 2 2 2 2 2 2 2 2 2 2 2 2 2 2 2 2 2 2 2 2 2 2 2 2 % 9 D X.J.J.G.G.G.F.G.G.X.L C 7 7 2 2 2 2 2 2 2 2 2 2 2 2 7 2 2 2 2 2 2 2 2 2 2 2 2 2 2 2 2 2 2 2 3 2 2 2 7 2 2 3 2 2 2 2 2 2 2 2 2 2 2 2 2 3 2 2 2 2 2 2 2 5 6 j m b b v v v b v b j 6 3 2 2 2 2 2 2 7 2 2 2 2 2 3 2 2 2 2 2 2 2 2 2 2 2 2 2 2 2 2 2 2 2 2 2 2 2 7 1 X # X # # $ $ # $ # # * $ # $ # $ # # # $ # $ # # * # $ $ # # $ # * $ # * # # * $ # & & $ # # * $ 2 7 9 0 0 e 0 0 0 9 = * $ # $ # * # $ # $ # # # * * # # $ # # # * * $ # # * # # # # * $ # # * # * # $ # # * * # * # # # # # # 2 2 2 2 2 2 2 2 2 2 2 2 2 2 2 2 3 2 2 2 2 2 2 2 3 2 2 2 2 2 2 2 2 3 3 2 2 3 2 2 2 2 2 3 q Z Y W I ! I ! ! I Y w q 2 2 2 2 2 2 2 2 2 2 2 2 2 2 3 2 2 2 2 2 2 2 2 2 2 2 2 2 2 2 2 2 2 2 2 2 3 2 2 2 2 2 2 2 2 2 2 2 2 2 2 2 2 2 2 2 2 2 2 2 2 2 2 2 2 2 2 2 2 2 2 2 2 2 2 2 3 2 2 2 2 q w Y Y I ( I ! ! I Y w 8 2 2 2 2 2 2 2 2 2 2 2 2 7 2 2 2 2 7 2 3 2 2 2 3 2 2 2 2 2 2 2 2 2 2 2 2 2 2 2 2 2 2 2 2 2 3 2 2 3 3 2 2 2 2 2 2 2 2 2 2 2 2 7 2 2 2 2 2 2 2 2 2 2 3 2 2 3 2 2 2 2 r w A Y Q | A.D.D.A.*.) T 8 2 2 2 2 2 2 2 2 2 2 3 3 2 2 9 2 2 2 2 2 2 2 2 2 2 2 2 2 7 2 2 2 2 2 2 2 2 2 2 2 2 2 2 2 2 2 # # # X # # & & # & * # # $ # * $ # # $ * # # # # * $ # # * * # $ * * 2 7 9 q 0 0 0 9 9 9 7 * $ $ $ $ # $ # # & $ # * # # # # * $ * # * # * * # # $ * # * $ # # # # X # & 2 2 2 2 2 2 2 2 7 2 2 2 2 2 2 2 2 2 2 2 2 2 2 2 9 2 2 2 2 2 2 2 2 2 2 2 2 2 2 2 2 2 2 2 2 2 2 2 2 2 2 2 7 2 2 2 9 2 2 2 2 2 2 2 7 2 2 2 2 2 2 2 2 7 2 2 2 2 2 2 9 2 2 2 2 2 2 2 2 2 2 2 2 2 2 2 2 2 2 2 2 2 3 2 2 2 2 2 2 2 2 1 # & & & 1 & & & 1 1 # & & 1 1 & & & & & 1 & & & 1 # 1 & & X 1 1 1 1 1 1 X & & % 1 1 1 & & $ 1 $ & # 1 1 X $ # & & % 1 & & & & & & % 1 & & 1 # % # & & 1 1 & & & # 1 O 1 $ 1 1 & & & & & 1 1 # 1 # O 1 # $ & & # & 1 X # 1 & & # & # % & & # & & # & & 1 # % 1 1 2 2 2 2 3 2 2 1 # X X # 2 2 2 3 2 2 3 3 2 2 2 2 2 2 3 2 3 2 3 2 2 2 2 2 2 2 2 2 2 2 2 2 2 2 2 4 -.-X-X-X-X&.: X X # # # # # X # # & X X # X # X # X # # # # X # # X # # X * N ' ] ' ` I 8 2 2 2 2 2 2 2 3 2 2 2 2 2 2 2 2 2 2 2 2 2 2 2 2 2 2 2 9 2 2 2 9 2 2 2 ",
"2 2 2 2 2 2 2 2 2 2 2 2 2 2 2 2 2 9 2 2 2 2 2 2 2 2 2 2 2 2 7 2 2 4 + k k k l l l z z z l l l k k + 6 2 2 2 3 2 2 2 9 2 2 2 2 2 2 2 2 2 2 2 2 2 2 2 2 2 2 2 2 2 2 2 2 2 2 2 2 2 2 2 2 2 2 2 2 2 2 2 2 2 2 2 2 2 2 2 7 7 2 2 9 X.J.G.G.<X<X0X9X9X9X0X9XH.G.G.J.L 9 2 2 2 2 2 2 2 2 2 2 2 2 2 2 2 2 2 2 2 2 2 2 2 2 2 2 2 9 2 2 2 2 2 2 2 2 2 2 2 2 2 2 2 3 2 2 2 3 2 2 2 2 2 2 3 3 7 2 3 6 m v v v h.h.h.h.h.h.h.j.v v b j 6 2 2 2 2 2 2 2 2 2 2 2 2 2 7 2 2 2 2 2 2 3 2 2 2 2 2 2 2 2 2 2 2 3 2 7 1 $ # # # # # # * * # * # # * # * $ # * # * # # $ # # * * # * # * # * # * $ # $ # # * $ # # $ * 9 9 0 e 0 e e D e D e e 0 0 0 7 * * # # * $ # * & # # # # $ # $ # # * * # # $ # # * # $ # # * # $ # # * * # * # $ $ # #     # X % 2 2 2 2 2 2 2 2 2 3 2 2 2 3 2 2 2 2 2 2 2 3 2 2 2 2 2 2 2 3 2 2 2 2 2 2 2 2 2 2 2 3 w I I ( U ` ` ] ] | ` ] U ! ! Y w 8 2 2 2 2 2 2 2 2 2 2 2 2 2 2 2 3 3 2 2 2 2 2 3 2 2 7 2 2 2 2 2 2 2 2 2 2 2 2 2 2 2 2 2 2 2 2 2 2 2 2 2 2 2 2 2 2 2 2 2 2 2 2 2 2 2 2 2 2 2 2 2 2 2 2 2 2 w Y I I ` ` ` ] ] | ` ' ` U ! Q w q 2 2 2 2 2 2 2 2 2 2 2 2 2 2 2 2 2 2 2 2 2 2 2 2 2 2 2 2 2 2 2 2 2 2 7 2 2 2 3 2 2 2 2 2 2 2 2 2 2 2 3 2 2 2 2 2 2 2 2 2 2 2 2 2 2 2 2 2 2 2 2 2 2 2 2 2 w Y Q I ( U ` *.OX-X;X&X+X+XD.-...t 3 4 2 2 2 2 2 2 3 2 2 2 2 2 2 2 2 2 2 2 2 2 2 2 3 2 3 2 2 2 2 2 2 2 3 2 2 2 2 2 2 2 2 2 # # # # X & # $ # $ # $ * # # # * # * # # $ # * # # # # * # # $ * 7 0 0 0 D e D D e D D t 0 0 0 7 $ * # $ $ * # * * * # * # $ # $ # # * # * # $ * # # * # # * $ # # # X * 2 2 2 2 2 2 2 2 2 2 7 2 2 2 9 2 2 2 2 2 2 2 2 2 2 2 2 2 2 2 2 2 2 2 2 2 2 2 2 2 2 3 2 2 2 2 2 2 2 2 2 2 2 2 2 2 2 2 2 2 2 2 2 2 2 2 7 2 2 2 2 2 2 3 2 2 2 2 2 2 2 2 2 2 2 2 2 2 2 3 4 2 2 2 2 2 2 9 2 2 2 2 2 2 2 2 3 2 2 3 2 1 2 1 2 2 1 1 2 2 1 1 2 1 2 2 1 1 2 2 1 2 1 2 1 2 1 1 2 1 2 1 2 2 2 2 1 2 2 1 2 2 1 1 2 1 2 2 1 2 1 1 2 2 2 1 2 1 2 2 1 1 2 1 2 1 2 2 1 1 2 2 1 2 2 1 2 2 1 1 2 2 2 1 2 2 1 2 1 1 2 2 1 2 1 2 1 2 2 1 1 2 2 2 2 2 1 2 2 1 2 2 1 2 2 1 2 2 2 4 2 1 2 1 2 1 2 2 1 2 2 2 2 2 2 2 2 1 # # # # 2 3 2 2 2 2 2 3 2 2 3 2 7 2 2 2 2 2 3 3 2 2 3 2 2 2 2 2 2 2 2 2 2 2 2 2 ) OX-X-X-X+XY # # X # # X # # X X X X # # # X # # X # # # # X X # X # # # : U [ ' ] ! Z 2 2 3 2 2 2 2 2 2 2 2 9 2 2 2 2 2 2 2 2 2 2 2 2 2 2 2 2 2 2 2 2 2 2 2 2 ",
"2 9 2 2 2 2 3 2 2 2 2 2 2 2 2 2 2 2 2 2 2 2 3 2 2 2 2 2 2 2 7 2 6 u k z z z z z z z z z z z z z x k u + + 3 7 2 2 2 2 2 2 2 7 2 2 2 2 9 2 2 2 2 2 2 2 2 2 2 2 2 2 2 2 2 3 2 2 2 2 2 2 2 2 2 2 2 2 2 2 2 2 2 2 2 2 2 2 7 0 L J.G.9XqXqX9XqX9X9X9X9X9X9XqX9X9X0XG.J.X.0 2 2 2 2 2 3 2 2 3 2 2 2 2 2 2 2 2 2 2 2 2 2 2 2 2 2 2 2 2 2 2 2 2 2 3 2 2 2 2 3 2 2 2 2 2 2 2 2 2 2 2 2 2 3 4 6 m v j.k.k.k.k.h.h.h.h.h.h.h.h.k.k.v b m 6 2 2 7 2 2 2 7 2 2 2 2 2 2 2 3 2 2 2 2 2 3 2 2 3 2 2 2 3 2 2 2 2 7 1 # # # X # $ # # # $ # & $ # # * # * # $ # # * # * # # # $ # # # $ # # # * * # * # # $ $ * 7 q e D D D D D D t D e D D D t D 0 0 7 2 $ # # $ # $ * # # * # * # * # # # # * # * * # $ # * # # * # * # # # $ # # & # $ # # # # # # 2 3 2 2 2 2 3 2 2 2 2 3 2 2 2 2 2 2 2 2 2 2 2 2 2 2 2 2 2 2 3 2 2 2 3 2 2 2 2 8 w Y ( ` ] ] ] %.] ] ] ' ] ] ] ] ] ' ! P Z q 2 2 2 3 2 2 2 3 2 2 2 2 2 2 2 2 2 2 2 2 2 2 2 2 2 2 2 3 7 2 2 2 2 2 2 2 2 2 2 2 2 2 2 3 2 2 2 2 2 2 2 2 2 2 2 2 2 2 2 9 2 2 2 2 2 2 2 2 2 2 2 0 T ) ( ` ] %.' ] ] ] ' ] ] ] ] ] ] ] I W Z w 2 3 2 2 2 2 2 2 2 2 2 2 2 2 2 2 2 3 2 2 2 2 2 2 3 2 2 2 2 2 2 2 2 2 2 2 2 2 2 2 2 2 2 2 2 2 2 7 2 2 2 2 3 2 3 2 2 2 2 2 2 3 2 3 2 2 2 3 2 2 2 3 0 Z Q U %.] ] ] ' *.OX-X;X;X;X;X;X;X+XF...T 9 2 2 2 2 2 2 2 2 2 2 2 2 2 2 2 2 2 2 2 2 2 2 2 2 2 2 2 2 2 2 2 2 7 2 2 2 2 2 2 2 2 # . X # # & * # * # * # * # * $ # $ # # * # $ # * * * # # $ * 7 q 0 e D e D D e D D 0 D D t D D D 7 8 = $ # # $ # # # # * $ # * # * # # $ # * # # # $ # # * # # # # # # & 3 2 2 3 2 2 2 2 2 2 2 2 2 2 2 2 2 2 2 2 2 2 2 2 2 2 2 2 2 2 2 2 2 7 2 2 2 2 2 2 2 2 2 2 2 7 2 2 2 2 2 2 2 2 2 2 2 2 2 2 2 2 2 2 2 2 2 2 2 2 2 2 2 2 2 2 2 2 2 2 2 2 2 2 2 2 2 2 3 3 2 2 2 2 2 2 2 2 2 2 2 2 2 2 2 2 2 2 2 2 2 2 3 2 3 2 2 2 2 3 2 3 2 2 2 2 3 2 3 2 2 3 2 3 2 2 3 2 3 2 3 2 2 2 2 2 2 2 2 3 2 2 3 2 3 2 3 2 2 7 2 2 2 2 2 3 2 3 2 3 2 3 2 3 3 2 2 3 2 3 3 2 2 2 2 3 2 2 2 2 2 2 2 3 2 2 2 2 2 3 3 2 2 3 2 2 2 2 2 7 7 7 2 2 2 2 2 2 2 2 2 2 2 2 2 2 2 2 3 2 2 2 2 3 3 3 3 3 3 2 3 2 2 2 2 2 2 & X # X X 2 3 2 2 2 2 2 2 2 2 2 2 2 2 2 3 2 2 2 2 2 2 2 2 2 3 2 2 3 3 2 2 2 2 2 2 0 -.-X-X-X;X-.w X X # # X X # # # # # # X # # # X # # X X # & X # # # . = P ] ] ] ' Q 8 2 2 2 3 2 2 2 3 2 2 2 2 2 2 2 2 2 2 2 2 2 2 2 2 2 2 2 2 2 2 2 2 2 2 2 2 ",
"2 2 2 2 2 2 9 2 2 2 2 2 2 9 2 2 2 2 2 2 2 2 2 2 2 2 2 2 7 2 + u l z z z l z z l z z z z l l z z z z z z k 6 4 2 2 2 2 2 2 2 2 2 2 2 2 2 2 2 2 2 2 2 2 2 2 2 2 2 2 2 2 2 2 2 2 2 2 2 2 2 2 2 2 2 2 3 2 2 2 2 2 2 2 2 7 H J.G.0X9X9X9X9X9X9X9XqXqXqXqXqXqX9X9X9X9XqX<XJ.S 7 7 7 7 2 2 2 2 2 2 2 2 2 2 2 2 2 2 2 2 2 2 2 2 2 2 2 2 2 2 2 2 2 2 2 2 2 2 2 2 2 2 3 2 2 2 2 2 7 2 2 3 5 c b j.k.k.k.h.h.h.h.h.k.k.h.h.h.k.k.h.k.k.j.b 6 r 2 3 3 3 2 2 2 2 2 2 2 3 2 2 2 7 2 2 2 2 2 2 2 2 3 2 2 2 2 2 2 *   # # # # # * # * # $ # # * * # $ # # * $ * # * * # # # $ # * # # * # # $ # # $ # # * 7 9 0 D D D D D D D D D D D D e D e D D D 0 9 7 $ $ $ # * * # * # # $ * # * # $ # $ # # $ # # * # # $ # $ # # * # # $ * # # $ # # # # X & 2 3 2 2 2 2 2 2 2 2 2 2 2 2 2 2 2 2 2 2 2 2 2 2 2 3 2 2 2 2 2 2 3 2 2 2 2 2 w Y Q ` ] ' ] ' ] ] ] ] ] ' ] ' ] ' ' ' ' ] ` Y 9 3 2 2 3 2 2 3 2 2 2 3 2 2 2 2 2 2 2 2 2 2 2 2 2 2 3 2 3 2 2 2 2 2 2 2 2 2 2 2 2 2 2 2 2 2 2 2 2 2 2 2 2 2 2 2 2 2 2 2 2 2 2 2 2 2 2 2 3 8 C ) A.+X-...] ' ] ] ]  .] ] ] ] ] ] ' ] ] ] ` I r 7 2 2 2 3 2 2 2 3 2 2 2 2 2 2 3 3 2 2 2 2 2 2 2 2 2 2 2 2 2 2 2 2 2 2 2 2 2 2 2 2 2 2 2 2 2 2 3 2 2 2 2 2 3 2 2 2 2 2 2 3 2 2 2 3 2 2 2 2 7 Z W ` ] ] ' ' ] ] ] &.OX-X;X;X;X;X;X-X-X;X&XA.~ 0 3 3 2 3 2 2 2 2 2 2 2 2 2 2 2 2 9 2 2 2 2 2 2 2 2 2 2 2 3 2 2 2 2 2 2 2 2 2 2 2 # # # # # # # * # * # $ # $ # # * # $ # * * # $ $ # $ $ $ 7 7 0 D D D D D D 0 D D 0 D D D D 0 D D D D 0 2 * * # # $ # * $ # * * # $ * # $ # $ # $ * # # $ # & # # # X # & 2 2 2 2 2 2 2 2 2 2 2 2 2 2 2 2 2 2 2 2 2 2 2 2 2 2 2 2 2 2 2 2 2 2 2 2 2 2 2 3 2 2 2 2 2 2 2 3 2 2 2 2 2 2 2 2 2 2 2 2 2 2 4 3 3 2 2 7 2 2 2 3 2 2 7 2 2 2 2 2 2 2 2 2 2 2 2 3 2 2 2 2 2 2 2 2 2 2 2 2 2 2 3 2 2 2 2 2 2 2 3 2 2 2 2 2 2 2 2 2 2 2 2 3 2 2 2 2 2 2 2 3 2 2 2 2 2 2 2 2 2 2 3 2 2 2 2 2 2 2 2 3 2 2 2 2 2 3 2 2 2 2 2 2 2 2 2 2 2 2 2 2 2 2 2 2 2 2 2 2 3 2 2 3 2 2 2 2 3 2 2 2 2 2 2 3 2 3 2 2 2 2 2 2 2 2 2 2 2 2 2 2 2 2 2 2 2 2 2 2 2 2 2 2 2 2 2 2 2 2 2 2 2 2 2 2 2 2 2 2 3 2 2 2 2 2 2 $ X # # # 2 2 3 2 2 2 2 2 2 2 2 2 2 2 3 2 2 2 2 2 2 7 3 2 2 2 2 3 2 2 2 2 2 2 2 2 % ) +X-X-X-X+X..2 X & # # # X X # X # # # X # X # # # X & & # . # . # & B U ] ' ] U Z 2 2 2 2 3 2 2 3 2 2 9 2 2 2 2 2 2 2 2 2 2 2 2 2 2 3 2 2 2 2 2 2 2 2 2 2 2 ",
"2 2 2 2 2 2 2 2 2 2 2 2 2 2 2 2 2 2 2 2 2 2 2 2 2 2 2 2 2 + k z z z z z l l l l l k k l k l l l z z z z z l u 4 2 2 2 2 2 2 2 2 2 2 2 2 2 2 2 2 2 2 2 2 2 2 2 2 2 2 2 2 2 2 2 2 2 2 2 2 2 2 2 2 2 2 2 2 2 2 2 2 7 9 L G.9X9X0X9X9X9X0X0X0XH.H.H.<XH.H.0X0X9X9X9X9X9X0XF.L 0 7 2 2 2 2 2 2 2 2 2 2 2 2 2 2 2 2 2 2 2 2 2 2 2 2 2 7 2 2 3 2 2 2 2 2 2 3 2 2 2 2 2 2 2 2 2 2 2 7 6 m h.k.k.k.k.h.j.j.j.j.j.j.v j.j.j.j.h.k.h.h.k.k.v c 4 3 2 3 2 2 7 2 2 2 2 2 2 2 3 2 3 2 2 2 2 2 2 2 2 2 2 2 2 2 2 # # # # # # # & $ # # # * $ # # # # * $ # # * # $ # $ * * # * # $ $ # # * # * $ $ * * 7 e D e D 0 D D 0 e 0 0 0 0 e 0 e D D e D 0 D D 0 7 $ $ $ # # $ # # * # * # # # # * # * * # * # * $ * # * # * * # # * # * # * # * # # # # # 2 2 2 2 2 2 2 2 2 2 2 2 2 2 2 3 2 3 2 2 3 7 3 2 2 2 2 2 2 2 2 2 2 2 2 2 8 w I ] ] ] ' ] ' ' U ` U U [ U U ` ` ' ' ' ' ' ' ` Q w 7 2 2 2 2 2 2 2 2 2 2 3 2 2 3 2 3 2 2 3 3 2 2 2 2 2 2 2 2 2 2 2 2 2 2 2 2 2 2 2 2 2 2 2 2 2 2 2 2 2 2 2 2 2 2 2 3 2 2 2 2 7 2 2 2 2 4 t -.-X-X-XA. . .[ ` ` U U U U U U [ ` ' ' ' ' ' ' I Z 9 2 2 3 2 2 2 2 2 2 2 2 2 2 4 2 2 2 2 2 2 2 2 2 2 2 2 2 2 2 2 2 2 2 2 2 2 3 3 7 2 2 3 2 2 2 2 2 2 2 2 2 2 2 2 7 2 2 2 2 2 2 2 2 2 2 2 q Y ' ' ' ' ] ] ' ` ` U ] A.+X+X+X&X&X:X;X-X-X-X-X+X..e 8 2 2 2 2 2 2 2 3 2 2 2 2 2 2 2 2 2 2 2 2 2 2 2 2 2 2 7 2 2 2 2 2 2 2 2 2 2 2 # # # # # # # # $ # * # * # * # * $ # * # # * # # * # $ 7 0 D D 0 D D e D 0 0 D e 0 0 9 0 D 0 D 0 D t D e 7 * $ $ $ $ # # * # # * # # # # * # * # * * * # * & # X # # X & 2 3 2 2 2 2 2 2 2 2 2 2 7 2 2 2 2 2 2 2 2 2 2 2 2 2 2 2 2 2 2 2 2 2 2 2 2 2 2 2 2 3 2 2 2 2 2 2 2 2 2 2 2 2 2 2 2 2 2 2 2 2 2 2 3 2 2 2 2 2 7 2 2 2 2 2 2 2 2 2 2 2 2 2 2 2 2 2 2 7 2 2 2 2 2 2 2 2 2 2 2 2 2 2 2 3 2 2 2 7 2 2 2 2 2 3 2 2 2 2 3 2 2 2 2 2 2 2 3 2 2 2 2 2 2 2 2 2 3 2 2 2 2 2 2 2 2 2 2 2 2 2 2 2 2 2 2 2 2 2 2 2 2 2 2 2 2 2 2 3 2 2 2 2 2 2 2 3 2 2 2 2 2 2 2 2 2 2 2 2 2 2 2 2 2 2 2 2 2 2 2 2 2 2 2 2 2 2 3 2 2 2 2 2 2 2 2 2 2 2 2 2 3 2 2 2 3 2 2 2 2 2 2 3 2 2 2 2 2 2 2 2 2 2 2 2 2 # # # X X 2 2 2 2 2 2 2 2 2 2 2 2 2 2 2 2 2 2 2 2 2 2 2 2 3 2 2 2 2 2 2 2 2 2 2 2 2 e -.:X-X-X-XOX~ & X X # # # # # # # X X X # # # X # # X . & # # . & , I ] ' ' ' Y q 2 2 3 2 2 2 2 2 2 2 2 7 2 2 2 2 2 2 2 2 2 2 2 2 2 2 2 2 2 2 2 2 2 2 2 2 9 ",
"2 2 2 2 2 2 2 2 2 2 2 2 2 2 2 2 2 2 2 2 2 2 2 2 2 2 2 4 + l z z z z z z l k + @ O O O O O @ + k l z z z l z l k 6 2 2 2 2 2 2 2 2 2 2 2 2 2 2 2 2 2 2 2 2 2 2 2 2 2 2 2 2 2 2 2 2 2 2 2 2 2 9 2 2 3 2 2 7 2 7 7 7 X.G.0X9X9X9X9X9X0XG.V.X.V C C C V L { G.H.9X9X9X9X9X9XH.~ 9 2 2 2 2 2 2 2 7 2 2 2 2 2 2 2 2 2 2 2 2 2 2 2 2 2 2 2 2 2 2 2 2 2 3 2 2 2 3 2 2 2 2 2 3 2 2 2 j b h.h.h.h.k.h.h.j.b a @ 5 O @ @ 6 a b j.h.h.h.k.h.h.j.m 6 2 2 2 2 2 2 2 3 2 2 2 2 2 2 2 2 2 2 3 2 2 2 2 3 2 7 3 2 7 *   # # # # * # # * * # * # * # * # $ # $ # # * # * # # $ # # * # * * # # $ * $ $ $ 7 e t D D 0 D 0 0 9 7 $ # # # # # $ 7 0 e D D D D D 0 9 2 # * * # $ # # * # * # * # # # * * # * # # * # # # # # # $ # # * # # # $ # #   # # % 2 2 2 2 2 3 2 2 9 2 2 2 2 2 2 2 2 2 2 2 2 2 2 2 2 2 3 2 2 2 2 2 2 2 3 2 A I ` ] ] ` ] ' [ I P , < = = = : : B I ` ' ' ' '  .' U Z 7 3 2 2 2 2 2 2 2 2 2 2 2 2 2 2 2 2 2 3 2 2 2 2 2 2 2 2 2 2 2 2 2 2 2 2 2 2 2 3 2 2 2 2 2 2 2 2 2 2 2 2 2 2 2 2 2 2 2 2 2 2 2 2 9 ~ A.:X-X-X;XOX=.` I P B : = = = = : , P U ` ' ' ' ' ' ` S 8 2 3 2 2 2 2 2 2 2 2 2 2 2 2 2 2 2 2 2 2 2 2 2 2 2 7 9 2 2 2 2 3 2 2 2 2 2 2 3 2 2 2 3 2 2 2 2 2 2 2 2 2 2 2 2 2 2 2 3 2 2 2 2 2 w W ` ' ' ' ' ] ] U I B < : , , , Z ! *.+X:X-X-X-X-X-X&X-.T 2 3 3 3 2 2 2 2 2 2 2 2 2 2 2 2 2 2 7 2 2 2 2 2 3 2 2 2 2 2 2 3 2 7 2 2 2 2 # # # # # # * # # $ # # $ # * # # # & # # $ # # * # $ 9 0 D D D D 0 e 0 9 2 $ # $ # # # $ 7 0 D D D t D t t 0 * # # # # * # * # # $ # * # # # $ * # # $ & # & # # X # # # 2 2 2 2 2 3 2 2 2 2 2 2 2 2 4 2 2 2 2 2 2 2 2 2 2 9 2 2 2 2 2 2 2 7 2 2 2 3 2 2 2 2 2 2 2 2 2 2 2 2 2 7 2 2 2 2 2 2 2 2 2 2 2 2 2 2 2 2 2 2 2 2 2 2 2 2 2 2 2 2 2 9 2 2 2 2 2 2 2 2 2 2 2 2 2 2 2 2 2 2 2 3 2 2 2 2 2 2 2 2 2 2 2 2 2 2 2 3 2 2 2 2 2 2 2 2 2 2 2 2 2 2 3 2 2 2 2 2 2 2 3 2 2 2 2 2 2 2 2 2 2 2 3 2 2 2 3 2 2 2 2 2 2 2 2 2 2 2 2 2 2 2 2 2 2 2 2 2 2 2 2 2 2 2 2 2 2 2 2 2 2 2 2 2 2 2 2 2 2 2 2 2 2 2 2 2 2 2 2 2 2 2 3 2 2 2 2 2 2 2 2 2 2 2 2 2 2 2 2 3 2 2 2 2 2 2 2 2 2 2 2 2 2 2 2 2 2 # # # X # 2 3 2 2 2 2 2 2 3 2 2 3 2 2 3 2 2 2 3 2 2 2 2 2 2 2 7 2 2 3 2 2 2 2 2 2 2 2 T D.-X-X-X-XD., & # # X # # X # X # # & # X X # # # X # . . & & , I ] ] ' ] | Z 3 2 2 2 2 3 2 3 2 3 2 2 2 2 2 2 2 2 2 2 2 2 2 2 2 2 2 2 2 2 2 4 2 2 2 2 2 2 ",
"2 2 2 2 2 2 3 2 2 2 2 2 2 2 2 3 2 2 2 2 2 2 2 2 2 2 9 u l z z z z z k u O O O o X % % o X O o O O u z z z z z l k 6 2 2 2 2 2 2 2 2 2 2 2 9 2 2 2 2 2 2 2 2 9 2 2 2 2 2 2 9 2 2 2 2 2 2 2 2 2 2 2 2 2 2 7 7 % C X.H.9X9X9X9X9X0XJ.L C q $ $   # X # $ > > V J.0X9X9X9X9X9XH.X.9 2 2 2 2 2 2 2 2 9 2 2 2 2 2 2 2 2 2 2 2 2 2 4 9 2 2 3 2 2 2 3 2 2 2 3 2 2 2 3 2 2 2 2 2 2 j v h.h.h.h.h.j.v a 5 O O - . & & # X 1 O @ a v h.k.h.h.k.j.m 6 7 2 2 2 3 2 2 2 2 2 2 2 2 2 2 2 2 2 2 2 2 2 2 2 2 2 2 2 * # # # # # # * # # # # # $ # $ # * # * # * # * # # # * # * # # $ # # $ * # # $ $ 9 D D D e D D 0 7 # # #           # # # # 2 9 D 0 D D D D 7 = # # $ # * # * $ # $ # * * $ # # $ # # # $ # * # * * $ # * # * # * * # #   # # X # 2 3 2 2 2 2 2 2 2 7 2 2 2 2 2 2 2 2 2 2 2 2 2 3 2 2 2 2 2 3 3 2 2 2 2 A ( ' ] ] ] ] ` P , = - & # & # # # # # = : N ` ' ' [ ' ' ( Z 3 2 2 2 2 2 2 3 2 2 2 2 2 3 2 2 2 2 2 2 3 7 2 2 2 2 2 2 2 2 3 2 2 2 2 2 2 2 2 2 2 2 2 2 2 2 2 3 2 2 2 2 2 2 2 2 2 2 2 2 2 4 9 ~ D.:X;X-X-X;X&X*., = = & & # & & # # = = : B U ' ] ' ' ' ( Y 8 3 2 2 2 3 2 2 2 2 2 2 2 2 2 9 2 2 2 2 2 2 2 2 2 2 2 7 2 2 2 2 2 2 2 2 2 2 2 2 3 2 2 2 3 2 3 2 2 2 2 2 3 2 2 3 2 2 2 2 2 3 2 w Q ` ] ' '  .` I B = - & & & # & & & * : w ) OX-X-X-X-X;X-X-.S 3 3 2 2 2 2 2 2 2 2 2 2 2 2 2 9 2 2 2 2 2 7 2 2 2 2 2 2 2 2 2 2 2 2 2 2 2 # # # # # * # $ * # # * # * # # * $ $ # * # $ & # * 7 D D 0 D D D 0 7 $ # #       #     # # # $ 7 D D t D t e 0 2 $ * # # $ # # * # $ # * * * # # # * # $ # * # # . # X & 2 2 3 2 2 7 2 2 2 2 2 2 2 3 3 2 2 2 2 2 2 2 2 2 2 2 2 2 2 2 2 2 2 2 2 2 2 2 2 2 2 2 2 2 2 3 2 7 2 2 2 2 2 2 2 2 2 2 2 2 2 2 2 2 2 2 2 2 3 2 2 2 2 2 2 2 2 9 7 2 2 2 2 2 2 3 2 2 2 2 2 2 2 2 2 2 7 2 2 2 2 2 2 2 2 2 2 2 2 2 2 3 2 2 2 2 2 2 2 2 3 3 2 3 3 2 3 2 2 2 2 3 3 3 2 2 3 2 2 2 3 2 2 3 2 2 2 2 2 3 2 2 2 3 2 2 3 2 2 2 3 2 2 2 2 2 2 3 2 2 2 2 3 2 2 2 2 2 3 2 3 8 2 2 2 2 3 2 3 3 2 3 2 2 2 3 2 2 2 3 3 3 2 2 3 2 3 2 2 2 3 2 2 2 2 2 2 2 2 2 2 2 2 2 3 2 2 3 2 2 2 3 2 2 2 2 3 2 3 2 2 2 2 2 3 2 3 # # X # # 2 2 2 2 2 3 7 2 2 2 2 2 2 2 2 7 2 2 2 2 2 2 2 2 2 2 2 2 2 2 2 3 2 2 2 2 2 2 0 ) :X-X-X-X:XOXQ * X X # # X # # X # X # # # X X # # & . # & , I [ ] ] ' U A 8 2 2 3 2 2 2 2 2 2 2 2 2 2 2 2 2 2 2 2 2 2 2 3 2 7 2 2 2 2 2 2 3 2 2 2 2 2 2 ",
"2 2 2 2 2 2 2 2 2 2 2 2 2 2 2 2 2 2 2 2 2 2 2 2 2 4 + l z z z l k u O O o # # # # X # X # # # # % O @ k l l z z l k 4 2 7 2 2 7 2 2 2 2 2 2 2 2 2 2 2 3 2 2 2 2 2 2 2 2 2 3 2 2 2 2 2 3 2 2 2 2 2 2 2 2 2 4 9 ~ G.9X9X9X9XH.G.L V $   o # # o # X # o # o # > ~ F.0X9X9X9X9XG.~ 9 7 7 2 2 2 2 2 2 2 2 2 2 2 2 2 2 2 2 2 2 2 2 2 2 2 2 2 2 2 2 2 2 2 2 2 2 2 7 2 2 3 7 4 6 v j.k.h.h.j.v a @ - # - # X # # X # # # # # O a b v k.h.h.k.j.m 4 3 3 2 2 2 2 2 2 2 2 2 2 2 2 2 7 3 2 2 2 2 2 2 2 2 2 2 1 # # # # # # # $ # # * * # # # # * * $ # $ # # * # # # * # # # # & $ * * # # $ 9 D D D D D 9 7 # #                           # $ 0 D D 0 D e 9 $ % $ # # $ # $ # # * # # $ # # * # * * $ # # $ # # * & # * # # * # * # # # # X 1 3 2 9 2 2 2 2 2 2 2 2 2 2 7 2 2 2 2 2 2 2 2 2 2 2 2 2 2 2 2 2 2 2 8 w U ' ' ] ' U I , = & X # # # # # . # X # . # = , P ` ] ' ] ' ( w 3 2 2 3 2 2 2 2 2 2 2 2 2 2 2 2 2 2 2 2 2 2 2 2 2 2 3 2 2 2 2 2 2 2 2 2 2 2 2 2 2 2 2 2 2 2 2 2 2 2 2 2 2 2 2 2 2 2 2 2 3 T D.:X;X;X-X+XD.| w # X . X   & # X # X X X # & < P U ] ' ' ] U Y 2 2 2 2 2 2 2 2 2 2 2 2 2 2 2 2 2 2 2 2 2 2 2 2 2 2 2 2 2 7 2 3 2 2 2 2 2 2 2 2 2 2 2 2 2 2 2 2 2 2 2 2 2 2 2 2 2 2 2 2 2 q Q ` ] ] ] ` I B : & # #   # # # X # # X X X = w &.OX;X-X-X;X+X..7 2 2 2 2 2 2 2 2 2 2 2 2 2 2 2 2 2 2 2 2 2 2 2 2 2 2 2 2 3 2 2 2 2 2 2 2 #   # # # # * # $ # * # # $ # $ # * & # * * $ $ * 9 e D e D D 9 7 # #                           # 2 9 D D t e D 9 * * $ * # $ # * # # # * # $ # # * # # * # & # # # # X * 2 2 2 2 2 3 2 2 2 2 2 2 2 3 2 2 2 2 2 2 2 2 2 2 2 2 2 2 2 2 2 3 2 2 2 2 2 2 2 2 2 2 2 2 3 2 2 2 2 2 7 2 2 2 2 2 2 2 2 2 2 3 2 2 2 2 2 2 2 2 2 2 2 2 2 2 2 2 2 2 2 2 2 2 2 2 2 2 2 2 2 2 2 2 2 2 2 2 2 2 2 2 2 2 2 2 2 3 2 2 2 2 1 1 1 1 2 1 1 1 1 2 1 1 1 1 2 1 1 2 1 1 1 1 1 1 2 1 1 1 1 1 2 2 1 2 1 1 2 1 1 1 1 2 1 1 1 2 1 1 1 1 2 1 2 1 1 2 1 1 1 1 2 1 1 2 2 2 1 1 1 1 1 2 1 1 1 1 1 1 1 2 1 1 1 1 2 1 2 1 1 1 1 1 1 2 1 1 2 1 1 2 1 1 1 1 1 2 * 1 1 1 1 2 1 1 1 1 $ 2 1 2 1 1 2 1 1 1 1 1 2 2 3 2 2 2 2 # X # X o 2 2 2 2 7 2 2 2 2 2 2 2 2 2 2 2 2 2 2 3 2 2 2 3 2 2 2 2 2 2 2 2 2 2 2 3 2 2 2 e *.:X;X;X;X-XOX..q X # X # # X # # # X X # # X # # X & * B U ' ] U ' ( Y q 2 2 2 2 2 2 2 2 2 3 2 2 2 2 2 2 2 2 7 2 2 2 2 7 3 2 2 2 2 2 2 3 3 2 2 2 2 2 2 ",
"2 2 2 2 2 2 2 2 2 2 2 2 2 2 2 2 2 2 2 2 2 2 2 2 2 + k z z z l k + O # # # # X # # # # X # X # # o o X @ u l z z z l u 4 7 2 2 2 2 2 2 2 2 3 3 2 2 2 2 2 2 2 2 2 2 2 2 2 2 2 2 3 2 2 2 2 2 2 2 2 2 2 2 2 2 2 L G.9X9X9X9X<XF.V # o $ # # # # # # X # # # # # o # V J.H.qX9X9X9XG.H 2 7 2 2 2 2 2 2 2 2 2 2 2 2 2 2 2 2 2 2 2 2 2 3 2 2 2 2 2 3 2 3 2 3 2 2 2 2 2 2 7 7 5 b j.k.k.h.h.v a 1 # X # X # X # # # # X   # # X # 1 a v h.h.h.k.v m 3 7 2 2 2 2 7 2 2 3 2 3 2 2 2 2 2 2 2 2 2 2 2 2 2 2 2 1 # # # # # # * # * * # $ # * * $ # # # * # * $ # # * & $ # * * * # # # # $ * 7 D D 0 0 D 9 7 #                                 # $ 9 D D D e C 7 * $ * # * # # * # # # * # * $ # $ # # # * * # * $ # $ # # $ # # $ # $ # . # X # 2 3 2 2 2 2 2 2 2 2 2 2 2 2 2 2 2 2 2 2 2 2 3 2 2 3 2 3 2 2 2 2 2 w I ' ' ' ] U P < & X # X # #   # # # # . # # X # X : P U ] ' ] ] I w 2 2 2 2 2 2 2 3 3 2 2 3 2 3 2 3 3 2 2 2 2 2 2 2 7 2 2 2 9 2 2 2 2 2 3 2 2 9 2 2 2 2 2 2 9 2 2 2 2 2 2 3 2 2 2 2 2 2 2 e -.:X;X-X;X&XA.W = o # * 0 $ # . # X # # # # # # . = B U ] ' ] ] I Z 2 2 2 2 2 2 2 2 2 2 2 2 2 2 2 2 2 2 2 2 2 2 2 2 2 2 2 2 2 2 2 2 2 2 3 2 2 3 3 2 2 2 2 2 3 7 2 2 2 2 2 3 3 2 2 2 2 2 2 8 P ( ] ] [ ` I B *   # # # #   # X # # X # # X X X 3 ) D.-X:X&XZ. .A 7 2 3 2 2 2 2 2 2 2 2 2 2 2 2 2 2 2 2 2 2 2 2 2 2 2 2 2 2 2 2 2 2 2 2 2 # #   # # # # # # * # # * # * # # # & # # # $ $ 7 0 D D 0 D 9 2 # #                                 $ 9 t t D D e 9 # # # $ * # * # * $ # $ # * # # $ & * # & # # # # # $ 2 2 2 3 2 2 2 2 2 2 2 2 3 2 2 2 2 2 2 2 2 2 2 2 2 2 2 2 2 2 2 2 2 2 2 3 2 2 2 2 2 2 2 2 2 2 2 2 2 2 2 2 2 2 2 2 9 2 2 2 2 2 2 2 2 2 2 2 2 2 2 2 2 2 2 2 2 2 2 2 2 2 2 2 2 2 2 2 2 2 2 2 2 2 2 2 2 2 2 2 2 2 2 2 2 3 2 2 2 2 2 1 % 1 % # & 1 1 & & 1 # & & # % 1 # & 1 & & 1 1 # & 1 1 & & & % X & X 1 # & 1 1 & & 1 # & & & % & & 1 # # & 1 1 # # 1 1 % $ 1 # 1 X # 1 1 % % 1 & % & & 1 1 1 1 # 1 1 1 % $ # & 1 % 1 1 1 # # % & % & & # 1 1 1 1 & # O & % & & # 1 & & $ O # % & % & $ # 1 1 % 1 2 2 2 2 2 2 2 % # # # # 2 2 2 2 2 2 3 2 2 2 2 2 2 2 2 2 2 2 2 2 2 2 2 2 2 3 2 2 2 2 2 2 2 2 2 2 2 2 2 7 e -.&X;X-X-X-X&X) * & X # X # # X # # # # X & # X & = , U ' ] ' &.U Q q 2 2 7 2 2 2 2 3 2 2 2 2 2 2 2 2 2 2 2 2 2 2 2 2 2 2 2 2 2 2 2 2 2 3 2 2 2 2 2 2 ",
"2 2 2 2 2 2 2 2 2 2 2 2 2 2 2 2 2 2 2 2 2 2 2 4 6 k z z z z k + O o % # X X # # X X # % # # X X % % X % O u l z z z l + 2 7 2 2 2 3 2 2 2 2 2 2 2 2 2 2 2 2 2 2 2 2 2 2 2 2 2 2 2 2 2 2 2 2 2 2 2 2 9 2 2 C J.qX9X9X9XH.J.L $ $ # # #   o # # # $ # # # # # # o X > J.<X9X9X9XqXJ.D 2 2 2 2 2 2 2 2 2 2 2 2 2 2 9 2 2 2 2 2 2 2 2 2 2 2 2 2 3 2 2 2 2 2 2 2 2 2 2 7 8 j j.k.h.h.j.b a 1 # X # X # X # # # . # # # # # # X # O a v h.k.k.k.v 6 9 2 2 3 2 2 2 2 2 2 2 2 2 3 2 2 2 2 3 2 2 3 2 2 2 2 $ # # # # # # # $ $ # # * # * # # * $ * # # # # * $ # * # # $ # $ # * # $ $ = 0 D 0 D D 7 $ #                                       # 9 D D D D e 2 $ # * * # * # # $ # * # * # * $ # # * $ # $ # # * # * $ # * # * # # # # # % % 2 2 2 2 2 2 2 2 2 2 2 2 2 2 2 2 2 2 2 7 2 2 2 2 2 2 2 2 2 3 2 2 8 T  .' ' ' I P < # X X & # # # # # . # . # . # . X # # & B ` ] ] ' %.Q 8 2 2 2 2 3 2 2 2 2 2 3 2 2 2 3 2 2 2 2 2 2 3 2 2 2 2 2 2 2 2 2 2 2 2 2 2 2 2 2 2 2 2 2 2 2 2 2 2 2 2 2 2 9 2 2 2 2 q | -X;X-X-X+XV.T * X 2 D 5.u.D & # # # # # X X X X # # & , U ' ] ] ] ! q 3 2 2 2 2 2 2 2 2 2 2 2 2 2 2 9 2 2 2 2 2 2 2 2 2 2 2 2 2 3 2 2 3 3 2 2 3 2 2 3 2 2 2 2 2 2 2 2 2 2 2 2 2 2 2 2 2 2 w U ] ' ' [ I , * # # # . # # # # X # # # # X X & X X & Y D.OXA.*. .U w 7 2 2 2 2 9 2 2 2 2 2 2 2 2 2 2 2 2 2 2 2 2 2 2 2 2 2 2 2 2 2 2 2 2 2 # # # # # # # * # * $ # # * # # * # # & $ $ $ = 0 D 0 D D 9 * #                                       # 9 t D e D e > $ * # # $ # $ # # * # * # # $ * # # # $ # X # # X & 3 2 2 2 2 2 2 2 2 2 2 2 2 2 2 2 2 9 2 2 2 2 2 2 2 2 2 2 2 2 2 3 2 2 2 2 2 2 2 2 2 3 2 2 2 2 2 2 2 2 2 2 2 2 2 2 2 2 2 2 2 2 2 2 2 2 2 2 2 2 2 2 2 2 2 2 2 2 2 2 2 2 2 2 2 2 2 2 2 2 7 2 2 2 2 2 7 9 2 2 2 2 2 3 2 2 2 2 2 2 1 % 1 % & & & 1 & & & 1 & & & 1 & & & & O $ # % & & & $ 1 1 & & & & & 1 1 1 & % & & & 1 1 % & 1 1 # % 1 & & & 1 % 1 1 & & & & & & & & 1 % # 1 1 & & & % & 1 1 1 1 X 1 & & & & & & & $ 1 $ $ # # & & & 1 % 1 # 1 $ & & & & & & & & & & 1 & # 1 & & & & & & & & 1 % 1 2 3 2 2 2 2 2 % X X # % 2 2 2 2 2 2 2 2 2 7 2 2 3 2 2 3 2 2 2 2 3 2 2 2 2 2 2 2 2 3 2 2 2 3 2 2 2 2 2 3 3 w -.&X-X-X-X-X&.q & & & & # X # X # # X # & & & 1 3 Y ' ' ' ' U I w 2 2 2 2 3 2 2 2 2 2 2 2 2 2 2 7 2 2 2 2 2 2 2 2 2 2 2 2 2 2 2 2 2 2 2 2 2 2 2 2 2 ",
"2 2 2 2 2 2 3 2 2 2 2 2 2 3 2 2 2 2 2 2 2 2 3 9 u k z z z k @ % o o o % # # # X # # # X X # # # % X # X o O k l z z z k + 7 2 2 2 2 2 2 2 2 2 2 2 2 2 2 2 2 2 3 2 2 2 2 2 2 2 2 2 2 2 2 2 2 3 2 2 2 2 2 2 / G.qX9X9XH.J.C X # o # # # # # # o # o # # o #   # # X X q X.0XqX9X9X0XX.9 2 2 2 2 2 2 2 2 2 2 2 2 2 2 2 2 2 2 2 7 2 2 2 2 2 2 3 2 2 2 3 2 2 2 2 2 2 2 2 6 v h.k.k.j.b @ # X # # # X # # # X # #   #   # X # # # X - a j.h.k.k.h.b 4 2 2 2 2 2 2 3 2 2 2 2 2 2 2 2 2 2 2 2 2 2 2 2 2 2 $ # X # # # # * # # * # # $ # * # # # * # * # $ # # * # # * # * # $ # * # $ 9 0 D D D 0 $                                           # # 9 e D D D 0 1 $ # # # * $ * # $ # $ # # * # * # # # * # * # # # * # * # $ & # # # . # o % 2 2 2 2 2 2 2 2 2 2 2 2 2 2 2 7 2 2 2 2 2 2 2 2 3 2 2 3 2 2 3 2 C ! ' ' ' ` P * X & # # X #   #   # # # # # # # # # # X # * N ` ' ' ] U Y 2 2 3 2 2 2 2 2 2 2 2 2 2 2 2 2 2 2 2 2 3 2 2 2 2 2 3 2 2 2 2 2 2 2 2 2 2 2 2 2 2 3 2 2 2 2 2 2 2 2 2 2 2 2 2 2 4 T A.:X-X-X&X-.e 1 # X G E.aXhXR.w   X # X # # # # # # X # & , [ ' ] ] U Q 3 2 2 9 2 2 2 2 2 2 2 2 2 2 2 2 2 2 2 2 2 2 2 2 2 2 2 2 2 2 2 2 2 2 2 2 2 2 2 2 2 2 2 2 2 2 3 2 2 2 2 2 2 2 2 2 2 r Q ' ' ' ' I : &   # # # #   #   # # # X X # # & X * & X & N |  .' ' ' Q 9 2 2 3 2 2 2 2 2 2 2 2 2 2 2 2 2 2 2 2 7 2 2 2 2 7 2 2 2 2 2 2 2 2 2 # #   # # # # * $ # # * $ # * * # $ & $ # $ $ 8 0 D D D 0 $ #                                         # # 9 D e D D e * # # * # * # * # # # * $ * # # $ # * $ # # # X # & 7 2 2 2 2 2 2 2 2 3 2 2 2 2 2 2 3 2 2 2 2 2 2 2 2 2 2 2 2 2 2 2 2 2 2 2 2 2 2 3 2 2 2 2 2 2 2 2 2 2 2 2 2 2 2 2 2 2 2 2 2 2 2 2 3 3 2 2 2 2 2 7 2 2 2 2 7 2 2 2 2 2 2 2 2 2 2 2 3 2 2 2 2 2 2 2 2 2 2 2 2 2 2 2 2 2 2 2 2 2 2 % % & 1 & & % & & & % & & & 1 % & & & & # $ 1 & & & 1 # % & & & & & 1 1 % & 1 & & & # 1 & & # 1 1 1 % & & & % 1 # 1 & & & & & & & & & & 1 1 # & & & 1 1 # # 1 % 1 & & & & & & & & 1 $ 1 O 1 1 & & & 1 # 1 1 $ 1 & & & & & & & & & & & & 1 & & & & & & & & 1 & & 1 2 2 2 2 2 2 2 $ # X # % 2 2 2 2 2 2 2 2 2 2 3 2 2 2 2 2 2 2 2 2 2 2 7 2 2 2 3 2 2 2 2 2 2 2 2 3 2 2 2 3 2 3 r -.&X:X-X-.S 2 2 2 2 * & & # # & # & & & * 2 3 1 r Q U ' U Y q 2 2 2 2 2 2 2 2 2 2 2 2 3 2 2 2 2 2 2 2 2 2 2 2 2 2 2 2 2 2 2 3 2 2 2 2 2 2 3 2 2 2 ",
"2 2 2 2 2 2 2 2 2 2 2 2 2 2 2 2 2 2 2 2 2 2 2 4 k z l z l + O # X # # # # # # X X # # # # # X # # # # X X O O k z z z z u 4 2 2 2 3 2 2 2 2 2 2 2 2 2 2 2 2 2 2 2 2 2 2 2 2 2 2 2 2 2 2 2 2 2 2 2 2 7 7 C J.9X9X9X9XF.A X # # # # # # X # X X # X # # # # # # X % X # V J.9X9X9XqXG.D 7 7 7 2 2 2 2 2 2 2 7 2 2 2 2 2 2 3 2 2 3 2 2 2 2 2 2 2 2 2 2 2 2 2 2 2 2 2 9 c j.h.h.h.v a # # . # # # # X X # # # X # # # X # # X X # # 1 c j.k.k.k.j.j 2 2 2 2 2 2 2 2 7 2 2 2 2 2 2 2 2 2 2 7 2 3 2 2 2 1 % # # # # $ # & * # $ # $ & $ # * # * # $ # * * # $ $ # * * # # $ # * $ = 0 0 D D 0 7 #                                             # $ 9 D D 0 D 7 # # $ # * # & # * # * # * # # $ # * $ # * * # $ * # # $ # * $ * # # # # # # 2 2 2 2 2 2 2 2 2 2 2 2 2 3 2 2 3 2 2 2 2 2 2 2 2 2 2 3 2 2 3 8 Y [ ' ] ' P : # # X # X X # # # # X X # # # # X X # # # # X = P ` ] ' ] I r 3 2 2 2 2 2 2 2 2 2 2 2 2 2 2 2 2 2 2 2 2 2 2 2 2 2 3 3 2 2 2 2 2 2 2 2 2 2 2 9 2 2 2 2 2 2 2 2 2 2 2 2 2 2 3 8 | -X-X-X-XD.Y $ . # . F !.jXjXaX,.  # # # # # X # X X # # . * N U ] ] ] U w 8 3 3 2 2 2 2 3 2 2 2 2 2 2 2 2 2 3 2 2 2 2 2 2 2 2 2 2 2 2 2 2 2 2 3 2 2 2 2 2 2 2 2 2 2 7 2 2 2 2 2 2 2 2 2 3 w | ' ] ] U B # X # # # X # X # # X # # & X # # # # ^ S X # % B U | ] ] ` Z 3 2 2 2 2 2 2 2 2 2 2 2 2 2 4 3 2 2 2 2 2 3 2 2 2 2 2 2 2 7 2 2 2 2 # X # # # # & # & & # * # * # # # * # # $ # 2 0 D t D 0 7 #                                               > 9 H e D t 7 * $ # $ $ # * * # $ # $ # $ # * * # # # # # # X & 2 2 2 2 2 3 2 2 2 2 2 2 2 2 2 2 2 2 2 2 2 2 2 2 2 2 2 2 2 2 2 2 2 2 2 3 2 2 2 2 2 2 2 2 2 2 2 2 2 2 2 2 2 2 2 2 2 2 2 2 3 2 2 2 2 2 2 2 2 2 2 2 2 2 2 2 2 2 2 2 2 2 2 2 2 2 2 2 2 2 2 2 2 2 2 2 2 2 2 3 2 2 2 2 2 2 2 2 2 3 1 & $ & & & & 1 1 1 # 1 & 1 # # $ 1 # & 1 # $ 1 & & 1 1 # # 1 & & & 1 1 # # 1 1 1 & & 1 1 & & & 1 # $ & & & 1 & & & & & & & & & & & & & # & & & O $ & & & & & & & & & & & & & & & & 1 # 1 # 1 & & 1 # 1 # 1 & & & & & # - % 1 & # 1 1 1 % & & & & & # & & & # & & & 2 3 2 2 2 2 2 $ # # X # 2 2 2 2 2 2 2 2 2 2 2 2 3 2 2 2 2 2 2 2 2 3 2 2 2 2 2 2 2 7 2 2 2 2 2 2 2 2 2 2 2 2 9 e ) D.+X) 8 2 2 2 2 2 2 2 2 2 2 2 2 2 2 2 2 2 2 2 w ' | A 8 2 2 2 2 2 2 2 3 2 2 2 3 2 2 2 3 2 2 2 2 2 2 3 2 2 2 2 2 2 2 7 2 2 2 2 2 2 7 2 2 2 2 2 ",
"2 2 2 2 2 2 2 2 2 2 2 2 2 2 2 2 2 2 2 2 2 2 2 u l z z l k O # # # # X X X X # # & # X X X X & # # o # # # % o @ l z z z k 6 2 2 2 2 2 2 2 2 2 2 2 2 2 2 2 2 2 2 2 2 2 2 2 2 2 2 2 2 2 2 2 2 2 2 2 7 7 7 X.H.qX9X9X0X~ $ X # X X X X # # # # # # # # X X X X # # $ $ # $ V G.9X9XqXH.X.7 7 7 2 2 2 2 2 2 2 2 2 2 2 2 2 7 2 2 2 2 2 2 2 2 2 2 2 2 2 2 2 2 2 2 2 2 2 j v h.h.h.j.b O # # # . # X # # # # X # X # X # # X # # # # X - O b h.h.k.h.m 5 2 2 2 2 2 2 2 2 2 2 2 7 2 2 2 2 2 2 2 2 2 2 3 3 1 # # X # # & # & # # # * * # # * # $ * # # * # # * # # * # $ # * # * # * 9 C D D D 7 #                                                 # 7 D D D D 9 = $ $ & # $ $ # # $ # $ # # * # $ # # * # # # * # $ * # $ # # * # # # # # # 2 2 2 2 2 2 2 2 2 2 3 2 2 2 2 2 2 2 2 2 2 2 2 2 2 2 2 2 3 2 3 A ( ] ' ' ` , # X # # # # # # X X # # # # X X # # # # X X # # & < I ' ] ] ( Y 7 2 2 2 2 2 2 3 9 2 2 2 2 2 2 2 2 2 2 7 2 2 2 2 2 2 3 4 2 2 2 2 2 2 2 2 2 2 2 2 7 2 2 2 2 2 2 2 2 3 2 2 2 3 2 ) D.-X-X-X:X .* X # # # $ 6.jXjXjXP.0 X X X X # # # # # # # # & = I | ] ] ' Y 8 3 2 3 2 3 2 2 2 2 2 2 2 2 3 4 2 2 2 2 2 2 2 2 2 2 2 2 2 2 2 2 2 2 2 2 2 2 2 2 2 2 2 2 2 2 2 2 2 2 2 2 2 2 2 e ! | ' ] ' P & # # # X # X # # # X & # X X # X & 0 1.].].1.X # * P ` ] ] ' W q 2 3 2 2 2 2 2 2 3 2 2 2 2 3 3 2 2 2 2 2 2 2 2 2 2 2 2 2 2 2 2 2 2 # # # X # # & $ & # $ # $ # # * # * # * $ * 7 t D D D 9 #                                                 $ 7 0 D e t 0 2 # $ # # * # # * # * # * # # # $ # * # # # # X & 2 2 2 2 2 2 2 2 2 2 2 2 2 2 2 2 2 2 2 2 2 2 2 2 2 2 2 2 2 2 2 2 2 2 2 2 2 3 2 2 2 2 2 2 2 2 2 2 2 2 2 3 2 2 2 3 2 2 2 2 2 2 2 2 2 2 2 2 2 2 2 9 2 2 2 2 2 2 2 2 2 2 2 2 2 2 2 2 2 2 2 2 2 2 2 2 2 2 2 2 2 2 2 2 2 2 2 2 2 2 2 & # & & & $ % # 1 1 # & & $ $ O 1 & & # $ O # & & # 1 1 1 & 1 & & # 1 1 1 & # # 1 & O # & & & # $ O & & & # & & $ # & & & & & & & & 1 1 & & & & & & & & & & & & & # & & & & & % & & # 1 $ # & & 1 1 1 1 1 % & & & & & 1 1 X 1 & 1 # 1 # & 1 & & 1 1 & & & & & # # 4 2 2 3 2 2 2 & X # # X 2 2 2 2 2 3 2 2 2 2 2 2 2 2 2 2 2 2 2 2 2 2 2 2 2 2 2 2 3 2 2 2 2 2 2 2 2 2 2 2 2 2 2 2 8 T ..e 2 2 2 2 2 2 2 2 2 2 2 2 2 2 2 2 2 3 2 2 7 A w 8 2 2 2 2 2 3 2 2 2 2 2 2 2 2 2 2 2 2 2 2 2 2 2 3 3 2 2 3 2 2 2 3 2 2 2 2 2 2 2 2 2 2 2 2 ",
"2 2 2 2 2 2 2 2 2 2 2 2 2 2 2 2 2 2 2 2 2 2 4 l z z l l @ o # X # X # # # # X # X # # # # # # X X # X # X # # O u z z z l + 4 2 2 2 2 2 2 2 2 2 3 2 2 2 2 2 2 2 2 2 2 2 2 2 2 2 2 3 2 2 2 2 2 2 2 2 7 q G.0X9X9X0XJ.> X # # # # # # X # X # # X # X # # # # X # o $ # o 7 J.0X9X9X0XG.S 7 2 7 2 2 2 7 2 2 2 2 2 2 2 2 2 2 2 2 2 2 2 2 2 2 2 2 2 2 2 9 2 2 2 2 2 2 m h.h.k.k.b + # X # X # X # # # # # X # # X # X X # # # # # X & X a j.k.h.h.j.j 2 2 2 2 2 2 2 2 2 2 2 2 2 2 2 2 3 2 2 2 2 2 2 7 % # # X # # # & * # * * # # # # # # * # # # # # $ # $ # # # * # # # # # 7 D D 0 D 9 $                                                     # 9 D D D 0 7 # # $ * # * * & $ * # $ * # # # # * # # * # $ * # # # # # * # # # # # # # 2 2 2 2 2 2 3 2 2 2 2 2 2 2 3 2 2 2 2 2 2 3 3 2 2 2 2 3 2 2 8 I ' ' ] ` P = X # X # X # # X # # X # # X # # X & # X & X & X X * P U ] ' ' I q 2 2 2 2 2 2 2 2 2 2 2 2 2 2 2 2 2 2 2 2 2 7 2 2 2 2 2 2 2 2 2 2 2 2 2 2 2 2 2 2 2 2 2 2 2 2 3 2 2 2 2 2 2 3 ..:X-X-X-X-.Z X # # # #   F 8XjXjXiX4.  # # # X # X # # X . # X & , U ] ' ' I w 2 2 3 2 2 3 2 2 2 2 2 2 2 3 2 2 2 2 2 2 2 2 7 2 2 2 2 7 2 2 2 2 7 2 2 2 2 7 2 2 2 2 2 2 2 2 2 2 2 2 2 2 2 2 Z ' ' [  .I < # # X X # X # # # X # X # # X X # 9 2.8XjXjX!.D # # < I ] ' ' U w 2 3 2 2 3 2 2 2 3 2 2 2 2 2 2 2 2 3 2 3 2 2 2 2 2 2 7 2 2 2 2 2 2 % X # X # $ * # & # # * $ # $ # # $ # $ $ = 0 D D D 0 $ #                                                   $ 9 D e t t 7 $ # # * # & $ # $ * # # # * # * * $ # # # X # & 2 2 2 2 2 2 2 2 2 2 2 2 3 2 2 2 2 2 3 2 2 2 2 2 2 2 2 2 2 2 2 2 2 2 2 2 3 2 2 2 2 2 2 3 2 2 2 2 2 2 2 2 2 3 2 2 2 3 2 2 2 2 2 2 2 2 2 2 2 2 2 2 2 2 2 2 2 2 2 2 2 2 2 2 2 9 2 2 2 2 2 2 2 3 2 2 2 2 2 2 2 2 2 2 2 2 3 2 3 3 2 O $ & & $ # & & & & 1 1 $ # # 1 & & & & & & 1 1 # $ % # % & # 1 # $ % # % & 1 1 & & $ # 1 % & & 1 1 & & # $ & # 1 $ 1 1 # 1 & & # & # 1 & & & & & & & & 1 1 # # 1 $ # % X 1 1 1 # $ 1 # 1 $ & & X % 1 # X O X & & & & & 1 1 % & 1 1 1 $ # & & & % X & & & & & 1 1 2 2 2 2 2 2 2 & X X X # 2 3 2 2 2 2 2 2 2 3 2 2 2 2 2 2 3 3 2 2 2 2 2 2 3 2 2 2 2 2 2 2 2 2 2 2 7 2 2 2 2 2 2 2 2 3 e 7 2 2 2 2 2 2 2 3 2 2 2 2 2 2 2 2 2 2 2 2 3 2 2 2 2 2 2 2 2 2 2 2 2 3 2 2 2 2 2 2 2 2 2 2 2 2 2 2 4 2 2 2 2 2 2 3 2 2 2 2 2 2 2 2 2 2 2 2 ",
"2 2 2 2 2 2 2 2 2 2 2 2 2 2 2 2 2 2 2 2 2 2 6 l z z l k O o # X # # X # # X # # X # X # # X # X X # # # X # X X + z z z z u 4 2 2 2 2 2 2 2 2 2 2 2 2 2 2 2 2 2 2 2 2 2 2 2 2 2 2 2 2 2 2 2 2 2 2 2 7 D G.9X9X9X<XV # # X # X # # X # # X # # X # # X # # X # # $ o # o # V H.9X9X9XH.~ 7 2 2 2 2 2 2 2 2 2 2 2 2 2 2 2 2 2 3 2 2 2 2 9 2 2 2 2 2 2 2 2 2 2 2 2 4 b k.h.k.k.a & # X # # # # # X X X # # X # # # # # # X X X # # X # - b k.h.h.h.a 4 2 2 2 2 2 2 2 2 2 2 2 2 2 2 2 2 2 2 2 2 2 2 2 % # o # # # $ & # $ # # $ # * * # $ # $ * * # * # * # * # $ # $ * * # $ 7 0 D D D 8 #                                                     # $ D 0 D D 9 $ $ $ # $ # # # # * # # # * * * # # $ # # # * # # * * * # # $ #   # # X $ 2 2 2 2 2 2 2 2 2 2 2 3 2 2 2 2 2 2 2 2 2 2 2 2 2 2 2 2 2 2 q ! ] ' ] ` : # X # # # X # # X # X & X # # X & # X # X # # X # X & < I ' ' %.( w 3 2 2 3 2 2 2 2 2 2 2 2 2 2 2 2 2 2 2 2 2 2 2 2 2 2 2 2 2 2 2 2 2 2 2 2 2 2 2 2 2 2 2 2 2 2 2 2 2 2 2 2 3 t -.;X-X-X:X! * X # # X # # 7 6.gXkXjXT.= # # X # # X # # X # # # & = I ] ' ] ` Z 8 2 2 2 2 2 2 2 2 2 2 2 2 3 2 2 2 2 2 2 3 2 2 2 2 2 2 2 2 9 2 2 2 2 2 2 2 2 2 2 2 2 2 2 2 9 2 2 2 2 2 2 2 2 Y ' ' ] ] N & X # # # # # # X # X # # X # # # D e.6XjXkXhX!.D # X = P ' ' ' ] Y 8 2 2 2 2 2 2 2 2 2 2 2 2 2 2 2 2 2 2 2 2 2 2 2 2 2 2 2 2 2 2 3 3 # # X # # & # $ # * # * # * # * * # * # $ 2 t t t D 7 #                                                       7 e D t D 0 % * # # $ # # * # # # * * # $ # # # #   # # # & 2 3 2 2 2 2 2 2 2 2 2 1 1 2 2 2 2 2 2 2 2 2 9 2 2 2 2 2 2 2 9 2 2 2 2 2 2 2 2 2 2 2 2 3 ,.3.2 3 2 2 2 2 2 2 2 3 2 2 2 2 2 2 2 2 2 2 1 2 4 2 2 2 2 2 2 2 2 2 2 2 2 2 2 2 2 2 2 7 2 2 2 2 2 2 2 3 2 2 2 2 2 2 2 2 2 2 2 2 2 2 2 & & 1 # O 1 1 # % 1 1 # O 1 & & & & & & % 1 1 # $ O 1 1 1 1 # 1 $ O 1 1 1 1 & % & 1 # $ 1 1 & & # & & & $ O & & 1 O X 1 # 1 & & w , 1 1 & & & & & & # $ O # 1 1 O $ 3 , < 2 # 1 1 # 1 % 1 O & = w w B , w P w 3 & & & 1 % 1 1 1 # # O # % = < , < 4 & & & & 1 # 1 2 2 2 2 2 2 2 & # # # # 2 2 2 2 2 2 2 2 2 2 2 2 2 2 2 2 2 7 2 2 2 2 2 2 2 2 7 2 2 2 2 2 2 2 2 2 2 2 7 2 2 2 2 2 2 3 2 2 3 2 2 2 2 2 2 2 2 2 2 2 2 2 2 2 2 2 2 2 2 2 3 2 2 2 2 2 2 2 3 2 2 2 2 2 3 2 2 2 3 2 2 2 2 2 2 2 2 2 2 2 2 2 2 2 2 2 2 2 2 2 2 2 2 2 2 2 ",
"2 2 2 2 2 2 2 2 2 2 2 2 2 2 2 9 2 2 2 2 2 2 + z z z l u X # # # X # # X # # X X # # # X X # # # # # # X # o % # O k l l z k 6 2 2 2 2 3 2 2 2 2 2 2 2 2 2 2 2 2 2 2 2 3 2 2 2 2 2 2 2 2 2 2 2 2 2 2 7 L H.qX9X0XG.C     # X # # # # X # X # # # X X # # # # X X # # # # # $ G.<X9XqXH.X.9 2 2 2 2 2 2 2 2 2 2 2 2 2 3 2 3 2 2 2 2 2 2 2 2 2 2 2 2 2 2 2 2 2 2 2 6 b k.k.k.j.@ # # X # # # X X # # # # # X # # X X # # # # # # X # # . c j.h.h.h.b 5 7 7 2 2 2 7 2 2 2 2 2 7 2 3 2 2 3 2 2 2 2 2 7 1 # X # # # $ $ # # * # $ # * * # # $ * # * # # # # * # # # $ # * # $ % 9 D e D 0 $                               #                         $ 9 D D 0 9 7 $ # # # $ # * * # # # $ # $ # $ # # * # # * # # # $ $ # # * # # # # o % 2 2 2 2 2 2 2 2 3 2 2 2 3 2 2 3 2 2 2 2 3 2 2 3 2 2 2 3 3 7 w U ] ] ' I = . # # # X X # # # # X # # # # X X X # # X # X # # # # & P ' ] ] U A 8 2 2 3 2 2 2 2 2 2 2 2 2 2 2 2 2 2 7 2 2 2 2 2 2 2 2 2 2 2 2 2 2 2 2 2 2 2 2 2 2 2 2 2 2 2 2 2 3 2 2 3 2 F A.;X-X-X+XZ X # # # # X #   9 yXjXjXrX5.# X # # X # # # X X # # X & P ` ] ] ` Y 8 2 2 2 2 2 2 2 2 2 2 2 2 2 2 2 2 2 2 2 2 2 2 2 2 2 2 2 2 2 2 2 2 2 2 2 3 3 2 2 2 2 2 2 2 2 2 2 2 2 2 2 2 q Y ] ] ] U , X # # # X X # # X # # X # # # # D I.gXkXjXgX).^ # # # # , ` ' ' ' Q q 2 2 2 2 2 2 2 2 2 2 2 2 2 2 2 2 2 2 2 2 2 2 2 2 2 2 2 2 2 2 2 2 # X # # # # # $ & # # $ # # # * # * # # * 7 D D D 0 7                                                         $ 0 D t D 0 2 * # * # * # & # * # & # # # # * $ # # # # # # 2 2 2 2 3 2 2 3 e J 3.3.R e 8 2 2 2 2 2 2 2 2 2 2 2 2 2 2 2 2 2 2 2 2 2 2 2 2 2 2 2 3 7 wXQ.1 3 3 3 3 2 2 2 2 2 2 2 2 2 2 3 2 2 3 9 G 0 2 2 2 2 2 2 2 2 2 2 2 2 2 2 2 2 2 2 2 2 2 2 2 2 2 2 2 2 2 3 3 2 2 2 9 F t 3 3 2 2 2 1 $ & # 1 1 1 1 # $ # & & & 1 & & 1 # 1 # 1 1 1 & & 1 & 1 # # 1 & & 1 & 1 # # & 1 1 1 1 1 1 1 1 1 # 1 # 1 1 & & & & O 1 1 % # - A *.=.w & & % & # & & & & 1 & & & & = U =.( < 1 1 1 $ $ O & & & w ' =.=.=.=.=.*.Y % 1 & 1 1 O & & & 1 * = P | *.=.*.W & & O & & & $ 2 3 2 2 2 2 2 # X # X X 2 2 2 2 2 2 2 3 2 7 2 2 2 2 2 3 2 2 3 2 2 2 2 3 2 2 3 2 2 2 2 2 2 2 2 2 2 2 2 2 2 2 2 2 2 2 2 2 2 2 2 2 2 2 2 2 2 2 2 2 2 2 2 2 2 2 2 2 2 2 2 2 2 2 2 2 2 2 2 3 2 2 2 2 2 7 2 2 2 2 2 2 2 2 2 2 2 2 2 2 2 2 2 2 2 2 2 2 7 2 2 7 2 2 2 2 ",
"2 2 2 9 2 2 2 2 2 2 2 2 2 2 2 2 2 2 2 2 2 4 u z z z l @ # # X # # X # # X # # # # X # # # # X # # X # # % % # # O u l z x k + 2 2 2 2 2 2 2 2 2 2 2 3 2 2 2 2 2 2 2 2 2 2 9 2 2 2 2 2 2 2 2 2 2 2 2 0 X.H.9X9X0XJ.$ X # # X # X X # X # # # X # # # # X X # # # # # o # # $ J.H.9XqX0XJ.0 2 7 2 2 2 2 2 2 2 2 2 3 2 2 2 2 2 2 3 2 2 2 2 2 2 2 2 2 2 2 2 2 2 2 2 j v k.h.h.b O # # X # X # # # # # X X # X # # X # # X X # X # # # . # a v k.h.h.v 6 7 7 2 2 2 2 3 2 2 2 2 2 2 2 2 2 2 2 2 2 3 2 7 1 X # # X # $ # * # # * # # # # $ * # # $ # $ # * # * * $ * # $ # $ $ 2 9 D D D 9 $ #                                                       # 7 D D D 0 7 # $ * * # * # # # * * # * # * # * * * # $ # # * * # # * # # # # # # # # 2 2 3 2 2 2 3 2 2 2 3 2 2 2 2 2 2 2 2 2 2 2 2 2 2 2 2 3 3 7 Y I ] ] U P & # # X # # # # X # X & # X X # # # & X # # # X # X # X & P U ] ' ` Y 8 2 2 2 2 2 2 2 2 2 2 2 2 2 2 2 2 2 2 2 2 2 2 3 2 2 2 2 2 2 2 2 2 2 2 2 2 2 2 2 2 2 2 3 2 2 2 2 2 2 2 3 3 ) D.;X-X-X-.< X # X X # X # # * 5.aXjXhXT.& & X X & # X # # # # X # X , U ] ] ] I w 2 2 2 2 2 2 2 2 2 2 2 2 9 2 2 2 2 2 2 2 2 2 2 2 2 2 2 2 2 2 2 2 2 2 2 2 2 2 2 2 2 2 2 2 2 2 2 2 2 2 2 2 w I ] ] ' I < # X X # # X # # X # X # # # # 9 Y.gXjXjXgXT.F # # . # . , I ' ] ' I w 3 2 2 2 2 2 2 2 2 2 2 2 2 2 2 2 2 9 2 2 2 2 3 2 2 2 2 2 2 2 2 2 % # # # # * * # # * * # * # # # $ # * $ * 9 t t D 0 $                                                         $ 9 e t D 0 7 # $ # $ * # $ # # $ $ # * * # $ & # # # X # $ 2 2 2 2 2 2 2 8 8.6XsXsX6X1.8 2 3 2 2 2 2 2 2 2 2 2 2 2 2 2 2 2 2 2 2 3 3 2 2 2 2 3 3 9 wXQ.1 3 3 3 3 2 2 2 3 2 2 2 2 2 2 2 2 2 9 ,.6X,.2 2 2 2 2 2 2 2 2 2 2 2 2 2 2 2 2 2 2 2 2 2 2 2 2 2 2 2 2 3 3 2 2 2 3.p.a.3 3 2 2 2 2 & & 1 1 % # O $ & 1 & % & # & & 1 1 & & 1 # % & # & & & 1 1 1 % 1 # & & 1 1 1 X 1 1 # & X 1 # 1 % 1 1 1 % & & & & & 1 1 1 1 Q Z.>X*XP & & 1 & & # $ & & # & & & - W =X>X=.N X 1 % O # & & & & I .X>X*X*X=X=XXX( X # & # # $ & & & & q ( oX*X=X=XoX&.& & & & & & & 2 2 2 2 2 2 2 & # # # # 2 3 2 2 2 2 2 2 2 3 2 2 2 2 2 2 2 2 2 2 2 2 2 2 7 2 2 2 2 2 2 2 2 2 2 2 2 2 2 2 9 2 2 2 2 2 2 2 2 2 2 3 2 3 2 2 2 2 2 2 2 2 2 2 2 3 2 2 2 2 2 2 2 2 2 2 2 3 2 2 2 2 2 3 2 2 3 2 2 2 2 2 2 2 2 2 2 2 3 3 2 2 2 2 2 2 2 2 2 2 2 2 2 2 2 2 ",
"2 2 2 2 2 2 9 2 2 2 2 2 2 2 2 2 9 2 2 2 2 4 k l z z u O # X # $ # # # # # # # # X # X # # X # X X # X # o o o % o + l z z k u 2 9 2 2 2 2 2 9 2 2 2 2 2 2 2 2 2 2 2 2 2 2 2 3 2 2 2 3 2 2 2 2 2 7 7 0 F.0X9XqXH.L $ # # # # # # # X # # # X # X X # # # # # # # # o # # # $ L H.qX9X0XJ.C 2 2 2 2 2 2 2 2 2 2 2 2 2 2 2 2 2 2 2 2 2 2 2 2 2 2 2 2 2 2 2 2 2 2 2 m j.k.h.j.c - # # # X # X # # X # X # # # # # # # X X & # # X % # # # @ b k.h.h.v 6 7 7 2 2 2 2 2 2 2 2 2 2 2 2 2 2 2 3 2 2 2 2 7 2 # # # # # # * # * # # # * # * # # # # * * # $ # $ # # # $ # # * # # 7 0 0 D D 7 #                   #                                     # 7 0 D 0 0 7 # # # $ $ # # * # * * # * # # # # $ # * # * $ # $ # * # # # # # # # # # 2 2 2 2 2 2 2 2 3 2 2 2 2 2 2 2 2 2 2 2 2 2 2 2 2 3 2 2 2 7 Q ` ] ] U < & # X # X # # X # X # X # X X # # # X # X # # # X & # # # , I &.] ` I 8 2 2 2 2 2 2 2 2 2 2 2 2 2 2 2 2 2 2 2 2 2 7 2 2 2 2 2 2 2 2 2 9 2 2 2 2 2 2 2 2 2 2 2 2 2 2 3 2 2 2 3 3 -.+X-X-X&X) = X # # # X # # # . = 6XgX8X7.# X # # # # X X & & X X # & : I ] ' ] I r 2 2 2 3 2 2 2 3 2 2 2 2 2 2 2 2 3 2 2 2 2 2 2 2 2 2 2 2 2 2 2 2 2 2 2 2 2 2 2 2 2 2 2 2 2 2 7 2 2 2 2 2 Z U ] ` ] N = X # # X # # # # # # # X X # # u.aXjXjXgXL.D # . # # # . = P ] ' ' ( w 3 2 2 3 3 2 2 2 3 2 2 2 2 2 2 2 2 2 2 2 2 2 2 2 2 2 7 2 2 2 2 2 % X   # # # # * $ # * # $ # * # * # # * = 0 t D D 7 #                                                         $ 7 e t t w 7 # * * # # * # * * * # * # $ * # # # # # # X & 2 2 2 2 2 2 7 R eXa.G R 2.F 8 3 3 3 3 3 2 2 2 2 2 2 2 4 2 2 2 2 2 2 2 2 4 2 2 3 3 3 3 8 _.Q.% 3 3 3 3 3 3 2 2 3 3 2 3 3 2 2 2 2 F (.e.t 2 2 1 2 2 2 2 2 2 2 2 3 2 2 2 2 2 2 2 2 2 2 7 2 2 2 2 2 2 3 3 2 4 2 3 p.6Xt 3 2 2 2 1 & & & # & & # 1 & & 1 1 1 1 1 & # 1 1 % 1 # 1 1 1 1 & & # $ 1 # 1 # & & # $ & & # 1 & & 1 # 1 1 & & 1 # 1 1 & & & & & & 2 ` XX>X>X>XY & # 1 & & # O & & & & 1 # N C.>X5XC.P % 1 & & # & & & * ( oXXX%.W I Q Y < & 1 % 1 $ # & & 1 - U %X*XC.` ! ! P & & & 1 & & 1 2 2 2 2 3 3 2 % X X # X 2 2 2 2 2 3 2 2 2 2 2 2 2 2 2 2 2 2 2 2 2 2 2 2 2 2 2 2 3 2 2 7 2 2 2 2 2 2 2 2 2 2 2 2 2 2 2 2 2 2 2 3 2 2 2 3 2 2 7 2 2 2 2 2 2 2 2 2 2 2 2 2 3 2 2 2 2 2 2 2 2 2 2 2 2 2 3 2 2 2 2 2 2 2 2 2 2 2 2 2 2 2 2 3 2 2 2 2 2 2 2 2 2 2 2 2 ",
"2 2 2 2 2 2 2 2 2 2 2 2 2 2 2 2 2 2 2 2 2 6 k z z l u O # # 1.w.9.9.2.2.2.2.>.0 & # X # # X # # # # X # % % o % o @ l z z l u 2 2 2 2 2 2 2 2 2 2 2 2 2 2 2 9 2 3 2 2 2 2 2 2 2 2 2 2 2 2 9 2 2 7 $ 9 G.9X9XqXH.V $ # X #   #   # # # X # X # # # $ t >.5.2.5.5.5.<.5.S # $ V G.qXqX9XG.D % 2 7 2 2 7 2 2 2 2 7 2 2 3 2 2 2 3 2 2 2 2 2 2 2 2 2 2 2 2 2 2 2 2 2 b j.h.k.h.a - # X # # # X # # X X # # X # X X # # # # # X X & X . # # y b k.h.h.v m 7 7 2 2 2 2 2 2 2 3 2 2 2 2 2 2 2 2 2 7 2 2 7 1 # X X # # $ # $ $ # * * # $ # # * * $ # # $ # * * # # * # * $ # $ # 7 0 D D D $ #                                                         # 7 D D D D 7 $ $ # * # * # # $ # # $ # $ # * # * $ # $ # # * * # * # # # # # #   # # 2 3 2 2 2 2 2 2 2 2 2 2 3 2 2 2 2 2 3 2 2 2 2 2 2 2 2 2 3 7 I | ] ] U : # X # # X # # X # # # & X # # # X X & # X # X # # X . . # = I ] '  .I q 2 2 2 2 2 2 2 2 2 2 2 9 2 2 2 2 2 2 2 2 2 2 2 2 3 2 2 2 2 2 2 2 2 2 2 2 2 2 2 7 2 2 2 2 2 2 2 2 2 2 3 4 -.:X-X-X:XW * # X X # # # X # # # R / D 7 # # # X X # # # X X # # # X = P ] ] ` U w 2 2 2 2 2 2 2 2 2 2 2 2 2 2 2 2 2 2 2 2 7 2 2 2 2 2 2 2 2 2 2 2 3 2 2 2 2 2 3 3 2 7 2 2 2 2 2 2 2 2 2 2 Y ` ] ] [ B & # # X # # # X X # X # # # # # H 7XkX8X5.0 & . # # . # # * N  .] ' ` Z 2 2 2 2 2 2 2 2 2 2 2 2 2 2 2 2 2 2 2 2 3 2 2 2 2 2 2 2 2 2 2 2 % % # # # # $ # # * # # * # * $ # $ # # 2 0 D 0 D 7 #                                                           $ D D t t 9 $ # # # $ # $ # # # $ # * # # # * #   # # # * 3 2 2 2 2 2 0 2.tX6.1 3 0 9 3 R p.6X6Xp.t 1 2.E.q.6XwX8.,.W.wXQ.3.9 2 F E.0.E.wXp.F 3 9 wXQ.2 3 G p.wX(.8.3 9 8./.wX(.8.9 2 2 2 >.pX3.3 ,.Q.wXwXa.t F a.(.wXU.3.2 3.Q.e./.wXy.,.p.6X(.2.2 2 e W.y.p.wXW.3.3 2 6.Q.0.8 2 2 3 2 & & & & & & 1 1 # 1 # 1 1 1 X & % 1 1 # 1 1 1 1 1 X 1 # $ O 1 % 1 1 1 # $ O & & % 1 & % 1 1 1 1 X 1 & & % # & & # & & * W .X%X.X%X>XP & 1 1 # 1 1 1 & & & & & 8 ] *X*X5XC.w # & & & & & & & & ( %X.XP 1 1 1 - * & & & 1 # 1 & 1 1 , Z.=X=., = = = = & & & # & & 1 2 2 2 2 2 2 2 $ # X # # 2 2 2 3 2 2 2 2 2 2 2 2 2 3 2 2 2 2 2 2 3 2 2 2 2 2 2 2 2 2 2 2 2 2 2 2 2 2 2 2 2 2 2 2 2 2 2 2 2 2 2 2 2 2 2 2 2 2 3 2 2 2 2 2 2 2 2 2 2 2 3 2 2 2 2 2 2 2 2 3 2 2 2 2 2 2 2 2 2 2 2 9 2 2 2 2 2 2 2 2 2 2 2 2 2 2 2 2 2 2 2 2 2 2 2 2 ",
"2 2 2 2 2 2 2 2 2 2 2 2 2 2 2 2 2 2 2 2 2 6 z z z z u % % % `.aXpXiXyXrX8XiX`.<.# # X X # # X # # X # # X X # # % O l z z l u 7 2 2 2 2 2 2 2 2 2 2 2 3 2 2 2 2 2 2 2 2 2 2 2 2 2 2 2 2 3 2 2 2 7 2 9 H.qX9XqXG.> $ # # # # # # X # # X % X # X # $ 5.).rXyX8XrXyXyXiXr.$ $ > G.qXqX9X0XS % 7 7 2 2 2 2 2 2 2 2 2 3 2 3 2 2 2 2 2 2 2 2 2 2 2 2 2 2 2 2 2 2 2 2 b h.h.h.j.a # # #   # # X # # # X # # # # X # # X # # X # # # X # # X # c k.k.h.j.j 7 2 2 2 2 2 2 2 2 2 2 2 2 2 2 2 2 7 2 2 3 2 2 & # # # # # # * # * # $ # # * * # # # * # * # # $ # # * $ # $ # # * # 7 t t D D $ #         #                                                 % t t t e 9 # # # # * # $ # * * # * # # * # # # * # * # # # $ # # $ # * # # # # # # 2 2 2 2 2 2 2 2 2 2 2 2 2 2 2 2 3 2 3 2 2 2 2 2 2 3 2 2 2 8 ( ] ' ] U = # # X # # # X # X # X # # # # # X # # # X # # X # # & # # * I ] ] [ U r 2 2 2 2 2 2 2 2 2 2 2 9 2 2 2 2 2 2 2 2 2 2 2 2 2 2 2 2 2 2 2 2 2 2 2 2 2 2 2 2 7 2 2 2 2 2 3 2 2 3 2 2 -.;X-X;X&XN # X # # # # X X # # # & X X X # # X # # # X # # # X # X # # P ] ' ' ` w 2 2 2 2 3 2 2 3 2 2 2 2 2 2 2 2 2 2 2 2 2 2 2 2 2 2 2 2 2 2 2 2 2 2 2 2 2 2 2 3 2 3 2 2 2 3 2 2 2 2 2 2 Y ] ' ] ] , # # . # # X # # X # X & X & # # # 4.U.5.1 # # # # X . # # # , ] ' ' ` Z 2 2 2 2 2 2 8 2 2 2 2 2 2 2 2 2 2 2 2 2 2 2 2 2 2 2 2 2 2 2 2 2 # # . # # # & # $ & $ # * # * # * # $ # 7 D D D D 7                                                             $ D D D D 9 $ $ # * * # * # # # $ # # # $ # # # # # #   # 2 2 3 2 2 3 3 3.uXU.F 2 2 2 2 3.y.a.p.eX8.e a.fXp.i.6XwXE.p.i.eXi.F 2 3.hXQ.a.W.(.U.0 9 wXQ.1 t E.Q.p.Q.Q.,.,.Q.Q.a.a.6.9 2 2 9 8.eXF t p.(.a.i.0.t t q.p.i.eXy.t 2.fXW.a.Q.eX/.p.i.wXW.J 2 F sX6Xa.p./.Q.t 2 3.p.Q.0 2 3 2 2 # % & & & & 1 % O $ # & & & 1 # 1 1 1 % & & % & 1 % & & # 1 & & & 1 1 1 1 1 # 1 & # 1 $ # $ # 1 1 & # 1 1 1 & & & & & & w =.&.( %X>XP 1 & # & & & & & & 1 & & I XX%XZ.*XC.N # # 1 & & & & & *  .%XA.q # & & 1 & & & 1 # 1 & & & # | %X.XP N P < * & & & & & & # & 2 2 2 2 2 2 2 % # # X # 2 2 2 2 2 2 2 2 2 3 2 2 2 2 2 3 2 2 2 2 3 2 3 2 2 2 2 2 2 2 2 2 2 2 2 9 2 2 2 2 2 2 2 2 2 2 2 2 2 2 3 2 2 2 2 2 2 2 2 2 2 2 2 2 2 2 2 2 2 2 2 2 2 3 2 2 3 2 3 2 2 2 2 2 2 2 2 2 2 2 2 9 2 2 2 2 2 2 2 2 2 2 2 2 2 2 2 2 2 2 2 2 2 2 2 2 ",
"2 2 2 2 2 2 2 2 2 2 2 2 2 2 2 2 2 2 2 2 7 + n n n n k o # % yXkXkXkXkXkXkXkXaX7.& # # # # X # # # # X # # # # X o O l l z z k 2 2 2 2 2 2 2 2 2 2 2 2 2 2 2 2 2 2 2 2 2 2 2 2 2 2 2 2 2 2 2 2 2 2 2 C G.9X9XqXG.* # # #   # #   X # # X X & X & # 2 e.gXkXkXkXkXkXkXkX^.      J.H.H.G.G.C 7 7 7 2 9 2 2 2 2 3 2 2 2 2 2 2 2 2 2 2 2 2 2 2 2 2 2 2 2 2 2 2 2 2 2 b h.h.k.h.O #   # # . # # # X # # # X X # # # # X # # X # X # # X # # # a k.k.k.h.j $ 2 2 3 2 7 2 3 3 2 2 3 2 3 2 2 2 3 2 2 2 2 2 * .   # # # # * # # $ # * $ # $ # * # * # # # * # * * # # * # * # $ # 7 D D e t 2                                                             % t D D S 9 $ * * # # $ # * # # $ # # * $ # * # # $ # # * * # * # * # * # # # # # # 2 2 2 2 2 2 2 3 2 2 2 3 2 2 2 2 2 2 2 2 2 2 2 2 2 2 2 2 2 7 ( ] ' ] I - # X # # X # X # # # X X . # X # X # X # & X # # X # # . # . I } '  .U q 2 2 2 2 2 2 2 2 2 2 2 2 2 2 2 2 2 3 2 2 2 2 2 2 2 2 3 2 2 2 2 2 9 2 2 2 2 2 2 2 2 2 2 2 2 2 2 2 2 2 2 3 F.;X-X-X&X< # # # X X & # # # X # X X # X & X & # X # X # X # # # X # X P ] ] ' ' w 2 2 2 2 2 2 2 2 2 2 2 2 2 2 2 2 2 2 2 2 2 2 2 9 2 2 9 2 2 2 2 2 2 2 2 2 2 2 2 4 2 2 2 3 2 2 2 2 2 2 2 2 Y ( ' ' ] , # # X # # X X X & # # X # X   # # 7 9 1 # # X # X # # # #   , ] ' ' ' A 2 2 2 2 2 2 2 2 2 2 2 2 2 2 2 2 2 2 2 2 2 2 2 2 2 2 2 2 2 2 2 2 # # . # # # # * * # # * # $ * # # # $ # 7 0 0 0 D 2                 #                                           $ e 0 D 0 9 # $ $ # # $ # $ * * # * # * # * $ # # # # # * 2 2 2 2 2 3 3 e W.wXU.6.F 2 2 e e 2 0 6Xp.F a.fX6.9 ,.uXwXt 9 a.Q.2.1 3.hXa.e 9 y.uXJ 9 6XE.3 >.pX6.4 3.Q.W.8.wX0.2 3 0 9 2 2 F i.Q.t 3.Q.Q.9 2 0 9 0 t 4 4 Q.W.J 6.hX0.9 3.6XpXR 2 q./.0.2 t fXE.t 9 8.dX,.3 e y.wX4 2 2 3 2 1 1 & & $ # & & & & $ & & & & & 1 # & & & 1 & & 1 1 & & O 1 % 1 & # 1 X # & 1 1 & & 1 O 1 # 1 1 % & O 1 # 1 & & & # 1 # & , < , %X*XY # & 1 & & & & & & & & , C.=X=. .=XC.N # $ 1 % & & & % * %.=XA., , < 3 $ % & & 1 1 1 % & & 1 =.>X.X .=.C.=.( < & & & & O 1 1 2 2 2 2 2 2 2 $ X # # # 1 3 2 2 3 2 3 2 2 2 2 2 3 2 2 2 2 2 2 2 2 2 2 2 2 2 2 2 2 2 2 2 2 2 2 2 2 2 2 2 2 2 2 2 2 2 2 2 2 2 2 2 3 2 2 2 2 2 2 2 2 2 2 2 2 2 2 2 2 2 2 2 2 2 2 2 2 2 2 2 2 3 7 3 2 2 2 2 2 2 2 2 2 2 2 2 2 2 2 2 2 2 2 2 2 2 2 7 2 2 2 2 2 2 2 2 ",
"2 2 2 2 2 2 2 2 2 2 2 2 2 2 2 2 2 2 2 2 7 c d.d.v.v.x 1 X % /.gXgXaXgXgXgXgX8X2.& X # X # # X X X X # # # # # X % O l z z z k 2 2 2 2 2 2 2 2 2 2 2 2 2 2 2 2 2 2 2 2 2 2 2 2 2 2 2 2 2 2 2 2 2 2 2 9 G.9X9XqXH.> $ X # #   # # # # # # # X # # # % 9.iXgXgXgXgXgXgXgXT.  $ $ } { { J.} 9 7 % 7 2 2 3 2 2 2 2 2 2 2 2 2 2 2 2 2 7 2 2 2 2 2 7 2 2 2 2 3 2 2 2 2 b h.h.k.j.a X # . # # # # X # X # X # # X # $ % 1 X # # X # X # X # X - b k.k.k.k.c 2 2 2 2 2 2 2 3 2 2 2 2 2 2 2 2 2 2 2 2 2 3 8 * # # # # # * # * # # * # * # # * # # # * # * # # # # # * # * # $ & # 7 D D t D 2                       X $                                   1 D t t t 9 # # # $ * # # # # * * # $ # # * # # # * # * # $ # # # # * # # # # # o % 2 2 2 2 2 2 2 2 2 3 2 3 3 2 2 2 2 2 2 2 2 2 7 2 2 2 2 3 3 8 I ' ] ] I = # X # X # X # # X $ 8 e * # # X # # X # # # X X # # # # # * I ] ' ' ` q 2 2 2 2 2 2 2 2 2 2 2 2 2 2 2 2 2 2 2 2 2 2 2 2 2 2 2 3 2 2 2 2 2 2 2 2 2 2 2 2 2 2 9 2 2 2 2 2 2 2 2 9 -.:X-X;X&XA # # # X # X # X # # X # & # X X # # # X # # X # X # # # X & P | ' ' ' Z 1 2 2 2 2 2 2 2 2 2 2 2 2 2 2 2 2 2 2 2 2 2 2 2 2 2 2 2 2 2 2 2 2 2 2 2 2 2 2 2 2 2 2 2 2 2 2 2 2 2 2 2 Y ` ' ' ] , & X # # # # # # # X # X # # # # # X X # # # # X # # . # # # B ' ' ' ' Y 2 2 2 2 3 2 2 2 2 2 2 2 2 2 2 2 2 2 2 2 2 2 2 2 2 2 2 2 2 2 2 2 # # # . # # & $ # $ # # # * # # * * # # 7 D D D D 7 #                     # $                                   $ D D D D 0 $ # $ * # * * # # $ # # # * # * # # # # # . # 2 7 3 2 2 3 2 3 t y.eXtXp.t 3 e t 3.,.(.p.J a.uXe 2 G (.Q.2 9 8.Q.8.1 3.fX3.2 1 2.tX2.0 wXE.9 0.uX8.G 2.W.wX,.(.Q.2.t 9 2 2 1 J U.U.t t p.6X8.J 0 2 9 t R 3.Q.Q.,.6.fXJ 4 t W.wX2 2 ,.E.y.2 t sX0.2 1 J tX0.e 9 q.tX0 2 2 2 1 % 1 & # 1 $ 1 1 # % & 1 & & 1 % 1 # # O $ # & 1 1 1 & & $ # # 1 1 1 1 1 % & X 1 1 & 1 & & & 1 # 1 1 $ # 1 & 1 # & & & & & & # w oX>XY $ # & # & & & # 1 1 = &.%XC.P ` =XC.P % O & & & 1 O # * *.=XoX=.#.%.I r * & & 1 1 & & & 1 & C.5X=X=X%X%X>XoX] * & $ # $ # 1 2 2 2 2 2 2 2 # # X X # 2 2 2 2 2 2 2 2 3 2 2 2 2 2 3 3 2 2 2 2 2 2 2 2 2 2 2 2 2 2 2 2 2 2 2 2 2 2 2 2 2 2 2 2 2 2 2 2 2 2 2 2 2 2 2 2 2 2 2 2 3 2 2 2 2 2 2 2 2 3 2 2 2 2 2 2 2 2 2 2 2 2 2 2 2 2 2 3 2 2 2 2 2 2 2 2 2 2 2 2 2 2 9 2 2 2 2 9 2 2 2 2 2 2 2 2 ",
"2 2 2 2 2 2 2 2 2 2 2 2 2 2 2 2 2 2 2 2 7 + d.v.d.v.n 1 # # >.6.5.7.r.e.r.u.7.D & X # # X # # # # # # X X X # # o O l z z z u 7 2 2 2 2 2 2 2 2 2 2 2 2 2 2 2 3 2 9 2 2 2 2 2 2 2 2 2 2 2 2 2 3 2 2 q G.9X9X9XH.> # # # # # # # # X X # # # # X # $ J 9.K.r.t.e.r.r.u.<.$   $ L { { { { 9 7 7 7 2 2 2 2 2 2 2 2 2 3 2 2 2 2 2 3 2 2 2 2 2 2 9 2 2 3 2 2 2 2 3 3 m j.k.h.j.a & # # # # . # X # # # # X # # $ 0 >.t # X # # # X # # # X # c k.k.k.j.j 7 2 2 2 2 2 2 2 2 2 2 2 3 2 2 2 2 2 2 2 2 2 2 & #   # # # $ $ # # * # # * # $ # * * $ # $ # # * * $ # # $ # * # * # 7 e e D 0 2                       0 S   #                               $ D D t t 7 * # * # * # * # $ # # $ # * $ # * * $ # $ # * # * # * # # $ # # # # # # 2 2 2 2 2 2 2 3 2 2 2 2 2 2 3 2 7 2 2 2 2 2 3 2 2 2 3 3 3 8 ! ' ' ] U = # # # X # # # X # e U.yXJ # X # # X # # X X # # # X # . # - I ] ' ' U 8 2 2 2 2 2 2 2 2 2 2 2 2 2 2 2 2 3 2 2 2 3 2 2 3 2 2 2 7 2 2 2 2 2 2 2 2 2 2 2 2 2 2 2 2 2 2 3 2 2 2 2 2 -.-X;X-X:XS # X # # # X # # X # & X X # # # X X # # X # # # & X X # # & P ] ' ' | w 2 3 2 3 2 2 3 2 2 2 9 2 2 2 2 2 2 2 2 2 2 2 2 7 2 2 2 2 2 2 2 2 2 2 2 2 2 2 2 2 3 2 2 2 3 2 2 2 2 2 2 2 Y ` ] ' [ , & & # X X # # X # X # # X # X X # # # # X X # # # X # # # # , ] ' ' ` A 2 2 2 2 2 2 2 2 2 2 2 2 2 2 2 2 2 2 2 2 2 2 2 2 2 2 2 2 2 2 2 2 # . # # # # # # * # * # $ # $ & # # # $ $ D 0 D D 8                   # $ K 7.$         X                       $ 0 0 D D 9 # $ $ # $ # # # * # * $ # # $ # # # #   # # $ 8 2 2 2 3 3 2 3 3 3 t y.uXe.t 6.wXuXsXhXE.J a.tX9 2 G /.W.1 9 8.Q.0.1 ,.hX3.1 2 ,.wX8.0 6XE.9 y.hXdXsXsXsX(.t 3.W.tX/.J 9 2 2 3.U.p.t 2 F a.eXwX2.0 2.(.uXsXhX(.>.2.dXt 4 t p.6X2 2 ,.Q.y.2 t fX8.1 2 F eXq.e 3 q.sX0 2 2 2 2 & 1 & & 1 O # 1 1 1 # # & & 1 # 1 1 1 1 # $ 1 # X 1 & 1 # $ 1 1 1 X 1 1 & & 1 1 1 % # & & & & & % # # $ & & 1 & 1 # & & & & O P %X*XP O 1 & & & & & $ O 1 P XXoX( : | =XC.Z % # 1 & # 1 $ # - *.=X*X*X*X*X*XC.Y 1 # X 1 & % & * = Z.5X=X=.W Q C.>X.Xw * O 1 # $ 1 2 2 2 2 2 2 2 # # # # # 2 2 2 2 2 2 3 2 2 2 2 3 2 2 2 2 2 2 2 2 2 2 2 2 3 2 2 2 2 2 2 2 2 2 2 2 2 2 2 2 2 2 2 2 2 2 2 2 2 3 2 2 2 2 3 2 2 2 2 2 2 2 2 2 2 2 2 2 2 3 e 4 2 2 2 2 2 3 2 2 2 2 2 2 2 2 2 2 2 2 2 2 2 2 2 2 2 2 2 2 2 2 2 2 2 2 2 2 2 2 2 2 2 2 2 2 ",
"2 2 2 2 2 2 2 2 2 9 2 2 7 2 2 2 2 7 2 2 7 6 d.d.c.v.n + # $ % 7 1 2 2 2 2 2 2 # & X # # # X X # # X X # # # # # % @ l z z z u 2 2 2 2 2 2 2 2 2 2 2 2 2 2 2 2 9 2 2 2 2 2 2 2 2 2 2 2 2 2 2 9 2 7 7 C G.0X9X9XH.~ $ # # X # & X # X X # X # # X # # $ 1 7 2 2 2 2 2 $ $ # # $ X.{ { { L > > 7 7 2 2 2 2 2 2 3 2 2 2 2 2 2 2 9 2 2 2 2 2 2 2 2 2 2 2 2 2 2 2 2 2 b h.h.h.h.a - # # # # X # # X # X X # X 7 w.].aXP.9 X # # # X # X # # 4 b k.h.h.j.j 7 8 2 2 2 2 2 2 2 2 2 2 2 2 2 3 2 2 2 2 2 2 2 1 # #   # # # # $ # # $ # # * $ # * # * # $ # $ # $ # $ # * * # $ * # > e D e D 7 #                     5.'.K.K #                           # 2 D t D e 9 # $ # $ # $ # * * # # * * # # * $ # # $ * # # * # # # * * # # # # # # # 2 2 3 2 2 2 2 3 2 2 2 2 2 2 2 2 2 2 2 2 2 3 2 2 2 2 2 2 3 7 ! ' ' ] U , & # . # # # # # D Y.gXhXiX^ . # # X # X & # # X X # # . # : I ] ' ' ! r 2 2 2 2 2 2 2 2 2 2 2 2 2 2 2 2 2 2 2 2 2 3 2 2 2 2 2 2 2 2 2 2 2 2 2 2 9 2 2 2 2 2 2 2 2 2 2 2 2 2 2 2 -.:X-X;X&X) = # # X # X # # X & X & # # # X # & X # # # X X X # # # # = P [ ' ' U w 2 3 2 2 2 3 2 2 2 2 2 2 2 2 2 2 2 2 2 2 2 2 2 2 2 2 2 2 2 2 9 2 2 2 2 2 2 2 2 2 2 2 3 2 2 2 2 2 2 2 2 2 Y ' ' ' ' P * X X & # X # # X # # X # # # # X # # X # # X # # X # # # # N ] ] ] | Z 2 2 2 2 3 2 3 2 2 2 2 2 2 2 2 2 2 2 2 2 2 9 2 2 2 2 2 2 2 2 2 2 # # # # # # * * # # $ # * & $ # $ # $ # = e D D D 9 #                 # 5.'.~.K.D                               $ D D 0 D 7 $ # $ # * # * # * # # # * # # * # # # # # X & 2 2 2 2 2 2 3 3 2 2 2 J U.Q.8.(.W.3.3./.U.J a.tX9 3 G Q.W.2 9 8./.8.2 >.fX,.4 1 2.tX2.e wXE.9 0.tX2.F G F t 4 9 0 2.E.(.e 2 1 R U.U.t 2 3 0 R a.wXq.W.(.3.J W.Q.>.6.dXt 2 t p.6X2 2 ,.Q.y.2 t dX0.2 2 J uX0.0 9 q.uX0 4 2 2 2 # # 1 1 & & 1 X & % 1 $ # $ $ # 1 & 1 1 1 X 1 1 1 1 & 1 1 # 1 % & 1 $ O # & 1 1 & & 1 1 1 % & & 1 1 % 1 1 1 O $ # & & & & & # B oX>XP O & & # # 1 1 & & = C.>X%.= = | =XC.N # 1 1 & & & 1 # & w `  .! ! *.=X>X=.q & & & 1 1 & & : .X5X=.< * - I XX%XU = & # 1 1 $ 2 2 2 2 2 2 2 % X # # # 2 3 2 2 2 2 2 2 2 2 3 2 2 2 3 2 2 3 2 2 2 2 2 2 2 2 2 2 2 2 2 2 2 2 2 2 2 2 2 2 2 2 2 2 2 2 2 2 2 2 2 2 2 3 2 2 2 2 2 2 2 2 2 2 2 2 2 2 2 e eX6.1 2 2 2 2 3 2 2 2 2 2 2 2 2 2 2 2 2 2 2 2 2 2 2 2 2 2 2 2 2 2 2 2 2 2 2 2 2 2 2 9 2 2 9 ",
"2 2 2 2 2 2 2 2 2 2 2 2 2 2 2 2 2 2 2 2 7 6 d.d.c.v.n u # % o o #   # X . # . # X & # X # # # X # # # # # X # X o + l z z k + 2 2 2 2 9 2 2 2 2 2 2 2 2 2 2 2 2 2 2 2 2 2 2 2 2 2 2 2 2 2 2 2 2 7 7 9 F.0X9X9X0X{ * # # # # X # # # # # & X # # X # X # #   # X o # # o # # > } { { { V > $ 7 7 2 2 2 2 2 2 2 2 2 2 2 2 2 2 2 2 2 2 2 2 2 2 2 2 2 2 2 2 2 2 2 2 j j.k.k.k.b O # # . # X # X # # # # # X 0 _.gXkXiX6.X # X # X # & X X @ b k.h.h.b 6 7 2 2 2 3 2 2 3 3 2 3 2 3 2 2 2 2 3 2 2 2 7 3 1 # # # # # # * # * * # * $ # # * # $ # # * * # * # * # * # # # & # # 7 0 D e D 9 #                   H L.[.[.t.$                           # 7 e t t 0 7 # $ * # * # # # # # $ # # $ $ # # * * # * # # * $ * $ # # $ # #   # # # 2 2 2 2 2 2 2 2 2 2 2 2 3 2 2 2 2 2 2 2 2 7 2 2 2 2 2 2 3 8 W ` ] ] ` N # # # # # . . D R.gXkXjX7XJ . # # # # X X # # # # # # # # , ( ] ' ` W 8 2 2 2 2 2 2 9 2 2 2 2 2 2 2 3 2 2 2 2 2 2 3 2 2 2 2 2 2 2 2 2 2 2 2 2 2 2 2 2 2 2 2 2 2 2 2 2 2 2 2 2 4 -.+X-X-X:X-.< X # # # X # X # X # X X X # & # X X # X # # # # # X X # : I  .' ' W w 2 2 2 2 2 2 2 2 2 2 2 2 2 2 2 2 2 2 2 2 2 2 2 2 2 2 2 2 2 2 2 2 2 2 2 2 2 2 2 2 2 2 2 2 2 2 2 2 2 2 2 2 w U ' ' ] I = X # X # # X # X # # X # X # X # # # # X # X # # X # X # : P ] ' ] I w 2 2 2 2 2 2 2 2 2 3 2 2 9 2 2 2 2 2 2 2 2 2 2 2 2 9 2 2 2 2 2 2 # # # # # * # # # * # * # $ # * # * $ # 7 0 0 D 0 9 $               $ K R.[.[.L.0 X                           X 7 D D D 9 7 # * # * # # * $ # # * # # $ $ # * # # # # # & 2 2 2 2 2 2 3 t 0 3 1 R /.p.y.6Xy.O D eXW.J a.uX7 2 F (.W.1 9 6./.8.1 3.hXi.t 0 a.sXF 9 wXQ.2 3.uX8.3 1 3 t e 9 2 0 a.tXt 1 2 F a.Q.t 9 t 2 4 6.uXQ.Q.W.2 0 (./.>.6.fXt 2 t p.6X9 4 2.E.y.2 D fX/.D 2 0.sX,.3 t a.wX0 2 2 2 2 1 1 O # & & 1 1 & 1 1 O 1 # # $ & & # 1 1 1 % # 1 # 1 # 1 1 1 # & & # 1 1 & X 1 # & 1 # & & & 1 # 1 & 1 # 1 & & & & 1 # & & X Z oX>XP # & & 1 1 $ O & = ( =X%X*.! ` C.*XoX%.Y 1 % & & % 1 & & * : : = = < %.*XXXP & & # # 1 & & = .X>X=.& & % w C.=X&.* & & % # 1 2 3 2 2 2 2 2 $ # o # # 1 2 2 7 2 2 3 3 2 2 2 2 3 2 2 2 3 2 2 2 2 2 7 2 2 2 2 9 2 2 2 2 2 2 2 2 t q.6X(.e.0 4 2 2 2 9 t i.6X/.0.9 1 t 0.(._.y.t 2 2 2 2 2 3 2 2 2 t sX0.& R (.6X6X_.U.,.2 2 3 2 2 2 3 2 2 2 2 2 2 2 2 2 9 2 2 2 2 2 2 2 2 2 2 2 2 2 2 2 2 2 2 2 ",
"2 2 2 2 2 2 2 2 2 2 2 2 2 2 2 2 2 2 2 2 7 6 x d.c.c.d.x # # % o # # # X # # # # % X X # X # X % X # # X # X # X O u z z z k 6 2 2 2 2 2 2 2 2 2 2 2 2 2 2 2 2 2 2 3 3 2 2 2 2 2 2 2 2 2 2 2 2 2 7 % 9 X.H.qX9X9XG.: X # # X X # X # & X X # X # X # # # # X # X # # # # # $ V { { { { V > 7 7 7 2 2 2 2 2 2 2 2 2 2 2 2 2 2 2 2 2 2 2 2 2 2 2 2 2 2 2 2 2 2 2 2 j v k.k.h.j.@ # # # # # # # X X # X # X 7 t.gXkXhX!.3 # # X # # X & X a v k.h.h.m 5 2 2 2 2 2 2 2 2 3 2 2 2 3 2 2 2 2 2 2 2 2 2 2 % # # # # # * # # $ # $ # # * # # # * # * # # # * # * $ # # * * * # # 2 0 e D D 0 2                 > K.~.[.'./ $                           # 9 D D t 9 * # * # # $ # * * # * * * # # # $ # # * # # # $ # # * # * $ # # # # # # # 2 2 2 2 2 3 3 2 3 2 2 3 2 2 2 2 2 2 3 2 2 2 2 2 2 2 2 2 2 7 A U ] ] [ I * #   # # # D Y.gXkXjX8X2.7 X # X # # # X # X # # X # X & N U ] ] ` Z 3 2 2 2 2 2 2 2 2 2 2 2 2 2 2 2 2 2 2 2 2 4 3 2 2 2 7 2 2 2 2 2 2 2 2 2 2 2 2 2 2 2 2 2 2 2 2 2 2 2 2 2 2 ) OX;X-X-XOXZ o X # X & # # # X # # # # # X # X # # X # # # # X # # & B I  .' ` A 8 2 2 2 2 3 2 2 2 2 2 2 2 2 2 2 2 2 2 2 2 2 2 2 2 2 2 2 2 2 2 2 2 2 2 2 2 2 2 2 2 2 2 2 2 2 2 2 2 2 2 2 2 w Q ] ' ] U , . # X X # # # & X # # # # # # X X X X # # # # # # # # # < I ' ' ] P r 2 3 3 2 2 2 2 2 2 2 2 2 2 2 2 2 2 2 2 2 2 2 2 2 2 2 2 2 2 2 2 2 #   #   # # # * $ # $ # # * * # # # $ # * 9 D D D 0 $             # S L.[.[.R.5.$                             $ 7 D D 0 q * * # # # # * # # $ * $ # * # * * # # # # X # & 2 2 2 2 2 2 9 ,.i.U.p.E./.,.,.Q.6Xp.p.6XW.3.i.sX9 3 G (.W.4 9 6.(.8.1 ,.hX(.p.E.(.p.0 2 wXQ.1 t U./.W.p.a.,.,.a.W.W.Q.p.e 2 2 e 8.tXF D q.U.p.Q.E.8.i.eXp.p.6XQ.,.6.fXt 1 t W.wX2 4 ,.Q.a.2 t sXwXU.W.(.Q.t 1 R p.Q.9 2 2 2 1 & & $ # % & 1 1 # 1 1 & & & 1 O & & 1 1 & & # 1 % & 1 1 % & 1 1 & & $ # & & 1 1 % & 1 1 1 X $ # 1 1 & & 1 1 & & & & & 1 O & % Z oX*XY 1 $ & & & # $ & < C.*X>X%XXXoX%X>X*X%X#.2 # $ & & 1 1 1 X # 1 # & # ( oXXXU * - X 1 1 & & 1 Z.>X=.# & * w C.=X*.= X & & & 1 2 2 2 2 2 2 2 # # # # # 2 2 2 2 3 2 2 3 2 2 2 2 2 2 3 2 2 2 2 2 3 2 2 2 2 2 2 2 2 2 2 2 2 2 2 4 y.(.E.W.6X2.0 2 2 4 9 p.(.E.Q.(.3.3 0.(.Q.U.6X6.0 2 2 2 2 2 1 1 2 t sX0.X 6.fXQ.p.I.(.Q.G 8 2 2 2 2 3 2 7 2 2 2 2 2 2 2 2 2 2 2 2 2 2 2 2 2 2 2 2 2 2 2 2 2 2 2 ",
"2 2 2 2 2 2 2 9 2 2 2 2 2 2 2 2 2 2 2 7 7 t c d.v.c.v.n % # % o # # # X # . # # X # # # X # # # X # # X # # X % @ k z z z u 4 2 2 2 2 2 2 3 2 2 2 2 2 2 2 2 2 2 2 2 2 2 2 2 2 2 2 2 2 2 2 2 2 2 7 7 7 L G.9X9X9X0XC # X # # # # X # X # # # X # # # X X # # # X # # o # # > U J.{ { { > 7 7 7 7 2 2 2 2 2 2 2 2 2 2 2 2 2 2 2 2 7 2 2 2 2 2 2 2 2 2 2 2 2 2 2 2 6 b k.k.k.k.a & . # X # X # # # # # # X # 0 8XjXkXiX6.1 X # # X # X O b j.h.h.j.m 2 2 2 2 2 2 2 2 2 2 2 2 2 2 2 2 2 2 2 2 3 2 2 2 *   # # # # $ # * # * # * # # * # $ # $ # * # $ # $ # # * # # # # # * $ 7 D t D D 7 #             $ / '.[.~.t.> #                         # 2 0 0 D t 8 * $ # # * # * # $ # $ # # # * * # * # # $ # * # * # # $ # # # # #   # # # 2 2 2 2 2 2 2 2 2 2 2 2 2 2 2 2 2 3 2 2 2 2 2 2 2 3 2 2 2 7 w ! ] ] ] [ = # # # # D I.gXkXhX8X5.1 X # # X # X # # # X # # X # # : I ` ] ' ( 0 2 2 2 2 2 2 2 2 2 2 2 2 2 2 2 2 2 2 2 2 3 2 2 2 2 2 2 2 2 2 2 2 2 2 2 2 2 2 2 2 2 2 2 2 2 2 2 2 2 2 2 2 2 S -.;X-X-X-XQ # X # # # X X # # X # # X # X # # # X # # X X # # . # = P ` '  .| w 2 2 2 2 2 2 2 2 2 2 2 2 2 2 2 2 2 2 9 2 2 2 2 2 2 2 2 2 2 2 2 2 2 2 9 2 2 2 2 2 2 3 2 2 3 2 2 2 2 2 2 2 4 q Y ] ' ` ] P # # # # # X X # # X & X X X # # # # # # X # X X # X # # N ` ] ] ` A 8 2 2 2 2 3 2 2 2 3 2 2 2 2 2 2 2 2 2 2 2 2 2 2 2 2 2 2 2 2 2 2 2 # # # # # # $ # # * # * # # & $ * # $ $ $ 7 0 D D D 9 #         # 7 t.~.[.~.5.>                             X $ 0 D D D 9 * * # * # $ # # * # * # * # $ # # * # # # # X & 2 2 2 2 2 2 9 >.W.6X6XE.6.4 3 8.Q.6Xp.8.6.t 2.U.2 3 t e.8.2 4 3.q.,.1 3.fXa.W.wXi.t 2 9 a.q.1 3 F i.(.6XW.,.3.p.6X6Xp.J 4 2 2 3 ,.uX>.F q.6X6XE.3.0 ,.Q.6XW.8.8.G 3.Q.t 1 t 8.a.2 2 J q.6.3 D sXW.i.6XU.G 3 2 8.^.8.3 2 2 2 2 1 1 # $ 1 1 # 1 1 1 # & & & 1 # & & & % % 1 $ O 1 1 # # 1 & # 1 & & & 1 % 1 1 1 1 1 # 1 1 1 # $ O # & & X 1 & & & & # 1 $ # % Z %X>XP 1 % & & & & & & < %.Z..X.X.XXX%X>X=X%X*.* & O & & 1 1 1 = 1 % O # & | %XXXI & % 1 1 1 & & & =.>XZ.5 # & P .X%X( 2 1 & & & 1 2 2 3 2 2 2 2 # # o # # 2 3 2 2 2 2 2 2 2 2 3 2 2 2 2 2 2 2 2 2 2 3 2 2 2 2 2 2 2 2 2 2 2 2 2 t wXW.0 t Q.p.J 1 2 9 t eXa.9 J Q.i.J Q.(.e e E.U.3.2 2 2 2 9 3.8.2.>.dX0.& 2.uXR 2 2 e.eX8.8 2 2 2 2 2 2 2 2 2 2 2 2 2 2 2 2 2 2 2 2 2 2 2 2 2 2 2 2 2 2 2 2 2 2 ",
"2 2 2 2 2 2 2 2 2 2 2 2 2 2 2 2 2 2 2 2 2 2 6 d.d.v.v.d.+ % % %   # X # # # X X # # X # # # X # X % X X # # X O + l l l l + 7 7 2 2 2 2 2 2 2 2 2 2 2 2 2 2 2 2 2 2 2 2 2 2 2 2 3 2 2 2 2 2 2 2 7 2 2 7 F.9X9X9X0XX.7 X % X X $ X # # # X # # X # # # X X # # # $   $     V { { { { ~ 7 2 2 2 2 2 2 2 2 2 2 2 2 2 2 2 2 2 2 2 2 2 2 2 2 2 2 2 2 2 2 2 2 2 2 2 2 = c h.k.k.k.b 5 X # # # # # # X X # # X # 1 w.aXkXhX8X9 # #   # # X @ v h.h.h.j.6 2 2 2 2 2 2 2 3 2 2 2 2 2 3 7 2 2 2 2 2 2 2 2 2 1 $ # # # # # & # # * # # $ # $ * # # # * # * # * # $ * # # # $ # # * # 2 e t D D 9 #             > L.[.[.R./ #                           # > D e D 0 7 $ $ & $ # # * * # $ # * # $ # # * * # # $ # * # # * # * # # # $ # # # X & 2 2 2 2 3 2 2 2 2 2 2 2 2 3 2 3 4 2 2 2 2 2 2 2 2 2 2 2 2 2 2 I ' ' ] ` , * X X 3 u.gXkXhX8X2.1 # # X # # X # # # X X # # # # & , U ] ] ` I 3 3 2 2 2 2 2 2 2 2 2 2 2 2 2 2 2 2 2 2 2 2 2 2 2 2 7 2 2 2 2 2 2 2 9 2 2 2 2 2 3 2 2 2 2 2 2 2 2 2 2 2 2 2 2 ..-X-X-X-X&.8 # # X # # X # # # X # X # # # X # # X X # # X # # # : I ] ] ' ( q 2 2 2 2 2 2 2 3 2 2 2 2 3 2 2 3 2 2 2 2 2 2 2 2 7 2 2 3 2 2 2 2 2 3 2 2 2 2 3 2 2 2 2 2 2 2 2 2 2 3 2 2 2 2 w | ] ' ] P = # # . # # # # X X # # # X # # # # # # X X # # # & X = I ] ] ' ( w 2 2 2 2 2 3 2 2 3 2 2 2 2 2 2 3 2 2 2 2 2 2 2 2 2 2 2 2 2 2 3 2 2 # # # # . # & # * # $ # * # $ # # * # # # * D D D e 9 $ X       7 5.[.[.~.K.S                               $ 7 D D D D 7 # $ # * # $ # # * # $ # # $ # # * & # X # X # 1 2 2 2 3 2 2 2 2 2 2 2 2 2 2 2 2 2 2 2 2 2 2 2 2 2 2 2 2 2 2 2 2 2 2 2 ,.fXR 1 3 2 2 2 2 2 2 2 2 2 2 2 2 2 2 2 2 2 2 2 2 2 2 2 1 F /.a.t 1 4 2 2 2 2 2 2 2 2 2 2 2 2 2 2 2 2 2 2 2 2 2 2 2 2 D dX6.1 3 3 2 2 9 i.6Xt 3 3 2 3 2 % 1 % & & & # 1 1 & 1 # $ # $ & & & 1 # 1 1 # & & & & & & & # 1 & & & 1 # 1 & & 1 1 # 1 1 & & # 1 1 # 1 1 & & & & % $ O # & X Z oX>XY 1 X 1 & & # 1 # 1 w , Z B , P *.=XZ.( q & # 1 1 O & & * I Y < < < P .X>XC.< $ & & & & & & & ( oX%X] < < *.=X.XP 1 & & 1 % 1 2 2 2 2 2 2 2 # # X X # 2 2 2 2 2 2 2 2 2 2 2 2 2 2 2 2 9 2 2 2 2 2 2 2 2 2 2 2 2 2 2 2 2 2 9 ,.(.q.1 e 8.6X,.1 2 9 2.wX2.1 e 0.wXq.Q.i.2 9 2.(.8.1 2 3 3 2./.pXeXp.hX0.# 2.sX3.3 4 8.(.9.9 3 3 2 2 2 2 3 2 2 2 3 2 2 2 3 2 2 2 2 2 2 2 2 2 2 2 2 2 2 2 2 2 2 2 ",
"2 2 2 2 2 2 2 2 2 2 2 2 2 2 2 2 2 2 2 2 2 2 e x d.d.d.d.n % % o # # X # X # # # # X # # X # X # # # # # # X X @ l l z z l + 7 7 2 2 2 2 2 2 2 2 2 2 2 2 2 2 2 2 2 2 2 3 2 2 2 2 2 2 9 2 2 2 3 2 2 2 2 2 X.H.9X9X0XG.V X X $ $ X # # X # X # # X # X # # # # X #   $     > V { { J.J.L 7 2 2 2 2 2 2 2 2 2 2 2 2 2 2 2 2 3 2 2 2 2 2 2 2 2 2 2 2 2 2 2 2 2 2 2 2 2 j v h.k.k.v a # # X X X X # # X # # X X # 1 ).kXjXgXr.7 # # # # O b j.h.h.j.v 6 2 2 2 2 2 7 2 2 2 2 2 2 2 2 2 2 3 2 2 2 3 2 2 7 1 # # . # # # # * $ # # * # * # * # * # # # * $ # * # # # $ * # * # # # * 0 D e D t 7 #         $ / '.[.[.7.    .                     . # 7 C D e D 0 7 # # * # * # # # # * * # # * * $ # # $ * # # # * # # $ * $ * # # # # # # # 2 2 2 2 2 2 2 2 2 2 2 2 2 2 2 3 3 2 2 2 2 2 2 2 2 2 2 2 9 2 3 A ( ' ' ' I < & X r `.gXkXyX5.1 # # # X # # X # X # # # # X # # : I [ ] ] ` W 3 3 2 2 3 2 2 3 2 2 2 2 2 9 2 2 2 2 2 2 2 2 2 2 2 2 2 2 2 2 2 2 2 2 2 2 2 2 2 2 2 2 2 2 2 2 2 2 2 7 2 2 2 2 2 ~ D.-X-X-X+XW X # X # # X # X # # # X # X # # X # # # # X # # # = P ` ' ' ' I 8 2 2 3 2 3 3 2 2 2 2 2 2 2 2 2 2 2 2 2 7 2 2 2 2 2 2 2 2 2 3 2 2 2 2 2 2 3 2 2 2 3 2 2 2 2 2 2 2 2 2 2 2 2 2 w ! ] ' ] ( N # # # # # X # # # # X # # # X X X X # # # # X X X * P U ] ' ] I w 2 4 2 2 2 2 2 2 2 2 3 2 2 2 2 2 2 2 2 2 2 2 2 2 2 2 2 2 2 2 2 2 2 # # #   # # # * # # # * # # # * $ # * # * * 9 0 D D D 7 X     X K '.[.[.K.S #                             X $ D D D D 0 7 # # $ # $ # * $ # * # * # # * # # & & # # # # * 2 2 2 2 7 2 2 2 2 2 2 2 2 2 2 2 2 2 2 2 2 2 2 2 2 2 2 2 2 2 2 2 2 2 2 ,.fXG 2 2 3 2 2 2 2 2 2 2 2 2 2 2 2 2 2 2 2 2 2 2 2 2 2 2 0 ,.(.,.2 2 2 2 2 3 2 2 2 2 2 2 2 2 2 2 2 2 2 2 2 2 2 2 2 2 D dX6.% 3 3 3 2 3.p.y.3 3 3 2 2 2 1 1 & & # & 1 1 % & 1 1 O 1 # 1 # 1 & & 1 # & & & & & & & & O 1 & & # 1 O 1 & & # 1 % 1 # $ & 1 1 # 1 1 % & & & 1 1 # 1 1 & O P oX*XY 1 1 1 & & # 1 1 # & & & 1 * 3 | =XC.N % 1 & # & & & & = Z.=XXXZ..XoX*XoXU & $ & & & & & & & = *.*X=X.XoX*X=X*.& & & & 1 # 1 2 2 2 2 2 2 2 & # # # # 2 3 2 3 2 2 3 3 2 2 2 2 2 2 2 2 2 2 2 2 2 2 2 2 2 2 2 2 2 2 2 2 2 2 9 8.Q.8.1 9 ,.wX6.1 2 0 q./.2.1 0 2.eXp.Q.q.2 9 R wXq.2 3 3 0 6XQ.3.t W.hX8.# 2.pX,.0 t p.wXR 3 2 2 3 2 2 2 2 2 2 2 2 2 2 2 2 2 7 2 2 2 2 2 2 2 3 2 2 2 2 2 2 2 2 2 ",
"2 2 2 2 2 2 2 2 9 2 2 2 2 2 2 2 2 2 2 2 2 2 9 c d.v.v.v.d.k % % # X # # X # # # # # X X # X # # # X # X # X O k l z z z u 4 7 2 2 2 2 2 2 2 2 9 2 2 2 2 2 3 2 2 2 2 2 2 2 2 2 2 2 2 2 2 2 2 2 2 2 2 2 7 L G.9X9X9X0XJ.C o $ X $ # X # X # # # # X # X #   #   #   $   > V J.{ { { } D 2 2 2 3 2 2 2 2 2 2 2 2 2 2 2 2 2 2 2 2 2 2 2 2 2 2 2 2 2 2 2 2 2 2 2 9 2 2 4 m h.k.h.k.b @ # # # # # X # # # # # # # # 1.8XkXjXaXH # # # & a v h.k.k.j.a 9 2 2 2 2 2 2 2 2 2 2 2 2 2 2 2 2 2 2 3 2 3 3 2 7 1 X # # # # & $ # $ * * # $ & $ # # * * # * # * # # # $ * # * * # & $ $ * 7 e D D t 9 $         t '.[.[.K.H       .                   # $ 9 D D D D 7 $ # * # * # # $ # * # # # * $ # # * * # # # * # # $ # * # * # # # # # # # & 2 2 3 2 2 2 2 2 2 3 2 2 2 2 2 2 2 2 2 2 2 2 2 2 2 2 2 2 2 2 2 q I  .' ' ` P = . & e ).).7.* X # # X # # # # X # X # # X # X = N ` ' ] ] I w 3 3 3 3 2 3 2 2 2 2 2 2 2 2 2 2 2 2 2 2 2 2 2 2 2 2 2 2 2 2 2 2 2 2 2 2 2 2 2 2 7 2 2 2 2 2 2 2 2 2 2 2 2 3 2 D -.;X-X-X-XV.Z # # # # # # X X # # # X # X X # # # # # X # X * N ` ' ' ' U N 2 2 2 2 2 2 2 2 2 2 3 2 2 2 2 2 2 2 2 2 2 2 2 2 2 2 2 7 2 2 2 2 2 2 2 2 2 2 2 2 2 2 2 2 2 2 2 2 2 2 2 2 2 2 2 8 A ' ] ' ] I < & . . X # X # # X X # # X # # # # X # # X X & & , I  .' ] ` Y q 2 2 2 2 3 2 3 2 3 2 2 2 2 2 2 2 2 2 2 9 2 2 2 2 2 2 2 2 2 2 2 2 2 # # # # # & $ * # * # $ * * # * # * # $ # * 7 e D 0 D 0 $ X o   C K.[.~.K #                               $ 7 D D C D 7 * # $ * # # # * # * * # * # * # # $ # # # X # X $ 2 2 2 2 2 2 2 2 2 2 2 2 2 2 2 2 2 2 2 2 2 2 2 2 2 2 2 2 2 2 2 2 2 2 4 >.fXG 2 2 2 2 2 2 2 2 2 2 2 2 2 2 2 2 2 2 2 2 2 2 2 2 2 2 2 9 D 0 2 2 2 2 2 2 2 2 2 2 2 2 2 2 2 2 2 2 2 2 2 2 3 3 2 2 t dX8.% 3 2 2 2 8 t e 2 2 2 3 2 % % % & $ 1 1 1 # 1 # # % & 1 & % 1 1 & & # $ & & & & & & # 1 $ & & & 1 # $ # & & $ # & 1 1 # 1 # 1 % 1 # & & & & # 1 $ # 1 & # Z %X>XP 1 # 1 # $ 1 1 # $ & 1 & & & = | =XC.P 1 1 & % & & & & * ' .X=X*X*X%X=.I * 1 O & & # & & & & & ,  .XX=X*XXX| < 1 # & & 1 1 # 2 2 2 2 2 2 2 $ X X # X 2 3 2 2 2 2 3 2 2 2 2 2 2 2 2 2 2 2 9 2 2 2 2 2 2 2 2 2 2 2 2 2 2 2 9 8.Q.6.% 9 3.tX6.1 2 0 q.Q.3.1 0 ,.uXE.U.8.4 2 F eXe.1 3 3 3.wXy.2 3 ,.dX8.# 2.hXpXuXsXtXe.9 2 2 2 2 3 2 2 2 3 2 2 2 2 2 2 2 2 2 2 2 2 2 2 2 2 2 2 2 2 3 2 3 2 2 2 ",
"2 2 2 2 2 2 2 2 4 2 2 2 2 2 2 7 2 2 2 2 2 2 4 4 d.d.v.d.d.d.u % # # # X # # X X X # # # # # # X # X # # X % + z z l l l + 2 2 2 2 2 2 2 2 2 2 2 2 2 2 2 2 2 2 2 2 2 2 2 3 2 2 2 2 2 2 2 2 2 3 2 2 2 2 2 0 X.0X9X9X9X<XX.$ o $ X # X # # # X X # # # X # # # # #   $   > } J.{ { { V 9 3 2 2 2 2 2 2 2 2 2 2 2 2 2 2 2 2 2 3 2 2 2 2 9 2 2 2 2 2 2 2 2 9 2 2 2 2 3 7 a j.h.h.k.j.b 4 X # # X # # # X X # X # $ 1 r.gXgX).e # # # @ v h.h.k.k.b r 3 2 2 2 2 2 2 2 2 2 2 3 2 2 2 2 2 3 2 2 2 2 2 2 2 & X # # # # & # * & # # # * # # * # # # $ # $ # $ # * # * # # # $ $ # $ # * e D e D D 9 #       9 K.[.[.5.                            # 7 0 D e D 0 2 $ # # $ # $ * # $ # * # $ # # * # # # # * * # $ * # $ # # $ # * # # # # X # 2 2 2 2 2 2 2 2 2 2 2 3 2 2 2 2 2 2 2 2 2 2 2 2 2 2 2 2 2 2 2 2 Y ` ] ] ] U B & X X D D 2 # # X # # # X X # # # X # # X # # , U ' ] ] ` W 8 3 3 2 2 2 2 2 2 2 2 2 2 2 2 2 2 2 2 2 2 2 2 2 2 2 2 2 2 2 2 2 2 2 2 2 2 2 2 2 2 2 2 2 2 3 2 2 2 2 2 2 2 2 2 3 7 ) +X-X-X-X&X-.8 # X X # # % X # X # # # # # # X X X # # # X : I ' ' ' ' Q 8 2 2 2 2 2 2 2 2 3 2 2 2 3 2 3 2 2 3 2 2 2 2 2 2 2 2 2 2 2 2 2 2 2 3 3 2 2 2 3 2 2 2 2 2 2 3 3 2 2 2 2 2 2 3 2 2 w U ' ] ] ` I * & # # # X # # X & # # # X # # X # # X & # X * I ` ] ] ` ! q 2 2 2 2 2 2 2 2 2 2 2 2 3 2 2 2 2 2 2 3 2 2 2 2 2 2 2 2 2 2 2 3 2 2 # X # # # # & # $ # * # # # # # $ # * # $ # * 0 D D D D 9 $     X D 5.K $                                 q D D D 9 0 = * # $ # # * $ # $ # # $ # # & $ * # & & # X # # 1 3 2 2 2 2 2 2 2 2 2 2 2 2 9 2 2 2 2 2 2 2 2 2 2 2 2 2 2 2 2 2 2 2 2 2 e 2.0 2 2 2 3 2 2 2 2 2 2 3 2 2 2 2 2 2 2 2 2 2 2 2 2 2 2 2 2 % 4 2 2 2 2 2 2 2 2 2 2 2 2 2 2 2 2 2 2 2 2 2 4 3 2 2 2 9 2.t 2 2 2 3 2 2 2 4 2 2 2 2 2 2 % 1 & # $ O & & & $ 1 1 & # & 1 1 # & & 1 # # & & & % 1 1 # # $ & & 1 1 # $ & 1 # $ & # O $ 1 1 & & & & & & & & 1 1 # 1 & & # : Y I 3 & & 1 1 # $ O $ O & % & & & 1 , Y P 2 X & & 1 & & & & & q N I Q I W w * & # & & & $ O & & & & & > A W I Y < & 1 & & & # 1 1 2 2 2 2 2 2 2 # # # X # 2 2 2 2 3 2 2 2 2 2 2 2 2 2 2 2 2 2 2 2 2 7 2 2 2 2 2 2 2 2 2 2 2 2 9 8.Q.6.2 4 3.tX6.1 2 0 0.Q.,.1 4 2.pXU.U.q.2 9 R eXe.% 3 8 2.6X8.2 3 t dX9.# 2.dXa.0.0.W.Q.,.3 2 2 2 2 2 3 2 2 2 2 3 3 2 2 2 2 2 2 2 9 2 2 2 2 2 2 2 2 2 2 2 2 2 2 ",
"2 2 2 2 2 2 2 2 2 2 2 2 2 2 2 2 2 2 2 2 2 2 2 2 u d.v.v.v.d.d.+ X # o # # # # # X # # # X X # # % o % X O + k z z z l + 4 2 2 2 2 2 2 2 3 2 2 2 2 2 2 2 2 2 2 2 2 2 2 2 2 2 2 2 2 2 2 2 2 2 2 2 2 2 2 2 2 H F.qX9X9XqXG.X.$ # # # X # # # X X # # X # # X # # # $ $ V } { { { J.L C $ 7 2 2 2 2 2 2 2 3 2 2 2 2 2 2 2 2 2 2 2 9 2 2 2 2 2 2 2 2 2 2 2 2 2 2 2 2 3 2 4 m h.k.h.k.j.c y X # # X X # # # X # # #   H w.9.J & . O + b h.h.h.k.j.j 2 2 2 2 2 2 2 2 2 2 2 2 3 3 2 2 2 2 3 2 2 2 2 2 2 3 1 # # X # # # # * * $ # $ # * # $ # $ # # # * $ * * # $ # # $ * & # * # $ $ 7 0 D D D t 7 % o   $ e / 5.q                         # # 2 0 D D D 0 7 $ # * $ # * * # $ * # # $ # # * # # * # * # $ # # * # * # * # # $ # # # # # & 2 2 2 2 2 2 2 2 2 3 2 2 2 2 2 3 2 2 2 2 2 2 2 2 2 2 2 2 2 2 2 2 q I ] ' ] ] | Y * X #   # # # X # # # X X # # X # # X # * , I [ ' ' ' I w 2 2 2 2 2 2 2 2 2 2 2 2 2 2 2 2 2 2 2 2 2 2 2 2 2 2 2 2 2 2 2 2 2 2 2 9 2 2 2 2 2 2 2 2 3 3 2 2 2 2 2 2 2 2 2 2 2 w &.-X-X-X;X+X .: # X # X X # # # # X X X # # # # # X # & : P ] ' ] ] I w 3 3 3 2 2 2 2 2 2 2 2 7 2 2 2 2 2 2 3 2 2 7 2 2 3 7 2 3 2 2 2 2 2 2 2 2 2 2 3 2 2 2 2 2 2 2 3 2 2 2 2 2 2 2 2 2 2 8 A ` ] ' ] ` P = # X & # # X # # X X X # # # # X X # . & : P U ] ' ] U Z 8 2 2 2 2 2 2 3 2 2 2 7 2 2 2 2 2 2 2 7 3 2 2 2 2 2 2 2 2 2 2 2 2 2 2 # # # . # # & $ # $ # # $ # * # * # $ # * * $ 7 0 D D D D 7 % o o o q $                             o o 7 0 D D D 9 8 * $ $ # # # * # * # $ # * # * # # * # & $ # # X # $ 2 2 3 2 2 3 2 2 2 2 2 2 2 2 2 2 2 2 2 2 7 2 9 2 2 2 2 2 2 2 2 2 2 2 2 2 1 2 2 2 2 2 2 2 2 2 2 3 2 2 2 2 2 2 2 2 9 2 2 2 2 2 2 2 2 2 2 2 2 2 2 2 2 2 2 3 2 2 2 2 2 2 2 2 2 2 2 2 2 2 2 2 2 2 2 2 2 2 2 2 2 2 2 2 2 2 3 2 2 2 2 1 1 & & & & # 1 1 # # 1 1 & 1 # # 1 & & O $ 1 1 % & & & # $ 1 # & & % & & & & & # O & & & & # 1 & & & & # 1 # % # 1 1 # 1 & % % % X # 1 1 % & & O $ # $ # 1 $ # 1 # & X O $ 1 X 1 1 1 % 1 1 & # X % % O X % & & & & # 1 & 1 & 1 1 # 1 # % X % X O # O & & & 1 % 1 2 2 2 2 2 2 2 & X # # # 2 2 2 2 2 2 2 2 2 2 2 2 2 2 2 2 2 2 2 2 2 2 2 2 2 2 2 2 9 2 2 2 2 2 9 2./.0.1 9 2.eX6.% 2 0 2.(.2.1 t 8.eXy.W.y.1 9 ,.wX0.1 2 3 2.6X8.1 4 t sX0.O 6.uXR 2 2 2.(.p.t 2 2 2 2 3 2 2 2 2 2 2 2 2 2 2 2 2 2 2 2 2 7 2 2 3 2 2 2 2 2 2 2 2 2 ",
"2 2 2 9 2 2 2 2 2 2 2 2 2 2 2 2 2 9 2 2 2 2 2 2 9 c d.d.v.v.d.d.+ O # % o # X # # # X X # # # X o % % O + z z z z l k 6 2 2 2 2 2 2 2 2 2 2 2 2 2 2 2 2 2 2 2 2 2 2 2 2 2 2 2 2 2 2 2 2 2 2 2 2 2 2 2 7 2 1 L H.9X9X9XqXH.X.> # X # # X # # # # # # X # X # # $ $ V X.J.{ { { } V > 7 7 2 2 2 2 2 2 2 2 2 2 2 2 2 2 2 2 2 2 2 2 2 2 2 2 2 2 2 2 2 2 2 2 2 2 2 2 2 2 7 5 v k.h.h.h.h.m @ #   # # X X # # # X # X * * X X # # a b h.h.h.h.j.m 4 2 2 2 7 3 2 3 2 2 2 2 2 2 2 2 2 2 2 2 2 2 2 2 3 2 7 1 X # X # # $ # # # # * # # # * # * # * * $ # # # # # # * * # # $ # # $ # # & 7 D D e t t 7 2         $                         # # 7 0 D 0 D D 9 * $ # # & * # # * # # $ * # * # # $ $ # $ # * # * $ $ # # $ # # * # # #   # X $ 2 2 2 2 2 3 2 2 2 2 2 2 2 2 2 2 2 2 2 2 2 2 2 2 2 2 2 2 2 2 2 2 2 w U ' ` &.A.A.( q # # # . # X # X # # # # # # X # # * B I ]  .' ' ( Z 2 2 2 2 2 2 2 2 2 2 2 2 2 2 9 2 2 2 2 2 2 2 2 2 2 2 2 2 2 2 2 2 2 2 2 2 2 2 2 2 2 2 2 2 2 2 2 2 2 2 7 2 2 2 2 2 2 2 2 e D.:X-X-X-X&X..w & X # # # X X # # # # # X X # X & = , I ] ' ' ] | Y 8 3 2 2 2 2 3 2 2 2 3 2 2 2 2 2 2 2 2 2 2 2 2 2 2 2 2 2 2 2 2 2 2 2 2 2 2 2 2 2 3 2 2 3 2 2 2 2 2 2 2 2 2 2 2 2 2 2 2 2 Q ` ' ' ] ' N : & X X # X # # X # # # X X # # # # & , P ' ] ] ' U I 8 2 2 2 2 2 2 2 2 2 3 2 3 2 3 2 2 2 2 2 2 2 2 2 7 2 2 2 2 2 2 2 2 2 2 2 # # # # # # # # * # * * # * # $ * # # * # # # # 8 D 0 D D D 9 7 X o                                 $ 7 D D D 0 D 9 * * $ # * * $ # # # * # # # # * * # * # # $ X # # X $ 2 2 2 2 2 2 2 2 2 2 2 2 2 2 2 2 2 2 2 2 2 2 2 2 2 2 2 2 2 2 2 2 2 2 2 2 2 2 2 3 2 2 3 2 2 2 2 2 2 2 2 2 2 2 2 2 2 2 2 2 2 2 2 2 2 2 2 2 2 2 2 2 2 2 2 2 2 2 2 2 2 2 2 3 2 2 2 2 2 2 2 2 9 2 2 2 2 2 2 2 2 2 2 2 2 2 2 2 3 2 2 % # & & & & & % O $ 1 1 # & 1 1 $ # & & 1 1 1 # 1 1 & 1 $ O & & & & & & & & & & 1 1 & & & % % 1 & & & & $ # 1 1 $ O 1 # 1 % # 1 1 1 & 1 # 1 & & 1 1 1 # 1 1 & $ O & & & % # 1 1 1 1 & 1 # # - 1 & & # # & & & & 1 & & & # 1 & # 1 1 % 1 O $ 1 # $ & $ # & & 1 # 1 2 3 2 3 2 2 3 & # X # X 2 3 2 2 2 2 2 3 2 2 2 2 2 2 2 2 2 2 2 2 2 2 2 2 7 2 2 2 2 2 2 2 2 2 3 D (.a.3 0 i.Q.>.t J 0 J wX0.2 t p.Q.2.Q.W.9 9 q.Q.2.2 2 3 3.wXa.3 8 2.fX0.# 2.uXR 3 1 3.Q.Q.9 2 2 2 2 2 2 2 2 2 2 3 2 2 2 2 2 2 2 2 2 2 2 2 2 2 2 2 3 3 2 2 2 2 2 ",
"2 2 2 2 2 2 2 2 9 2 2 2 2 2 2 2 2 2 2 2 2 2 2 2 7 9 x d.d.d.v.v.n c O % # # o # # X # # X % # X o % O u l z z z l k 6 2 2 2 2 2 2 2 2 2 2 2 2 3 2 2 2 2 2 2 3 2 2 2 2 2 2 2 2 9 2 2 2 2 2 2 2 2 2 2 2 2 2 2 9 X.<X9X9X9X9X0XJ.> # # X # X # # X X X # X # X $ = V { { { { { X.L 9 $ 7 7 2 2 2 2 3 2 2 2 2 9 2 2 2 2 2 2 2 2 2 2 2 2 2 2 2 2 2 2 2 2 2 2 2 2 2 2 3 3 3 3 6 v h.k.h.h.k.b 6 # # # # # X # # # # X # . # # O a v k.h.h.h.j.b j 3 2 2 2 2 2 2 2 2 3 2 2 2 2 2 2 2 2 3 2 3 2 2 3 2 2 7 1 $ # # # # # * # # * # # * # # $ * # # # * # * * # * $ # # $ $ # * # $ $ # $ $ 9 e D D D F G 0                                 $ 7 D D D D 0 9 7 * # * # $ # # * # $ * # * # # $ * # # * # * # * # # * * # # $ # # * # # # # X # 2 2 2 2 2 2 3 2 2 2 2 2 2 2 3 2 2 2 2 2 2 2 2 2 2 2 2 2 2 2 2 2 2 3 w U  .A.+X;X&X&.> # # # # # X # X # # X X X # $ = N U ] ' ' ' ( Y 8 2 2 2 2 2 3 2 2 3 2 2 2 2 2 2 2 2 2 2 2 2 2 2 2 2 2 2 2 2 2 2 2 2 2 2 2 2 2 2 2 2 2 2 2 2 2 2 2 2 2 2 2 2 2 7 2 2 2 3 8 T D.-X-X-X-X:X-.w # X # # X X # # # # X # # # # * , U ] ' ] ] U Y w 3 2 3 2 2 2 7 2 2 2 2 2 2 2 2 3 2 2 2 2 2 2 2 2 2 2 2 2 2 2 2 2 7 3 2 2 2 2 2 2 2 2 2 2 2 2 2 2 2 2 2 2 2 2 2 2 2 2 2 2 w ! ' ' ' ' ' I , # # # # # # # # # # X X # X # & , I [ ] ] ] ` Q w 2 2 2 2 2 2 3 2 2 3 2 2 2 2 2 2 2 2 2 2 2 2 2 2 2 2 7 2 2 2 2 2 2 2 2 2 # X #   # $ * # # * # $ # # * $ # $ # # * # $ $ $ 9 0 D 0 D K 3.C #                               $ 7 D D 0 D D 9 7 $ # * # # # # $ * & # $ * & # # # $ # $ # # # # # X # 3 2 2 2 2 2 2 2 2 2 2 2 2 7 2 2 2 2 2 2 2 2 2 2 2 2 2 2 2 9 2 2 2 2 2 2 2 2 2 2 2 2 2 2 3 2 2 2 2 2 2 2 2 2 2 2 2 2 2 2 2 2 2 2 2 2 2 2 2 2 2 2 2 2 2 2 2 2 3 3 2 2 2 2 2 2 2 2 2 2 2 2 2 2 2 2 2 2 2 2 3 2 2 2 2 2 2 2 2 2 1 # 1 O 1 # 1 1 1 # 1 % 1 & & # % & $ & & & # 1 # $ # & & & 1 # 1 & & $ # & & 1 % 1 X & # 1 1 & $ # 1 & # 1 $ & & # & & 1 % 1 1 # 1 % & & % 1 & & & # & & & # & & & & & 1 & & & # 1 # & 1 & 1 % $ # 1 % 1 1 1 # & & & # & & & & & O $ 1 # & & 1 1 1 & & & & & & & % 2 2 2 3 2 3 2 & X # # # 2 2 2 3 2 2 2 2 2 2 9 2 2 2 2 2 2 2 2 2 2 2 2 2 2 2 2 2 2 2 2 2 2 2 2 2 E.Q.2.2.wXy.F y.Q.e 0 (.W.,.8.wX0.0 i.6X2.3.6Xi.F 2 2 3 9 (./.,.3.I.hX8.# 2.sX8.G G a.wXq.9 2 2 2 2 2 2 2 2 2 2 2 2 2 2 3 2 7 2 2 2 2 2 2 2 2 2 2 4 3 2 2 2 2 2 ",
"2 2 2 2 2 2 2 2 2 2 2 2 2 2 7 2 2 2 2 2 2 2 2 2 7 7 6 x v.v.v.d.v.n c % # # # # # # X # # X # # % % u l z z z z l + 4 3 2 2 2 2 2 2 2 2 2 2 2 2 2 2 2 9 2 2 2 2 2 2 2 2 2 2 2 2 2 2 2 2 2 2 2 2 2 2 2 2 2 2 7 0 X.<X9X9X9X9X0XX.9 # # # X # # # # # # # # # 1 C } { { { J.{ L q 7 2 7 7 2 2 2 2 2 2 2 2 2 2 2 2 2 2 2 2 2 2 2 2 2 2 2 2 2 2 2 2 2 2 2 2 2 2 2 2 3 3 3 3 3 a v h.k.k.h.h.b 6 # # # X # # X X # # # # # & 6 v h.h.h.h.h.b j 3 2 2 2 2 3 2 2 3 2 2 2 7 2 2 2 2 3 2 2 2 2 2 2 2 2 2 7 1 # # # X # $ # $ $ # * * # $ * # # $ # * # $ # # # $ # * * # # * # $ $ # $ $ $ 2 7 D D F >.6./ > $                           $ 7 D D 0 D D 0 = * # # * # # * # # # * # $ # # * # * # # * # $ $ # # * # # # * # * # # # #   # # # 2 2 3 2 2 2 2 2 2 2 2 2 3 2 2 2 2 2 2 2 2 2 9 2 2 2 2 2 2 2 2 2 2 2 r A =.+X;X;X-X&X..8 # . X # # # X # # # # # # 1 , U ] ] ' ' ` W q 2 2 2 2 3 2 2 2 2 2 2 2 2 2 2 2 2 2 2 2 2 2 9 2 2 2 2 7 2 2 2 2 9 2 2 2 2 2 2 2 2 2 2 3 2 2 2 2 2 2 3 2 2 2 2 2 2 2 2 2 3 0 ) OX-X-X-X;X:X-.w 1 # X & # # X X # # # # # 1 q I [ ] ' ' ' Q w 2 2 2 2 2 2 2 3 2 2 2 2 2 2 3 2 2 2 2 2 3 2 2 2 2 2 2 2 2 2 2 3 2 2 2 2 3 2 2 2 3 2 3 2 2 3 2 2 2 2 2 2 3 2 2 2 2 2 2 2 2 3 w I ] ' ' ' ' I : & X # X X # X X # # # # # & : I ] ] ] ` ] ( Z 3 2 2 2 2 2 2 2 2 2 2 2 2 2 3 2 2 2 3 2 2 2 2 2 2 2 2 2 2 2 2 2 3 2 2 2 2 # # # # # # * # # * * # * # # # * # * # # & $ # $ = 9 D D H 2.7./ 9 #                   X     $ $ 7 D D D D 9 D 7 % * # # # * $ * # # $ * # # $ * # * # * # $ # # X # # 1 2 2 2 2 3 3 2 2 2 2 2 2 2 2 2 2 2 2 2 2 2 2 2 2 2 2 2 2 2 2 2 2 2 2 2 2 2 2 2 2 2 2 2 2 2 2 2 2 2 2 2 3 2 2 2 2 2 2 2 2 2 2 2 2 2 2 2 2 9 2 2 2 2 2 2 2 2 2 2 2 2 2 2 2 2 2 2 2 2 2 2 2 2 2 2 2 2 2 2 2 2 2 2 2 2 2 3 2 2 2 2 $ # $ 1 # 1 # 1 1 & & & & 1 1 1 & O & & & & O $ # 1 & & # 1 1 1 & & & $ O & 1 1 1 1 1 1 # 1 & O $ # & & 1 O & & & & & & & 1 # # $ O & & & 1 & & & & & & & 1 & & & & & & & & & % 1 1 1 # & & % O $ # % # % & 1 & & & & & & & & & & & & & & 1 1 % # & & & & & 1 % 1 2 3 2 2 2 2 2 & # X X X 2 2 2 2 2 2 2 2 2 2 2 2 2 2 2 2 2 2 2 2 2 2 2 2 2 2 2 2 2 2 2 2 2 2 2 4 3.E.sXuXE.F 9 i.wXD 4 ,./.sXtXU.t 2 F p.sXsX/.3.2 2 2 3 3 >.Q.sXeXa.sX8.# 2.dXdXsXsXeXa.t 8 2 2 2 2 2 2 2 3 2 2 2 2 2 2 2 2 2 2 2 2 2 2 2 2 2 2 2 2 2 2 2 2 2 2 ",
"2 2 2 2 2 2 2 2 2 2 2 2 2 2 2 2 9 2 2 2 2 2 2 2 2 2 2 6 M d.v.v.c.n 4 2 1 % # # # X # X # # % 1 2 2 + k l z z k + 4 2 2 2 2 2 2 2 2 2 2 2 2 2 2 2 2 2 2 2 2 2 2 2 2 2 2 2 2 2 2 2 2 2 2 2 2 2 2 2 2 2 2 2 2 2 7 C X.H.qX9X9XH.K 2 2 % % # # # # # X % % % 2 2 9 V { { { X.L V 7 2 2 2 2 2 2 2 2 2 2 2 2 2 2 3 2 2 2 3 2 2 2 2 2 2 2 7 2 2 2 2 2 2 2 2 3 2 2 2 2 2 2 2 2 2 3 m b k.h.h.h.m 7 2 1 1 $ # # # # # # % $ 1 2 4 m h.k.h.j.b j 3 2 3 2 2 2 2 3 2 3 2 2 3 2 2 2 2 2 2 3 2 2 2 2 2 2 2 3 2 * # # # # # # * # * # # $ # * $ # * * # $ * # # # $ # # * * # * # * # $ # # * * $ * q D J 4.8./ $ % % # #               . # # # 7 e D D e 0 7 * # $ # # $ # # * # * # $ # $ # # # * # * # * # $ # # * * # # # # * $ * # # # # X & 3 2 2 2 2 2 2 2 2 2 2 2 2 2 2 2 2 2 2 3 2 2 2 2 2 9 2 2 2 2 2 2 2 2 2 r ..+X;X;X-X+XT 2 2 1 $ # # $ # # $ # & 1 1 2 q I | ' ' ( Y q 3 2 2 2 2 2 2 2 2 3 2 2 2 2 2 2 2 2 2 2 2 2 2 2 2 2 2 2 2 2 2 2 2 2 2 2 2 2 2 2 2 2 2 2 3 2 2 2 2 2 2 7 2 3 2 2 2 2 2 3 2 3 2 8 ) D.;X-X;X&X) 2 2 * & # $ # # $ # $ & 1 * 2 3 I ' ] | | Q w 3 2 2 2 3 2 2 2 2 2 2 2 2 2 2 2 2 2 2 2 2 2 2 2 2 2 2 2 2 3 2 2 2 7 2 2 2 2 2 2 2 3 2 2 2 2 2 2 2 2 2 3 2 2 2 2 2 2 2 2 2 2 2 7 w ! ] ' ' ' Y 3 2 1 $ $ # # & # # # # & 1 2 3 A ` ' ' ` I Z 3 2 2 2 2 2 2 2 2 2 3 2 3 2 2 2 2 2 2 7 2 3 2 2 2 2 2 2 2 7 2 2 2 2 2 2 2 2 # X # # # # & # * # # # $ # * # # $ # $ * # * # $ # $ 9 H 1.7.8.3.% # # #               # # # # $ 7 9 D D 9 9 7 $ $ # $ * * # $ # $ # $ # # # * * # # # # * # # # # # X & 2 2 2 2 2 2 2 2 3 3 2 2 2 2 2 2 3 2 2 2 2 2 2 2 2 2 2 2 2 2 2 2 2 2 2 2 2 2 2 2 2 2 2 2 2 2 3 2 2 2 2 2 2 2 2 2 2 2 2 2 2 2 2 2 2 2 2 2 2 2 7 2 2 2 2 2 2 2 2 2 2 2 2 2 2 2 2 2 2 2 2 2 2 2 2 2 2 2 2 2 2 3 2 2 2 2 2 2 3 3 2 & & & & & & # % % 1 # 1 1 % & & % % % # # % & % 1 # % 1 # % X 1 1 1 # X 1 1 # % % 1 & & 1 $ & & % # 1 % 1 # & & 1 & & & & & # % % 1 & & 1 # 1 # 1 # & & & % # 1 1 % & 1 & & # % % % & & 1 & 1 X # # & 1 $ % 1 O 1 $ & 1 $ & 1 1 % 1 # 1 1 % # 1 1 # # % % % & & 1 2 7 2 3 2 2 2 $ X X # # 2 2 2 2 2 2 2 2 2 2 2 2 2 2 2 2 2 2 2 2 2 2 2 2 2 2 2 2 2 2 2 2 2 2 2 2 9 t 3.R t 7 2 t G 7 2 9 F R R D 2 3 2 t 3.3.t 7 3 3 2 2 2 8 F 3.J t J 9 2 9 R R R ^ J t 2 2 2 2 2 2 2 2 3 2 2 2 2 2 2 2 3 2 2 2 2 2 2 2 2 2 2 2 2 2 7 2 2 2 2 2 ",
"2 2 2 2 2 2 2 2 2 2 2 2 2 2 2 2 2 2 2 2 2 2 2 2 2 2 2 2 6 x d.v.n c 3 2 2 2 2 2 1 2 2 % 2 2 2 2 2 2 2 u l z k + 4 2 2 2 2 2 2 2 2 2 2 2 2 2 3 2 2 2 2 2 2 2 2 2 2 2 2 2 3 2 2 2 2 2 3 2 2 2 3 2 2 2 2 2 2 2 2 2 7 C X.G.qX0XX.C 2 2 2 2 % 2 1 2 1 2 2 2 2 2 2 2 V { { { V > 7 7 2 2 2 2 2 2 2 2 2 9 2 2 2 2 2 2 2 2 2 2 2 2 2 2 2 2 2 2 2 2 2 2 2 2 2 2 3 2 2 2 2 2 2 2 3 2 4 j v k.k.b 6 7 2 2 2 1 1 1 % 2 1 2 2 2 2 2 2 j v k.j.b j 2 2 2 2 2 2 2 2 2 2 2 2 2 2 2 2 2 2 2 2 2 3 2 2 2 2 7 2 2 2 * .   # # # # * # # $ * # $ # # * # # * # # $ * * # * $ # # $ & $ # # # * $ # # # * * t 5.9.>.9 % $ $ # # # # # # # # # # * # $ $ 9 D e 0 7 $ # $ # * * # * # * # # # # * # * * # # $ # $ # # * * # # # # * * $ # # * # # # # X & 2 3 3 2 2 2 2 2 2 2 2 2 2 2 2 2 2 2 2 2 2 2 2 2 2 2 2 2 2 2 2 2 2 2 2 3 t ..OX;X&X&.0 2 2 2 2 2 1 1 1 1 1 2 2 2 2 2 3 Z ` ] U Y w 3 2 2 2 3 2 2 2 2 2 2 2 2 2 2 2 2 2 2 2 2 2 2 2 2 2 2 2 2 2 2 2 2 2 2 2 2 2 2 2 2 2 2 2 2 2 2 2 2 2 2 2 2 2 2 2 2 2 2 2 2 2 2 2 2 8 ~ D.;X-X-.e 2 2 2 2 2 1 2 1 1 1 1 2 2 2 3 3 w ! ] | W w 3 2 2 2 2 2 2 2 2 3 2 2 2 3 2 2 2 2 2 2 2 7 3 2 2 2 2 2 2 2 2 2 2 2 2 3 2 2 2 2 2 2 2 2 2 2 2 2 2 2 3 2 2 2 2 2 3 3 2 2 3 2 2 2 2 7 w Q ] ' I w 2 2 2 2 2 1 2 2 1 1 2 2 2 2 2 2 w Q ' ` ! w 8 3 3 3 2 3 2 2 2 2 2 2 2 2 2 2 2 2 2 2 3 2 2 2 2 2 2 2 3 2 2 2 2 2 2 2 2 2 2 # # X # # & $ # # $ # * # * # $ * # * # * # # # # * $ 7 D 5.9.1.e % $ # # # # # # # # # # # # * # * 7 D D D 7 $ $ $ # * # # * # * # * # * * $ # # # # * # * # $ # # # X & 2 2 2 2 2 2 2 2 2 2 2 2 2 2 2 2 2 2 2 2 2 2 2 2 2 2 2 2 2 2 2 2 2 2 2 2 2 2 2 2 2 2 2 2 2 2 2 2 3 2 2 2 3 2 2 2 2 2 2 2 2 2 9 2 2 2 2 2 2 2 2 2 2 2 2 2 2 2 2 2 2 2 3 2 2 2 2 2 2 2 2 2 2 2 2 2 2 2 2 2 2 2 2 2 2 2 2 2 2 2 2 1 2 2 1 2 1 2 2 1 2 1 2 1 2 1 2 1 2 1 2 2 2 1 1 2 2 2 1 2 2 2 2 1 2 2 2 1 2 2 2 2 1 1 2 1 2 1 2 1 2 2 1 2 2 2 1 1 2 2 1 1 2 2 2 1 2 2 1 1 2 2 2 1 2 2 1 2 2 1 2 1 2 2 1 1 2 2 2 1 2 2 1 1 2 2 2 2 2 2 1 2 2 1 * 1 2 2 1 1 2 1 2 2 1 1 2 1 2 2 1 2 2 2 2 1 2 1 2 1 2 2 2 2 2 2 2 & # # # # 2 2 2 2 2 2 2 3 2 2 2 2 2 2 2 2 2 2 2 2 2 2 2 7 2 2 2 2 2 2 3 2 2 2 2 2 2 2 1 2 2 2 2 2 2 2 2 2 2 % 2 2 2 3 2 2 2 1 4 2 2 3 2 2 2 2 2 1 2 2 2 2 2 2 4 1 2 1 2 2 2 2 2 2 2 2 2 2 2 2 2 2 2 2 2 2 2 2 2 2 2 2 2 2 2 2 7 2 2 2 2 2 2 2 2 2 ",
"2 2 2 9 2 2 2 2 2 2 2 2 2 2 2 2 2 2 2 2 2 2 2 2 2 2 2 2 7 6 x n x e 3 2 2 2 3 3 3 3 3 3 2 2 2 2 2 2 2 6 k u + 4 7 7 2 2 2 2 2 2 2 9 3 2 2 2 2 2 2 2 2 2 2 2 2 2 2 2 2 2 2 2 3 2 3 2 3 2 3 2 2 2 7 2 2 2 2 2 2 2 7 % 0 X.G.F.S 7 2 2 2 3 2 2 2 3 3 3 2 2 2 3 2 3 > L X.L 9 7 $ 7 9 2 2 2 2 2 2 2 2 2 2 2 2 2 2 2 2 2 2 2 2 2 2 3 2 2 2 2 2 2 2 9 2 2 2 2 2 2 2 2 2 2 2 2 2 2 2 2 6 b b m 2 2 2 2 3 2 7 8 3 3 3 3 2 2 2 2 3 9 m v m j 4 1 2 2 2 3 2 2 2 2 2 2 2 2 2 2 2 3 7 2 2 2 2 2 2 2 3 2 2 2 2 * # # # # # * # * # # $ # # * # # * $ # * # # # $ $ # # * * # # # * * $ # # * # * # # 2 J ,.t $ $ $ $ * # # # # * # $ $ * $ # $ $ 2 9 8 = * # * # $ # $ & $ # # * # * # * # * # $ * # * * # * # # # $ $ # & # # $ # # # # # # # & 2 2 2 2 2 2 2 2 2 2 2 2 2 2 2 2 3 2 3 2 2 2 2 2 2 2 2 2 2 2 2 2 2 2 2 2 2 8 ) A.-.t 3 2 2 2 2 7 3 2 7 3 2 7 2 2 2 2 3 q P Q A w 2 2 2 2 2 2 2 2 2 2 3 2 2 2 2 2 2 2 2 2 2 2 2 7 2 2 7 2 2 2 4 3 2 2 2 2 2 2 2 2 2 2 2 9 2 2 2 2 2 2 3 2 2 2 2 2 2 2 2 2 2 2 2 2 3 2 3 4 ~ -.A.T 3 2 2 2 2 2 3 2 2 3 7 3 2 2 3 2 2 2 A Q A w 3 2 2 2 2 2 2 3 2 2 2 2 2 2 3 2 2 2 3 2 2 2 2 2 2 2 2 3 2 2 2 2 2 2 2 2 2 2 2 2 2 2 2 2 2 2 2 2 2 2 2 2 2 2 2 2 2 3 2 2 2 3 3 2 2 2 2 3 q I Q Z 3 2 2 2 2 2 2 7 2 3 3 3 2 2 2 2 2 3 Z Q Y w 8 2 3 2 2 2 2 2 2 2 2 2 2 2 2 2 2 2 2 2 2 2 2 2 2 2 7 2 2 2 2 2 2 2 2 2 2 3 2 2 # # X # # # # * # $ # * # * * # # $ * # # # # * # # $ $ 7 H <.D $ % # * # $ * # $ # # # # # # # # # $ 9 9 7 $ # $ $ # # * # # # $ # # # $ # # * $ * $ # # $ $ # # # X # & 2 2 2 2 2 2 2 2 2 2 2 2 2 2 2 2 2 2 2 2 2 2 2 2 2 2 2 2 2 2 2 9 2 2 2 2 2 2 2 2 7 2 2 7 2 2 2 2 2 2 2 2 2 2 2 2 2 2 9 2 2 2 2 2 2 2 7 2 2 2 2 2 2 2 3 2 3 2 2 3 2 2 3 2 2 2 2 2 2 2 2 2 2 2 2 2 2 2 2 2 2 2 2 2 2 2 2 2 2 2 2 2 2 2 3 2 2 8 2 2 2 2 3 2 3 3 3 3 2 3 2 3 3 3 3 2 2 2 2 3 3 2 2 2 2 2 3 2 2 3 3 2 2 2 3 2 3 3 3 2 2 2 2 2 3 2 3 2 2 2 3 2 2 7 3 2 2 2 3 2 3 2 2 2 2 2 2 3 2 2 3 2 3 2 3 2 2 3 3 3 3 2 3 3 2 2 2 2 2 2 2 2 3 7 2 7 2 2 3 3 2 3 2 2 3 2 3 2 3 2 2 2 2 3 2 2 3 2 3 3 3 2 2 2 2 2 2 # # # X X 2 2 2 2 2 2 2 3 2 2 2 2 2 2 2 2 2 2 2 2 2 2 2 2 2 2 3 3 2 2 2 2 3 2 2 2 2 2 2 2 2 2 2 2 2 2 2 2 2 3 3 2 2 2 2 2 2 3 2 3 2 2 2 2 2 2 2 2 2 2 2 2 2 2 2 2 3 2 2 2 2 2 2 2 3 2 2 2 2 2 2 2 2 2 2 7 2 2 2 2 2 2 2 2 2 2 2 2 2 2 2 2 2 2 2 2 ",
"2 2 2 2 2 2 2 2 2 2 2 2 2 2 2 2 2 2 2 2 2 2 2 2 2 2 2 7 7 7 9 6 6 7 2 2 2 2 2 3 3 3 3 3 2 2 2 2 2 2 2 3 4 4 7 7 2 2 2 2 2 2 2 2 2 2 2 2 2 2 2 2 2 2 2 2 2 2 2 3 2 2 2 2 2 2 2 2 2 2 2 2 2 2 3 2 2 2 2 2 2 2 2 2 7 7 7 7 D L 7 7 2 2 2 2 2 2 2 2 2 3 2 2 2 2 2 2 $ q > 7 7 7 7 7 2 2 2 2 2 2 2 2 2 2 3 2 2 2 2 2 2 2 2 2 2 2 2 2 2 2 2 2 2 2 2 2 2 2 2 2 2 2 2 3 3 2 2 2 3 2 2 3 4 0 6 4 7 2 2 2 2 2 2 2 2 2 2 2 2 2 2 2 3 7 5 6 4 2 7 2 2 2 2 2 2 2 2 2 2 2 2 3 2 2 2 2 2 2 2 2 2 2 2 2 2 2 2 2 2 1 #   # # # $ $ # # * * * # # * # # # $ # # * * # # * # # # # * # # # # * # # $ # * * $ 1 9 2 $ $ X $ # # * * $ # $ # # * # * # # $ 2 * $ $ # # # * & # * # * $ # $ # $ # $ # * # # $ # # $ # # * * # # * $ # * # * # # # #   X # 2 2 2 2 2 3 2 2 2 2 7 2 2 2 2 2 2 2 2 2 2 2 2 2 2 2 2 2 2 2 2 2 2 2 2 2 2 2 3 w T 9 2 2 2 2 2 2 2 2 3 2 2 2 2 2 2 2 2 2 r q 3 2 2 2 2 2 2 2 2 2 3 2 2 2 2 2 2 2 9 2 2 2 2 2 2 2 2 2 2 2 2 2 3 3 2 2 2 2 2 2 2 2 2 2 2 2 2 2 2 2 2 2 2 2 2 2 2 2 2 2 3 2 2 2 3 2 2 3 3 3 3 w T 8 2 3 2 2 2 2 2 2 2 2 7 3 2 2 2 2 2 2 q w 7 2 2 2 2 2 2 2 2 2 2 2 2 2 2 2 2 2 2 2 2 2 2 2 3 2 2 2 2 2 2 3 2 2 2 3 2 2 2 2 3 2 3 2 7 2 2 2 2 3 3 2 2 7 2 2 2 2 2 2 2 2 2 2 2 2 2 2 2 2 2 3 r 8 2 2 2 2 2 2 2 2 2 2 2 2 2 2 2 2 3 2 8 e 2 2 2 2 2 2 2 2 2 2 2 2 3 2 2 2 2 2 2 2 2 2 2 2 2 2 2 3 2 2 2 2 2 2 2 2 2 2 2 2 2 2 # # # # X $ $ # * # $ # $ # # # * # # $ # * $ # * * $ $ $ $ 9 7 % % $ # * # # * # * * $ * # # * * $ $ 7 $ % $ $ # # * $ # # # * # * # * # * # # # # # * * # & #   # # # & 2 2 3 2 2 2 2 2 3 2 2 2 3 3 2 2 2 2 2 2 2 2 2 2 2 2 2 2 2 2 2 2 2 2 2 2 9 2 2 2 2 2 2 2 2 2 2 2 2 2 2 2 2 2 2 2 2 2 2 2 2 2 2 2 2 2 2 2 2 2 2 2 2 2 2 2 2 2 2 2 2 2 2 2 2 2 2 2 2 2 2 2 2 2 2 2 2 2 2 2 2 2 2 2 2 3 2 2 2 2 2 2 2 2 2 2 2 2 2 2 2 2 2 2 2 2 3 3 2 2 2 2 2 3 3 2 2 2 2 2 2 2 2 2 2 2 2 2 2 2 2 2 2 2 2 2 2 3 3 2 2 2 2 2 2 2 2 2 2 2 2 2 2 2 2 2 2 2 2 2 2 2 2 2 2 2 2 2 7 2 2 2 2 2 2 2 2 2 2 2 2 2 2 2 2 2 2 2 2 2 2 2 2 3 2 3 2 2 2 2 2 2 2 2 2 2 2 2 2 2 2 2 2 3 2 2 2 2 2 2 2 2 2 3 2 2 3 & X # X # 2 2 2 2 2 2 2 2 2 2 2 2 2 2 2 2 2 2 2 3 2 2 2 2 2 2 2 2 2 2 2 2 2 2 2 2 2 2 2 2 2 3 2 2 2 2 2 2 2 2 2 2 2 2 2 2 2 3 2 2 2 2 3 2 2 2 2 2 2 2 2 2 2 2 2 2 2 2 3 2 2 2 2 2 2 2 3 2 2 2 2 2 3 3 2 2 2 2 2 2 3 7 2 2 2 2 2 2 2 2 2 2 2 9 2 2 ",
"2 2 2 2 2 2 2 2 2 2 2 2 2 2 2 2 2 2 2 2 2 2 2 2 2 2 2 2 2 2 2 2 7 7 7 2 3 2 2 2 3 2 2 3 2 2 2 2 2 2 3 2 3 3 2 2 2 2 2 2 2 2 2 2 2 2 2 2 2 2 2 2 2 2 2 2 2 2 2 3 2 2 2 2 2 2 2 9 2 2 2 2 2 2 3 2 2 2 2 2 2 7 2 2 7 2 2 2 % 7 % 7 2 2 2 2 2 2 2 2 2 2 2 2 2 2 2 2 2 7 2 2 7 7 7 7 2 2 2 2 2 2 2 2 2 2 2 2 2 3 2 2 2 2 2 2 2 2 9 2 7 2 2 2 2 7 2 2 3 2 2 2 2 2 2 2 3 2 2 2 2 2 2 3 2 2 2 2 2 2 2 2 2 2 2 3 2 2 2 3 2 2 2 2 2 2 3 2 2 2 2 2 2 2 2 2 3 2 2 2 2 2 2 2 2 2 3 2 3 2 2 2 2 2 2 3 2 2 2 7 2 1 # # #   # # # $ # # # # # * $ # * * * # * # # # $ * # $ * * # $ # # * * # # # # * # $ # $ # $ # $ # $ # # $ # * * # # * $ # $ $ $ & # * # * $ # # # * # # # $ # # * * * # # # * # # * # # $ # # # * # * # * # * # * # # # # # % 2 2 2 2 2 2 2 9 2 2 2 2 2 2 2 2 2 2 2 2 2 2 2 2 2 2 2 2 2 2 2 2 2 2 2 2 2 2 2 3 3 2 2 2 2 2 2 2 2 3 3 2 2 2 2 2 2 2 2 2 3 2 3 2 2 2 2 2 2 7 2 2 2 2 2 2 2 2 2 2 2 2 2 2 2 2 2 2 2 2 2 7 2 2 2 2 2 2 2 2 2 2 2 2 2 2 2 2 2 2 2 2 2 3 2 3 2 2 2 2 3 2 3 2 2 3 2 2 3 2 2 2 2 3 3 2 2 2 2 2 2 2 2 2 2 2 2 2 2 2 2 2 2 2 2 2 2 2 2 2 2 2 2 2 2 2 2 2 2 2 2 2 2 2 2 2 3 2 2 2 2 2 2 2 3 2 2 2 2 2 2 2 2 2 2 2 2 2 3 2 2 2 2 2 2 2 2 2 2 2 2 2 2 3 2 3 2 2 2 2 3 2 2 2 2 2 2 3 2 2 2 2 2 2 2 2 2 3 2 3 2 2 2 2 3 2 2 2 2 2 2 2 2 2 2 2 2 2 2 2 3 2 2 2 2 2 2 2 2 3 3 2 2 2 2 2 2 2 3 2 2 2 2 2 2 2 2 2 2 3 2 2 # X # X # # & # # * # * * # # * # * # * # * # $ # # # * # * % # $ $ $ # * * $ # $ # # # $ # * # # # # * # * $ $ # $ # * # * # * * # $ # $ # # # * * # # # * # # # # # # # 2 2 2 2 3 3 2 2 2 3 2 2 2 2 2 2 2 2 2 2 2 2 2 2 2 9 2 2 2 2 2 2 2 2 2 2 2 2 2 7 2 2 2 2 2 2 2 2 2 2 2 2 2 2 2 2 2 2 2 2 2 2 2 2 2 2 7 2 2 2 2 2 2 2 2 2 2 2 2 2 2 2 2 2 2 2 2 9 2 2 2 2 2 2 2 9 2 2 2 2 2 3 2 2 2 7 3 2 2 2 2 2 2 2 2 3 2 2 7 2 2 2 2 2 2 2 2 2 2 2 2 2 2 2 2 2 2 2 2 2 2 2 2 2 2 2 2 3 2 2 2 2 7 2 2 2 2 2 2 2 2 2 2 2 2 7 2 2 2 2 2 2 3 7 2 2 2 2 2 2 2 2 2 2 2 2 2 2 2 2 2 2 2 2 3 2 2 2 2 2 2 2 2 2 2 2 2 2 2 7 2 2 2 2 2 2 2 2 2 2 2 2 2 2 2 2 2 2 2 2 2 2 2 2 2 2 3 2 2 2 2 2 2 2 2 2 2 & # X # # 2 2 2 2 2 2 2 2 2 2 2 2 2 2 2 9 2 2 2 2 2 2 2 2 2 2 2 2 2 2 2 2 2 2 2 2 2 2 2 2 2 2 3 2 2 2 2 2 3 2 3 2 2 2 2 7 2 2 2 2 2 2 2 2 2 2 2 2 2 2 2 2 2 2 2 2 3 2 2 2 2 2 2 3 2 2 2 2 2 2 2 2 3 2 2 2 2 2 2 2 3 2 2 2 2 2 2 2 7 2 2 7 2 2 2 2 ",
"2 2 2 2 2 2 2 2 2 2 2 2 2 2 2 2 2 2 2 2 2 2 2 2 2 2 2 9 2 2 2 2 7 7 2 2 2 2 2 2 2 2 2 2 2 2 2 2 2 2 2 2 2 2 2 3 2 2 2 2 2 2 2 2 2 2 2 2 2 2 2 2 2 2 2 2 2 2 2 2 2 2 2 2 2 2 2 2 2 3 3 2 2 2 2 2 2 2 2 2 2 2 2 2 2 2 2 2 7 7 7 7 2 3 2 2 2 2 2 2 2 2 2 2 2 2 2 3 2 2 2 2 7 7 % 7 2 2 2 3 2 2 2 2 2 2 2 2 2 2 2 2 2 2 2 2 2 2 2 2 2 2 2 2 2 2 2 2 2 2 2 2 2 2 2 2 2 2 2 2 2 2 2 2 2 2 2 2 2 2 2 2 2 2 2 2 2 2 2 2 2 2 2 2 2 2 2 7 2 2 2 3 2 2 2 2 2 2 2 2 2 2 2 7 2 2 2 2 2 2 2 2 2 2 2 2 2 2 2 2 2 1 # # # # # # * # * * # * $ # # * # # # $ # $ # * # # * # # # * # * * # $ # * * # # $ # * # * $ $ $ $ # $ * # $ # # # $ # # * $ # # * $ # # * # * * # & $ * # # * # # # # # * # * # * # # * # $ * # # # * $ # # # $ # # # # # X % 2 2 2 2 2 2 7 2 2 2 2 2 2 7 2 2 2 2 2 2 7 2 2 2 2 2 2 2 9 2 2 3 2 2 3 2 2 2 2 2 2 2 2 2 2 3 2 2 2 2 2 2 2 2 2 2 2 2 2 2 2 2 2 2 2 2 3 2 2 2 2 2 2 3 2 2 2 2 2 2 2 2 2 2 2 2 2 2 2 2 2 2 2 2 2 2 2 2 2 2 2 2 2 2 2 2 2 2 2 2 2 2 2 7 2 2 2 2 2 2 2 2 2 2 2 2 2 2 2 2 2 3 2 2 2 2 3 2 2 2 2 2 2 2 2 2 2 2 2 2 2 2 3 2 2 2 2 3 2 3 3 2 2 2 2 2 2 3 2 3 2 2 2 2 3 2 2 7 2 2 2 2 2 2 2 2 2 2 2 2 2 2 2 2 2 2 2 3 2 2 2 2 2 2 2 3 2 2 2 2 2 2 2 2 2 2 2 2 2 2 2 2 2 2 2 3 2 2 2 2 2 2 2 2 2 2 2 2 2 2 2 2 2 2 2 2 2 2 2 2 2 2 2 2 2 2 2 2 2 2 2 2 2 2 2 2 2 2 2 2 2 2 2 2 2 2 2 7 2 2 2 2 2 2 2 2 2 2 2 2 2 2 # # # # # & # & # * # # $ # # # # * $ # # * * # * $ $ # $ # $ $ $ # # * # # # * # * # * # * $ # # * # # $ # $ $ # $ # * $ # $ # # $ # * # * * # # $ * * # # * # # # X # $ 2 2 2 2 2 2 2 2 2 2 2 2 2 2 2 2 2 2 2 2 2 2 2 2 2 2 2 2 2 2 2 2 2 2 2 2 2 2 2 2 2 2 2 2 2 2 2 3 2 3 2 2 2 2 2 2 2 2 2 2 2 2 2 2 2 2 2 2 2 2 2 2 2 3 7 2 2 2 2 2 2 2 2 2 2 2 2 2 2 2 2 2 2 2 2 2 2 7 2 9 2 2 2 3 7 2 2 2 2 2 2 2 2 2 2 2 2 2 2 2 2 2 2 2 2 2 3 2 2 3 2 2 3 2 2 2 2 2 2 2 3 2 3 2 2 2 2 2 2 2 2 2 2 2 2 2 2 2 2 2 2 2 2 2 2 2 2 2 2 2 2 2 2 2 2 2 2 2 2 2 2 2 2 2 2 2 2 2 2 2 2 2 2 2 2 2 2 2 2 2 2 2 2 2 2 2 2 2 2 2 2 2 2 2 2 7 2 2 2 3 2 2 2 2 2 2 2 2 2 2 2 2 2 2 2 2 2 2 2 2 2 2 2 2 2 2 2 # # X # # 1 2 2 2 3 2 2 2 2 2 2 2 2 2 2 2 2 2 3 2 2 2 2 2 2 2 2 2 2 2 3 3 2 2 3 2 2 2 2 2 2 2 2 2 2 2 2 2 2 2 2 2 2 2 2 2 2 2 2 2 2 2 2 3 2 2 2 2 3 2 3 2 2 2 2 2 2 2 2 2 2 2 2 2 2 2 2 2 2 2 2 2 2 2 2 2 2 7 2 2 2 2 2 2 2 2 2 2 2 2 2 2 2 2 2 2 ",
"2 2 2 2 2 2 2 2 2 2 2 2 2 2 2 2 2 2 2 2 2 2 2 2 2 2 2 2 2 2 2 2 2 2 2 2 2 2 2 2 2 2 2 2 2 2 2 2 2 3 2 3 2 2 2 2 2 2 2 2 2 2 2 2 2 2 2 2 2 2 2 2 2 2 2 2 9 2 2 2 2 2 2 2 2 2 2 2 2 3 2 2 2 2 2 2 2 7 2 2 2 2 2 2 2 2 2 2 2 2 2 7 2 2 2 2 2 3 2 3 2 2 3 2 2 2 2 2 2 2 2 2 2 7 7 7 2 2 2 2 2 2 2 2 2 2 2 2 2 2 2 2 2 2 2 2 2 2 2 2 2 2 2 2 2 2 2 2 2 2 2 2 2 2 2 2 2 2 2 2 2 2 2 2 2 2 2 2 2 2 2 2 3 2 2 2 3 2 2 2 2 2 2 2 2 2 2 2 2 2 2 2 2 3 2 2 2 2 2 2 2 2 2 2 2 2 2 2 2 2 2 2 7 2 2 2 2 2 2 2 7 1 # # # # # * # # $ # $ # # * $ # # * # * * # # # $ * * # * # # # $ # $ # # * * # # $ * # # # # $ $ # $ # $ $ # # * * # $ # # # $ # # # # * # # $ # $ # $ # $ * # # $ # * $ # # $ # * $ # # * $ # * # $ # $ # * # * # # .   # X % 2 2 2 2 2 2 2 2 2 2 2 2 2 2 2 7 2 2 2 2 3 2 2 2 2 2 2 2 2 2 2 3 2 2 2 2 2 2 2 2 2 2 2 2 2 2 2 2 2 7 2 2 2 2 2 2 2 2 2 2 2 2 2 2 2 3 2 2 2 2 2 2 2 2 2 2 7 3 2 2 2 2 2 2 2 2 2 2 2 2 2 2 2 2 2 2 2 3 2 2 2 2 2 2 2 2 2 2 2 2 2 2 2 2 2 2 2 2 2 2 2 2 2 2 2 2 2 2 2 2 2 2 2 2 2 2 2 2 2 2 2 2 2 3 2 2 2 3 3 2 2 2 2 2 3 2 2 2 2 2 3 2 2 3 2 2 2 2 2 2 2 3 2 2 2 2 2 2 2 2 2 2 3 2 2 2 7 2 2 2 3 2 2 2 2 2 2 2 2 2 2 2 2 2 7 2 2 2 2 2 2 2 2 2 2 2 2 2 3 2 2 2 2 2 2 2 2 2 2 2 2 2 2 2 2 2 2 2 2 2 2 2 2 2 2 2 2 9 2 2 2 2 2 2 2 2 2 2 3 2 2 2 2 2 2 2 3 2 2 2 2 2 2 3 2 2 2 2 2 2 2 3 2 2 2 2 3 2 2 2 2 2 # # X X # # * * # # * * # * * # * # # # * # # * # # & # $ & $ # $ $ # # * $ * # # # # * # * # * $ # * # * # * # $ # $ # $ # # * * # # # # * # $ * # # # $ & # # # # # X & 2 2 2 2 2 2 2 2 2 2 2 2 3 2 2 2 2 2 2 2 2 2 2 2 2 2 2 2 2 2 2 2 2 2 2 2 2 2 2 2 2 2 2 2 7 2 2 2 2 2 2 2 2 2 2 2 2 2 2 2 2 2 2 2 2 2 2 2 2 2 2 2 2 2 2 2 2 2 3 2 3 2 2 3 2 2 2 2 2 2 2 2 2 2 2 2 2 2 2 2 2 2 2 2 2 2 2 2 2 2 2 2 2 2 2 2 2 2 2 2 7 2 2 2 2 2 2 2 3 8 7 2 2 2 2 3 2 2 2 2 2 3 2 2 2 2 3 2 2 7 2 2 2 2 2 2 2 2 2 3 2 2 2 2 2 2 2 2 2 2 2 2 2 2 2 2 2 2 2 2 2 2 2 2 2 7 2 2 2 7 2 2 2 2 2 2 2 2 2 2 2 3 2 2 2 2 2 2 2 2 2 2 7 2 2 2 2 2 2 2 2 2 2 2 2 2 2 2 2 2 3 2 2 2 2 2 3 3 2 2 2 2 2 3 2 2 2 $ X # # # 2 2 2 2 2 2 3 2 2 2 2 2 2 2 2 2 2 2 2 2 2 2 3 3 2 2 2 3 2 2 2 2 2 2 3 3 2 2 3 2 2 2 2 2 2 2 2 2 2 2 2 2 2 2 2 2 2 2 2 2 2 2 2 2 2 2 2 2 2 2 2 2 2 3 2 2 2 2 2 2 2 3 2 2 2 2 2 2 2 3 2 2 2 2 2 2 2 2 2 2 2 2 2 2 2 2 2 2 2 2 2 2 2 2 2 2 ",
"2 2 2 2 2 2 2 2 2 2 2 9 2 2 2 2 2 2 2 2 2 2 2 2 2 2 2 2 2 2 7 2 2 2 2 2 3 2 2 3 2 2 2 2 3 2 2 2 2 2 2 2 2 2 2 2 2 7 2 2 2 2 3 2 2 2 2 2 2 2 2 2 2 2 2 2 2 2 2 2 2 2 2 2 2 2 2 2 2 2 2 2 2 2 2 2 2 2 2 2 2 2 2 2 2 2 2 2 2 2 2 2 2 2 2 2 2 2 2 2 2 2 2 2 2 2 3 2 2 2 2 2 2 2 2 7 2 2 3 2 2 2 2 2 2 2 2 2 2 2 2 2 2 2 2 2 2 2 2 2 2 2 2 2 2 2 2 2 2 2 2 2 3 2 2 2 2 2 2 3 2 2 2 2 2 2 2 2 2 2 2 9 2 2 3 2 2 2 2 3 2 2 2 7 2 2 2 2 2 2 2 2 2 2 2 2 2 2 2 3 3 2 2 2 7 2 2 2 2 2 3 2 2 2 2 2 2 2 2 2 7 1   # # # # $ # * # * # * # # # * # # $ # # # * * # # # $ # $ # * # * # * # # $ # * # * # * # $ # # $ # $ $ # * # # $ * # * # * # * # * # # $ * # * # * # * # # $ * # $ # # * * # # $ # * # * # * # $ # * # * # $ $ # # # # # % % 2 2 2 2 2 2 2 2 2 2 2 2 2 2 2 2 2 2 2 2 2 2 2 2 2 2 2 2 2 2 2 2 2 2 2 2 2 2 2 3 3 2 2 3 2 2 2 3 2 2 2 2 2 2 3 2 2 2 2 3 2 2 2 2 2 2 2 2 2 2 2 3 2 2 2 2 2 2 2 2 2 2 2 2 2 2 2 9 2 2 2 2 2 2 2 2 2 2 9 2 2 2 2 2 2 2 2 2 2 2 2 3 2 2 2 2 2 2 3 7 2 2 2 3 2 2 3 2 2 3 2 2 2 2 2 2 2 2 2 3 2 2 2 2 2 2 2 2 2 2 2 2 2 2 2 2 2 2 2 2 2 2 2 2 2 2 2 2 2 2 2 2 2 2 2 2 2 2 2 2 3 2 2 2 2 2 2 2 3 2 2 2 3 7 2 2 2 2 2 2 2 2 3 2 2 2 2 2 2 3 2 3 2 2 2 2 2 2 2 2 2 2 2 3 2 2 2 2 3 2 2 2 2 2 2 3 2 2 2 2 2 2 3 2 2 2 2 2 2 2 7 2 2 2 2 2 3 2 2 2 2 2 2 2 3 2 2 2 2 2 2 2 2 2 2 3 2 2 2 2 2 2 2 2 2 7 2 2 2 2 2 2 $ X # # # & # # $ & # $ # # # $ # $ * # # $ $ # # * # * # * # $ # # * # # # * # * # $ # $ # # * # * # $ # $ # $ # $ # * # * # # # # * * $ # * # # $ # * # # * # #   # # * 3 2 2 2 2 3 2 2 3 3 2 2 2 2 2 2 3 2 2 2 2 2 2 2 2 2 2 2 2 2 2 2 2 2 2 2 2 2 2 2 2 2 2 2 2 2 2 2 2 2 3 2 2 2 2 2 9 2 2 2 2 2 2 2 2 2 2 2 2 2 2 2 7 2 2 2 2 2 2 2 2 2 2 2 2 2 2 2 2 2 2 2 2 2 2 2 2 2 2 2 2 2 2 3 2 2 2 2 2 2 2 1 2 1 1 2 1 1 2 1 1 2 1 2 1 1 1 2 1 1 1 1 2 1 1 2 1 1 % 2 1 2 1 1 2 1 1 2 1 1 2 1 1 2 1 2 1 1 1 2 1 1 2 1 1 2 1 1 2 1 1 2 1 1 2 1 1 2 1 2 1 1 2 1 1 1 2 1 1 2 1 1 2 1 1 2 1 1 1 2 1 2 1 1 2 1 1 1 2 1 2 1 1 2 1 2 1 1 1 2 1 1 2 1 1 2 1 2 1 1 1 1 2 1 2 1 1 1 2 1 2 2 2 2 2 3 2 # # # X # 2 3 2 2 2 2 2 2 2 2 2 2 2 2 2 2 2 2 2 2 2 2 2 2 2 2 2 2 2 2 2 3 2 2 2 2 2 2 2 2 2 2 2 2 3 2 2 2 2 2 2 2 3 2 2 2 2 2 2 2 2 2 2 2 2 2 2 3 7 2 2 2 2 2 2 2 2 2 2 3 2 2 2 2 2 2 2 3 2 2 2 2 2 2 2 2 3 3 2 2 2 2 2 2 3 2 9 2 2 2 2 2 2 2 2 2 ",
"2 2 9 4 2 2 2 2 2 2 2 2 2 2 2 2 2 2 2 2 2 2 2 2 2 2 2 2 2 2 2 2 2 2 3 2 2 2 2 2 2 2 2 2 2 2 2 2 2 7 2 2 2 2 2 2 2 2 2 2 2 2 2 2 2 2 2 2 2 2 3 2 3 2 2 2 2 2 2 2 3 2 2 2 2 2 2 2 2 2 2 2 2 2 2 2 2 2 2 2 3 2 2 2 3 2 2 2 2 2 3 2 2 2 2 2 2 2 2 2 2 2 3 2 2 3 2 2 2 2 2 2 2 2 2 2 2 2 2 2 2 2 2 2 2 2 2 2 2 2 2 3 2 2 2 2 2 2 2 2 2 2 2 2 7 2 2 9 2 2 2 2 2 2 2 2 3 2 2 2 3 2 2 2 2 2 2 2 2 2 2 2 2 2 3 2 2 2 2 2 2 2 2 2 2 2 2 2 2 2 2 2 9 2 2 2 2 2 2 2 2 2 2 2 3 2 2 2 2 2 2 2 2 2 2 2 2 2 2 2 2 1 o % # X # # & & # * # * # # * # $ # $ # # $ # # * # # * # # $ # # $ * * # # * # # $ # * # $ * $ * $ # * # * $ # # * * # # $ * # * # $ # # * # * * # # # $ # * * # $ * # # $ # * $ * # # # $ # * # # $ # # # * # * # # # # # # # 2 2 2 3 2 2 3 2 2 2 2 2 2 2 2 2 2 7 2 2 2 2 7 2 2 2 2 2 2 2 2 2 2 2 2 3 2 2 2 3 2 2 2 3 2 2 2 2 2 2 2 2 2 2 2 3 2 2 2 2 2 2 2 2 2 2 2 2 7 2 2 2 2 2 2 2 2 2 2 2 2 2 9 2 2 2 2 2 2 2 2 3 2 2 2 2 3 2 2 2 2 2 2 2 2 2 9 2 2 2 2 2 2 2 2 2 2 2 2 2 2 7 2 2 2 2 3 2 2 2 2 2 2 2 2 2 2 2 2 2 2 2 2 2 2 2 2 2 2 2 2 2 2 2 2 3 2 2 2 2 2 2 2 2 2 2 2 2 2 2 2 2 2 2 7 2 2 2 2 2 2 2 2 2 2 2 2 2 2 2 2 2 2 2 2 2 2 2 2 2 2 2 2 2 2 2 2 2 2 4 2 2 7 2 2 2 2 2 2 2 2 2 2 2 3 2 2 2 2 2 2 2 2 2 2 2 2 2 2 2 2 2 2 2 2 2 2 2 2 2 2 2 7 2 9 2 2 2 2 2 2 2 2 2 2 2 2 2 2 2 2 2 2 2 2 2 2 2 2 2 2 2 2 2 2 2 2 2 2 2 2 2 # # # # # # # # # * $ # # * * # * # $ # $ # $ # $ # $ # # # * & # * $ & # # * # # $ # # * # * # $ # # * $ # * * # $ # * # # $ # # $ # # * # # * # # $ # # $ * # # # # X & 3 2 2 2 2 2 2 2 3 2 2 2 2 2 2 2 2 2 7 2 2 2 2 2 2 2 2 3 2 2 2 2 2 2 2 3 2 2 9 2 2 2 2 2 2 2 2 2 2 2 2 2 2 2 3 2 2 2 2 2 2 7 2 2 2 2 2 2 2 2 2 2 2 2 2 2 2 2 3 2 2 2 3 2 2 2 2 2 2 2 2 2 2 2 2 2 2 2 2 2 2 2 3 2 2 2 2 2 2 3 2 # & & & 1 # 1 1 1 # & & # # 1 1 & # 1 & & & & & # # 1 O & & & 1 # 1 & # 1 1 1 # # $ & & & # # 1 & # 1 O 1 1 % & & & X 1 1 % & & # 1 & & # 1 & & & & & X # O $ & & & # 1 O & & & # & 1 % & # 1 O # 1 # O $ # & & & & & # & # & & & & & & # # & & 1 # % 1 1 X 1 # % 2 3 2 2 2 2 2 # # # X X 2 7 7 2 2 7 7 2 7 2 2 2 2 2 2 2 3 7 7 3 7 7 3 2 2 2 7 8 2 2 2 2 7 7 2 2 2 2 7 7 3 7 8 2 2 2 2 2 2 2 7 7 2 2 2 2 2 2 7 2 2 2 7 7 2 2 2 2 7 3 2 2 2 2 7 2 2 2 2 7 2 3 7 3 7 7 7 2 2 3 7 2 2 2 2 2 2 2 2 2 2 2 2 2 2 2 2 2 2 2 2 2 2 2 7 2 ",
"2 2 2 2 2 2 2 2 2 2 2 2 2 2 4 9 2 2 2 2 2 2 2 2 2 2 2 2 2 2 2 2 2 2 2 2 2 2 2 2 3 2 2 2 2 2 2 2 2 3 2 3 2 2 3 2 2 2 2 3 2 2 2 2 2 2 2 2 2 2 2 2 2 2 2 2 2 2 2 2 2 2 2 2 2 2 2 2 2 2 2 2 2 2 2 2 2 2 2 2 2 2 2 2 2 2 2 3 2 2 2 2 2 2 2 2 2 3 2 2 2 2 2 2 2 2 2 3 2 2 2 2 2 2 2 2 2 2 2 2 2 2 2 2 3 7 2 2 2 2 2 2 2 2 2 2 2 2 2 2 2 2 7 2 2 2 2 2 2 2 2 2 2 2 2 2 2 2 2 2 2 2 2 2 2 2 2 2 2 2 2 2 2 2 2 2 3 2 2 2 2 2 2 2 2 2 2 2 2 2 2 2 2 2 2 2 2 2 2 2 2 2 2 2 2 2 2 2 2 2 2 3 2 2 2 2 2 2 2 2 9 1 X # # X & & * # & $ $ # # * # # # * # * * # * # * $ $ # # * # * * # # # # * # $ * # # # * # # # # # # # $ # # * # # # # * # # $ # # # * # # $ # # $ * * # * # # # * # $ * # $ # # * # * # * $ # # * # * * # # $ # * # # # #   # 2 2 2 2 2 2 2 2 2 2 3 2 2 2 2 2 2 2 2 2 2 2 2 2 2 2 2 2 2 2 2 2 2 2 2 2 2 2 2 2 2 2 2 2 2 3 2 3 3 2 2 2 2 2 2 2 2 3 2 2 3 2 2 2 2 2 2 2 2 2 2 2 2 2 2 2 2 2 2 2 2 2 2 2 2 2 2 2 2 2 2 2 2 2 3 2 2 2 2 2 2 2 2 2 2 2 2 2 2 2 2 2 2 2 3 2 2 2 2 2 2 2 2 2 2 2 2 2 2 2 2 2 2 2 2 2 2 2 2 2 2 2 2 2 2 2 2 2 2 2 2 2 2 2 2 2 2 2 2 2 9 2 2 2 2 2 2 2 2 2 2 9 2 2 2 2 2 2 2 7 2 2 2 2 3 2 2 2 2 2 2 2 2 2 3 2 7 2 2 2 2 2 2 2 2 2 2 2 3 3 2 2 2 2 2 2 7 2 2 2 2 2 2 2 2 2 2 2 2 2 2 2 2 2 2 2 2 2 2 2 2 2 2 2 2 2 2 2 7 2 2 2 2 2 2 2 2 2 2 2 2 2 2 2 2 2 2 2 2 2 2 2 2 2 2 2 2 2 2 2 2 2 2 2 2 2 2 2 2 2 2 2 # # # # # # * * $ # # * # # # $ # # # * # * # * # * # * * # # $ # # # * * # * # * # * # # $ # # # * $ # # * # # * # $ # # * # * * # * # * $ $ # # * # * * # # # # # # X & 2 2 2 2 2 2 2 2 2 2 2 2 2 9 2 2 2 2 2 2 2 3 2 2 2 2 2 2 2 3 2 2 2 2 2 2 2 2 2 2 2 2 2 2 2 2 2 3 2 2 2 2 2 2 2 2 2 2 2 2 2 2 2 2 2 7 2 2 2 2 2 2 3 2 2 2 2 2 2 2 2 2 2 2 2 2 2 2 2 2 7 2 2 2 2 2 2 2 2 2 2 2 2 2 2 3 2 2 3 2 2 1 % # & # $ 1 # % 1 & & 1 1 & % & 1 1 % # & & & & & # $ & & & # $ O & & 1 # % 1 # $ & & 1 1 & & & & # $ # 1 & & & & & & 1 1 # & & & & & X 1 & & & & 1 1 & & # & & & & & $ # & & & & 1 1 & & # $ & & 1 1 $ # % 1 & & 1 1 & # 1 & & & & & 1 1 & & & $ & 1 1 1 & & 1 2 2 2 2 2 2 3 & X # # # 2 2 1 2 1 2 1 2 1 1 2 2 2 2 1 1 2 1 1 2 1 2 2 1 2 2 1 2 2 2 1 2 1 2 2 1 2 2 1 2 2 1 1 2 2 2 1 2 1 2 1 2 2 2 1 1 2 1 2 2 1 2 1 1 2 1 2 2 1 1 2 1 2 2 1 2 1 1 2 2 1 2 1 2 1 2 1 2 1 2 1 2 1 2 2 1 2 2 1 2 2 2 2 1 2 2 2 2 1 2 1 1 2 1 2 1 ",
"2 2 2 2 2 2 2 2 2 2 2 2 2 2 2 2 2 2 2 2 2 2 9 2 2 2 2 2 2 2 2 2 2 2 2 3 2 2 2 2 2 2 2 2 2 3 2 2 2 2 2 2 2 2 2 2 2 2 2 2 2 2 3 2 2 2 2 2 2 2 2 2 2 2 2 2 2 2 2 2 2 2 2 2 2 2 2 2 2 2 2 2 2 3 2 2 3 2 2 2 2 2 2 3 2 2 2 2 2 2 2 3 2 3 2 2 2 2 2 2 3 2 2 3 2 2 2 2 2 2 2 2 2 2 2 2 2 2 2 2 2 2 2 2 2 2 2 2 3 2 2 2 2 2 2 7 2 2 2 2 2 2 2 2 2 2 2 2 2 2 2 2 2 2 2 2 2 2 2 2 2 2 2 2 2 2 2 2 2 2 2 2 2 2 2 2 2 2 2 2 2 2 2 2 2 2 2 2 2 2 2 2 2 2 2 2 2 7 2 2 7 2 2 2 2 2 2 3 2 2 2 2 2 2 9 2 2 2 2 2 2 2 # # # # # $ # # $ # * # $ # # * # * $ # # $ # * # # # * # # $ # # $ # * # * * # * # * * # # # * # * * # * # * # * # $ & # * $ # # * * # * # * # * # # $ # # $ # # * * # $ # # # * # $ # # * # * $ # $ # # $ # * # * # # # # # # 2 2 2 2 2 2 2 2 2 2 2 2 7 2 2 2 2 2 2 2 2 2 2 2 2 2 2 2 2 2 7 2 3 2 2 3 2 2 2 2 2 2 2 3 2 2 2 2 2 2 2 3 2 2 2 2 2 2 2 2 2 2 2 2 2 2 2 2 2 2 2 2 2 2 2 2 2 2 2 2 2 2 2 2 2 2 3 2 2 2 2 2 2 2 2 2 2 2 2 2 2 3 2 2 2 2 2 2 2 2 2 2 2 2 2 2 2 2 3 2 2 2 2 2 2 2 2 2 2 2 2 2 2 2 2 2 2 2 2 2 2 2 2 2 2 2 2 9 2 2 3 2 2 2 2 2 2 3 2 2 2 2 2 2 2 2 2 2 2 2 2 2 2 2 2 2 2 2 2 2 3 2 2 2 2 2 3 2 3 3 2 2 2 2 2 2 2 2 2 2 2 2 2 2 2 2 2 2 3 2 2 2 3 2 2 2 2 2 2 2 2 2 2 3 2 3 2 2 2 2 2 2 2 2 2 2 2 2 2 2 2 2 2 2 2 2 2 2 2 2 2 2 2 2 2 2 2 2 2 2 2 2 2 2 2 7 2 2 7 2 2 2 2 2 2 2 2 2 2 2 2 9 2 2 2 2 2 2 2 2 2 2 # . # # # # # # * # * # # $ # * # * * # & # * # & # # $ # $ # # * # $ # # * # # $ # * # * # # * # * # # * # # * # # # * # * $ # # $ # * # # # * # # $ # $ # # # # # X # & 2 2 2 2 3 2 2 2 2 2 2 2 2 2 2 2 2 2 2 2 2 2 2 2 2 2 2 2 2 2 2 2 2 2 2 2 2 2 2 2 2 2 2 2 2 2 2 3 2 2 2 3 2 2 3 2 2 2 2 2 2 2 2 2 2 2 2 2 2 2 2 2 2 2 2 3 2 3 2 2 2 2 2 2 2 2 2 2 2 2 2 2 2 2 2 2 2 2 7 2 2 2 2 2 3 2 2 2 2 2 1 1 & 1 1 1 # 1 # 1 1 & & # $ # O $ # $ O 1 1 & & & & & & & & & & # $ & & # $ 1 & # O O 1 % & & & # $ $ & & & & & & & & & & & 1 $ # & & % 1 1 # & 1 # & 1 & & & & & & & # & & # & & & X 1 & & $ & & & 1 # & 1 # 1 # $ # % # $ 1 1 & & & & # 1 & & $ # & & 1 1 1 # 1 2 2 2 2 3 2 2 # # X # # X # # X # # # # X % X % # X # # # # # # X # # X X # # # X X # # # # # X X # # # # # # X # # # X # # # # X # # X # $ X # # # # $ # # # # # $ # X X # # # # # # X # # # X # # # X # # # # # # # # X # X # # X # % # X # o % # # X # $ # X ",
"2 2 2 2 2 2 2 2 2 2 2 2 2 2 2 2 7 2 2 2 2 2 2 2 2 2 2 2 2 2 2 2 2 2 2 2 2 3 2 2 2 3 2 2 2 2 2 2 2 2 2 2 2 2 2 2 3 2 2 3 2 2 2 2 2 2 2 2 3 2 2 2 2 2 2 3 3 2 2 2 2 2 3 2 2 9 2 2 2 2 2 2 2 2 2 2 2 2 2 2 3 2 2 2 2 2 3 2 2 2 2 2 2 2 2 2 2 3 2 2 2 2 2 2 2 3 2 2 2 2 7 2 2 2 2 2 2 2 2 2 2 2 2 2 2 2 2 2 2 2 2 2 2 2 2 3 3 2 2 7 2 2 2 2 2 2 2 2 2 2 2 2 2 2 2 2 3 2 2 2 3 2 2 2 2 2 2 2 2 7 2 2 2 9 2 2 2 2 2 2 2 2 2 2 2 7 2 2 2 2 2 2 2 2 2 2 2 2 2 2 2 2 2 2 2 2 2 2 2 2 2 2 2 2 2 2 2 2 2 2 2 1 # X X # # # # * # * # $ # * # * # $ # * * # $ # # * $ # * * # * * # $ # $ # # $ # # # $ # * # # # * # $ # $ * # # # * # $ # # * $ # * # $ # * # # # * # * # # * # # # # * # * # # $ # * # # # * # * # * * # $ # $ # # #   # # # 2 2 2 2 2 2 2 3 2 2 2 2 3 2 2 2 2 2 2 2 2 2 2 2 2 2 2 2 2 2 2 2 2 2 2 2 2 2 2 2 2 3 2 2 2 2 2 3 2 2 2 2 2 2 2 2 2 2 2 2 2 2 2 2 2 2 2 2 2 2 7 2 2 2 2 2 2 2 2 2 2 2 2 2 2 2 2 2 2 2 2 2 2 7 2 2 2 2 2 2 2 2 2 2 2 2 2 2 2 2 2 2 2 2 2 2 2 2 2 2 2 2 2 2 2 2 2 2 2 3 2 2 2 2 2 2 2 2 9 2 2 2 2 2 2 2 2 2 2 2 2 2 2 2 2 2 2 2 2 2 2 2 2 2 2 2 2 2 2 2 2 2 2 2 2 2 2 2 2 2 2 2 2 2 2 2 2 2 3 4 2 3 2 2 2 3 2 2 2 2 2 2 2 2 2 2 2 2 2 2 2 2 2 2 2 2 2 2 7 2 2 2 2 2 2 2 2 2 2 2 2 2 2 2 2 9 2 2 2 2 2 2 2 9 2 2 2 2 2 2 2 2 2 2 2 2 2 2 2 2 2 2 2 2 2 2 2 2 2 2 2 2 2 2 2 2 2 2 2 2 2 2 2 2 2 2 2 2 2 2 2 2 # # # # # $ # * # $ * # * # $ # $ # * # $ # * # $ # * # * # * * # $ # * # # # * # * # # * $ # * $ # * # # $ # $ # * # * # $ # * * # $ # # * # * $ * # * # * # # # # # # & 3 2 2 2 2 2 2 2 2 2 2 2 2 2 2 2 2 2 2 2 2 2 2 3 2 2 2 2 2 2 2 3 2 2 2 2 2 2 2 2 2 2 2 2 2 2 2 2 2 2 2 2 2 2 2 2 2 2 2 2 2 2 2 2 2 2 2 2 2 2 2 3 2 2 2 2 2 2 2 2 2 2 2 2 3 3 2 2 2 2 2 2 2 2 2 2 2 2 2 2 2 2 3 2 2 2 3 2 2 2 2 & & 1 # O $ 1 1 1 # 1 # $ O 1 1 # $ # 1 1 # & & & & & & & & & & & & & & & O & & 1 1 $ 1 # & & & $ O # 1 & & & & & & & & & & 1 O $ & & 1 1 1 $ O 1 & & & & & # & & & & & & & 1 & & & 1 & & & & & & & 1 1 1 # 1 # $ O 1 1 1 O O # & & % 1 1 % # & O 1 1 # # & 1 1 1 2 2 2 2 2 2 2 & # X # # X X # # # X # # X % X X # # # # X # X # # X # # # X # X # # # X X X # # # # X # X # X # # # # # X X X # # X # # # # # # X X X # # X # X # # # # # X # X # # # # # X # # # X # # # X # X # # X # # # # X # # X X # # # X % X # # # # # # ",
"2 2 2 2 7 2 2 2 2 2 2 2 2 2 2 2 2 2 2 2 7 2 2 2 2 2 2 2 2 2 2 9 2 2 2 2 2 2 2 2 2 2 2 2 2 3 2 2 2 7 2 2 2 3 2 2 2 3 2 2 2 2 2 2 2 2 2 2 2 2 2 2 2 2 2 2 2 2 2 2 2 2 2 2 3 2 2 2 2 2 2 2 2 2 2 2 2 3 2 2 2 2 3 2 3 2 2 2 2 3 2 2 2 2 2 2 2 2 2 2 2 3 2 2 2 2 2 2 2 2 2 2 2 2 2 2 2 2 2 2 2 2 2 2 2 2 2 3 2 3 7 2 2 2 2 3 2 2 2 2 2 2 2 2 2 2 2 2 2 2 2 2 2 2 2 2 3 2 2 3 2 2 2 2 2 2 2 2 2 2 2 2 2 2 2 2 2 2 2 2 9 2 2 2 2 2 2 2 2 2 2 2 2 2 2 2 2 2 2 2 2 2 2 2 2 2 2 2 2 2 2 2 2 2 2 2 2 2 2 2 2 1 X # # X # $ * # $ # # $ & # * # $ # $ # $ # # * # * # $ # # # * * $ # # * # & # * * & $ # # * # * # * # $ # # * # $ $ # * * # $ # * # * # * # # $ # # # * & * # # * # # # * # * # * * # * # * # # # # * # * # * # * # # #   # # 2 2 2 2 2 2 7 2 2 2 2 2 2 2 2 2 2 2 3 2 2 2 2 2 2 2 9 2 2 2 2 2 2 2 2 2 2 2 2 2 2 2 2 2 2 2 2 2 2 2 2 2 2 2 2 2 2 2 2 2 2 2 2 2 2 2 2 2 2 2 2 2 2 2 7 2 2 2 2 2 2 2 2 2 2 2 2 3 2 2 2 2 3 2 2 2 2 2 2 2 7 3 2 2 2 2 2 2 2 2 2 2 2 2 2 2 2 3 2 2 2 2 7 2 2 2 2 2 2 2 3 2 2 2 2 2 2 2 2 2 2 2 2 2 2 2 2 2 2 2 2 3 2 2 2 2 3 2 2 2 2 2 2 2 2 2 2 2 2 2 2 2 2 2 2 2 2 2 2 2 2 2 2 2 2 2 2 2 2 2 2 2 2 2 2 2 2 2 2 2 2 2 2 2 2 2 2 3 2 2 2 2 2 2 2 2 2 2 2 2 2 2 2 2 3 2 2 2 2 2 2 2 2 2 2 2 2 2 2 2 2 2 2 2 2 2 2 2 2 2 2 2 2 2 2 2 2 2 2 2 2 2 2 2 7 2 2 2 2 2 2 9 2 2 2 9 2 2 2 2 2 2 2 2 2 2 2 2 2 2 2 2 # #   # # # # * # # # # # # # # * * # * # $ $ # * * * # # $ # * # $ $ & # $ # * $ # # * # * # $ * # # * # * $ # * # # * # # # * * # # * $ # * # # # # * * $ # $ # # # X $ 2 2 3 2 2 3 2 2 2 2 2 2 2 2 2 2 2 7 7 2 2 2 2 2 2 2 2 2 2 2 2 2 2 2 3 2 2 2 2 2 2 2 2 2 2 2 2 2 2 2 2 2 2 2 2 2 2 2 2 3 2 2 2 2 2 2 2 2 2 2 3 2 2 3 2 2 3 2 2 2 2 2 2 2 2 2 2 2 2 2 7 2 2 2 2 2 2 2 2 2 2 2 2 3 2 2 2 2 2 2 2 # % 1 # & & % & # $ # 1 1 1 1 1 1 1 $ & & & # 1 1 # 1 1 % 1 & & & & & & # 1 & & & & # 1 & & 1 1 1 1 & & $ O # 1 & & & 1 # 1 & & & $ & 1 1 1 # & & & & & 1 # 1 1 & & & 1 & & 1 O & # 1 1 & & & & & & % 1 & & # 1 1 1 1 # & & $ # & & & & 1 1 1 # $ # 1 1 % & # 1 1 2 2 2 2 2 2 2 # # X # # # # # # X # # # # # X # # # X # # # # X # # # # # # # # # X # # # X # # # X # # X # # X # # # X # # # X # # X X # # # # # # # X # # # # X # # # # # # # X # # X X # # X # # # X # # # X # X # # X X # # X # # X # # X # # X # X # X # # ",
"2 2 2 2 2 2 2 2 2 2 2 2 2 2 2 2 2 2 2 2 2 2 2 2 2 2 2 2 2 2 2 2 2 2 2 2 2 2 2 2 2 2 2 2 2 2 2 3 2 2 2 2 2 7 2 2 2 2 2 2 2 2 2 2 2 2 2 2 2 2 2 2 3 2 2 2 2 3 2 2 2 2 2 2 2 2 2 2 2 2 2 2 2 2 2 2 2 2 2 2 2 2 2 2 2 2 2 2 2 2 2 3 2 2 2 2 2 2 3 2 2 2 2 2 2 2 2 2 2 2 2 9 2 2 2 2 2 2 2 2 9 2 2 2 2 2 2 2 2 2 2 2 2 2 2 2 2 2 2 2 2 2 2 2 2 2 2 2 2 2 2 2 2 2 9 2 2 9 2 2 2 2 2 2 2 2 2 2 2 2 2 2 2 2 2 2 2 2 2 2 2 2 2 2 2 2 7 2 2 2 2 2 2 2 2 2 2 9 2 2 2 2 2 2 2 2 7 2 7 3 2 2 2 2 2 2 2 2 2 2 3 1 # # # # # $ # # * * * # # * # # * # # * # * # # # * * # * $ # # # # * # # $ $ # # # # # * * # $ * # # # # * $ # * # # * # # * # # # # * $ # # * # * * # # $ * # $ # # * # * # $ # $ # $ * # $ # * # # # $ # # # $ # # # # # # # 2 2 2 2 2 2 3 2 2 2 2 2 2 3 2 2 2 7 2 2 2 2 2 7 2 2 2 2 2 2 2 3 2 2 2 2 2 7 2 2 2 2 3 2 2 2 2 3 3 2 2 3 3 2 2 2 2 2 2 2 2 2 2 2 2 3 2 3 2 2 2 2 2 2 2 2 2 2 2 9 2 2 2 2 2 2 2 2 2 2 2 2 2 2 2 2 2 2 2 2 2 2 2 2 2 2 2 9 2 2 2 2 2 2 2 2 2 2 2 2 2 2 2 2 2 2 2 2 2 2 2 2 2 2 7 2 2 2 2 2 2 2 2 2 2 2 2 2 2 2 2 2 2 2 2 2 2 2 2 2 2 2 2 2 2 2 2 2 2 2 2 2 2 2 2 2 2 2 2 2 2 2 2 3 2 2 2 2 2 2 2 2 2 2 2 2 2 2 2 2 9 2 2 2 2 2 2 2 2 3 2 2 2 2 2 2 2 2 2 2 2 2 2 2 2 2 2 2 2 2 2 2 2 2 2 2 2 2 2 2 2 2 2 2 2 2 2 2 2 2 2 2 2 2 2 2 2 2 2 2 2 2 2 2 2 2 2 2 2 2 2 2 2 2 2 2 2 2 2 2 2 2 2 2 2 2 2 2 2 2 2 2 # # # # # # $ # # * $ * # * * $ # # $ # # & # * # # # # * # $ # # * # * * # $ # & * $ # # * * # # $ # # $ # * # * # $ # # * # # # # $ # # * * # * # # # # # # # # # # . $ 2 2 2 2 2 2 2 2 2 2 2 2 2 2 2 2 2 % 4 2 2 2 2 2 3 2 2 2 2 2 2 3 4 2 2 2 2 2 2 2 2 2 2 2 2 2 3 2 2 2 2 2 2 2 2 2 2 3 2 2 2 2 2 2 2 2 7 2 2 2 2 2 2 2 2 2 2 2 2 2 2 3 2 2 2 2 2 2 2 2 2 2 2 2 2 2 2 2 2 2 2 2 2 2 2 3 2 3 2 2 1 1 1 1 & & & # 1 $ O & & # & 1 X 1 # # 1 & & 1 1 O $ 1 1 X - # & & & # & % 1 & & & & $ # 1 X # & # 1 & $ # 1 O 1 & % & & $ # & & # O X 1 % 1 & & # 1 & O 1 & 1 X & & # & & & # $ & & 1 # & & & & & & & & & & & & # 1 1 & & & # $ & & 1 # % % % O & & 1 1 & & 1 % & 2 2 2 2 3 3 2 & X # # X # # X X # # # X # X # X # X # # X # # # X X X # # # X X # X # # # # # X # # X X # # # # X X X # # # X # # X # # # X X # # # X X # X # X # X X # # # X X # # # # # X # X # # # # X X # X # # # X # # X X # X # # X X # # # # X # # # # # ",
"2 2 2 2 2 2 2 2 2 2 2 2 9 2 2 2 2 2 2 2 2 2 2 2 2 2 2 2 2 2 2 2 3 2 2 2 2 2 2 2 2 3 2 2 2 2 2 2 2 2 2 2 2 2 2 2 2 2 2 2 2 2 2 2 2 2 2 2 2 2 2 2 2 2 2 2 2 2 2 3 2 2 2 2 2 2 2 3 2 2 2 9 2 2 3 2 2 2 2 2 2 2 2 2 2 2 2 3 2 2 2 2 2 2 2 2 2 2 2 2 3 2 2 2 2 2 2 2 2 2 2 2 2 2 2 2 2 2 2 2 2 2 2 2 2 2 2 2 2 2 2 2 3 2 2 2 2 2 2 2 2 2 7 2 2 2 2 2 2 2 2 2 2 2 2 2 2 2 2 2 2 2 2 2 2 2 2 2 2 2 2 2 2 2 2 2 2 2 2 2 2 2 2 2 2 2 2 2 2 2 2 2 2 2 2 2 2 2 2 2 2 2 2 2 2 2 2 2 2 2 2 2 2 2 2 2 2 2 2 2 3 1 # # X # # $ # $ # # # * # * # * # $ * # # # * # * # # * # # * # # * $ # * # # * $ # * # $ # * # # $ # * # # # * # # $ # # * # # * # $ # # * # * $ # # $ # * # * # * $ # $ # * # * # # $ # $ # * $ # * # * # * # * * # # # # . # 2 2 2 2 2 2 2 2 2 2 2 2 2 2 2 2 2 2 2 2 2 2 2 2 2 2 2 2 2 2 2 2 2 3 2 2 3 2 3 2 2 2 2 2 2 2 2 3 2 2 2 2 3 2 2 2 2 2 2 2 2 2 2 2 2 2 2 2 2 2 2 2 2 2 2 2 2 2 2 2 2 2 2 2 2 2 2 2 2 3 2 2 2 2 2 2 2 2 3 2 2 2 2 2 2 2 2 2 2 2 2 2 4 3 3 2 2 2 2 2 2 2 2 2 2 2 2 2 2 2 2 2 2 2 2 2 2 2 7 2 2 2 2 2 2 2 2 2 2 2 2 2 2 2 2 2 2 2 2 2 2 2 2 2 2 2 2 2 2 2 2 2 2 2 2 2 2 2 2 3 2 2 2 2 2 2 2 2 2 2 2 2 2 2 7 2 2 2 2 2 2 2 2 2 2 2 2 2 2 2 2 3 2 2 9 2 2 2 2 2 2 2 2 3 2 3 2 2 2 2 2 2 2 2 2 2 2 7 2 2 2 2 2 2 2 2 2 2 2 2 2 3 2 3 2 2 2 2 2 2 2 2 2 2 2 2 2 2 2 2 2 2 2 2 2 2 2 2 2 2 2 2 2 2 2 2 2 2 2 2 2 2 # # # # # # # * # # # # $ * * # * # # $ * # # # # * $ # # * # * # * $ # # * # * # # # # * # # # $ # * # * # * # # $ # * $ # * # # * # # * # # * # # * # # * # # # # # # & 3 2 2 2 2 2 2 2 % % 2 2 % 2 2 2 G ,.2 2 2 2 2 2 2 3 2 2 2 2 2 3 3 2 2 2 2 2 2 2 2 2 2 2 9 2 2 2 2 2 3 3 2 2 2 3 2 2 2 2 2 2 2 2 2 2 2 2 2 2 2 2 2 2 2 2 2 2 2 2 2 2 2 2 2 2 2 2 2 2 2 2 2 2 2 2 2 2 2 3 2 2 2 2 2 2 2 2 2 2 2 & 1 O $ & & 1 1 1 & & & & & 1 1 & & # 1 & & & # & & % 1 , , 1 & & & & - % 1 & & & & & : q r : 1 # & & & # 1 $ # 1 1 & # 1 $ & & < , q 1 # 1 & & & & & & # 1 1 1 q , r * O $ $ & & & 1 # $ & & & & & 1 # & # & & & & O $ & & 1 1 % & O 2 : w < = 1 # X 1 1 & 1 # 1 2 2 2 2 2 2 2 & # # X # $ & & % & 1 1 % % & & & & $ 1 1 % 1 & & & $ $ % % $ % & & 1 & & & $ # 1 $ * & & & 1 $ 1 % % 1 % % $ % & & & & & * $ $ & & & & $ 1 1 & & $ $ $ % 1 & & $ $ % & * & & & % & 1 & % % & & $ % * $ & % * 1 % 1 % % 2 % 1 % 1 % $ & & 1 $ $ & ",
"2 2 7 2 2 2 2 2 2 2 2 2 2 2 2 2 2 2 2 2 2 2 2 2 2 2 2 2 2 2 2 2 2 2 2 2 2 2 2 2 2 2 2 2 2 2 2 2 2 2 2 2 2 2 2 2 3 2 2 2 2 2 2 3 2 2 2 9 2 2 2 3 2 2 3 2 2 3 2 2 3 2 2 2 2 2 2 2 2 2 2 2 2 2 2 2 2 2 2 3 2 2 2 2 2 3 2 2 2 3 2 2 2 2 2 2 2 2 2 2 2 2 2 3 2 2 2 2 2 2 2 2 2 2 2 2 2 2 2 2 2 2 2 2 2 3 2 2 2 2 2 2 2 2 2 2 2 2 2 3 2 2 2 2 2 2 7 2 2 2 2 2 2 2 2 2 2 2 2 2 2 2 2 2 2 2 2 2 2 2 2 2 2 2 2 2 2 2 2 2 2 2 2 2 2 2 2 2 2 2 2 2 2 2 2 2 2 2 2 2 2 2 2 2 2 2 2 2 2 2 2 2 2 2 2 2 2 2 2 2 3 % # # # X # $ # * * # $ # $ # $ # * # * # * # # $ # $ $ # # * # $ # * # * # $ # * # * # $ # * # # * # $ # * * # $ # * # * # # * # * $ # * # # $ # # * * # $ # $ # $ # # * * # * # # # * # * # # * # * # $ # $ # $ # # $ # # # # # 2 2 2 2 2 2 2 2 3 2 2 2 2 2 3 2 2 2 2 2 2 3 2 2 2 2 2 2 2 2 2 3 2 2 2 2 2 2 2 2 2 2 2 2 2 2 2 2 2 2 2 2 2 2 2 2 2 2 2 2 2 2 2 2 3 2 2 2 2 2 2 2 2 2 2 2 9 2 2 2 2 2 2 2 2 2 2 2 2 2 2 2 2 2 2 2 2 2 2 2 2 2 2 2 2 2 2 2 2 2 2 2 3 3 2 2 2 2 2 2 7 2 2 2 2 2 3 2 2 2 2 2 2 3 2 2 2 2 2 2 2 2 2 2 2 2 2 2 2 2 2 2 2 3 2 2 3 2 2 2 2 2 2 2 2 9 2 2 2 2 2 2 2 2 2 2 7 2 2 2 2 2 2 3 2 2 2 2 2 2 7 2 2 2 2 2 2 2 2 2 2 2 2 2 2 2 2 2 2 2 2 2 2 2 2 2 2 7 2 2 2 2 2 2 2 2 2 2 2 2 2 2 2 2 2 2 2 2 2 2 2 2 2 2 2 2 2 2 2 2 2 2 2 2 2 2 2 2 2 2 9 2 2 2 2 2 2 2 2 2 2 2 2 2 2 2 2 2 2 2 2 2 2 2 2 2 2 2 2 2 2 * # #   # # # $ # * * * * # # # $ # # * # * # * # $ # # * # * # $ # # # * # # $ # * # * # # $ # * # * # $ # $ # # * # # * # * # $ # * * # # $ $ # $ * * # # # # # # # # # & 2 2 2 2 2 2 9 R 3.3.3.R t 2 2 2 8.p.9 2 2 2 2 2 2 3 0 7 3 2 2 2 2 2 2 2 2 2 2 2 2 2 2 2 2 2 2 2 2 2 2 2 2 2 2 2 2 2 2 7 2 2 2 2 e J 9 2 2 3 2 2 3 2 2 2 2 2 2 3 2 2 2 2 2 0 t t 2 2 2 2 2 2 2 2 2 2 2 2 2 2 2 2 2 2 3 2 2 2 2 & # $ # & & 1 # % & & & & & & % % 1 1 1 # 1 & & & & = W *.*.3 & & & & & 1 # # & 1 1 , U %.%.| P 2 & & & & & # $ # 1 & & 1 O & < ` =.I = % 1 & & & & & & & & 8 I %.%.%.P : & & & & & O $ # 1 & & # $ O % 1 1 & & & & $ # & & # 1 & & > P  .#.&.( , 2 1 1 # % 1 1 # 2 2 2 2 2 2 3 $ X # X # 2 7 2 2 3 2 2 7 2 3 2 3 2 2 3 2 2 2 2 2 2 2 2 2 3 2 2 2 2 2 2 3 2 2 2 2 2 2 2 2 2 2 2 2 2 3 3 2 2 2 2 2 2 2 3 2 2 2 2 3 2 2 2 2 2 2 2 2 2 2 2 3 2 3 2 2 2 2 2 2 2 3 2 2 2 2 3 7 2 3 2 2 3 2 2 2 2 2 2 2 2 2 3 2 2 3 3 2 2 2 2 2 2 2 2 2 ",
"2 2 2 2 2 2 2 2 2 2 2 2 2 2 2 2 2 2 2 2 2 2 2 2 2 2 2 2 2 2 2 2 2 2 2 2 2 2 2 2 2 2 2 2 2 2 2 2 2 2 2 2 2 2 2 2 2 2 2 2 3 9 0 3 2 2 2 2 2 2 2 2 2 2 2 2 2 2 2 2 2 2 2 2 2 2 2 2 2 2 2 2 2 2 2 2 2 2 2 2 2 2 2 2 2 2 2 2 2 2 2 2 2 2 2 2 2 2 2 2 2 2 2 2 2 2 2 2 2 2 2 2 7 e 7 7 2 2 2 2 2 2 2 2 2 2 2 2 2 2 2 3 3 2 2 2 2 3 2 2 3 2 2 2 2 2 2 2 2 2 2 9 2 2 2 2 2 2 2 2 3 2 2 2 2 2 2 2 2 2 2 2 2 2 2 2 2 2 2 2 3 3 3 2 2 3 2 2 2 2 4 3 3 2 2 2 2 2 2 2 2 2 2 2 2 2 2 2 2 2 2 2 2 2 2 2 2 9 2 2 2 * # # # # # # # * # * # * # # # $ # # * # * # # # $ # # * # * * * # $ $ $ # & & # * # # # * # $ # # # * * # $ * # $ # $ # # $ # $ # # * * # $ & # * # * # * # # # # * * # * # # # # $ # $ # * * # $ # $ * * # # $ # # # # # # X $ 2 2 2 2 2 2 2 2 2 2 2 2 2 2 3 3 2 2 2 2 2 2 2 2 2 2 2 9 2 2 2 3 2 2 2 2 2 2 2 2 2 2 2 2 2 2 2 2 2 2 2 3 2 2 2 7 2 2 2 2 2 2 2 2 2 2 2 2 3 2 2 2 2 2 2 3 2 2 2 2 2 2 2 2 2 2 2 2 2 2 2 3 2 2 7 2 2 2 2 2 2 2 2 2 2 2 2 2 2 2 2 2 2 2 2 2 2 2 2 2 2 9 2 2 2 2 2 2 2 2 2 2 3 3 2 2 3 2 3 2 2 2 2 2 2 2 2 2 2 2 2 2 2 2 2 3 2 2 2 2 2 2 2 2 2 2 2 2 2 2 2 2 2 2 2 2 2 2 2 2 2 2 2 2 2 2 2 2 2 2 2 2 2 2 2 2 2 2 2 2 2 2 2 2 2 2 2 2 2 2 2 2 2 2 2 2 2 2 2 2 2 2 2 2 2 2 2 2 2 2 2 2 2 2 2 2 2 2 2 2 2 2 2 2 2 2 2 2 2 2 3 2 2 2 2 2 2 2 2 2 2 2 2 2 2 2 2 2 2 2 2 2 2 2 2 2 2 2 2 2 7 2 2 2 2 2 2 2 2 2 2 2 $ # # # # # # # # # # $ * # # $ # * # $ # $ & # # $ # $ # * $ # * * # * # $ $ # $ & $ # # * * # $ # * # $ # * # * # # $ # # * # # # # * * # # * $ # # * # $ * # # # #   # = 2 2 2 2 1 G sXdXdXsXeXa.t 3 4 9 2 2 2 2 2 2 2 2 2 ,.3.2 2 2 2 2 2 2 2 2 2 2 2 2 2 2 2 2 2 2 2 2 3 3 3 2 2 2 2 2 2 2 2 2 2 2 e 8.6Xt 4 2 2 2 2 2 2 2 2 2 2 2 2 2 2 2 2 2 3.p.i.9 2 2 2 2 2 2 2 2 2 2 2 2 3 2 2 2 2 2 2 2 3 2 % % # $ # & # $ O 1 1 & 1 1 & & & & 1 1 # 1 & & & = U oX>XoXq & & & 1 1 & & 1 # 1 q C.=X*X*X*XoXI * 1 1 1 & & & # $ & & & & * ! =X*X#.Z & & $ # & & & & & = *.=X*X=X=X=X` q 1 # $ # & & & & & # 1 1 % & & & & & 1 & & & % & & & & < *.=X*X=X=X*XC.I & & & & & & 1 2 2 2 2 2 2 2 & # # X # 2 3 2 2 3 2 2 2 3 2 2 2 2 2 2 2 3 2 2 2 2 2 2 3 2 2 2 2 2 2 2 2 2 2 2 2 2 2 2 2 2 2 2 2 2 2 2 2 2 2 2 2 2 2 2 2 2 2 2 2 2 2 2 2 3 2 2 2 2 2 2 2 3 2 2 2 2 2 2 2 2 2 2 2 3 2 2 2 3 2 2 2 2 2 3 2 2 2 2 2 2 2 2 2 7 2 2 2 2 2 2 2 2 2 2 2 ",
"2 7 2 2 2 2 2 2 2 2 2 2 2 2 2 2 2 2 2 2 2 2 2 4 2 2 2 4 2 2 2 2 2 2 2 2 2 2 2 4 2 2 2 9 3 2 2 1 2 7 2 2 2 2 2 2 2 2 2 2 2 e.6X2 2 2 2 2 2 2 2 2 2 2 2 2 2 3 2 3 2 2 2 2 2 2 2 2 2 2 2 2 2 2 2 2 2 2 2 2 2 3 3 3 2 2 2 2 2 2 2 2 2 2 2 7 2 2 2 2 2 2 2 2 2 2 2 2 2 2 2 2 >.tXD 2 2 2 2 2 2 2 2 2 3 2 2 2 2 2 2 2 2 2 2 3 2 2 2 2 2 2 2 2 2 2 2 2 2 2 2 2 2 2 2 2 2 2 2 9 2 2 2 2 2 2 2 2 2 2 2 2 2 2 2 2 2 2 2 2 3 3 2 2 2 2 2 4 2 9 2 2 3 2 3 2 2 2 2 2 2 2 2 2 2 2 2 2 2 2 2 2 2 2 2 2 2 2 2 2 2 * .   # # # * # # # * $ # # * * # * # # $ $ # * * # * $ # $ # # # * # $ $ $ # # & & $ * # # $ # * * # # # * # # # # * # * * # # * * # # # * # $ # # $ # $ # $ * * $ # # $ # # # * * # * # $ # # # # * # # # $ * # * * # #   # # $ 2 2 2 2 2 2 2 2 2 2 3 2 2 2 3 4 2 2 2 2 2 2 2 2 2 2 2 2 2 2 2 2 2 2 2 2 2 2 2 2 2 2 2 2 2 2 2 2 2 2 2 2 2 3 2 2 2 2 2 2 2 2 2 3 2 2 2 3 2 2 2 2 2 3 2 2 2 2 2 2 2 2 2 2 2 2 2 2 9 2 2 2 2 2 2 2 2 2 9 2 2 2 2 2 2 2 2 2 2 2 2 2 2 2 2 2 3 2 2 7 2 2 2 2 2 2 9 2 2 2 3 2 3 3 3 2 2 2 2 2 2 2 9 2 2 2 2 2 2 2 2 2 2 2 3 3 2 2 2 2 2 2 2 2 2 2 2 2 2 2 2 2 2 2 2 2 2 7 2 2 2 2 2 9 2 2 2 2 2 2 2 2 2 2 2 2 2 2 2 2 2 2 2 2 2 2 2 2 2 2 2 2 2 2 2 2 2 2 2 2 2 2 3 3 3 2 2 3 2 2 3 2 3 2 2 2 2 2 9 2 2 2 2 2 2 2 2 2 2 9 3 3 2 2 2 2 2 2 4 2 2 2 2 2 3 2 2 2 2 2 2 2 2 2 2 2 2 2 2 2 2 2 2 2 2 9 2 2 2 3 2 2 # X   # # # # $ * # * # # $ * # $ # $ * * # # * $ # * # * # # * # # $ # # & $ $ & # # * # # # $ # $ # $ # * # $ * # * # * # # $ * # $ # # $ # # & * $ # * # # # # # # # $ 7 2 2 2 3 2 G sXq.J J 8.wX/.F 2 2 2 2 2 2 2 3 3 2 2 Q.e.9 3 3 3 2 2 3 2 2 2 2 2 2 2 2 2 2 2 2 3 4 3 3 2 2 2 2 2 2 2 2 2 2 2 1 ,.Q.0.0 2 2 2 2 2 2 3 3 2 2 2 2 2 2 2 2 2 2 2 q.eXF 3 2 2 2 2 2 2 2 2 2 2 2 2 2 2 2 2 2 2 2 2 2 % % $ O 1 & 1 # $ 1 # & % # # & & & # 1 1 % & & = *.oX5X5X=X< & & % O # & & 1 % = ' %XoX%.| C.>X.XZ X & 1 & & & & O & & & # P Z.>X>X=.w # 1 O 1 & & & & * ( oX=X=.( *.=XoXI % 1 # $ & & & & 1 1 # 1 & & & & & & & & 1 # 1 1 & & & | oX=X=.U ] oX5X=.= & # & & & 1 2 2 2 2 2 2 2 # # X # # 2 2 2 2 2 2 2 2 2 2 2 2 2 2 2 7 2 2 2 2 2 2 2 2 2 2 3 2 2 2 3 2 2 3 2 3 2 2 2 2 2 2 2 2 2 2 2 2 2 2 2 2 2 2 2 2 2 2 2 2 2 2 2 2 2 2 2 2 2 3 2 2 2 2 2 2 2 2 3 2 2 3 2 2 2 2 2 2 2 2 2 2 2 2 2 2 2 2 2 2 7 2 2 2 2 2 3 2 2 2 2 2 2 2 2 2 ",
"2 2 2 2 2 2 2 2 2 2 2 2 2 2 2 2 2 2 2 2 2.6X6X6XwX0.0 9 2.Q.wXU.3.2 2 2 2 2 0 6./.wXQ.3.t y.wXwXwX6XwXE.9 2 2 2 2 2 2 2 2 i.sX2 2 p.wXwX6X/.q.t 2 2 2 2 2 2 2 2 2 3 3 2 2 2 2 2 2 2 2 2 2 2 2 2 2 2 9 G p.wXQ.6.7 3 2 2 2 4 3.E.wXQ.2.2 2 G a.wX/.0.0 4 2 2 2 2 2 2 2 2 2.hXG 1 8.wX6X6X(.a.J 2 2 2 2 2 3 2 2 2 2 2 2 2 2 2 2 2 2 2 2 2 2 2 2 2 2 2 2 2 2 2 2 2 2 2 2 2 2 2 F p.W.0 2 2 t 0.6X6Xa.t % 0 2.(.wXp.J 1 2 2 2 2 ,.Q.Q.J 9 1 ,.a.t 2 2 2 2 2 2 2 2 2 2 2 2 7 2 2 2 2 2 2 2 2 2 2 2 2 2 * # # # # # # * # * # # * $ # # $ * # * * # # # $ $ # # * * # # * # > >.r.t.1.7 # # * # $ & $ $ # # # # # # $ # * # $ # $ & # # * # # $ # # $ # * # $ * # # # # # # $ $ # # * $ # $ # $ # * # # * # # * * # # # $ $ # # # #   # # 2 2 3 2 2 2 2 2 2 2 2 2 2 2 2 2 2 2 2 2 2 2 2 2 2 2 2 2 2 2 3 2 2 3 2 2 2 2 D a.^.e 2 2 e 6.6X6Xi.F 2 2 2 2 2 2 2 2 3 3 2 2 3 3 2 2 2 2 2 2 2 2 2 2 2 2 2 2 2 2 2 2 2 2 2 2 2 2 2 2 2 2 3 3 2 2 2 2 2 2 2 2 2 2 2 2 2 2 2 2 2 3 3 2 2 2 2 2 2 2 2 2 2 2 2 t q.Q.e 3 2 t a.Q.e 2 2 2 2 2 2 F a.wX(.0.9 2 2 2 2 2 2 2 3 3 2 2 2 2 2 2 2 2 2 2 2 2 2 2 2 2 2 2 2 2 2 2 2 9 2 2 2 2 2 2 2 2 2 2 2 2 2 2 2 2 2 2 9 2 2 2 9 2 2 2 2 2 2 2 2 2 9 2 2 2 2 2 2 F a.wXwXp.R 4 7 3.W.wXQ.1.2 2 3 2 2 8 ,.Q.wXW.,.2 2 2 2 1 G p.(.8.e 4 2 9 2.E.6XwXQ.2.9 3 2 2 2 2 3 2 2 2 2 2 2 2 2 2 2 2 2 2 2 2 2 2 2 2 2 2 2 2 # # # # # # $ * # # # * # # * # # * * H 7.u.r.4.q # * F w.r.5.e # # # $ * D 7.u.r.5.w $ # $ $ # $ # * # # # # # # $ $ $ # $ * # # # # * * # * # $ # * # # # # # # # # # # 8 2 2 2 2 2 J sX2.3 2 t 8.pX6.0 8.W.2 9 8./.6X/.0.a.dXsX6Xa.9 2.Q.wX(.0.9 9 q.p.a.wX/.8.e 2 9 3.W.wX(.8.8 3.E.wXE.2.2 2 2 2 2 q.eXt 2 e 0.(.wXQ.D q.p.a.6X(.,.8.Q.wXp.t 4 1 2.Q.q.0 2 2 2 2 3 2 2 2 3 2 2 2 2 2 2 3 2 2 2 3 1 % 1 & & & & & & & # 1 1 1 1 1 $ # 1 1 1 & & & 2 U oXoXXX*X%X< & 1 1 $ # & & & O w .X>X .< 2 P XX=XI * & & & & & 1 1 & # & q &.*X>X>X=., % 1 # 1 # 1 & X 2 C.*X=.w = , .X*X*.2 & 1 O & # $ & # O $ # # 1 & 1 1 % # $ 1 # $ # & & & %.*X.X, 5 = *.*X.X, & 1 1 % & 1 2 2 2 2 2 2 2 # X # # # 2 3 2 3 2 2 2 2 2 2 2 2 3 2 2 2 2 2 2 2 2 3 2 2 3 2 2 2 3 2 3 2 3 2 2 2 2 2 2 3 2 2 2 2 2 2 2 2 2 2 2 2 2 2 2 2 2 2 2 2 3 2 2 2 2 2 2 2 2 2 2 2 2 2 3 2 2 2 2 2 2 2 2 2 2 3 2 2 2 2 2 3 2 3 2 2 2 2 2 2 2 2 2 2 2 2 2 2 2 2 3 3 2 2 2 2 ",
"2 2 2 2 2 2 2 2 2 2 2 2 2 2 2 2 2 2 2 % a.sXp.p.i.2.0 3.(.W.p.(.U.D 2 2 2 2 2.wXp.a.(.p.,.2.i.i.a.Q.tXwX0 2 2 2 2 2 2 1 2 i.tX4 2 wXtXp.p.W.wX8.0 2 2 2 2 2 3 2 2 2 2 2 2 2 2 2 2 2 2 2 2 2 2 3 2 4 0 W.(.U.Q./.R 8 2 3 3 D /.Q.p./.W.J 0 p./.W.W.(.3.9 2 2 2 2 2 % 2 1 ,.fXG 1 U.dXW.i.p.wXp.t 2 7 2 2 2 2 2 2 3 2 2 2 3 2 2 3 2 2 3 3 3 4 2 2 2 2 2 2 2 2 2 2 2 2 2 2 2 ,.p.sXtX0 2 1 0.(.E.U.6X8.0 ,.(.Q.p.6Xa.t 2 2 2 t y.6XE.i.t 9 y.Q.t 2 2 3 2 2 2 2 2 2 2 2 2 2 2 2 2 2 2 2 2 2 2 2 2 2 2 & #   # # # # # $ # $ $ # # * * # # $ # $ # * # * # * # # # $ $ # $ / t.9.7.r.H = # # * # # # # # # * # # # # # # * # # # # # # # # # # # * # # # # # # # # * # * * # # * $ # # * # * * * # # $ # * * # # # * # & $ # # # # # # # 2 2 2 2 3 2 2 3 2 2 2 3 7 2 2 2 2 2 3 2 2 2 2 2 2 2 2 2 2 2 2 2 2 2 2 2 2 3.i.tXdXt 2 2 2.(.Q.p.6X0.e 2 2 2 2 2 2 2 2 1 % 2 % 2 1 2 2 2 2 2 3 2 2 2 2 2 2 2 2 2 2 2 2 2 2 2 2 2 2 2 2 2 2 3 2 2 2 2 2 2 7 2 2 2 2 2 2 2 2 2 2 2 2 2 2 2 2 2 2 2 2 2 2 2 1 6.uXsXt 4 R a.uXdXt 2 2 2 2 2 9 p./.W.E.(.3.9 2 2 2 2 2 1 1 % 2 2 1 2 1 2 1 2 2 1 2 1 2 2 2 2 2 2 2 2 2 2 2 2 2 2 2 2 2 2 2 2 2 2 2 2 2 2 2 2 2 2 2 2 2 2 2 2 2 2 2 2 2 2 2 2 2 2 2 2 2 2 9 2.Q.p.i.6Xa.t t /.Q.W./.Q.G 3 2 2 2 R (.Q.p.(.p.t 2 2 2 0 8.Q.p.Q.3.2 e 6.(.E.i.U.p.2.7 2 2 2 2 2 2 2 2 2 2 2 2 2 2 9 2 2 2 2 2 2 2 2 2 2 2 2 2 2 # # # # # # & # # * $ # # * # # * # 7 ^ 9.5.5.u.>.7 D t.w.5.r.5.9 * $ # = K 9.4.4.u.1.9 * # # * # # # # # # # # # # # # $ $ # # # # # # # # * # # * # $ # * # # #   # # & 2 3 2 2 2 1 G sX2.8 2 2 t eXp.F p.uX9 3.Q.Q.i.i.8.8.sXtXi.6.9 2.a.a./.wXJ 0 wXuXi.i.Q.6X3.% 3.Q.Q.p.p.,.G Q.Q.p.(.W.J 2 2 2 t i.wX0 2 y.Q.W.i.a.t (.uXp.U.wX6XE.i.W.wX0.e 4 J i.Q.0 2 3 2 2 2 2 2 2 2 2 2 2 2 3 2 7 2 2 2 2 2 & & & & & & 1 & % 1 1 # # 1 1 O $ # # # 1 & & 1 I C.U *.=X%X< & # 1 # $ & & & # P *X%XY X % q =.>X*.q # & & & & # & & 1 & U oX%XZ.*X=.w % # 1 1 1 1 & & < oX>X] # # * &.=XC., & 1 # 1 1 # $ 1 1 # $ 1 1 # & 1 # 1 # O $ # 1 & & & %.>XZ.< * # &.>X.X< & $ O 1 # 1 2 2 2 2 2 2 2 & # X X X 2 3 2 2 2 3 2 2 3 2 2 2 2 2 3 2 2 2 2 2 3 2 2 2 2 2 3 2 2 2 2 2 2 2 2 2 2 2 2 2 2 2 2 2 2 2 2 2 2 2 2 2 2 2 2 2 2 2 2 2 2 2 3 2 2 2 2 2 3 2 3 2 2 2 2 2 2 2 3 2 2 2 3 2 2 2 2 2 3 2 2 2 2 2 2 2 2 2 2 2 2 2 2 2 2 2 2 2 2 2 2 2 2 2 2 2 ",
"2 2 2 2 2 2 2 2 2 2 2 2 2 2 2 2 2 2 2 2 i.wXO % % % e q.eXG 2 0.(.0.3 2 2 0 a.tXe 2 q.Q.0.1 1 1 % ,.E.q.0 2 2 2 3 t 2.8.3.W.uX9 9 wXp.9 % F eXU.G 2 2 2 2 2 2 2 2 2 2 9 2 2 2 2 2 2 9 2 2 2 2 3 2 3 3.uX0.3 3.(.a.t 2 2 4 2.sX2.2 6./.y.J eXa.9 J /.a.F 4 1 2 2 e ,.8.,.8.hXF % U.6Xt 2 9 /.(.,.2 2 2 2 2 2 2 3 2 2 2 3 2 2 2 2 2 2 2 3 2 2 2 2 2 2 9 2 2 2 2 2 2 2 2 2 9 q.p.eXtX0 2 e /./.e 0 Q.p.>.y.tXG 3 a.Q.6.2 2 2 ,.i.q.3.wXJ ,.i.8.2 2 2 2 2 2 2 2 2 2 2 2 2 2 2 2 2 2 2 2 2 2 2 2 2 2 2 1 # # # # # # $ # # * # $ * # $ * # # * # # $ # # * # # * # # # * 2 t.9.7 7 7.7.w # # $ $ e H K H 0 $ > D K K D * # 0 F e K J 9 9 H K S 7 $ $ 7 H 0 H K e 2 $ # # # * # * # * # $ # # # # # * $ # * # $ # # # * * # # # # #   X # 2 3 2 2 2 2 2 2 2 2 2 2 2 2 2 2 2 2 2 2 2 2 2 2 2 2 2 2 2 2 2 2 2 3 2 2 2 8.p._.sXD 3 9 p.eXt 9 p.E.2.1 3 2 2 R ,.3.8.6.D G 2.8.,.0 2 2 2 2 2 2 2 2 2 2 2 3 2 2 2 9 2 2 2 2 2 2 2 2 2 2 2 4 2 7 2 2 2 2 2 2 2 2 2 2 2 9 2 2 2 2 2 2 2 2 3 2 2 2 2 2 2 2 F i.sXtXt 2 0.p.6XsXt 2 2 2 2 3 D eXa.9 G /.p.t 2 2 2 2 0 3.8.8.,.9 ,.3.,.8.2.t 3.8.8.3.2 2 2 2 2 2 2 2 2 2 2 2 2 2 2 2 2 2 2 2 2 2 7 2 2 2 2 7 2 2 2 2 2 2 2 2 2 2 2 2 2 2 2 2 2 2 2 2 2 2 9 3.2.9 2 p.(.6.,.uX2.2 2.(.q.9 2 1 4 8.pX3.2 0.Q.8.2 2 2 t e.a.0 (.2.1 3.6X(.3.2 2 t t 3 2 2 2 2 2 2 3 2 2 2 2 2 2 2 2 2 7 2 2 2 7 2 2 3 2 2 2 2 2 # X #   # # # # # # # $ # # $ # # * 2 0 0 # 2 9.7.H ^ R.0 $ 1.9.^ # # * = 0 D # $ 7.w.F # $ & & w F D J J q w H K H 2 # # 7 D K ^ D 8 # # * # $ # # $ # # * # # # # . # & 2 2 2 2 3 2 J sX2.9 2 2 e Q.W.R p.tX9 6.eX0.4 2 e 2 eXp.3 1 3 D 9 % ,.wX0.t wXeX3.2 J sXq.3 0.uX3.9 2 9 8.uX3.1 6./.a.9 2 2 3.p.U.9 t wXE.t 2 3 9 wXeX3.9 0.fXp.0 t W.Q.G 1 e q.eXt 2 3 2 2 2 3 2 2 2 3 2 2 2 2 2 2 3 2 2 3 2 & & & & & & # # 1 1 # 1 & & 1 & 1 1 1 # 1 1 & & & w = ( *X%X< & & & $ # 1 & # * I *XoXZ # # = | =XC.N & # 1 & & & # O $ , Z.%X=.%.*X=., * & & & # # 1 1 N %X%XI O $ 2 I oX.XW 1 & & & & # O # $ 1 # 1 # $ # & # 1 $ O 1 & & & & & ( oX%X&., Y Z.=X=.= & & & & # 1 2 2 2 2 2 3 2 & # # # # 2 3 2 2 2 2 2 2 3 2 2 2 3 2 2 2 2 3 2 2 2 3 2 2 2 2 3 2 2 2 2 2 2 2 2 2 2 2 2 2 2 2 2 2 2 2 2 2 2 2 2 2 2 2 2 2 2 2 2 2 3 2 2 2 2 2 2 2 3 2 2 3 2 2 2 2 2 2 2 2 2 7 2 2 2 2 3 2 2 2 7 2 2 2 2 2 2 2 2 2 2 2 3 2 2 2 3 2 2 2 2 2 2 2 2 2 ",
"2 2 2 2 2 2 2 2 2 2 2 2 2 2 2 2 2 2 2 2 p.tXJ J G 9 G p.Q.0 2 G U.Q.9 2 2 4 y.wXF e q.W.8.2 2 2 2 i.wXJ 4 2 2 2 t a.eXtXW.eXtX2 2 wXU.0 2 e /.p.3.1 2 2 2 3 3 2 2 2 2 2 2 2 2 2 2 2 2 2 2 2 2 2 2 0 6.wX3.2 t q.(.t 1 2 e q.6XD 1 G a.6X8.wX6.1 e 0.6XJ 2 2 2 9 0.wXtX(.W.hXF O U.6Xt 4 2 p./.,.2 2 2 3 3 2 2 2 2 2 2 2 2 2 2 2 2 2 2 2 2 2 2 2 2 2 2 2 2 2 2 2 2 2 2 2 4 3.t a.tX9 2 3./.a.4 2 6.(.p.p./.3 2 >.E.p.2 2 2 2.a.2.t tX3.i.W.3.F 9 3 2 2 2 2 2 2 2 2 2 2 2 2 2 2 2 9 2 2 2 2 2 2 2 2 1 # # # # # # # * # # * # * # # # # * # # * # * # # $ # * # * # * S w.1.# 2 H t.J # $ $ 7 6.K.Y.K.1.7 H w.I.K.u.0 $ 5.Y.7.R.T.7.2.r.R.R.J 2 # H T.7.r.Y.t.H * $ * $ # # * $ # * # * * # * $ # # * # $ * * # * # # # * # # # # # # 2 2 2 2 2 2 2 2 2 2 2 2 2 3 2 2 2 2 2 2 2 2 2 2 2 2 2 2 2 2 2 2 2 2 2 2 2 3.t 8.sXt 2 3.Q.W.2 9 ,./.y.1 3 3 2 W.tXW.tXuXp.i.6XtXeX2.0 2 2 3 2 2 7 2 2 2 2 2 2 2 2 2 2 2 2 2 2 2 2 2 2 2 2 2 2 2 2 2 2 7 2 2 2 2 2 2 2 2 2 2 2 2 3 2 2 2 2 2 2 2 2 2 2 9 a.a.Q.tXt 3 3.t 8.sXt 2 2 2 2 9 6.wX2.1 e 0.wXJ 1 2 2 9 8.(.uXuXW.G tX(.(.uXeXq.W.eXpXQ.J 2 2 2 2 9 2 2 2 2 2 2 2 2 2 2 2 2 2 2 2 2 2 2 2 2 2 2 2 2 2 2 2 2 2 2 2 2 2 2 2 2 2 2 2 2 2 2 2 2 1 2 2 2 3 q.E.y.q.wXF 1 G i./.0 2 2 D a.6Xe 4 3.U.E.9 2 4 t 0.p.,.Q.,.2 q.sX3.2 2 2 2 2 3 2 2 2 2 2 2 3 2 2 2 2 2 2 2 2 2 2 2 2 2 2 2 2 2 2 2 2 2 2 # # # # # # * * $ * * # * * # * $ # $ $ $ # 7 7.7.K 2.r.2 # D 7.5.# $ # # # # $ 1 5.7.H # $ # * 8.R.7.I.Y.5.5.r.R.K.H 2 $ H u.I.R.7.D # $ # * # * # # * # * * # # # . # & 2 2 2 2 2 1 J sX6.9 2 2 t Q.Q.R p.tX9 G (.E.,.F 2 3 eXp.9 2 2 t F F 8.(.a.t eXQ.9 2 9 pXy.D a.wXe 2 4 D a.uX,.F 8.Q.Q.2 2 2 2.W.a.0 ,.wXq.1 2 3 9 wXQ.2 9 3.tX0.1 t q./.G 2 9 8.uXt 1 2 2 3 2 2 2 3 2 2 2 2 2 2 2 2 2 2 2 2 2 1 & & & & 1 1 1 & % $ # & & # & % # 1 % $ O & & & & X U *X%X< * & & # $ & & & = ( >X.X, # O = U =XZ.Y X # $ & & & 1 # = =.%X=.P &.*X=., & & # & 1 1 & 1 P %XoXI X & - W oXoXI * & & & & 1 1 $ O 1 & O $ # 1 & & 1 O $ % - & & & & < *.>X=X=.oX>XC.P & & & & & & 1 2 2 2 3 2 2 3 # X # X X 2 2 2 2 2 2 2 2 2 2 2 2 7 2 2 2 2 2 2 2 2 2 2 2 2 2 2 2 2 2 2 3 2 2 2 2 2 2 3 2 2 2 4 2 2 2 2 2 F t 2 2 2 2 2 2 2 2 2 2 2 2 2 2 2 2 2 2 2 2 2 2 2 2 2 2 2 2 2 3 2 2 2 2 3 2 2 2 2 2 2 2 2 2 2 2 2 2 2 2 2 2 2 2 2 2 2 2 2 2 3 2 2 2 2 2 ",
"7 2 2 2 9 2 2 2 9 2 2 2 2 2 2 2 2 2 2 2 i.hXpXpX(.,.J a.Q.0 2 F U._.3 2 2 4 ,.wXQ.q.wXa.t 2 2 2 J Q.Q.2 3 2 2 3 6.sX6.t 8.tXtX9 2 wXW.F e ,.tXq.e 1 2 2 2 2 3 2 2 2 2 2 2 2 2 2 2 2 2 2 2 2 2 2 2 e e.Q.J 2 0 0.eXD 2 2 t i./.D 2 t q.tXy.Q.,.1 9 6.wX3.% 2 2 F uXa.t 3.(.hXG % p.wXJ e G (.W.t 3 2 2 2 2 2 2 2 2 2 2 2 3 2 2 2 2 2 2 2 2 2 2 2 2 2 2 2 2 2 2 2 2 2 2 2 3 2 1 i.tX0 9 2.Q.q.1 9 R 6XQ.p.p.9 2 F E.E.2 2 2 2.a.6.F tX0.p.6X(.(.,.9 2 2 2 2 2 2 2 2 2 2 2 2 2 2 9 2 2 2 2 2 2 2 2 7 1 # # # # # $ * # # $ * # # # # * # * $ # # * # $ * # # $ * # # $ H w.>.# $ D i.K # # * H t.^ 2 9 q $ 0 0 = D K.<.9 6.E./ 7 <.Y.r.D 8 7.7.e # H `.5.0 0 9.u.7 # * # * # # * # # $ $ # $ # # * # # # * # # # $ * # $ # # # #   # # 2 2 2 3 7 2 3 2 2 2 2 2 2 2 2 2 2 2 2 2 2 2 2 2 2 2 2 2 2 2 3 2 2 2 3 2 2 7 2 8.sXt 2 ,.W.i.2 2 G (.i.2 2 2 2 (.sX8.t a.dX/.G R /.U.G 2 2 2 2 2 2 3 2 2 2 2 2 2 2 2 2 2 2 2 2 2 2 2 2 2 2 2 2 2 2 2 2 2 2 2 2 2 2 2 2 2 2 2 2 2 2 2 2 2 2 2 2 2 2 2 2 3.(.8.0.tXt 3 2 1 8.sXt 2 2 2 2 9 q./.,.1 0 2.eX3.1 2 2 F tXi.t e t D dX(.3.R Q.dXq.t 8.(.a.9 2 2 2 2 2 2 2 2 2 2 2 2 2 2 2 2 2 2 2 2 2 2 2 2 2 2 2 2 2 2 2 2 2 2 2 2 2 2 2 4 2 2 2 2 2 2 2 2 2 2 2 2 3 W.W.8.a.Q.t 2 e y.wX0 1 2 R p.W.0 1 t p.(.9 2 2 2 ,./.tXi.t t i.tXe 2 2 2 2 2 2 2 2 2 2 2 4 3 2 2 2 2 2 2 2 2 2 2 2 2 2 2 2 2 2 2 2 2 2 2 # # # # # # # # # # # # $ # $ # # * $ $ 1 7 D K.1.H 5.6.* # 9 7.w.$ # $ # * * 7 D u.5.9 # $ & & w.Y.K 9 <.!.w.e 0 w.4.q 9 4.t.9 7 0 > # # * $ & $ # $ # # $ # # # # # # $ 2 2 2 2 2 2 G sX2.3 2 1 t (.W.G p.tX2 2 >.Q.tX/.R 9 eXW.3 4 0 a.eXsXfXsXi.t wXW.1 2 9 uXq.R i.(.0 2 2 D U.lXdXsXsXsXE.2 2 1 2.Q.y.4 2.(.0.2 2 4 9 wXE.1 9 3.eX8.1 t q.(.J % 3 6.sXD 2 2 2 2 2 3 2 2 2 2 2 7 2 2 2 2 2 2 3 2 2 % & # O $ # # 1 & & O $ & % 1 1 1 1 & & # $ & & # 1 O U *X%Xq & & & & O % 1 & 3 ` *XZ.w & # = I =XZ.Y % # O & & # O = I oXXXI 8 &.=X=.w - % & & & & & * Y =XXXI # 1 & P XX%X( & & & & & & % # 1 & & & & 1 1 & & & & # $ & & & & & & I .X>X>X>X%X .* & & & & % 1 1 2 2 2 2 2 2 2 # # # # # 2 3 2 2 2 2 2 2 2 3 2 2 2 2 2 2 2 2 2 2 3 2 2 2 3 3 2 2 3 2 2 2 2 2 2 2 2 2 2 3 9 e 0 0 9 2 2 7 (.W.2 2 2 2 2 2 2 3 2 2 2 2 2 2 2 2 2 2 2 2 2 7 2 7 3 3 2 2 2 2 2 2 2 2 2 2 2 2 2 2 2 2 3 2 2 3 2 2 2 2 2 2 2 2 2 2 3 2 2 2 2 2 2 2 3 2 ",
"2 2 2 2 2 2 2 2 2 2 2 2 2 2 2 2 2 2 2 2 G >.R ,.(.W.6.q.tXR 9 q.tX(.3 2 2 2 t y.dXsXwX2.2 2 2 2 q.Q.0.2 3 2 2 e y.eXt 2 e Q.tX9 3 wXfXpXpXsX/.J 2 2 2 2 2 2 2 2 2 2 2 2 2 2 2 2 2 2 2 3 2 2 2 2 2 t a.Q.J 1 9 8.pXD 2 1 G p.E.D 1 e q.sXp.Q.3.1 9 2.pX3.2 2 9 6.tX,.2 0 0.hXG % p.hXpXpXfXwX6.2 2 2 2 3 2 2 2 3 2 2 2 3 2 2 2 2 2 2 2 2 2 2 2 2 2 2 2 2 2 2 2 2 2 2 2 2 2 2 1 i.eX0 2 8.E.0.2 9 G wX6Xp.p.9 2 t Q.Q.2 2 4 J i.p.,.wX6XW.E.W.8.W.F 2 2 2 2 2 2 2 2 2 2 7 2 2 2 2 2 2 2 2 2 2 2 2 2 $   # # # # # * # * # # $ # * # * # $ # * $ # * # * # * # # $ $ * ^ 7.K # $ e P.>.# $ $ D K.7.7 # * $ $ $ # 8 9.2.q 7.I.7 * e K.7.# 2 <.t.D # J !.D $ $ <.K.D * $ # # * $ # # * # # * # * # # * # $ # # * * # # $ # * # # # # X # 2 2 2 2 2 2 2 2 3 2 2 2 2 2 2 2 2 2 2 2 9 2 2 2 2 2 2 2 2 2 2 2 3 2 2 2 2 2 1 8.sXt 2 ,.W.a.2 2 G (.W.2 2 2 2 (.wXt 9 ,.uXa.2 e e./.3.1 2 2 2 2 2 2 2 3 2 2 2 2 2 2 2 2 2 2 2 2 2 2 2 2 2 2 2 2 2 2 2 2 2 2 2 2 2 2 2 2 2 2 2 2 2 2 2 2 2 2 2 2 2 4 e Q.q.t 0.uXt 3 3 1 8.sXt 2 2 9 4 e q.Q.,.1 9 2.uX3.4 2 0 2.tX2.2 2 4 D dXq.9 t q.sX3.2 3.p.W.9 2 2 2 2 2 2 2 2 2 2 2 2 2 2 2 2 2 2 9 2 2 2 2 2 2 9 2 2 2 2 2 2 2 2 2 2 2 3 3 3 2 2 2 2 2 2 2 2 2 2 2 2 3.wXa.J i.Q.t 4 0 q.tX0 2 2 3.p.W.0 2 e p.wX2 2 2 2 9 t F e 9 t p.eX0 2 2 2 2 2 2 2 2 2 2 3 2 2 2 2 2 2 2 2 2 2 2 2 2 2 2 2 2 2 2 2 2 2 3 3 # X # # # $ # * * $ # * # * # * # # $ 7 1.Y.'.t.0 D 7.4.* $ 8 7.t.# * # # 7 ^ Y.'.r.D * $ # # $ r.u.7 $ F P.5.# 2 / w.D 7 5.K.D * $ $ * # # # * # * # * * # $ # # # # X $ 2 2 2 2 2 2 G sX2.9 2 2 3.pXq.t p.uX2 2 9 t 2.W.(.t eXp.9 0 8.eXq.J 8.(.y.t eXW.1 2 9 uXy.F i.wX0 1 2 t a.eX,.G G J t 2 2 2 2.W.a.e ,.wXq.% 2 2 9 wXE.1 9 3.eX8.1 t q./.J 2 9 8.sXD 2 2 2 2 2 2 2 2 2 3 2 2 3 2 2 2 2 2 2 2 1 & & 1 1 # $ 1 1 # 1 1 1 # 1 1 # # 1 & & 1 # % 1 1 $ # ! *XoX< 1 # - & & 1 # X 3 ` *XZ., # & 4 U =X.XP 1 1 1 & & # $ < Z.=X .= : %.*X=.w X & & & & & & 2 Y %XXXY % 1 * P XXoXU 1 & & & & & 1 1 # & & 1 & & % & & & & 1 # 1 & & & & , =.*X%X=.oX>XXX( & & & & 1 # 1 2 3 2 2 2 2 2 & # X X X 2 2 2 2 2 3 2 2 2 2 2 2 2 2 2 3 2 3 2 2 2 2 3 2 2 2 2 2 2 2 2 3 2 2 2 2 2 2 2 D eXuXtXtXQ.,.9 2 wXQ.2 2 2 2 2 2 2 2 2 2 2 2 2 2 3 3 2 2 2 2 2 3 2 2 2 2 2 2 2 2 2 2 2 3 2 2 2 2 2 2 3 2 2 2 2 2 2 2 3 2 2 2 2 2 3 2 2 2 2 2 2 2 2 2 2 2 ",
"2 2 2 2 2 2 2 2 2 2 2 2 2 1 R i.(.(.,.2 3 3 2 9 8.(.q.R /.wX(.W.6XQ.9 2 2 9 2./.y.q.Q.p.3.2 3 9 (.Q.t 3 2 2 2 F i.(.0 1 2 p.uX2 2 wX6X0.8.y./.e.F 2 2 2 2 2 2 2 2 2 2 2 2 2 2 2 2 2 2 2 2 2 2 2 2 t q.Q.G 2 9 8.uXG 2 4 F a.Q.t 2 t q.sXa.Q.>.1 9 2.uX3.1 2 e 0.wX3.1 3 1.hXF 1 p.uXy.6.q./.p.R 4 2 2 2 2 2 2 2 2 2 2 2 3 2 2 2 3 2 2 2 2 2 2 7 2 2 2 2 2 2 2 2 2 2 2 2 2 2 1 i.tX9 2 6.W.0.2 2 R wX(.p.p.3 2 t Q./.2 2 2 9 0.wXwXp.wXW.i.8.G eX3.4 2 2 2 2 2 2 2 2 2 2 2 3 2 2 2 2 2 2 2 2 2 2 7 1 $ # # # # # $ # * # # $ # * # * # # $ # # * # # $ # * # $ # $ $ K 9.K # $ D K.^ # # $ 7 ^ t.t.2.7 # D 5.r.u.T.6.9 7.K.$ & 0 r.2.# * J t.S # J '.9 $ # H K.H * # # * # * # # * # # # $ * # * # $ # # * $ * # # # * * # # # # # % 2 2 2 2 2 2 2 2 2 2 2 2 3 2 2 2 2 2 2 2 3 2 2 2 2 2 2 2 2 2 2 2 2 2 2 2 2 2 2 8.sXt 3 ,.U.a.4 2 J (.U.1 2 2 9 (.(.2 2 3.wXe.1 0 0./.3.4 2 2 2 3 2 2 2 2 2 2 2 2 2 2 3 2 2 2 2 2 2 2 2 2 2 2 2 2 2 2 2 7 2 2 2 2 2 2 2 2 2 3 2 2 2 2 2 2 2 2 2 2 2 9 2.Q.3.% 8.tXe 4 2 % 8.sXD 3 3 3 2 0 q.Q.,.2 9 2.tX3.% 2 0 0.wXR 1 2 3 D fX8.1 0 8.uXF 1 J p.W.0 4 2 2 2 2 2 2 2 2 9 2 2 2 2 2 2 2 2 2 2 2 2 2 2 2 2 2 2 2 2 2 2 2 2 2 2 2 2 2 2 2 2 2 2 2 7 2 2 2 2 7 G (.p.J t a.Q.t 2 e y.eXt 2 2 G p.W.0 1 t p.wX9 2 2 2 2 2 1 2 2 t W.eX0 4 2 2 2 2 2 2 2 2 2 2 2 2 2 2 2 2 2 2 2 2 2 2 2 2 2 2 2 2 2 2 2 3 2 2 # X # X X & & & & # # * # * # $ # # # * C K 1.w.5.^ 5.5.* # 9 9.t.$ $ $ # 2 9 K >.w.5.D # # & * w.r.# $ D r.<.# $ K w.C # D 5.r.9.D * $ $ # # # * # # * * # # # # X X # 1 2 2 2 2 2 2 G sX2.3 3 ,.Q.eX3.2 p.tX9 e 9 2 e a.tXt wXW.0 0 y.wX3.1 8.tXa.t eXW.1 1 9 uXy.9 0.sX,.2 2 e 8.uX3.4 % 3 0 2 2 2 3.I.U.9 t wXQ.e 1 e 0 wXE.1 9 3.eX8.% t q.(.J 1 e q.eXt 2 7 2 2 2 2 2 2 2 2 3 2 3 2 2 2 2 3 2 2 2 $ # & 1 & & 1 # 1 1 # 1 1 1 1 1 # $ # & & & # 1 # # % ( *X%Xw & & & & & 1 1 # * I >XS., % % = U =XZ.Y 1 & & & & & < | =XoX%.I | C.*X.X] P O # # & O $ & N %X%X! X 1 1 Q XXXX! & O $ # & & & & & & & & 1 & & & & # 1 1 1 1 1 & & * %.*X.XQ w P A.=XZ.Y & # # 1 1 & 2 3 2 2 2 2 2 $ X # # # 2 2 2 2 2 3 2 2 2 2 2 3 2 2 2 2 2 2 2 2 3 3 2 2 2 2 2 3 2 3 2 2 2 2 2 2 3 2 1 J dXU.8.0.Q.wXt 9 wXW.1 1 1 1 3 3 2 2 1 1 2 2 2 3 1 2 1 1 4 2 2 1 4 1 2 2 2 2 2 2 2 2 2 2 2 2 2 2 2 2 2 2 2 2 2 2 2 2 2 2 2 2 2 2 3 2 2 2 2 2 3 2 2 2 2 2 ",
"2 2 2 2 2 2 2 2 2 2 2 2 2 2 F 0.p.p.3.2 1 2 2 2 3.(.a.9 3.a.a.a.W.a.2 1 2 F i./.0 4 2.(.i.2 2 >.6Xi.2 3 2 2 2 F i.6X0 2 2 p.uX9 2 wXp.0 % 9 U./.2.2 2 2 2 2 2 2 2 2 2 2 2 2 2 2 2 2 2 2 2 2 2 2 2 0 8.6XR & e q.eXt * 1 t q.(.t 1 t a.eX0.(.2.1 9 8.eX3.2 2 e 0.wXR 1 2 2.fXF 1 U.6Xe 2 2 q.6Xq.2 2 2 2 2 2 2 2 2 2 2 2 2 2 2 2 2 2 2 2 2 2 2 2 2 2 2 2 2 2 2 2 2 2 2 2 2 2 1 a.tX9 2 ,.Q.y.1 9 ,.6Xp.a.Q.3 2 3.Q.W.1 2 2 2 G q.p.W.i.a.a.2.t uX3.1 2 2 2 2 3 2 2 3 2 2 2 2 2 2 2 3 2 2 2 2 2 2 3 1 # # . # # # # * # $ * # $ # $ # # * # * # * # * # * # $ # * $ $ D 9./ # $ F u.J # $ # # 7 H 7.w.5.D 7.t.7.7.P.7.0 6.u.$ * 0 r.5.# * R w.D # J !.9 # # J u.H * # $ # $ # # * # # * # # # $ # * # * $ # # * # * # # $ # # # # X # 2 2 2 2 2 2 3 2 2 2 2 2 2 2 2 2 2 2 2 2 2 2 2 2 2 2 2 9 2 2 2 2 2 2 2 2 2 2 % 8.sXD 2 3.U.U.2 2 3.(.p.1 2 2 2 (.(.2 2 3.wXq.1 e 0.(.3.1 3 2 2 2 2 2 3 2 2 2 2 2 2 3 2 2 2 2 2 2 2 2 2 2 2 2 2 2 9 2 2 2 2 2 2 2 2 2 2 2 2 2 2 2 2 2 2 2 2 2 2 9 2 F Q.tXQ.a.6XhXp.3.9 % 8.sXt 3 2 2 1 9 2.(.,.1 0 8.eXR 2 2 0 0.wX3.2 3 3 D dX8.1 0 8.tXG 2 G p.Q.0 2 2 2 2 2 2 2 2 2 2 2 2 2 2 2 2 2 2 2 2 2 2 2 2 2 2 2 2 2 2 2 2 2 2 2 2 2 2 2 3 2 2 2 2 2 2 2 2 2 2 F U.(.>.2 t q.(.t 1 t a.wX9 1 2 t a./.0 2 F p./.2 2 2 2 2 2 2 2 2 9 a.pXt 2 2 2 2 2 2 2 2 2 2 2 2 2 2 2 2 2 2 2 3 3 2 2 2 3 2 7 2 2 2 2 2 2 2 2 # # # # # $ & # # * # * $ # * # * $ * # # # * 1.t.4.5.w.* # 0 7.7.$ # # # $ # # $ / r.<.# * # $ w.r.# & D u.<.# 7 ^ w.D # % 0 1.w.7.D $ # $ * # # $ $ # # $ & # # # # # $ 3 2 3 2 2 1 J dX(.p.p.Q.(.0.e 2 U.uX9 3.a.p.p.Q.p.t i.6XW.0.2.wXQ.a.E.6Xa.t eXW.% 4 9 sXa.2 3./.Q.W.p.2.F Q.Q.p.p.e.3.9 2 2 t i.wX9 9 a.(.E.i.i.t wXQ.1 9 ,.tX8.1 t q.(.J 2 J p.Q.e 2 3 2 3 2 2 2 2 2 2 2 2 2 2 2 2 2 2 2 2 2 # $ & & & & % & X 1 & & 1 X 1 1 $ O 1 & 1 & $ # 1 1 X ( *X%X< * & & & & # 1 1 % I *X%XB O 1 q %.*X=.w X & & & & & w Z.5X*X%XXXoX=X5X*X%X&.1 & 1 & & # $ , %X*XI % 1 * ( %X.XW # % 1 $ & & & % 1 & & 1 X & & # & & % 1 X 1 1 & & r .X>X%.1 # X W .X%X| = & & 1 # & 2 2 2 2 2 2 2 # # # X X 2 3 2 2 3 2 2 2 2 2 2 2 2 3 2 2 2 2 2 2 2 2 2 2 2 2 2 2 2 2 2 2 2 7 2 2 2 2 2 F sX1.4 3 0.sX,.0 (.wX,.p.i.,.9 2 9 ,.y.p.q.R 4 9 2.a.p.e.3.3 0 6.a.i.1.8 2 2 2 2 2 2 2 2 3 2 2 3 2 2 2 2 9 2 2 2 2 2 2 2 2 2 2 4 3 2 2 2 2 7 2 2 2 2 2 2 ",
"2 2 2 2 2 2 2 2 2 2 2 2 2 2 2 2 2 1 2 2 0 9 2 2 0.Q.0.1 2 1 3 y.W.2.9 R e 3.U.W.9 2 F Q.Q.2 9 I.Q.,.1 3 2 2 2 0 q.tXD 2 t /.uX2 9 wXp.0 2 9 a.6X6.% 2 2 2 2 2 2 2 2 2 2 2 2 2 2 2 2 2 2 2 3 2 2 2 3 3.eX2.2 R U.Q.D G F 0 2.eX3.2 3.W.W.3.wX0.2 F p.Q.F 1 2 9 2.tX2.2 0 a.fXF 1 p.6Xt 2 2 8.6Xi.2 2 2 2 2 2 2 2 2 2 2 2 2 2 2 3 2 2 2 2 2 2 2 2 2 2 2 2 9 2 2 2 2 2 2 2 2 2 1 i.tX0 2 t Q.W.2 9 y./.0.y.wXt 2 8./.y.2 2 2 2 2 2 t wX,.2.i.0.G eX3.1 2 2 2 2 3 2 2 2 2 2 2 2 2 3 2 3 3 2 2 3 3 2 7 1 X # # # # # $ * # # $ # # * # * $ # # $ # $ # * # * * # # $ # * 9 w.5.* 2 1.w.F # # $ * $ # 7 5.I.5.u.<.# 9 r.7.0 7.u.$ $ 0 t.2.# 2 ^ w.F # J `.H * $ 2.R.0 * # * * * # $ # $ * $ # * # * * # * # # * # # # # $ # * # # # # # & 2 2 3 2 2 2 2 2 2 2 3 2 2 2 2 2 2 2 2 2 2 2 2 2 2 2 2 2 2 2 2 2 2 2 2 2 2 2 1 8.sXt 2 e p.(.0 2 0./.8.2 2 2 3 (./.% 9 J wXq.% 0 0.(.3.1 3 2 3 2 2 2 2 2 2 2 2 7 2 2 2 2 2 2 2 4 2 2 2 2 2 2 2 2 2 2 2 2 2 2 2 2 2 2 3 2 2 2 2 2 2 2 2 2 2 2 2 2 2 F W.wXwXwXsXhXwX,.9 1 8.sXt 3 3 D J 0 J wX0.2 t p.Q.G 1 3 0 2.tX6.2 2 3 t dX6.1 0 8.eXF 1 J p.E.0 2 2 2 2 2 2 2 2 2 2 2 2 2 2 2 2 2 2 2 2 2 2 2 2 9 2 2 2 2 2 2 2 2 2 2 2 2 2 2 2 2 2 2 2 2 2 2 2 2 t q.6X>.3 1 3 2.tX3.2 3.W.U.e R e 0 0.eXF 2 6.Q.p.9 2 2 2 2 2 2 2 2 2 8.tXy.t 2 1 2 2 2 2 2 2 2 2 2 2 2 2 2 2 2 2 2 3 2 2 2 2 2 2 2 3 2 2 2 2 3 2 # # X X # & # * # * $ # # * # # $ # $ $ $ # * K r.<.>.u.7 $ K 9.5.* D 2 $ $ $ # $ J r.<.# # & * w.t.# * w r.^ # 2 ^ t.D $ * $ # H u.<.# $ $ $ & $ # # * * # # # # # # X % 2 2 2 2 3 2 t Q.wXwX6XE.2.3 2 2 8.U.3 3.W.wX6Xp.J 9 R p.6Xa.e i.6X/.a.8.6.e p.0.2 2 9 W.6.2 9 3.Q.6X(.8.9 J p.wXwXp.3.3 2 4 3 q.eXt 2 t q.6X6XE.F i.q.1 9 G p.3.4 e 2.y.t % 2./.0.0 2 2 2 2 2 2 2 2 2 7 2 2 2 2 2 2 2 2 2 2 2 1 O & & & & & % 1 1 & & 1 1 % & & 1 % 1 # 1 O $ & & % ! *X%Xq & & & & & # $ 1 % Z %X=XI & X < C.*X&.: & & & & & X w *..XXX.XXXXX%X>X=X%X&.* & & & & & # 8 S.>X&.* # = *.*X=.< & & - 1 1 & & # 1 # # 1 < w = 1 & & - 1 # % & & & , .X=X%.& & % P Z.=X .* & & 1 # & 2 2 2 2 2 2 2 & X # # # 2 3 2 2 2 2 2 2 2 2 2 2 2 2 2 2 2 7 2 2 2 2 2 2 2 2 2 2 3 2 2 2 2 3 2 2 2 2 2 G sX6.9 3 8.pX,.0 (.uXU.wXwX/.,.1 t q.(.wXeXp.t J /.6X6X/.8.0 0.(.wXwXQ.J 9 2 2 2 2 2 2 2 2 2 2 2 2 2 2 2 2 2 2 2 2 2 2 2 2 2 2 2 2 2 2 3 2 2 2 2 2 2 3 2 ",
"2 9 2 2 2 2 2 2 2 2 2 2 2 2 2 2 2 2 2 t >.,.G ,.(.U.J 9 t G 2.6XU.e F wX2.F i.wX3.J q./.q.2 t eXa.t 2 2 2 2 2 2 2.uX0.R 8.tXuX7 2 wXQ.3.F ,.6XW.3.2 2 2 3 2 2 2 2 2 2 2 2 2 9 2 2 2 2 2 2 2 2 2 2 2 t wXp.3.0.6X8.D Q.i.8 G eXy.3.a.(.2.0 (.W.,.8.wX0.0 2 2 2 D eXp.3.,.(.hXG 1 U.eX,.G R E./.2.2 2 2 2 2 2 2 2 3 2 2 2 2 2 7 2 2 2 2 3 2 2 2 2 2 2 2 2 2 2 2 2 2 2 2 2 2 9 1 i.tX0 2 2 p.6X2.,.6Xa.t 6.eX8.3.Q.W.3.2 2 2 2 2 e 0.Q.t t a.W.0./.G 1 2 2 2 2 2 2 7 2 2 2 2 3 2 2 2 2 2 2 2 2 2 2 2 & X # # # # * & # # * & * # # # * # * * # * # # # $ # # # * # $ # $ 6.t.H F r.<.9 # $ * q D 0 D 5.r.<.r.<.0 J P.6.9 7.K.$ * 0 r.5.# * J r.F # H `.7.D H t.e.* $ $ # # # $ # * # * # * # $ # # $ # # * # $ # * * # $ # # # # # # # 2 2 2 2 2 2 2 3 2 2 2 2 2 2 2 2 7 3 3 2 2 2 2 2 2 2 2 2 2 2 2 3 2 2 2 2 2 2 1 8.sXt 2 2 0.wX6.3.(.U.J 2 2 2 9 (.(.2 2 3.wXq.4 0 0.(.>.2 3 2 2 2 2 2 2 2 2 2 2 2 2 2 2 2 2 2 3 3 2 2 2 2 2 2 2 2 2 2 2 2 2 2 2 2 2 2 2 2 2 3 2 2 2 2 2 7 2 2 2 2 2 2 9 e e 9 e.sXG 9 3 1 8.sXt 3 9 y./.t 9 (.U.,.8.wX0.t 2 2 3 t eXU.,.G 3.F dX6.1 0 8.tXG 2 J p.Q.9 2 2 2 2 2 2 2 2 2 2 2 2 2 2 2 2 2 2 2 2 2 2 2 2 2 2 2 2 2 2 2 2 7 2 2 2 2 2 2 2 2 2 2 7 2 2 2 2 9 0.tXa.3.G G t G eXy.3.a.6X6.t 6Xq.3 3.eXq.3.p./.,.2 2 2 2 2 2 2 2 2 2 F U.eX0.J J R t 9 2 2 2 2 2 2 2 2 2 2 2 2 2 2 4 2 2 2 2 2 2 2 2 2 2 2 2 2 2 # X # # # % $ # $ # # * # # # * # * q D D 9 D w.7.D F K.K D w.7.D 0 K.D 0 C D 0 D 9.w.H # $ $ & w.t.# & t r./ # 7 ^ t.D 2 e D 9 K t./ # * # # * # * $ # # # * & . # # # % 3 2 3 2 2 2 2 2 2 2 3 3 2 3 3 3 2 3 2 2 2 2 2 2 2 2 2 2 2 2 2 2 4 2 2 2 2 2 2 2 2 2 2 2 2 2 2 2 2 2 2 2 2 2 2 2 2 2 2 2 2 2 % ,./.q.0 2 2 2 2 2 2 2 2 2 2 3 2 2 3 2 2 3 2 9 q.wXF 2 2 2 2 2 2 2 3 2 2 2 2 2 2 2 2 2 3 2 3 2 1 1 # & & & & & 1 1 1 % 1 1 1 & & # 1 & 1 # 1 1 1 # 1 O I *X%X< & # & 1 # $ O 1 X < =.*X=.P 8 I =X=XW & & & & & & 1 1 < Z N , w P =.*XC.I = * & & & & & & = %.%XZ.I r Z XX>X&.& & & & X # & & 1 % % # 8 U =.I 2 # & & 1 & & & 1 * : Z.>XC., < 5 ] oXoX( * # & O $ & 3 2 2 2 3 2 2 & # X # X 2 2 2 2 2 2 2 2 2 7 2 2 2 2 2 2 3 2 2 2 2 2 2 2 3 3 2 2 2 2 2 2 2 2 2 2 2 2 2 F sXq.J 2.W.eXt 9 (.sX6.9 3.uXy.1 e J e 3 a.(.8.0.wX1.3 t t t tXp.0 3.(.p.t 2 2 2 2 2 2 2 2 2 2 2 2 2 2 2 2 2 2 2 2 2 2 2 2 2 2 2 2 2 2 2 2 2 2 2 3 2 2 2 ",
"2 2 2 2 2 2 2 2 2 2 2 2 2 2 2 2 2 2 2 t a.pXsXtXE.3.1 3.eXpXeXa.F 2 R tX8.9 R Q.uXsXeXq.t 9 2.eX6.1 2 2 2 2 3 2 t 0.tXsXE.(.6X7 2 wXfXsXsXpX(.,.3 4 2 2 2 2 2 2 2 2 2 3 2 2 2 2 2 2 2 2 2 2 2 2 2 2 8 2.6XsXtXi.0 t (.U.9 9 6.wXsXeXq.9 3 >.(.sXuXU.t 2 2 2 2 0 2.6XsX(.p.uXF 1 y.hXsXsXpXwX8.8 2 2 2 2 2 2 2 2 2 3 2 2 2 2 2 3 2 2 2 2 2 2 2 2 2 2 2 2 2 2 2 2 2 2 2 2 2 2 1 a.eX0 2 2 G p.sXpX/.J % t e.uXsX6X6.2 2 2 2 2 % 3.Q.,.9 2 8.eXtX6.0 2 2 3 2 2 2 2 2 3 2 2 2 2 2 2 2 3 2 2 2 2 2 2 2 1 # # X # # & # * # * # $ # * # # * # # * # * * # # * # $ # * # # * 0 7.Y.Y.w.w $ $ # * D t.Y.Y.e.H 9 5.T.Y.t.4.5.0 5.r.# $ 0 t.<.# * H w.S # H ~.7.K.Y.w.D # # * # * # $ # * # $ # # * # # # * # $ # $ # # * # * # # # # # # # # 2 2 2 3 2 2 2 2 2 2 2 3 2 2 2 2 2 2 2 2 2 2 2 2 2 2 9 2 2 2 2 2 3 2 2 2 2 2 1 6.pXt 2 2 t a.pXsX6X,.2 2 2 2 9 Q.Q.1 9 3.6X0.1 0 8./.3.2 2 2 2 2 2 2 2 2 3 2 2 2 2 2 2 2 2 3 3 2 2 2 2 2 2 2 2 2 2 2 2 2 2 2 2 2 2 2 3 2 2 2 2 2 2 2 2 2 2 2 2 2 2 2 2 2 2 1 8.tXt 2 3 % 8.uXt 3 9 p.6XD 2 ,./.sXuXW.t 2 2 2 2 9 2.(.sXsXQ.F sX2.% 9 8.eXF 1 R a.W.9 2 2 2 2 2 2 2 2 9 2 2 2 2 2 2 2 2 2 2 2 2 2 2 2 2 2 2 2 7 2 9 2 2 2 2 2 3 2 2 2 2 2 2 2 2 2 2 2 3./.hXdXsXsXsXp.9 6.eXsXeXa.9 t eXa.9 0 8.tXsXwX0.2 2 2 2 2 2 2 2 2 2 2 2 F p.tXsXsX6X2.9 2 2 2 2 2 2 2 2 2 2 2 2 2 2 2 2 3 2 2 2 2 2 2 3 2 2 2 2 2 # # # # # # & # $ # * # # # # * # * D 7.Y.T.Y.w.D $ 7 ^ I.'.r.H * D K.H 0 4.Y.'.Y.t.H * # * # * w.w.# * 0 r./ # 2 ^ w.0 7 1.Y.Y.R.1.q $ * # # * $ # # $ & # # # # # X # $ 2 2 2 2 2 2 2 2 2 2 2 2 2 2 2 2 2 3 3 2 2 2 2 2 2 2 2 2 2 2 2 2 2 2 2 2 2 2 2 2 2 9 2 2 2 2 2 2 2 2 2 2 2 2 3 2 2 2 2 2 2 3 3 9 8.(.t 3 3 2 2 2 2 2 2 2 2 3 3 2 2 2 3 2 2 R i.i.9 2 2 3 2 2 7 2 2 2 3 2 2 2 2 3 2 2 3 2 2 2 2 # % 1 1 O # & & & & 1 # 1 X # 1 1 & & 1 1 # 1 1 % & # ( =X%X< * - % 1 X 1 1 1 1 1 Y %X*XXX.X%X>X#.w % O $ & 1 # 1 1 * & * & 1 q ] *X=., # & O 1 1 1 & & & , Z.>XoXZ.oX*XC.P # # 1 1 1 1 1 # 1 1 # O B oX*XV., # & % O $ # 1 # & &  .%X*XoXZ..X%X>XC.< & # & & & & 2 2 2 2 2 2 2 # X # # X 2 2 2 2 2 2 2 2 3 3 2 2 2 2 2 2 2 3 2 2 2 2 2 2 2 2 2 2 2 2 2 2 3 2 2 2 2 2 2 F dXdXsXtXQ.3.9 2 6X(.0 3 9 tXi.2 2 9 9 3 0.Q.q.2.eXi.D 3 0 2.eX8.9 F a.6XG 2 2 3 2 2 3 2 2 2 2 2 2 2 2 2 2 2 2 9 2 2 2 2 2 2 2 2 2 2 2 3 2 3 2 2 3 2 2 2 ",
"2 2 2 2 2 2 2 2 2 2 2 2 2 7 2 2 2 2 2 2 t R R R t 3 2 9 R R J e 3 2 7 J e 2 7 t J 3.G 0 3 3 e G 9 2 2 2 2 2 2 2 9 0 J J D D G 2 2 t 3.3.R J F 9 2 2 2 2 2 2 2 2 2 2 2 2 2 2 2 2 2 2 2 2 2 2 3 2 2 2 3 8 F R G e 3 3 D t 8 3 9 F 3.J t 3 2 3 t 3.J t 3 2 2 2 2 7 9 G 3.G t J 3 2 t R R R R G 0 2 2 2 3 2 2 2 2 2 2 7 2 2 2 2 2 2 2 7 2 2 2 2 7 2 2 2 2 2 2 2 2 2 2 2 2 2 2 2 2 t G 2 2 2 7 t R R G 4 2 9 e J J F 9 2 2 2 2 2 2 9 t 9 2 2 0 J F 9 2 2 2 2 2 2 2 2 2 2 2 2 3 2 2 3 2 2 2 2 2 3 2 2 7 1 X # X # # # # # $ # * # $ # * # # $ # # $ # # $ $ # # * $ # * # # * 9 w t 7 2 # # $ $ = q D 0 0 * * 9 e 0 q 7 8 * 9 q $ $ * 9 8 $ * 7 9 2 # H !.D 9 0 7 * * # # $ # * # $ # * # * # # # * * # # * # # * $ # # * # * # #   # X # 2 2 2 2 2 2 3 2 2 3 2 2 2 2 2 2 2 3 2 2 2 2 2 2 2 2 2 2 2 2 2 2 2 2 2 2 2 2 2 0 J 8 2 2 3 t J 3.F 9 2 2 2 2 2 F F 2 4 7 t e 2 9 e t 9 2 2 2 2 2 2 2 2 2 2 2 2 2 2 2 2 2 2 2 2 2 2 2 2 2 2 2 2 2 2 2 2 2 2 2 2 2 2 2 2 2 2 2 2 7 2 2 7 2 2 2 2 2 2 2 2 2 2 2 0 F 7 3 3 2 0 G 7 2 3 e G 7 2 9 t 3.J t 3 2 2 2 2 3 0 t R R t 9 J 0 2 2 0 F 3 2 9 t t 2 2 2 2 2 2 2 2 2 2 2 2 2 2 2 2 2 2 2 2 2 2 2 2 2 2 2 2 2 2 2 2 2 2 2 2 7 2 2 2 2 2 2 2 2 2 2 2 2 9 F J 3.J R J t 2 0 F 3.G e 3 3 G e 2 3 0 J 3.F e 2 2 2 2 2 2 2 2 2 2 2 2 2 t R 3.3.F 9 2 2 2 2 2 2 2 2 2 2 2 2 2 2 2 2 2 2 2 3 2 2 2 2 2 2 2 2 2 2 # #   # # * # * # * # # $ * # # $ # $ 9 C 0 t 7 * # * 2 0 e 0 = $ 2 9 7 = 9 0 C 0 9 2 # $ # $ # 9 9 # $ * 0 2 # $ = 9 = * 7 e e 0 > * & # $ $ # # * * # # * & & # # # X & 2 2 3 3 2 2 2 2 2 2 2 2 3 2 3 2 2 2 2 2 2 2 2 2 2 2 2 2 7 2 2 2 2 2 2 2 2 2 2 2 2 2 2 2 2 2 2 2 2 2 2 2 2 2 2 2 3 2 2 2 2 3 3 3 9 F 9 2 3 2 2 2 2 7 2 2 2 2 2 2 2 2 2 2 2 9 t e 2 2 2 2 2 2 2 2 3 2 2 2 2 2 2 2 2 2 2 2 2 3 2 & & # % $ # 1 # & & 1 1 1 # 1 1 # & 1 # 1 1 # 1 & & O ( *X%X< & & # 1 1 # & 1 % & = I Z.=X*X@X%.w 1 # 1 # & 1 1 1 1 & & & & # < &.=XC.w % # $ # % # & & & * P C.%X*X=XC.Y 2 % $ O # 1 1 1 1 # 1 1 % , C.*X] w O # 1 $ # & & $ O & : U C.%X=X=XXX&., & & $ O & & & 2 3 2 2 2 3 2 & # X X # 2 3 2 2 2 2 2 2 2 2 2 2 2 2 2 7 2 2 2 2 2 2 2 2 2 2 2 2 2 2 2 2 2 2 7 2 2 2 % G sXa.3.J t 9 2 2 6X/.2 3 3 tXp.2 t a.wXeXdXeX0.t 0.(.eXi.G 0.dXsXeXtXsXtXG 1 2 2 2 2 2 2 2 2 3 2 2 2 2 2 2 2 2 2 2 2 2 2 2 2 2 2 2 3 2 2 2 2 2 2 2 3 2 2 ",
"2 2 2 2 9 2 7 2 2 2 2 2 2 2 2 2 2 2 2 2 2 % 2 1 3 3 2 2 2 1 2 2 2 2 2 2 3 3 2 4 4 1 2 2 3 2 2 1 2 2 2 2 2 2 2 2 2 2 4 1 2 1 2 2 2 2 1 1 % 2 2 2 2 2 2 2 2 2 2 2 2 2 2 2 2 2 2 2 2 2 9 2 2 2 2 2 3 2 2 2 2 1 2 2 3 2 2 2 3 2 2 2 1 2 2 2 2 2 2 1 2 2 2 2 2 2 2 2 3 2 2 1 1 2 3 3 2 1 2 1 1 2 2 2 2 3 2 2 3 2 2 2 2 2 2 2 2 2 2 2 2 2 2 2 2 2 2 2 2 2 2 2 9 2 2 2 2 2 2 2 2 2 2 2 2 2 2 3 2 3 2 1 1 4 2 2 2 % 2 2 2 2 2 2 2 2 2 2 2 2 2 2 1 2 2 2 3 2 2 2 3 2 2 2 3 2 2 2 2 2 2 2 3 2 3 2 2 7 2 2 7 1 $ # # # # # * # # $ $ # # * * # * # * # # $ * # * * # # * * * # $ # # # # # # $ $ # # # # # # # # * # # # # # # # # # # # # # # $ # # # # # H !.7 # $ # # & * # # $ * # * # # $ * # $ # # # # * $ * # * # * # # * # # # # # # # 2 2 2 2 2 2 2 2 2 2 2 2 2 3 2 2 2 2 2 2 2 3 2 2 2 2 2 2 2 7 2 2 2 3 2 2 2 2 2 2 2 2 2 2 2 4 1 1 2 2 2 2 2 2 2 2 2 2 2 2 2 2 2 2 2 1 2 2 2 2 2 2 2 2 3 2 2 2 2 2 2 2 2 2 2 2 2 2 2 3 2 2 2 2 2 2 2 2 2 2 2 2 2 2 2 2 2 2 2 2 2 2 2 2 2 2 2 2 2 2 2 2 2 2 2 9 2 2 2 2 2 2 2 2 3 2 2 2 2 2 2 2 2 % 4 2 2 2 2 2 2 2 4 2 2 1 1 2 4 2 2 2 2 2 2 2 4 2 2 2 2 2 2 2 2 2 2 2 2 2 2 2 2 2 2 2 2 2 2 2 2 2 2 2 2 2 2 2 2 2 2 2 2 2 2 2 2 2 2 3 2 2 2 2 2 2 2 2 2 1 1 2 2 % % 2 2 4 2 1 2 2 2 2 2 2 2 2 3 1 4 1 2 2 2 2 2 2 2 2 2 2 2 2 2 2 2 1 1 2 2 2 4 2 2 9 2 2 2 2 2 2 9 2 2 2 2 2 2 2 2 2 2 2 2 2 2 2 2 3 2 2 $ X # # # # # * # * $ * $ # * # * # $ # # # # # $ $ $ # # # # # # $ # # $ # # # # # # * # * # # # # $ $ # # # * # # # # $ # $ # # # # * # # # $ # # # * # * # # # X X # & 2 2 2 3 2 2 2 2 2 2 2 2 2 2 2 2 2 2 3 2 2 7 2 2 2 2 2 2 2 2 2 2 2 2 2 2 2 2 2 2 2 2 2 2 2 2 2 2 2 2 2 2 7 2 2 2 2 2 3 2 2 2 2 2 2 2 2 2 2 2 2 2 9 2 2 2 2 2 2 2 2 2 2 2 3 2 2 4 2 2 2 2 2 2 2 2 2 2 2 2 2 2 2 2 2 3 2 2 2 2 2 & & 1 1 1 & 1 # $ & # % & & 1 % & & # $ % # # 1 & & # < Q W = & & & 1 1 & & & & & & 2 A W I I < 2 & 1 % # 1 % & 1 X % 1 & & & 1 w Q N = O $ # & % 1 & & & & 2 , W I I w 2 X & & 1 % 1 # % & & & & 1 * A P w * $ # 1 1 & & & 1 1 1 # : Z Y ! I A > & & 1 1 1 & & 1 2 2 2 2 2 2 2 & X # # # 2 2 2 2 2 3 2 2 2 2 2 2 2 2 2 2 2 2 2 2 2 3 2 2 2 2 2 2 2 3 2 2 2 2 2 2 2 2 2 G sX2.9 1 2 2 2 9 6XQ.1 2 9 eXi.t 0.wXa.0.Q.(.8.3 e ,.i.Q.U.0.tXW.8.8.8.2.0 2 2 2 2 2 2 2 3 2 3 2 2 2 2 2 2 2 2 2 2 2 2 2 2 2 2 2 2 2 2 2 2 2 2 2 2 2 2 2 ",
"2 2 2 2 2 2 2 2 2 2 2 2 2 2 2 2 2 2 2 2 2 2 2 2 2 3 2 2 2 2 2 2 2 2 2 2 2 3 2 2 2 2 2 2 3 3 2 2 2 2 2 2 2 2 2 2 2 2 2 2 2 2 2 2 2 2 2 3 2 2 2 7 2 2 2 2 2 2 2 2 2 2 2 2 2 2 2 3 2 2 2 2 2 2 2 2 2 2 2 3 3 3 2 2 3 2 2 2 3 3 2 2 2 2 2 2 2 2 2 2 2 2 2 2 2 2 2 2 2 2 2 3 3 3 3 3 2 2 3 3 2 3 2 2 2 2 2 2 2 2 2 2 2 2 2 3 2 2 2 2 2 2 2 2 2 2 2 2 2 2 2 2 2 2 2 2 2 2 2 2 2 2 2 2 2 2 2 2 2 3 2 2 3 2 2 2 2 2 2 2 2 2 2 2 2 2 2 2 2 2 2 2 2 2 2 2 3 2 3 2 2 2 2 3 2 2 2 2 2 2 3 2 2 2 2 2 2 2 2 2 7 1 # # # X # $ & $ * # & * # # $ # # # * $ * # # $ # # * # # # # $ # * # * # $ & # * # # * # # $ $ $ # $ $ # $ # $ $ # * & # * # # * $ # $ * # J ^.7 $ $ $ $ # # $ * # # # * # * # # $ # * * $ $ # # * # # $ # * # # # # #   # X % 2 2 2 3 2 2 2 3 2 2 2 3 2 2 3 2 2 7 2 2 2 2 2 2 2 2 2 2 2 2 3 2 2 2 2 2 2 2 2 2 2 2 2 2 2 2 2 2 2 2 2 2 2 2 2 2 2 2 2 2 2 2 2 2 2 2 2 2 2 2 2 2 3 2 2 2 2 2 7 2 2 2 2 3 2 2 2 2 2 2 9 2 2 2 2 2 2 2 2 2 2 2 2 2 2 2 3 2 2 2 2 2 2 2 2 2 2 2 2 2 2 2 2 2 2 2 2 3 2 2 2 2 2 2 3 2 2 3 2 2 2 2 2 2 2 2 3 2 2 3 2 2 2 2 2 2 2 2 2 2 2 2 2 2 2 2 2 2 2 2 2 2 2 2 2 2 2 2 2 2 2 2 2 2 9 2 2 2 2 2 2 2 2 2 2 2 2 2 2 2 2 2 2 2 2 2 2 2 2 2 2 3 2 2 2 2 2 2 2 2 2 2 3 3 3 2 2 2 2 2 3 2 2 2 2 2 2 2 3 2 2 2 2 2 2 2 2 2 2 2 2 2 2 2 2 2 2 2 2 2 2 2 2 2 2 2 2 2 2 2 2 2 2 2 2 2 2 2 2 2 2 2 2 3 2 2 2 2 2 2 2 2 # # . # # # $ # $ # # * # * # $ # # $ $ $ $ # $ $ # & # $ $ # $ $ # $ $ # $ # * # $ # # $ # * # * # * # # * # # # $ # * # # * # * # # & # * * # * # $ # $ # $ # # # # # & 2 2 2 2 2 2 2 2 2 2 2 2 2 2 2 2 2 2 2 2 2 2 2 2 2 2 2 2 2 2 2 2 2 2 2 2 2 2 2 2 2 2 2 2 2 2 2 2 2 2 2 2 2 2 2 2 2 2 2 2 2 3 2 2 2 4 2 2 2 2 2 2 2 2 2 2 2 2 3 2 2 2 2 2 2 2 2 2 2 2 2 2 3 2 2 2 2 2 2 2 3 3 2 2 2 2 2 2 2 2 1 1 & # & & & O $ # 1 1 1 & 1 & & 1 # $ O 1 1 1 & & $ 1 # % X & & & & 1 % & & & & & & 1 o # O X & & & # 1 1 & & & 1 1 # - & & & & & X & & # & & & % - & & & 1 1 % X O X # % 1 & & 1 # 1 1 & & & & & 1 1 X O % # & 1 1 # & & & # & & & & & % X # % & & & # # 1 & & & 2 2 3 2 2 2 3 & # # X X 2 2 2 2 3 2 2 2 2 2 2 2 2 3 2 2 2 2 2 3 2 7 2 2 2 2 2 3 2 2 2 2 2 2 2 2 2 2 1 G sX6.9 2 2 2 2 2 (.Q.4 2 7 tXi.3.p.wXt 2 q.6X0.t 3 % F W.eX,.eX0.1 % 1 3 3 3 2 2 2 2 3 2 2 2 2 2 2 2 2 2 2 2 2 2 2 9 2 2 2 2 2 2 2 2 2 2 3 2 2 3 2 2 7 2 ",
"2 2 2 2 2 2 2 9 2 2 2 2 2 2 2 2 3 2 2 2 2 2 2 2 2 3 2 2 2 2 2 2 2 2 2 2 2 2 2 2 2 2 2 2 2 2 2 2 2 2 2 9 2 2 2 2 2 2 2 3 2 2 2 2 2 2 2 2 2 2 2 2 2 2 2 2 2 2 2 2 2 2 2 3 2 2 2 2 2 2 2 2 2 2 2 2 2 2 2 2 2 3 2 2 3 2 2 2 2 2 2 3 2 2 2 2 2 2 2 2 2 2 2 2 2 2 2 2 3 2 2 2 2 2 2 2 2 2 2 2 2 2 2 2 2 2 2 2 3 2 2 2 2 2 2 3 3 2 2 2 2 2 2 2 2 2 2 2 2 2 2 2 2 2 2 2 2 2 2 2 2 2 3 2 2 2 2 2 2 2 3 2 2 2 2 3 3 2 2 2 2 2 2 2 2 2 2 2 2 2 2 2 2 2 2 9 2 3 2 2 2 2 2 3 2 2 2 2 2 3 2 2 2 2 2 2 2 2 2 2 2 * # # # # # # # * * # # $ # * # # * # * # * # # # $ # * # * # $ # # $ & # # * * # # $ # * # * # * * # # $ # # * # # * # # $ # # $ * * # # # # S t.= # # * # * * # * # # * # # # $ # * * # $ # # # * # # $ # $ * * # # # # # # # & 2 2 2 2 2 2 2 2 2 2 2 2 2 2 2 2 2 2 2 2 2 3 2 2 2 2 2 2 2 2 2 2 2 3 2 2 2 3 2 2 2 2 2 2 2 2 2 2 2 2 2 2 2 2 2 2 2 2 2 2 2 2 2 2 2 2 2 2 2 2 2 2 2 2 2 2 2 2 2 2 2 2 7 2 2 2 2 2 2 2 2 2 2 2 2 2 9 2 2 2 2 2 2 2 2 2 2 2 2 3 2 2 2 2 2 2 2 2 2 2 2 2 2 2 2 2 2 2 2 2 2 2 3 2 2 3 2 2 2 2 2 2 2 2 2 2 2 2 2 2 2 2 2 2 2 2 2 2 2 2 2 2 2 2 2 3 2 2 2 2 2 2 2 2 2 2 2 2 2 2 2 7 2 3 2 2 2 2 2 3 2 2 2 2 2 2 2 2 2 2 2 2 2 2 2 2 2 2 2 2 2 2 2 2 2 2 2 2 9 2 2 2 2 2 2 2 2 2 2 2 2 2 2 2 2 2 2 2 3 2 2 2 2 2 2 2 2 2 2 2 2 2 2 2 2 2 2 2 2 2 2 2 2 2 2 2 2 2 2 2 9 2 2 2 2 2 2 2 2 2 2 2 2 2 2 2 2 2 2 2 2 2 # . # # # # & * # $ * # # $ # * $ * # * * # # $ # # $ # * # $ # # * # # * # * # * # # # $ # * # * # # # # * # # $ # # $ # # * # * # # # # * * # # $ # * # # * $ # # # # $ 2 2 2 2 2 2 2 2 3 3 2 2 3 2 2 3 2 2 2 2 2 2 2 2 3 2 2 2 2 2 2 2 2 2 2 2 2 2 2 2 2 2 2 2 2 2 2 2 2 7 2 2 2 2 2 2 2 2 2 2 3 2 2 2 2 2 2 2 3 2 2 2 2 2 2 2 2 2 2 3 2 2 2 2 2 2 2 2 2 2 2 2 2 3 2 2 2 2 2 2 2 2 2 2 2 2 2 2 2 2 1 & & & 1 & & # & & & O 1 & & & 1 & & # O $ # & & & & & & % & X 1 # & $ # & & & & & & & & 1 & 1 1 % & # 1 & & & 1 1 X $ # $ # 1 & & & 1 % & & & & & & # $ # & & & & & 1 % & # & & & & & & & & & # 1 1 & 1 # # 1 1 1 % & & & & & & 1 # $ # 1 & & & & & 1 # & & & & 1 2 2 2 2 2 2 2 $ X # # # 2 2 2 2 2 2 2 2 2 2 2 2 2 2 2 2 2 2 2 2 2 3 2 2 2 2 2 2 2 2 2 2 2 2 2 3 2 2 1 J sX6.9 2 2 2 2 9 wX/.% 3 7 tXi.F q.wX8.6.Q.wXq.3.6.2.0.W.E.t Q.E.0.2.2.3.9 2 2 7 2 2 2 3 2 2 2 3 2 2 2 2 2 2 2 2 2 2 2 2 2 2 2 2 2 3 2 2 2 2 2 2 2 2 2 2 ",
"2 2 2 2 2 2 2 2 2 2 2 2 2 2 2 2 2 2 2 2 2 2 2 3 2 2 2 3 2 2 2 3 2 2 2 2 2 9 2 2 2 2 2 2 2 2 2 2 2 2 2 2 2 2 2 2 2 2 2 2 2 2 2 2 2 2 2 2 2 2 2 2 2 2 3 2 2 2 2 2 2 2 2 2 2 2 2 2 2 2 2 2 2 2 2 2 2 2 2 2 2 2 2 3 2 2 2 2 2 2 2 2 2 2 2 2 2 2 3 2 2 2 2 2 2 2 2 2 2 2 2 3 2 2 2 3 2 2 7 2 2 2 2 2 2 3 2 2 2 2 2 2 2 2 2 2 2 2 2 2 2 2 2 2 2 2 9 2 2 2 2 2 2 2 2 2 2 2 2 2 2 2 2 2 2 2 2 3 2 2 2 2 2 2 2 2 2 2 2 3 2 2 2 2 2 2 2 2 2 2 2 7 2 2 2 2 2 2 2 2 2 2 2 7 2 2 2 2 7 2 2 2 2 2 2 2 2 3 3 2 2 # #   # # # # # # # $ * # $ # * # # $ * # # $ * * # * # $ # # # * * # # * $ # # $ * # $ # # * $ # # $ * # * * # $ $ # # * # * * # # # # * * # # $ $ # # # $ # # $ * # # * # * * # $ # # $ # * * # # $ * # * # # # # * # # # # # # 2 2 2 2 3 2 2 2 2 2 2 3 2 3 2 2 2 2 2 2 2 2 2 2 2 2 2 2 2 2 2 2 2 2 2 2 2 2 2 2 2 2 2 9 2 2 2 2 2 2 2 2 2 2 2 2 2 2 2 2 2 2 2 2 2 2 2 2 2 2 2 2 2 2 2 2 9 2 2 2 2 2 2 2 2 2 2 2 2 2 2 2 2 2 2 2 2 2 2 2 2 2 2 2 2 2 2 2 2 2 2 2 2 2 2 2 2 2 2 2 2 2 9 2 2 2 3 2 2 2 2 7 2 2 2 2 2 2 2 2 2 2 2 2 2 2 2 2 2 2 2 2 2 2 2 2 2 2 2 2 3 2 2 2 2 2 2 2 2 2 2 2 2 2 2 2 2 7 2 2 2 2 2 2 2 2 2 2 2 3 9 2 2 2 2 2 2 2 3 2 2 2 2 2 7 2 2 2 2 2 2 2 2 2 2 2 2 2 2 2 2 2 2 9 2 2 2 2 2 2 2 2 2 2 2 9 7 2 3 2 3 2 2 2 2 2 2 2 7 2 2 2 2 2 2 2 2 2 2 2 3 2 2 2 2 2 2 2 2 3 2 2 2 2 2 2 2 2 2 2 2 2 9 2 2 2 2 2 2 2 2 2 $ # . # # # & # * # # $ * # $ # # # $ # # $ * # * * # * # & # * $ # * # # $ * # # $ * * # * # $ # # # * & $ # * # * * # * # # $ $ # * * $ # # # * # $ # * # # # # # X # # 2 2 2 2 2 3 2 2 2 2 2 2 2 3 2 2 2 2 2 2 2 2 2 2 7 2 2 2 2 2 2 2 2 2 2 2 2 2 2 2 2 2 2 2 2 2 2 2 2 2 2 2 2 3 2 7 2 2 2 2 2 2 2 2 2 2 2 2 2 7 2 2 2 2 2 2 2 2 2 2 2 2 2 2 2 2 2 2 2 2 2 2 2 2 2 2 2 2 2 2 2 2 2 2 3 3 2 3 2 2 2 & & & & & & 1 & & & $ 1 # & # & & % 1 1 # $ & & & & 1 # 1 1 1 1 1 & # $ O & 1 # & & & & & & # 1 & & O 1 & & 1 # 1 1 O 1 # 1 1 % 1 & 1 1 & & & & & & $ O 1 & & & & & 1 # & 1 & & O & & & & & & 1 1 # & & 1 1 1 # & & & & & & & & 1 1 # $ & & & & & & 1 & 1 & # & 1 2 2 2 2 2 2 2 # # # X X 2 2 2 2 2 2 2 2 2 2 2 2 2 2 2 2 7 2 2 2 2 2 2 2 2 2 2 3 2 2 2 3 2 2 2 2 2 2 2 D eX2.9 2 2 2 2 2 Q.U.2 3 3 6Xa.9 R 6XuXwXp.q.0.,.wXpXtXE.J 4 G W.tXsXeX8.e 2 3 2 2 3 2 2 2 2 2 2 2 2 2 2 2 2 2 2 2 2 2 2 2 2 2 2 2 2 2 2 3 2 2 2 3 2 2 2 ",
"2 2 2 2 2 2 2 2 2 2 2 3 2 7 2 2 2 2 2 2 2 2 2 2 2 2 2 2 2 2 2 2 2 2 2 2 2 2 2 2 2 4 2 2 2 2 2 2 2 2 2 2 2 3 2 2 2 2 2 2 2 2 2 2 2 2 2 2 2 2 2 3 2 2 3 2 2 2 2 2 2 2 2 2 2 2 2 2 2 2 2 2 2 2 2 2 2 2 2 2 2 3 2 2 2 2 2 2 2 2 2 2 2 2 2 2 2 2 2 2 2 2 2 2 2 2 2 2 2 2 2 2 2 2 2 2 2 2 2 3 2 2 2 2 2 3 3 2 2 2 2 2 2 2 2 2 7 2 2 2 2 2 2 7 2 2 2 2 2 2 2 2 2 2 2 2 2 2 2 2 2 3 2 3 2 2 2 2 2 2 2 3 2 2 2 2 2 2 2 2 2 2 2 2 2 2 2 2 2 2 2 2 2 2 2 2 2 2 2 2 2 2 2 2 2 2 2 2 3 2 2 2 7 3 2 2 2 2 2 2 2 * # # # # # * * * # # $ # # * * # # $ # * # # # $ # # # * # * $ # # $ # * # * * # # $ # # * # * # * # # $ $ # * * # * # $ $ & # $ * # $ # # $ $ # $ * * # * # # $ # $ # $ # * # * # * * # # $ # # * # * # * # # * # * * # # # X # 2 2 2 2 3 2 2 2 3 2 2 2 2 2 2 2 2 2 2 2 2 2 2 2 2 2 2 2 7 2 3 2 2 2 2 2 2 2 2 2 2 2 2 2 2 2 2 2 2 9 2 2 2 2 2 2 2 2 2 2 2 2 9 2 2 2 2 2 2 2 2 2 2 2 2 2 2 2 2 2 2 2 2 2 2 2 2 2 2 2 2 2 2 2 2 2 2 2 2 2 2 2 2 2 2 2 9 2 2 2 2 2 2 2 2 2 2 2 2 2 2 2 2 2 2 2 2 2 2 2 3 2 2 2 2 2 2 2 2 2 2 3 2 2 2 2 2 3 2 2 2 2 2 2 2 2 2 9 3 2 2 2 3 2 2 2 2 2 2 2 2 2 2 2 2 2 2 2 2 2 2 2 2 2 2 2 2 2 4 3 2 2 2 2 2 2 2 2 2 2 2 2 2 2 2 2 2 2 2 2 2 2 2 2 2 2 2 2 2 2 2 2 2 2 2 2 2 2 2 2 2 2 2 2 2 2 2 2 2 2 2 2 2 2 2 2 2 2 2 2 2 9 2 2 3 2 2 2 2 2 2 2 2 2 2 2 2 2 2 2 2 2 2 2 2 2 2 2 2 2 2 2 2 2 2 2 2 2 2 2 2 2 # # # # # # * # # # * # # $ # # * * * # * # # # $ # # $ # $ * # # * * # # $ # * # # # $ # # # * # * $ # $ # # & $ # * # * # * # * * # # * # $ # # * # # * & # # # # # X % 3 2 2 3 2 2 2 2 2 2 2 2 2 2 2 2 2 2 2 2 3 2 2 2 2 2 2 2 2 2 4 2 2 2 2 2 2 2 7 2 2 2 2 7 9 2 2 2 2 2 2 2 2 2 2 2 2 2 2 2 2 2 2 2 2 2 2 2 2 2 2 2 2 2 2 2 2 2 2 2 2 3 2 2 2 2 2 2 2 2 3 2 2 2 2 2 2 2 2 2 2 2 2 2 2 2 2 2 2 2 2 & % & 1 # % 1 O & 1 # $ 1 % 1 1 1 1 & & 1 & % 1 1 % 1 # # # 1 1 & & 1 & % % & 1 O # # 1 & & % 1 % % $ & & & & & 1 1 # 1 & 1 # 1 & & 1 1 & 1 # 1 & & 1 1 & % # $ & # 1 1 1 % & & $ # & & 1 % # $ % 1 % & 1 % 1 # & & & & & & # & # 1 1 O & % & & $ # # 1 1 % 1 1 1 2 2 2 2 2 2 2 1 X # # # 2 2 2 2 9 2 2 2 2 2 2 2 2 2 2 2 2 2 2 2 2 2 2 2 2 2 3 3 2 2 3 2 2 2 2 2 2 2 2 8 t 7 2 2 2 2 2 2 0 0 2 2 2 0 9 3 9 0 e 0 9 9 3 9 0 e e 0 2 9 2 e e 0 0 7 7 2 2 2 2 2 2 2 2 2 2 2 3 2 2 2 2 2 2 2 2 2 2 2 2 2 2 2 2 2 2 2 2 2 2 2 2 2 3 2 ",
"2 2 2 2 2 2 2 2 2 2 2 7 2 2 2 2 2 2 2 2 3 2 2 2 2 2 2 2 2 2 2 2 2 2 2 2 2 2 2 2 3 3 2 2 2 2 2 2 2 2 2 2 2 2 2 2 2 3 2 2 2 2 3 2 2 2 2 2 2 2 2 2 2 2 2 2 2 9 2 2 2 2 2 2 2 2 2 2 2 2 2 2 2 2 2 3 2 2 2 2 2 2 2 2 2 2 2 3 2 2 2 2 2 2 2 2 2 2 2 2 2 2 2 2 2 2 2 2 2 2 3 2 2 2 3 2 2 2 2 2 2 2 2 2 2 2 2 2 2 2 3 2 2 2 2 2 2 2 2 3 2 2 2 2 2 2 2 2 2 2 2 2 2 2 2 2 2 2 3 2 2 2 2 2 2 2 2 2 2 2 2 2 3 2 2 2 3 2 2 2 2 2 2 2 2 2 2 2 2 2 2 2 2 2 2 2 2 2 2 2 2 3 2 2 2 2 3 2 2 2 2 2 2 2 2 2 2 2 2 2 2 &   # # # # $ # # # * * * # # $ # * # $ # # * * # * # $ # # * # * * # # # $ # # # * # * # # $ * # # # * # # * # # $ # * # * # * # # $ # * * # # $ # * # $ # $ * # * # * # $ # # # $ # # # * # * * # $ # $ # $ $ # $ # #   # # # # 2 2 2 2 2 2 2 2 2 2 2 2 3 2 2 2 2 3 2 3 7 2 7 2 2 2 2 2 2 2 2 2 2 3 2 2 2 3 2 2 2 2 2 2 2 2 2 2 2 2 2 2 2 2 2 2 2 2 2 2 2 2 2 2 2 2 2 2 2 2 2 2 2 2 2 2 2 2 2 2 2 2 2 2 2 2 2 2 2 2 2 2 2 2 2 2 2 2 2 2 2 2 2 2 2 2 2 2 2 3 2 2 2 4 2 2 2 2 2 2 2 2 2 2 2 2 2 2 2 2 2 2 2 2 2 2 2 2 2 3 2 2 2 2 2 2 2 2 2 2 2 2 2 2 2 2 2 2 2 2 3 2 2 2 2 2 2 2 2 2 2 2 2 2 2 2 2 2 2 2 2 2 2 2 2 2 3 2 2 2 2 2 2 2 2 2 2 2 2 2 2 2 2 2 2 2 2 2 2 9 2 2 2 2 2 2 2 2 2 2 2 2 2 2 2 2 2 2 2 2 2 2 2 2 2 2 2 2 2 2 2 2 2 2 2 2 2 2 2 2 2 2 2 2 2 2 3 2 2 2 2 2 2 2 2 2 2 2 2 2 2 2 2 2 2 2 2 2 2 2 2 2 2 2 2 2 2 2 2 2 2 2 # . # . # # # $ # * # # * # * # # $ * # # $ # * # * * # * # # & $ # $ # * # $ # # * * # * # $ # # * # * # * * $ # * # $ # $ # $ # # # * # $ # * # * * # # $ * # #   # # % 3 2 2 2 2 2 2 2 3 2 2 2 2 2 2 2 2 2 2 2 2 2 3 2 2 2 2 2 2 3 3 2 2 2 2 2 2 2 2 2 2 2 2 2 2 2 2 2 2 2 2 2 2 2 2 2 3 2 2 2 2 2 2 2 3 3 2 2 2 2 2 2 2 2 2 2 7 2 2 2 2 2 2 3 2 2 2 2 2 2 2 2 2 2 2 2 3 3 2 2 2 2 3 2 2 2 3 2 2 2 2 & 1 # 1 1 1 # $ & & # & % # 1 X 1 1 # & & & 1 # 1 # O $ $ 1 % 1 & & & & % # # 1 $ # 1 1 # & 1 % % % # # & & # & % 1 1 1 # % 1 1 # & X & & % 1 1 # & # & & 1 # O 1 1 # 1 $ 1 & & # $ & & & 1 # O 1 # 1 1 # # O & & & & & & & 1 & % 1 1 # & 1 & & O # % 1 % # 1 X 1 2 3 2 2 2 2 2 & # X # X 2 2 2 2 2 2 2 2 2 7 2 2 2 2 2 2 2 3 2 2 2 2 2 2 3 2 2 2 2 2 2 2 2 2 2 7 2 2 2 2 2 2 2 2 2 2 2 2 2 2 2 2 2 4 2 2 2 2 2 2 2 3 2 2 4 2 2 2 2 2 2 2 2 2 2 2 2 2 2 2 2 2 2 3 2 3 2 2 2 2 2 2 2 2 2 2 2 2 2 2 2 2 2 2 2 2 2 3 2 3 7 2 2 2 2 2 ",
"2 2 2 2 2 2 2 2 2 2 2 2 2 2 2 2 2 2 2 3 3 2 2 2 2 2 2 2 2 2 2 2 2 2 2 2 2 2 2 2 3 2 2 2 2 2 2 2 2 2 2 2 2 2 2 2 2 2 2 2 2 2 2 2 2 2 2 2 2 3 2 2 2 2 2 2 2 2 2 2 3 2 2 2 2 2 2 2 2 9 2 2 2 2 3 2 2 2 2 2 3 2 2 2 2 2 2 3 3 3 2 2 2 2 2 2 2 2 2 2 2 2 2 2 3 2 3 3 2 3 2 2 2 2 2 2 2 2 2 2 2 2 2 2 2 2 2 2 2 2 3 2 7 3 2 2 2 2 2 2 2 2 2 2 2 2 2 2 2 2 2 2 2 2 2 2 2 3 2 2 2 3 2 2 2 3 2 2 2 2 2 2 2 2 2 2 3 2 2 3 2 3 2 2 2 3 2 2 2 2 2 2 2 2 2 2 2 2 3 2 2 2 2 2 2 2 2 2 2 2 2 2 2 2 2 2 2 2 2 2 3 1 # # #   # # # $ # $ # # # * $ # * * * # * # # * # # # $ # $ # $ # # * # * # # # * * # # $ # # # $ # # $ # # # * # * # # $ # # * # # $ # $ # $ & & $ * # $ # # $ # * # $ * # * # * # # * # * # $ # # * # * # # * $ * # . # # X 1 2 2 2 2 2 2 2 2 2 2 2 2 2 2 2 2 2 3 2 2 2 2 2 2 2 2 2 7 2 2 2 2 2 3 3 2 2 3 2 2 2 2 9 2 2 2 2 2 2 2 2 2 2 2 2 2 2 2 2 2 2 2 2 2 2 2 2 2 2 2 2 2 2 2 2 2 2 2 2 2 2 2 2 2 2 2 2 2 2 2 2 2 2 2 2 2 9 2 2 2 2 2 2 2 2 2 2 2 2 2 2 2 2 2 2 2 2 2 2 9 2 2 2 2 2 2 2 2 2 2 2 3 2 2 2 3 2 2 2 2 2 2 2 2 2 2 2 2 2 2 2 2 2 2 2 2 2 2 2 2 2 2 3 2 2 2 2 2 2 2 2 2 2 2 2 2 7 2 2 2 2 2 2 2 3 2 2 2 2 2 2 2 2 2 2 2 2 2 2 2 2 2 3 3 2 2 2 2 2 2 2 2 2 2 2 2 2 2 2 2 2 2 2 2 2 2 2 2 2 2 2 2 2 2 2 2 2 2 2 2 2 2 2 2 2 2 2 2 7 2 7 2 2 2 2 2 2 2 2 2 3 2 2 2 3 2 2 2 2 2 2 2 2 2 2 2 2 2 2 2 2 2 2 2 2 2 2 2 2 3 2 2 # # # # # # $ * # $ # $ * * # # $ # # # $ # # $ # # # * # * # # * # $ # * * * # * # # * # # # $ # $ # # # * # # $ # # * # # # $ # # $ # # * * # # # * # # * # * # # # X % 3 2 2 2 2 3 2 2 2 3 2 2 3 3 2 2 2 2 3 2 2 2 2 2 2 2 2 2 2 3 2 2 2 2 2 2 2 2 2 2 2 2 2 2 2 2 2 2 7 2 2 2 2 2 2 2 3 3 2 2 2 2 2 2 3 2 2 2 2 2 2 2 2 2 2 2 2 2 2 2 2 2 2 2 2 2 2 2 2 2 2 2 2 2 2 2 2 3 2 2 2 2 2 2 2 2 2 2 2 3 2 2 1 1 2 1 2 1 2 1 2 2 1 2 2 1 2 1 2 2 2 1 2 2 2 1 2 1 2 1 2 1 2 1 2 2 1 2 2 1 2 1 2 2 1 2 1 2 2 1 2 1 2 1 2 2 1 2 2 1 2 2 1 2 1 2 2 1 2 2 1 2 1 2 2 1 2 2 1 2 1 2 1 2 1 2 1 1 2 2 1 2 1 2 1 2 1 2 1 2 1 2 2 1 2 1 2 2 1 2 1 2 1 2 2 1 2 2 1 1 2 1 2 2 1 2 2 2 1 2 2 2 2 2 2 2 2 & X % X X 2 2 2 2 2 2 2 2 2 2 7 2 2 2 2 2 2 3 2 2 2 2 2 2 2 2 2 2 2 2 2 2 3 2 2 2 2 2 2 2 2 3 2 2 3 2 2 2 2 2 2 2 2 3 2 2 2 2 2 2 3 3 2 2 2 2 2 2 2 2 2 2 2 2 2 2 2 2 2 2 2 2 2 2 2 2 2 3 2 2 2 2 2 2 2 2 2 2 2 2 2 2 2 2 2 2 3 3 2 2 2 2 2 2 2 2 ",
"2 2 2 2 2 2 2 2 2 2 2 2 2 2 2 2 2 2 2 2 2 3 2 2 2 2 2 2 3 2 2 2 2 2 2 2 2 2 2 2 2 2 2 2 2 2 2 2 2 2 2 2 2 3 2 2 3 3 2 2 2 2 2 2 2 2 2 2 2 2 2 2 2 2 2 2 2 2 2 2 2 2 2 2 2 2 2 2 2 2 2 2 2 2 2 2 2 2 2 2 2 2 2 2 2 2 2 2 3 3 2 2 2 2 2 2 3 2 2 2 2 2 2 2 2 2 3 7 2 2 2 2 2 2 2 2 2 2 2 2 2 2 2 2 3 2 3 2 3 2 2 2 2 2 2 2 2 2 2 2 2 2 2 2 2 2 2 2 2 2 2 2 2 2 2 2 2 2 2 2 2 2 2 3 2 2 2 2 2 2 2 2 2 2 2 2 2 2 2 2 2 2 2 3 2 2 2 2 2 2 7 2 2 2 2 2 2 2 2 2 3 2 2 2 2 2 2 2 2 2 2 2 2 2 3 2 2 2 3 7 2 1 # # # # # # * # * # # * $ # # * # # # $ # # $ # # * * # * # * # * * # $ * # * $ # # * * # * # * # * * # * # $ # $ # # * # * $ # # * # * # * $ # & # # # # * # * $ # * # # $ # $ $ # # # $ # * # * $ * # # $ # # # * * #   # # # 2 2 2 2 2 2 3 2 3 2 2 2 3 2 2 7 2 2 2 2 2 2 2 2 2 2 2 2 2 2 2 2 2 2 2 2 2 2 2 2 2 2 2 2 2 2 2 2 2 2 2 2 2 2 9 2 2 2 2 2 2 2 2 2 2 2 2 2 2 2 2 2 2 2 2 2 2 2 2 2 2 2 7 2 2 2 2 2 2 9 2 2 2 2 2 2 2 2 2 2 2 2 2 2 2 2 2 2 2 2 2 2 2 2 2 2 2 2 2 2 2 2 2 2 2 2 2 2 2 3 2 2 2 2 2 2 2 2 2 3 2 2 2 3 2 2 2 3 2 2 2 2 2 2 2 2 2 2 2 3 3 2 2 2 2 2 2 2 2 3 2 2 2 2 2 2 2 2 7 2 2 2 2 2 2 2 2 2 2 2 2 2 2 2 2 2 2 2 2 2 2 3 2 3 4 2 2 2 2 2 2 2 2 2 2 9 2 2 2 2 2 2 2 2 2 2 2 2 2 2 2 2 2 2 2 2 2 2 2 2 2 2 2 2 2 2 2 2 2 2 2 2 2 2 2 2 2 2 2 2 2 2 2 2 2 2 3 2 2 2 2 2 2 2 2 2 2 2 2 2 2 2 2 2 2 2 2 2 2 2 2 2 # # # # # * & # * # # * # # * * # * # * # * * # * # # # $ # * # * # # * # # # $ # # $ # # * * # * # * * # # # * # * # * # * * # * * # * $ # # & * # # & $ # # # # # X # 1 3 2 2 2 3 2 2 2 2 2 2 2 2 2 2 2 3 2 2 2 2 3 2 2 2 2 2 2 3 2 2 2 2 2 2 2 2 2 2 2 2 2 2 2 2 2 2 2 2 3 7 2 2 2 2 2 2 2 2 2 2 2 2 2 2 2 2 2 2 2 2 2 2 2 2 3 2 3 2 2 2 2 2 2 2 3 2 2 2 2 3 2 2 2 2 2 2 2 2 2 2 2 3 2 2 2 3 3 2 2 2 2 2 7 3 7 2 2 2 2 2 3 2 2 2 3 2 2 2 2 2 2 2 2 3 2 2 3 2 3 2 3 3 2 2 3 3 2 2 3 3 3 3 2 2 3 2 2 2 2 2 2 3 7 2 2 2 3 3 2 2 2 2 2 2 3 2 2 2 2 2 2 2 2 2 2 2 2 2 2 2 2 2 7 7 3 2 2 3 2 3 3 2 2 3 2 3 2 3 7 7 2 2 2 2 2 7 7 7 2 2 2 2 3 2 2 2 2 2 3 3 2 2 3 2 2 2 2 2 2 2 2 2 2 2 2 2 # # X X % 2 2 2 2 2 2 2 2 2 9 2 2 2 2 2 2 2 2 2 2 2 2 3 2 2 2 3 2 2 2 2 2 2 2 2 2 2 2 2 2 2 2 2 2 2 2 2 2 2 2 2 2 2 2 2 2 2 2 2 2 2 2 2 2 2 2 2 2 3 2 2 3 2 2 2 2 2 2 2 2 3 2 3 2 2 2 2 2 2 2 2 7 9 2 2 2 2 2 2 2 2 2 2 2 2 2 2 2 2 2 2 2 2 2 2 2 ",
"2 9 2 2 2 2 2 2 2 3 2 2 3 2 2 2 2 2 2 2 3 3 2 2 2 2 2 2 2 2 2 2 2 2 2 2 2 2 2 2 2 2 2 2 2 2 2 2 2 2 2 2 2 2 2 2 3 3 2 2 2 2 2 2 2 2 2 2 3 2 3 2 2 2 2 2 2 2 2 2 2 2 9 2 2 2 2 2 2 2 2 3 2 2 2 2 2 2 2 2 2 2 2 2 2 2 2 2 2 1 2 2 2 2 2 2 2 2 2 2 2 2 2 2 2 2 8 7 2 2 2 2 2 2 2 1 2 2 2 2 2 2 2 2 2 2 3 2 2 2 3 2 2 2 2 2 2 2 2 2 2 2 2 2 2 2 2 2 2 2 2 2 9 2 2 2 2 2 2 3 2 2 2 2 2 2 2 3 2 2 2 2 2 2 2 2 2 2 2 2 2 2 2 2 3 2 2 3 2 2 2 2 7 2 2 2 2 2 2 2 2 2 2 2 2 2 7 3 2 2 2 3 2 2 3 2 2 2 2 2 2 % # # # # # * # # # * $ # # * # # # * # * # * # * $ * * # * # # $ $ # # * # $ * # * $ # $ # # # * # * * # $ # # * * # * # $ & # * & $ * # & # # # & # # * # # # # * * # # $ # * # * * * # * * # * # # # * # # * # * # # # . # # # 3 2 2 2 3 2 2 2 2 2 2 2 3 2 3 2 2 2 2 2 2 2 2 2 2 2 2 2 2 2 2 2 2 2 2 2 2 2 2 2 2 2 2 2 2 2 2 2 2 2 2 2 2 2 2 2 2 2 2 2 2 2 2 2 2 2 2 2 2 2 9 2 2 2 2 2 2 2 2 2 2 2 2 2 2 2 2 2 2 2 2 2 2 2 2 2 2 2 2 2 2 2 2 2 2 2 9 2 2 2 2 2 2 2 2 2 2 2 2 2 2 2 2 2 2 2 2 2 2 7 2 2 2 2 3 2 2 2 2 2 2 2 2 2 2 3 2 3 3 2 2 2 2 2 2 2 2 2 2 3 2 2 2 2 2 2 2 2 2 2 2 2 2 2 2 2 2 2 2 2 2 2 2 2 2 2 2 2 2 2 2 2 2 2 2 2 2 2 2 2 2 2 2 2 2 2 2 2 2 2 2 2 2 2 2 2 2 2 2 2 2 2 2 2 2 2 2 2 2 2 2 2 2 2 7 2 2 2 2 2 2 2 2 2 2 2 2 2 2 2 2 2 2 2 2 2 2 7 2 2 2 3 2 2 2 2 2 2 2 2 2 2 2 2 2 2 2 9 2 2 2 2 2 2 2 2 2 2 2 2 2 2 # #   # # # * # # # # # * # # $ $ # # * # * * # $ # * # * # * # # # # # # * $ # # * # * $ # * # * # # $ * # # * $ # # # # * # # $ # $ # # * # $ * # $ # * # # # #   X # % 2 2 2 2 2 2 2 2 2 2 2 2 2 2 2 2 2 3 2 2 2 2 2 2 2 2 2 2 2 2 2 2 3 2 2 2 2 2 2 2 2 2 2 2 2 2 2 2 2 2 2 2 2 2 2 2 2 2 2 2 2 2 2 2 2 2 2 2 2 2 7 2 2 2 2 2 2 2 2 2 2 3 2 2 2 2 2 2 2 2 2 3 2 2 2 2 2 2 2 2 3 2 3 3 2 2 3 2 2 2 2 2 2 2 2 2 2 2 2 2 2 2 2 2 2 2 2 2 2 2 2 2 2 2 2 2 2 2 2 2 2 2 2 2 2 2 2 2 2 2 2 2 2 2 2 2 2 2 2 2 3 2 2 2 3 2 2 2 2 2 2 2 2 2 2 2 2 2 2 2 2 2 2 2 2 2 2 2 2 2 2 2 3 3 2 2 2 2 3 2 2 2 2 2 2 2 2 2 2 3 2 2 3 2 2 2 2 2 2 2 2 2 2 2 2 2 2 2 2 2 2 2 2 2 2 2 2 2 2 2 3 2 2 3 2 2 2 1 # # X % 2 9 2 2 2 2 2 2 2 2 2 2 2 2 2 7 2 2 2 2 2 2 2 2 3 2 3 3 2 2 2 2 2 2 2 2 2 2 2 2 2 2 2 2 2 2 2 2 2 2 2 2 2 2 2 2 2 2 2 2 2 2 2 2 2 2 3 3 2 3 2 2 2 2 2 2 2 2 2 2 2 2 2 2 2 2 2 2 2 2 2 2 2 7 2 2 2 2 2 2 2 2 2 2 2 2 2 2 2 2 2 2 2 2 2 3 ",
"2 2 2 2 2 2 2 2 2 2 2 2 2 2 3 2 2 2 2 3 7 4 3 2 9 3 9 3 3 9 3 3 2 9 2 2 9 2 9 2 9 7 7 7 2 9 2 9 2 9 2 2 9 2 9 2 7 3 4 2 9 2 9 2 2 9 9 2 2 2 2 2 2 2 2 2 2 2 2 2 2 2 2 2 2 2 2 2 2 2 2 2 2 2 2 2 8 w w , w q , < w w w w w w , w , r w , q w w w < w w w w w h r w w w w w < w w w w w w w , w q 2 2 2 2 2 2 2 2 2 2 2 3 3 2 2 2 9 2 2 2 2 2 2 2 2 2 2 2 2 2 2 2 2 3 2 2 2 3 2 2 2 2 2 2 2 3 2 2 2 2 2 3 2 3 2 2 3 2 2 2 2 2 2 2 2 2 2 2 2 2 2 2 2 2 7 2 2 2 2 2 2 3 2 2 2 2 2 2 2 2 2 2 2 2 2 2 2 *   # # # # $ # * # * # * # # * # $ # $ # # * $ # # # # $ # # * # # * # # # * # # # # * # * # $ # $ # # # * * # # # $ # # * # # * # # * # $ # * * # & # * $ * * # # # # * # * # $ # # # $ # # $ # # * $ # # * # $ # $ # # # # X & 2 2 2 2 2 2 2 2 2 2 2 2 2 2 2 2 2 2 2 2 2 3 2 2 2 2 2 2 2 2 2 2 2 2 2 2 2 3 2 2 2 2 2 2 2 2 2 2 2 2 2 2 2 2 2 2 2 2 2 2 2 2 2 2 2 2 2 2 2 2 2 2 2 2 2 2 2 2 2 2 2 2 9 2 2 2 2 2 2 2 2 2 2 2 2 2 2 2 2 2 2 2 2 2 2 2 2 2 2 2 2 2 7 2 2 2 2 2 2 2 2 2 2 2 2 2 2 2 3 2 2 2 2 2 2 2 2 2 2 2 2 2 2 3 2 2 2 2 2 2 2 9 2 2 2 2 2 2 2 2 2 2 2 2 2 2 3 2 2 2 2 2 2 3 2 2 2 2 2 2 2 2 3 2 2 2 2 2 2 2 2 2 2 2 2 2 9 2 2 3 2 2 2 2 2 2 2 2 2 2 2 2 2 2 2 2 2 2 2 2 2 2 2 2 2 2 2 2 2 9 2 2 2 2 2 2 2 2 2 2 2 2 2 2 2 2 2 2 2 2 2 2 2 2 2 2 2 2 2 2 2 2 2 2 2 2 2 3 2 2 2 2 2 2 2 2 2 2 2 2 2 2 2 2 2 2 2 2 3 2 2 2 # . # # # # # $ # * * $ # # * # # * # # $ # # # * # * $ # $ # $ # * * # $ # # * # * $ # # * # $ # # * # # & $ # # * * $ # $ # * # * # * # # * # # $ # * # $ # # # # # # % 2 3 2 2 2 2 2 2 3 2 3 2 2 3 2 2 2 2 2 2 2 2 2 2 2 2 3 2 2 2 2 2 2 9 2 2 2 2 2 2 2 2 2 2 2 2 2 2 2 2 2 2 3 2 2 2 2 2 2 2 3 2 2 2 2 2 2 2 3 2 2 2 2 2 2 2 2 2 3 2 2 2 2 2 2 2 2 3 2 2 2 2 2 3 2 2 2 2 2 2 2 2 2 2 2 2 2 2 2 2 2 2 3 2 2 7 2 2 2 2 2 2 2 3 2 2 2 2 2 2 2 2 2 2 2 2 2 2 2 2 2 3 2 2 2 2 3 2 2 3 2 2 2 3 2 2 2 2 2 2 2 7 2 2 2 2 2 3 2 2 2 2 2 2 2 2 2 2 2 2 2 2 2 2 2 2 2 2 2 2 2 2 2 2 2 3 2 2 2 2 2 2 2 2 2 2 2 2 2 2 2 2 2 2 2 2 2 2 2 2 2 2 2 2 2 2 2 2 2 2 2 2 2 2 2 2 2 2 2 2 2 2 2 2 2 2 2 & X # # o 2 2 2 2 2 2 2 2 2 2 2 2 2 2 2 2 2 2 2 3 2 2 3 2 2 2 2 2 2 2 2 2 2 2 2 2 2 2 2 2 2 2 3 2 2 3 2 2 2 2 2 2 2 3 2 2 2 3 2 2 2 2 2 2 3 2 2 2 2 2 2 2 2 2 2 2 2 2 2 3 2 2 2 2 2 3 2 2 3 2 2 2 2 2 2 2 2 2 2 2 2 2 2 2 2 2 3 2 2 2 2 3 2 2 2 2 ",
"2 2 2 2 2 2 3 2 2 2 2 2 2 2 2 2 2 2 2 e t F F F F F t F F t F F F t F F t F D D D D D D D D t F F F t F t F F F t F t G t F t G D F D e 4 2 2 2 2 2 2 2 2 2 2 2 2 2 2 2 2 2 9 4 2 2 2 2 2 9 2 % K #X#X#X#X#X#X#X#X#X#X#X#X#X#X#X#X#X#X#X#X#X#X#X#X#X#X#X#X#X#X#X#X#X#X#X#X#X#X#X#X#X#X X#X X$X#.2 2 2 2 2 2 2 2 2 9 2 2 2 2 2 2 2 2 2 2 2 2 2 2 2 2 2 2 2 7 2 2 2 2 2 2 2 2 2 2 2 2 2 2 2 2 2 9 2 2 2 3 2 2 2 2 2 2 2 2 2 2 2 2 2 2 2 2 2 2 2 2 2 2 2 2 2 2 2 2 2 2 2 2 2 2 2 2 2 2 2 2 2 2 2 2 2 2 % o # X & # & & # * # * # $ $ # * * # $ # # * * # $ # $ # # * # # * # # * # $ # * * # $ # * # # # * # * # # # * # * # # $ * $ # * * # $ # * # * # # * # $ # # * * # # * # * # # $ # * # $ # * # # $ # * # * $ # $ # # # # . % % 2 2 2 2 2 2 2 2 2 2 2 2 2 2 3 3 2 2 2 2 2 2 2 2 2 2 2 2 2 2 3 2 2 2 2 2 2 2 3 2 2 2 2 7 2 2 2 2 2 2 2 2 2 2 2 2 2 2 2 2 2 2 2 2 2 2 2 2 2 2 2 2 2 2 2 2 2 2 2 2 2 2 2 2 2 2 2 2 2 2 2 2 2 2 2 2 2 2 2 2 2 2 2 9 2 2 2 2 2 2 2 2 2 2 2 2 2 2 2 2 2 2 2 2 2 2 2 2 2 2 2 2 2 2 2 2 2 2 2 2 2 2 2 3 2 2 2 3 2 2 2 2 2 2 2 2 2 2 2 2 2 2 2 2 2 2 3 2 2 3 2 2 2 3 2 2 2 3 2 2 2 3 2 2 2 2 2 2 3 2 2 2 2 2 2 2 2 2 2 2 2 2 2 2 2 2 2 2 2 2 2 2 2 2 2 2 2 2 2 2 2 2 2 2 2 2 2 2 2 2 2 7 2 2 2 2 2 2 2 2 2 2 2 2 2 2 9 2 2 2 2 2 2 2 2 2 2 2 2 2 2 2 2 2 2 2 2 2 2 2 2 2 2 2 2 2 2 2 2 2 2 2 2 2 2 2 3 2 2 2 2 2 # # # # # # # * # $ # $ & # $ # * * # $ # $ * * # # # * # # $ & * # $ # # * # * # # * # * # $ # $ & * # # $ # * # $ # * # # * * # # # # * # * # * # $ # $ # # # # # # # * 2 2 2 2 2 2 2 2 2 2 2 2 2 2 2 2 2 2 2 3 2 2 2 2 2 2 2 2 2 2 2 2 2 2 2 2 2 2 2 2 2 2 2 2 2 2 2 2 2 9 2 2 2 2 2 2 2 2 2 2 2 2 2 2 2 2 2 2 2 2 2 2 2 2 2 2 2 2 2 2 2 2 2 2 2 2 2 2 2 2 2 2 2 2 2 2 2 2 2 2 2 2 2 2 9 2 2 2 2 2 2 2 2 2 2 2 3 3 3 2 2 2 2 2 3 2 2 2 2 2 2 2 2 2 2 2 2 2 2 2 2 2 2 2 2 2 7 2 2 2 2 2 2 2 2 2 2 2 2 2 2 2 2 2 2 4 2 2 2 2 2 2 2 2 2 2 2 2 2 2 2 2 2 2 2 2 3 2 2 2 2 2 2 3 3 2 2 2 2 2 2 2 2 2 2 2 2 2 2 2 2 2 2 2 2 2 2 2 2 2 2 2 2 2 2 2 2 2 2 2 2 3 2 2 2 2 2 2 2 3 2 2 3 2 2 2 2 $ X # X # 2 2 2 2 2 2 2 2 2 2 2 2 2 2 2 2 2 2 2 2 2 2 2 2 2 2 2 2 2 2 2 2 2 2 2 2 2 2 2 2 2 2 2 2 2 2 2 2 2 2 2 2 2 2 2 2 2 2 2 2 2 2 2 2 2 2 2 2 2 2 2 2 2 2 2 2 2 2 2 2 2 2 2 2 2 2 2 2 2 2 2 2 2 2 2 2 2 2 2 2 2 2 2 2 2 2 2 2 2 2 2 2 2 2 2 2 ",
"2 2 2 2 2 2 2 2 2 2 2 2 3 2 2 2 2 2 2 t F F F F F F F F F F F F G F F G G G F F G G G G G G F F F F G F F F F F F F G t G G G G G G F e % 2 2 2 2 2 2 2 2 2 2 2 2 2 2 2 2 2 2 2 2 2 7 2 4 % 2 2 X.2X2X2X1X1X1X1X2X3X1X1X3X1X2X3X2X2X2X2X3X3X2X2X2X2X3X3X1X1X3X2X2X2X1X1X2X2X2X2X3X2X3X1X3X2X3X{.2 2 2 2 2 2 2 2 2 2 2 2 2 2 2 2 2 2 2 2 2 2 2 2 7 2 2 2 2 2 2 2 2 2 2 9 2 2 2 2 2 2 2 2 2 2 2 2 2 2 2 2 2 2 2 2 2 2 3 2 2 2 3 2 2 2 2 2 2 2 2 2 2 2 2 2 2 2 2 2 2 2 2 3 2 2 3 2 2 9 2 2 2 2 2 2 2 % % o # X # & * # & $ $ # * # # * # # * # * $ # # * # * # * # # $ $ # $ & * # # * # # * # & $ # * # # & $ # * # # $ # # * # # # * # # * # # * $ # # * # # * # $ # # # $ # $ # * * # * # # * * # # * # # # $ # # * # * # # # # X % 2 2 2 2 2 2 2 2 2 2 2 2 2 2 2 3 4 2 2 2 2 2 2 2 2 2 2 9 2 2 2 2 2 2 2 2 2 2 2 2 2 2 2 2 2 3 2 2 2 2 2 2 2 2 2 2 2 2 2 2 2 2 2 2 2 2 2 2 2 2 2 2 2 2 2 2 2 2 2 2 2 2 2 2 2 2 2 2 2 2 2 2 2 2 7 2 2 2 2 2 2 2 2 2 2 2 2 2 2 2 2 2 2 2 2 9 2 2 2 2 2 2 2 3 3 2 2 3 2 2 2 2 2 2 2 2 2 2 2 2 2 3 2 2 2 2 2 2 2 2 3 2 2 3 2 2 2 2 2 3 3 2 2 3 2 2 2 2 2 2 2 2 2 2 2 2 2 2 2 2 2 2 2 2 2 2 2 2 2 2 2 2 2 2 2 2 2 2 2 2 2 2 2 2 2 2 2 2 2 2 2 2 2 2 2 2 2 2 2 2 2 2 2 2 2 2 2 2 2 2 2 2 2 2 2 2 2 7 2 2 2 2 2 2 2 2 2 2 2 2 2 2 2 2 2 2 2 2 2 2 2 2 2 2 2 2 2 2 2 2 2 2 2 2 2 2 2 2 2 2 2 2 2 2 2 2 2 2 2 2 2 2 # # #   . # $ # * # * # # * # * # # * # * # # # # * $ # # * * # # $ # * $ # # * $ & # $ # # # * * # # $ * # $ # * # # # * # # # # * * # # $ # $ # # # * # * $ # # # #   & 2 2 2 2 2 2 2 2 2 2 2 2 2 2 2 2 2 2 2 2 2 2 2 2 2 3 2 2 2 2 2 2 2 2 2 2 2 9 2 2 2 2 2 2 2 2 2 2 2 2 2 2 2 2 2 2 2 2 2 2 2 2 2 2 2 2 2 2 2 2 2 2 2 2 2 2 2 2 2 2 2 2 2 2 2 2 2 2 2 2 2 2 2 2 2 2 2 2 2 2 2 2 2 2 2 2 2 2 2 2 2 2 2 2 2 2 4 2 2 2 2 2 2 2 2 2 2 2 2 2 2 2 2 2 2 2 2 2 2 2 2 2 7 2 2 2 2 2 2 2 2 2 2 2 2 2 2 2 2 2 2 3 2 2 2 3 2 2 2 2 2 2 2 2 2 2 2 9 2 2 2 2 2 2 2 2 2 2 2 2 2 2 2 2 3 4 2 2 2 2 2 2 2 9 2 2 2 2 2 2 2 2 2 2 2 2 2 2 2 2 9 2 2 2 2 2 2 2 2 2 2 2 2 2 3 3 2 3 2 2 2 2 2 2 2 2 2 # # # # X 2 2 2 2 2 2 2 3 2 2 2 2 3 2 2 2 3 2 2 2 2 2 2 2 2 2 2 2 2 2 2 2 2 2 2 2 2 2 2 2 2 2 2 2 2 2 2 2 2 2 2 2 2 2 2 2 2 2 2 2 2 2 2 2 2 2 2 2 2 2 2 2 2 2 2 2 2 2 2 2 2 2 2 2 4 2 2 2 2 2 2 2 2 2 2 2 2 2 2 2 2 2 2 2 2 2 2 2 2 2 2 2 2 2 2 2 ",
"2 2 2 2 2 2 2 3 2 2 2 2 2 2 2 2 2 2 2 t G F 9 9 e 9 9 e 0 0 9 e e 9 e 9 e 9 0 0 9 0 0 9 0 0 0 9 0 0 e 0 0 9 0 9 e 0 0 0 0 0 0 0 e F G e 9 2 2 2 2 2 2 2 2 2 2 2 2 2 2 2 2 2 2 2 2 2 2 2 7 2 4 2 ` 2X4XN.B.B.N.N.N.B.N.B.N.B.N.N.B.B.B.B.B.B.B.B.B.B.B.{.B.B.B.$.{.B.B.B.{.B.$.B.{.B.B.B.{.#X3X{.2 2 2 2 2 2 2 2 2 2 2 2 2 2 2 2 2 2 2 2 2 9 2 2 2 2 2 2 2 2 2 2 2 2 2 2 2 2 2 2 2 2 2 2 2 2 2 2 2 2 2 2 2 2 2 2 2 2 2 2 2 2 2 2 9 2 2 2 2 2 2 2 2 2 2 2 2 2 2 2 2 2 2 2 2 2 2 2 2 2 2 2 2 2 2 2 7 1 % # X # # $ # * # # # & # # # # # * # * # # * # # # * # # $ * # * * * # # $ $ # $ # # * # # # # * # * # * # * # * * # # $ * $ # # * # * # # * # $ # # * # # # * $ * # * * # # $ $ # # * $ # $ # # * * # * # * # & # # # . # X 1 2 2 2 2 2 2 2 2 2 2 9 2 2 2 2 2 2 2 2 2 2 2 2 2 2 2 2 2 2 2 2 2 2 2 3 2 2 7 2 2 2 3 2 2 2 2 2 2 2 2 2 2 2 2 2 2 2 2 2 2 2 2 2 2 2 2 2 2 2 2 2 2 2 9 2 2 2 2 2 2 2 9 2 2 2 2 2 2 2 2 2 2 4 3 2 2 2 2 2 2 2 2 2 2 2 2 2 2 2 2 2 2 2 2 2 2 2 2 2 2 2 2 2 3 2 2 2 3 3 2 2 2 2 2 2 2 2 2 2 2 2 2 3 2 2 2 2 2 2 3 2 2 2 2 2 2 2 2 2 2 3 2 2 2 3 2 2 2 2 2 2 2 2 2 2 2 2 2 2 2 2 2 2 2 2 2 2 2 2 2 7 2 2 2 2 7 2 2 2 2 2 2 2 2 2 2 2 2 2 2 2 2 2 2 2 2 2 2 2 2 9 2 2 2 2 2 2 2 2 2 2 2 2 2 2 2 2 2 2 7 2 2 2 2 2 2 2 2 2 2 2 2 2 2 2 2 2 9 2 2 2 2 2 2 9 2 2 2 2 2 2 2 2 2 2 2 9 2 2 2 2 2 9 2 2 2 2 2 2 2 2 2 # # # # # # & # $ # # # # * $ # $ # # # $ # * # $ # # * # & # * # # * # * # $ # $ # * * # * # * # # * # $ # # $ & # * # * & # * # * * # # # * * # * # # # * # # # # # # # 2 2 2 2 2 2 2 2 2 2 2 2 2 2 2 9 2 2 2 3 3 2 2 2 2 2 2 2 2 2 2 2 2 2 2 2 2 2 2 2 2 2 2 2 2 2 2 2 2 2 2 2 2 2 9 2 2 2 2 2 2 9 2 2 2 9 2 2 2 2 2 2 2 9 2 2 2 2 2 2 2 2 2 2 2 2 2 2 2 2 2 2 2 2 2 2 2 2 2 2 2 2 2 2 2 2 2 2 2 2 2 2 2 2 2 2 2 2 2 2 2 2 2 2 2 2 2 2 9 2 2 2 2 2 2 2 4 3 2 2 2 2 2 2 2 2 2 2 2 2 2 2 2 2 2 2 2 2 2 2 2 2 2 2 2 3 3 2 2 2 2 2 2 2 2 2 2 2 2 2 2 2 2 2 2 2 2 2 2 2 2 2 3 2 2 2 2 2 2 2 2 2 2 2 2 2 2 2 2 2 7 2 2 2 2 2 2 2 2 2 2 9 2 2 2 2 2 2 2 2 3 2 2 2 2 2 2 2 2 3 2 3 2 2 3 2 2 & X X X # 2 2 3 3 2 2 2 2 2 2 2 2 3 2 2 4 2 4 2 2 2 2 2 2 2 1 2 2 2 2 2 2 2 2 2 2 4 2 2 2 2 2 2 2 2 2 4 2 2 2 2 2 2 2 2 2 2 2 2 2 2 2 4 2 2 4 2 2 2 2 2 2 2 2 4 2 2 4 2 2 2 2 2 2 2 2 2 2 2 4 2 2 2 2 2 2 2 2 2 2 2 4 2 2 2 2 2 2 2 2 2 2 9 2 2 2 ",
"2 2 2 2 2 2 2 2 2 3 2 2 2 3 2 2 2 2 2 t G t 4 2 2 2 2 2 2 2 2 2 2 2 2 2 2 2 2 4 2 2 2 2 2 2 2 2 4 2 2 2 2 2 2 2 2 2 2 2 4 2 2 4 % t G t 2 2 2 2 2 2 2 2 2 2 2 2 2 2 2 2 2 2 2 2 2 2 2 2 7 7 7 % [ 2X4X@.o.o.o.o.o.o.o.o.o.o.o.o.o.o.o.o.o.o.o.o.o.o.o.o.o.o.o.o.o.o.o.o.o.o.o.o.o.o.o.o.O.}.2XC.2 2 2 2 2 2 2 9 2 2 2 2 2 2 2 2 2 2 2 2 2 2 2 2 2 2 2 2 2 2 2 2 2 2 2 2 2 2 2 2 2 2 2 2 2 2 2 2 3 2 2 2 2 2 2 2 2 2 2 2 2 2 2 2 2 2 2 2 2 2 2 2 3 2 2 2 2 2 2 2 2 2 2 2 2 2 2 2 2 2 2 2 2 2 2 2 7 % o # # # # # $ # # * * $ # * * # $ # $ # # * # $ # * $ # $ $ # $ # # # # * # # * # * $ # # * * * # $ # $ # # # $ # # * * # # # * # # $ # $ & # $ # * $ # * * # # # * # # # $ * # # * # # # * # * # * # $ # # * # & # # # # # X # 2 2 2 2 2 2 2 2 2 2 2 2 2 2 2 2 2 2 2 2 2 2 2 2 2 2 2 2 2 2 2 2 3 2 2 2 2 2 2 2 2 2 2 2 2 2 2 2 2 2 2 9 2 2 2 2 2 2 2 2 2 2 9 2 2 2 2 2 2 2 2 2 2 2 2 2 2 2 2 2 2 2 2 2 2 9 2 2 2 2 2 2 3 3 2 2 2 2 2 2 2 7 2 2 2 2 2 2 2 2 2 2 2 2 2 2 2 2 2 2 2 2 2 2 2 2 2 2 2 2 2 2 2 2 2 2 2 2 2 3 2 2 2 2 2 3 2 3 2 2 2 2 2 2 2 2 2 2 2 2 2 2 2 2 2 2 2 3 2 2 3 2 2 3 2 2 2 3 2 3 2 2 2 2 2 3 3 7 2 2 2 2 2 2 2 2 2 9 2 2 2 2 2 2 2 2 2 2 2 9 2 2 2 2 2 2 2 2 2 2 2 2 2 2 2 2 9 2 2 2 2 2 2 2 2 2 2 2 2 2 2 2 2 2 2 2 2 2 2 2 2 2 2 2 2 2 2 2 2 2 2 2 2 2 2 2 2 2 2 9 2 2 2 2 2 2 2 2 2 7 2 2 2 2 2 2 2 2 2 3 2 2 # X # # # # # * # * * * # # # * # $ # * # * # $ # * $ # * $ $ # # * # # * # # * # * # # $ # # # # * # & $ $ * # # * # $ # $ $ # $ # $ # * * # # $ # # * $ # # # #   # . & 2 2 2 2 2 2 2 2 9 2 2 2 2 2 2 2 2 2 2 2 3 2 3 2 2 2 3 2 2 2 2 2 2 2 2 2 2 2 2 2 2 2 2 2 2 2 2 2 2 2 2 2 2 2 2 2 2 2 2 2 2 2 2 2 2 2 2 2 2 2 2 2 2 2 2 2 2 2 2 2 2 2 2 2 9 2 2 2 2 2 2 2 2 2 2 9 2 2 2 2 2 2 2 2 2 2 2 2 2 2 2 2 2 2 2 2 2 2 2 2 3 2 2 2 2 2 2 2 2 2 2 2 2 2 3 3 3 2 2 2 2 2 2 2 2 2 2 2 2 2 2 2 2 2 2 2 9 2 2 2 2 2 2 2 2 2 2 2 2 2 2 2 2 2 2 2 2 2 2 2 2 2 2 2 7 2 2 2 2 2 3 2 2 2 2 2 2 2 2 2 2 2 2 2 2 2 7 2 2 2 2 2 2 2 2 2 2 2 2 2 2 2 2 2 2 2 2 2 2 2 2 2 2 2 2 2 2 2 2 2 2 2 2 2 2 3 3 # # # # # 2 3 2 2 2 2 2 9 e 9 0 9 0 9 0 9 9 0 0 9 0 9 0 9 9 e 0 0 0 9 e 9 0 0 9 0 0 9 0 9 9 0 9 9 e 0 0 9 9 9 9 e 9 0 9 9 2 2 2 2 9 0 9 0 9 9 0 0 0 9 0 9 0 9 0 0 9 9 0 9 e 0 9 9 0 9 0 0 0 0 0 9 0 9 0 9 0 9 e 9 9 0 0 9 0 0 9 e 9 2 2 2 7 2 7 2 ",
"2 2 2 2 2 2 2 2 2 7 2 2 2 7 2 2 2 2 2 t G t 2 2 2 2 2 2 2 2 2 2 2 2 2 2 2 2 2 2 2 2 2 2 2 2 2 2 2 2 3 2 2 2 2 2 2 2 2 2 2 2 2 2 2 D G e 2 2 2 2 2 2 2 2 2 2 2 2 2 2 7 2 2 2 2 7 2 7 2 2 7 2 9 % [ 2X$X+.o.o.o.o.o.o.o.o.o.o.o.o.o.o.o.o.o.o.o.o.o.o.o.o.o.o.o.o.o.o.o.o.o.o.o.o.o.o.o.o.o.}.2X{.2 2 2 2 2 2 2 2 2 2 2 2 2 2 2 2 2 2 2 2 2 2 2 2 2 2 2 2 2 2 2 2 2 2 2 2 2 2 2 2 2 2 2 2 2 2 2 2 2 2 2 2 2 2 2 2 2 2 2 2 2 2 2 2 2 2 2 2 2 2 2 2 2 2 2 2 2 2 2 2 2 2 2 2 2 2 2 2 2 2 2 2 2 2 2 2 3 2 X # # X # $ * # # $ # # # * * # # $ * # * # # * $ # * # $ # $ # $ $ $ # # * $ # $ # # * $ # # $ # * # $ # * # $ # # # # $ # # * # # # $ & $ # * * # # * $ # * # * # * # $ # # * # # # # * # $ # # * $ * # * # # * # # # # # # % 2 3 2 2 2 2 2 2 2 2 2 2 2 2 2 2 3 2 2 2 2 2 2 2 2 2 2 2 2 2 2 2 2 2 3 2 2 2 2 2 3 2 2 2 2 2 2 2 2 2 2 2 2 2 2 2 9 2 2 2 2 2 2 3 2 2 2 2 2 2 2 2 2 2 2 2 2 2 2 2 2 2 2 2 2 2 3 2 2 2 2 2 3 2 2 2 2 2 2 2 2 2 2 2 2 2 2 2 2 2 2 2 2 2 2 2 2 2 2 2 2 2 2 2 2 7 2 2 3 3 3 2 2 2 3 2 2 2 2 3 2 2 2 2 2 2 2 2 2 2 3 2 2 2 3 2 2 2 2 2 3 2 3 2 2 2 2 2 2 3 2 2 2 2 3 2 2 3 2 2 2 2 2 2 2 2 2 2 2 2 2 2 2 2 2 2 2 2 2 2 2 2 2 2 2 2 2 2 2 2 2 2 2 2 2 2 2 2 2 2 7 2 2 2 2 2 2 2 2 2 7 2 2 2 2 2 2 2 2 2 2 2 2 2 2 2 2 2 2 2 2 2 2 2 2 2 2 2 2 2 7 2 2 2 2 2 2 2 2 2 2 2 2 2 2 2 2 2 2 2 2 2 2 2 2 2 3 2 2 2 2 2 # #   # # # & $ # $ # # # # * # $ $ # # $ $ # # $ # # # $ # # $ # $ $ # # $ & # $ # # * * # * # * # * # # # $ # & $ # # $ # # # * # # # * # # * # * * # # # * # # # # # & 7 2 2 2 2 2 2 2 2 2 2 2 2 2 2 2 2 2 2 2 4 2 2 2 2 2 2 2 2 2 2 2 2 2 2 2 2 2 2 2 2 2 2 2 2 3 3 2 2 2 2 2 2 2 2 2 2 2 2 2 2 2 2 2 2 2 2 2 2 2 2 2 2 2 2 2 2 2 2 2 2 2 2 2 2 2 2 2 2 2 9 2 2 2 2 2 2 2 2 2 2 2 2 2 2 2 2 2 2 2 2 2 2 2 2 2 2 2 2 2 2 3 2 2 2 2 2 2 2 2 2 2 2 2 2 2 2 3 2 2 2 2 2 7 2 2 2 7 2 2 2 2 2 2 2 2 2 2 2 2 2 2 2 3 2 2 2 2 2 2 2 2 2 2 2 2 2 2 2 2 2 2 2 2 2 2 2 2 2 2 2 2 2 2 2 2 2 2 2 2 2 2 2 2 2 9 2 2 2 2 2 7 2 2 2 2 2 2 2 2 2 2 2 2 2 2 2 2 2 2 2 2 2 2 2 3 2 2 3 2 2 2 3 2 2 2 2 $ # # X # 1 2 2 2 2 2 2 t F F F G F F F F F F F F F F G G G F F F F F F F F F F F F F G G G J F F G F F G G G G F G F G e 4 2 2 2 e F F G F J F G G G G G G F F G F G F G F F F F F F F F G F F F F G G G G F F F F G F J F t F G t 2 2 2 2 2 2 2 ",
"2 2 2 2 2 2 2 2 2 2 2 2 2 2 3 2 2 2 2 t G t 2 2 4 2 2 2 2 2 2 2 2 2 2 2 2 2 2 2 2 2 2 2 2 2 2 2 2 2 3 3 2 3 2 2 2 2 3 3 2 2 2 2 2 D G t 2 2 2 2 2 2 2 2 2 2 2 2 2 2 2 2 2 2 2 2 2 2 2 2 2 2 4 2 [ 2X4X+.o.o.o.o.o.o.o.o.o.o.o.o.o.o.o.o.o.o.o.o.o.o.o.o.o.o.o.o.o.o.o.o.o.o.o.o.o.o.o.o.o.}.2X{.2 2 2 2 2 2 2 2 2 2 2 2 2 2 2 2 2 2 2 2 2 2 2 2 2 2 2 9 2 7 2 2 2 2 2 2 2 2 2 2 2 2 2 2 2 2 2 2 2 2 2 2 2 2 2 2 2 2 2 2 2 3 2 2 2 2 3 2 2 2 2 2 2 2 2 2 2 2 2 2 2 2 2 2 2 9 2 2 2 2 2 2 2 2 2 2 2 % # # # # # $ # # * # # * # # # # * # # $ # # $ # # * * # $ $ $ * $ $ * $ # * $ $ * # # # & * * # & # * # $ & * # * * # * # * $ # $ * = * # # $ # # $ $ # # * # $ # $ # $ # * $ # # * * # # $ # * $ # # * # $ $ & * # # # # . X 1 2 2 2 2 2 2 2 2 2 2 2 2 2 2 2 2 2 2 2 2 2 2 2 2 2 2 2 2 2 2 2 2 2 2 2 2 2 2 2 2 2 7 3 2 2 2 2 2 2 2 2 2 2 2 2 2 2 2 2 2 2 2 2 2 2 2 2 2 2 2 2 2 2 2 2 2 2 2 2 2 2 2 2 2 2 2 2 2 2 2 2 2 2 2 2 7 2 2 2 2 7 2 2 2 2 2 2 2 2 2 2 2 2 2 2 2 2 2 q w q < q q q q < q w r 3 2 2 2 2 2 2 2 2 2 2 2 2 2 2 2 2 2 2 2 2 2 2 2 2 7 0 2 2 2 2 2 2 2 2 2 3 2 2 2 2 2 2 2 2 2 2 2 2 2 2 2 2 2 2 3 2 2 2 2 2 2 2 2 2 2 2 7 2 2 2 2 2 9 2 2 2 2 2 2 2 2 2 2 2 2 2 2 2 2 2 2 2 2 2 2 2 2 2 2 2 2 2 2 2 2 2 2 2 2 2 2 2 2 2 2 2 2 2 2 2 2 2 2 2 2 2 2 2 2 2 2 2 2 2 2 2 2 2 2 2 2 2 2 2 2 2 2 2 2 2 2 2 2 2 2 2 2 2 2 2 2 # X # # # # # # * # # * * # $ * $ $ * * $ $ * * $ * * $ # * * # * # # * * # # * # * $ # # $ # $ * # # $ 2 * # * # # * * # * * # # $ * # # $ $ # $ # * $ * # $ # # # # # & 2 2 2 8 2 2 2 2 2 2 2 2 2 2 2 2 2 2 2 2 2 2 2 7 2 2 2 2 7 2 2 9 2 2 2 2 2 2 2 2 2 2 2 2 2 2 3 4 2 2 2 2 2 2 2 2 2 2 2 2 2 2 2 2 2 2 2 2 2 2 2 2 2 2 2 2 2 2 2 2 2 2 2 2 2 2 2 2 2 2 2 2 2 2 2 2 2 2 2 2 2 2 2 2 2 2 2 9 2 2 2 2 2 2 2 2 2 2 2 2 2 2 2 2 2 2 2 2 2 2 2 2 2 2 2 2 2 2 2 2 2 2 2 2 2 2 2 2 2 2 2 2 2 2 2 2 2 2 2 2 2 3 4 2 2 2 2 2 3 2 2 2 2 2 2 2 2 2 2 2 2 7 2 2 2 2 2 2 3 2 2 2 2 2 2 2 2 2 2 2 2 2 2 2 2 2 2 2 2 2 2 2 2 2 2 2 2 2 2 2 2 2 2 2 2 2 2 2 2 2 2 2 2 3 2 2 2 2 2 2 3 2 2 2 2 2 2 & X # # # 2 2 2 2 3 2 2 t F F F F t D F F F F t F F D F D D G t F D F F F F F F F F t F G t t F t F F D F G t G F t F F e 2 2 2 2 e F F F F t F t F D F D D t F F t t F t G F F F F t F F F F F F F D D D D F t D F F F t F G G G t 2 2 2 2 2 2 2 ",
"2 2 2 2 2 3 3 2 2 2 2 2 2 2 2 2 2 2 2 t G t 2 2 2 2 2 2 2 7 2 2 2 2 4 2 2 2 2 2 2 2 2 2 2 2 2 2 2 2 2 3 2 2 2 2 2 2 3 3 2 2 2 2 2 t G e 2 2 2 2 2 2 2 2 2 2 9 2 2 2 2 2 2 2 2 2 2 2 2 2 2 2 4 % ` 2X$X+.o.o.o.o.o.o.o.o.o.o.o.o.o.o.o.o.o.o.o.o.o.o.o.o.o.o.o.o.o.o.o.o.o.o.o.o.o.o.o.o.o.}.1X.X2 2 2 2 2 2 2 2 2 2 2 2 2 2 2 9 2 2 2 2 2 2 2 2 2 2 2 2 2 2 2 2 2 2 2 2 2 2 2 2 2 9 2 2 2 2 2 2 2 2 2 2 2 2 2 2 2 2 2 2 2 2 2 9 2 2 3 2 2 2 2 2 2 2 2 2 9 2 2 2 2 2 2 2 2 2 2 2 2 2 2 2 2 2 2 2 2 1 # # X X # $ $ * # * # # * # $ * # # # * # * # $ # # # * = 9 9 9 9 9 9 9 8 9 9 9 = # * # # # # # $ $ # * # $ # $ $ # $ $ $ # $ $ $ 9 w.0 # $ * * # # # # * # # $ * # * # # # # * $ # # $ # * * # * # # # # * * # # # # # # # # # 2 2 2 2 2 2 2 2 2 2 2 2 2 2 3 2 2 2 2 2 2 2 2 2 2 2 2 2 2 2 2 2 2 2 2 2 2 3 2 2 2 2 2 2 2 2 2 2 2 2 2 2 2 2 2 2 2 2 2 2 2 2 2 2 2 2 3 4 2 2 2 2 2 2 2 2 2 2 2 2 2 2 2 2 2 2 2 2 2 2 2 2 2 2 2 2 2 2 2 2 2 2 2 2 2 2 2 2 2 9 2 2 2 2 2 2 2 9 C.#X#X#X#X X X#X X X X XI 4 2 2 2 2 3 2 3 3 3 3 2 2 2 2 2 2 2 2 2 2 2 2 2 2.W.9 2 2 2 2 2 2 2 2 2 2 2 2 2 2 2 2 2 2 2 2 2 2 2 2 2 7 2 2 2 2 2 2 2 2 2 2 2 2 2 2 2 2 2 2 2 2 2 2 2 2 2 2 2 2 2 2 2 2 2 2 2 2 2 2 2 2 2 2 2 2 2 2 2 2 2 2 2 2 2 3 2 2 9 2 2 2 2 2 2 2 2 2 2 2 9 2 2 7 2 2 2 2 2 2 2 2 2 2 2 2 2 2 2 2 2 2 2 2 2 2 2 2 2 2 2 2 7 2 2 2 2 2 2 2 # # # # # # * # # * $ # $ # * 9 9 9 9 9 9 9 9 9 8 9 2 # * # # # # * # $ # $ $ # # # # * * # $ $ # $ $ 7 9.S # * # * # $ # # * $ * # # $ $ # # * * # # # # $ # # # # . # & 2 2 2 2 2 2 2 2 2 2 2 2 2 2 2 2 2 2 2 2 2 2 2 2 2 2 2 2 2 2 2 2 2 2 2 2 2 2 2 2 2 2 2 9 2 2 2 2 2 2 2 2 2 2 2 2 2 2 2 2 2 2 2 2 2 2 2 2 2 2 2 2 2 2 2 2 2 2 2 9 2 2 2 2 7 2 2 2 2 2 2 2 2 2 2 2 2 2 2 2 2 2 2 2 2 2 2 2 2 2 2 2 2 2 2 2 2 2 2 2 7 2 2 2 2 2 2 2 2 2 2 2 2 2 2 2 2 2 2 2 3 2 2 2 2 2 2 2 2 2 2 9 2 2 2 2 2 2 2 2 2 3 2 2 2 2 2 2 2 2 2 9 2 2 2 2 2 2 2 2 2 2 2 2 2 2 2 2 2 2 2 2 3 2 2 2 2 2 2 2 2 2 2 2 2 2 2 2 2 2 2 2 2 2 2 2 2 2 2 2 2 2 2 2 2 2 2 2 2 2 2 3 2 2 2 2 2 2 2 2 2 3 2 2 3 2 2 # # # X # 2 3 2 2 2 2 2 t F t 9 2 3 9 3 3 9 2 9 9 2 9 2 7 7 9 2 9 2 2 2 9 2 2 3 4 7 9 3 9 3 3 9 2 9 2 7 7 7 9 2 3 9 t F t 2 2 2 2 e G t 2 9 9 2 2 9 7 7 7 7 9 2 3 9 9 3 9 3 2 3 3 3 9 3 3 3 2 2 9 2 9 2 3 3 9 9 2 4 2 2 7 9 4 t G t 2 2 2 2 2 2 2 ",
"2 2 2 2 4 3 2 2 2 2 2 2 2 2 2 2 2 2 2 t G t 2 2 2 2 2 2 % 2 2 2 2 2 2 % 2 2 2 2 2 2 % 2 2 2 2 2 1 2 2 1 2 2 2 2 1 2 % 2 2 2 2 2 2 t G t 2 2 2 2 2 2 2 2 2 2 2 2 2 2 2 2 2 2 2 2 2 2 2 2 2 2 9 % [ 3X$X+.o.o.o.o.o.o.o.o.o.o.o.o.o.o.o.o.o.o.o.o.o.o.o.o.o.o.o.o.o.o.o.o.o.o.o.o.o.o.o.o.o.}.2XB.2 2 2 2 2 2 2 2 2 2 2 2 2 2 2 2 2 2 2 2 2 2 2 2 2 2 2 2 2 2 2 2 2 2 2 2 2 2 2 2 2 2 2 2 2 2 2 2 2 2 2 3 9 2 2 2 2 2 2 2 2 2 2 2 2 2 2 2 2 2 2 2 2 2 2 3 2 2 2 2 2 2 2 2 2 2 2 2 2 2 2 2 2 2 2 2 2 1 # # # # # $ # # $ # * * # $ # * # * $ # $ # * # * # $ # = 9 q 9 9 9 9 9 9 q 9 0 7 # * # * # # * > w.^ 7 # $ # & # * # $ $ w 8 $ # * e 2 # $ # # # * * # # $ * # * # # # * * # $ # * * # $ # # # * # * # $ # # $ # * # # #   X # 2 2 2 2 9 2 2 2 2 2 2 2 2 2 2 2 2 2 2 2 2 9 2 2 2 2 2 2 2 2 3 2 2 2 2 2 2 2 2 2 2 2 2 2 3 2 2 2 2 2 2 9 2 2 2 2 2 2 2 2 2 2 2 2 2 3 3 2 2 2 2 2 2 2 2 2 2 2 2 2 2 2 2 2 2 2 2 2 2 2 3 2 2 2 2 2 2 2 2 2 2 2 2 2 2 2 2 2 2 2 2 2 2 2 2 2 2 2 |.2X1X2X1X1X1X1X3X2X3X2XI 2 2 2 2 2 3 3 ,.(.>.9 2 3 2 2 3 2 2 2 0 R 9 3 2 t 3.2 2 2 2 2 2 2 3 2 2 2 3 2 2 2 2 2 3 2 2 2 2 2 3 2 3 2 2 2 2 2 2 3 7 2 2 2 2 2 2 2 2 2 2 2 2 2 2 2 2 2 9 2 2 2 2 2 2 2 2 9 2 2 2 2 2 2 2 2 2 2 2 2 2 2 2 2 2 3 2 2 2 2 2 2 2 2 2 2 2 2 2 2 2 2 2 2 2 2 2 2 2 2 2 2 2 2 2 2 2 2 2 2 9 2 2 2 2 2 2 2 2 2 7 2 2 2 2 2 2 2 2 2 2 2 # # # # # # * # # * # * # * = 9 9 9 9 9 9 9 9 9 9 q 8 $ # $ # * $ $ = w./ 8 # * * # $ # # $ $ q 8 * $ 1 e 7 # # $ # * # * # # # * # * # & * # # # $ # * * # * # # # . # & 2 2 2 2 2 2 2 2 2 2 2 2 2 2 2 2 2 2 2 2 2 2 2 2 2 2 2 2 2 2 2 2 2 2 2 2 2 2 2 2 2 2 2 2 2 2 2 2 2 2 2 2 2 2 2 2 2 2 2 2 2 2 2 2 2 2 2 2 2 2 2 2 2 2 2 2 2 2 2 2 2 2 2 2 2 2 2 2 2 2 2 2 2 2 2 9 2 2 2 2 2 2 2 2 2 2 2 2 2 2 9 2 2 2 2 2 2 2 2 2 2 2 2 2 2 2 2 2 2 2 2 2 2 3 2 2 2 2 2 2 2 2 2 2 2 2 2 2 2 2 2 2 2 2 2 2 2 2 2 2 2 3 2 2 2 2 2 2 2 2 2 2 2 2 2 2 2 2 2 2 2 2 2 2 2 2 2 3 2 2 2 2 2 2 2 2 2 9 2 2 2 2 2 2 2 2 2 2 2 2 2 2 2 2 2 9 2 2 2 2 2 2 2 2 2 9 2 2 2 2 2 2 2 2 2 2 2 2 2 2 2 2 2 2 2 2 2 # # X # X 2 2 2 2 2 2 2 t F t 2 2 2 2 2 2 2 2 2 2 2 3 3 2 2 2 2 2 4 2 2 2 2 2 2 2 2 2 2 2 2 2 2 2 2 2 2 2 2 4 2 2 2 t J t 2 2 2 2 t G t 2 2 2 2 2 2 2 2 2 2 2 2 2 2 2 2 2 2 2 2 2 2 2 2 2 2 2 2 2 2 3 3 2 2 2 2 2 2 2 2 2 2 2 t G t 2 2 7 2 2 2 2 ",
"2 2 2 2 2 9 2 2 2 2 2 2 2 2 2 2 2 2 2 e F t 2 2 2 7 7 G 9.J 7 2 2 e 7.2.0 2 7 D 5.9.9./ 0 7 0 7.t.9.7.^ 7 2 7 ^ w.9.8.1.D $ 7 7 2 t G e 2 2 2 2 2 2 2 2 2 2 2 2 2 2 2 2 2 2 2 2 2 2 2 2 2 2 2 2 [ 2X$X+.o.o.o.o.o.N.{.{.N.+.o.o.o.+.$.$.+.o.o.$.{.+.o.o.o.+.{.B.o.o.B.|.{.N.$.o.o.o.o.o.o.}.3X{.2 2 2 2 2 2 2 2 2 2 2 2 2 2 2 2 2 2 2 2 2 2 2 2 2 3 2 2 2 2 2 2 2 2 2 2 2 2 2 2 2 2 2 2 2 2 2 2 2 2 9 2 2 2 2 2 2 2 2 2 2 2 3 2 2 2 2 2 2 2 2 2 2 2 2 2 2 2 2 2 2 2 2 2 2 2 2 2 2 2 2 2 2 2 2 2 2 *   # # # # # * # * # # $ # * * # # $ # * # * # * * # $ # 7 9 9 7 7 7 7 7 7 7 9 9 7 $ # $ # $ $ 1 H !.t.D # # * # # # # # # 5.F # # $ # # $ # # # $ # # $ # $ # # $ # $ $ $ # * # $ # # * * # $ # # # * # * # # * # # * # # # # # 2 2 2 2 2 2 2 2 2 2 2 2 2 2 2 2 2 2 2 2 3 2 2 2 2 2 9 2 2 2 2 2 2 2 2 2 2 2 2 3 2 2 7 2 2 2 2 2 2 2 2 2 2 2 2 2 2 7 2 2 2 2 2 2 3 2 2 2 2 2 2 7 2 2 9 2 2 2 2 2 2 2 2 2 2 2 2 2 2 2 2 2 2 2 2 2 2 2 2 2 2 2 2 2 2 2 2 2 2 2 3 2 2 2 2 3 2 7 |.2X4X#X$X$X#X$X#X$X1X4XI 1 2 2 2 2 2 e i.fXI.t 2 2 2 2 1 1 1 1 F W.t 2 1 2 % 4 2 2 2 2 3 2 2 2 2 2 1 1 1 2 2 2 2 2 2 2 2 2 2 2 2 2 2 2 2 2 2 3 2 2 2 2 3 2 2 2 2 2 2 2 2 2 2 2 2 2 2 2 2 3 2 2 2 2 2 3 2 2 2 2 2 2 2 2 2 2 2 2 2 2 2 2 2 2 2 2 2 2 2 2 2 2 2 2 2 2 2 9 2 2 2 2 2 2 2 2 2 2 2 2 2 2 2 2 2 2 2 2 2 2 2 2 2 2 2 2 2 2 2 2 2 2 2 2 2 2 2 3 2 2 # X # # # # $ # * # $ # $ # 7 9 9 7 7 7 7 7 7 8 7 0 7 # $ # * # # % F Y.u.F # $ * # # # # # # 2.H # # # # # $ # # $ # $ # # # # # # # # # $ * # $ # * # * # # # . # # # & 3 2 2 2 2 2 2 2 2 2 2 2 2 2 2 2 2 2 2 2 2 2 2 2 2 2 2 2 2 2 2 2 2 2 2 2 2 2 2 7 2 2 2 2 7 2 2 2 3 2 2 2 2 2 2 2 2 2 2 2 9 3 2 2 2 2 2 2 2 2 2 2 4 2 2 2 2 2 2 2 2 2 2 2 2 2 2 2 2 2 2 2 2 2 2 2 2 2 2 2 2 2 2 2 2 2 2 2 2 7 2 2 2 2 2 2 3 2 2 2 7 2 2 2 2 2 2 2 2 9 2 2 2 2 2 2 2 2 2 2 2 9 2 2 2 2 2 2 2 2 9 2 2 2 2 2 2 2 2 2 2 2 2 2 2 2 3 2 2 2 2 2 2 2 2 2 2 2 2 2 2 2 2 2 2 2 7 2 2 2 2 2 9 2 2 2 2 2 2 2 2 2 2 2 2 2 2 2 2 2 2 2 2 2 2 2 2 2 2 2 2 2 2 2 2 2 2 2 2 2 2 2 2 3 2 2 2 2 2 2 3 2 2 2 2 2 2 # X # # # 2 2 2 2 2 2 2 t G t 3 3 3 2 2 3 2 2 2 2 2 2 3 2 2 2 3 2 2 2 2 2 2 2 2 2 2 2 2 2 2 2 2 2 2 2 7 2 2 2 2 2 2 t F 0 2 2 2 2 e G t 2 2 2 2 2 2 2 2 7 2 2 2 2 2 2 2 2 2 2 2 2 2 2 2 7 2 2 3 2 2 2 2 3 3 2 2 2 2 2 2 2 2 2 t G t 2 2 2 2 2 2 2 ",
"2 2 2 2 2 2 2 2 2 2 2 2 2 2 2 2 2 2 2 t F t 2 4 2 7 7 1.].t.e 2 2 G `.Y.H 2 D 7.K.t.r.K.5.9 D ~.R.t.u.r.>.0 7 9.].t.t.4.D 2 2 2 4 D G t 2 2 2 2 2 2 2 2 2 2 2 2 2 2 7 2 2 2 2 2 2 2 2 2 2 2 2 % [ 1X$X+.o.o.o.o.+.#X}.{.|.{.+.o.o.$. X|.o.o.o.{.#X{.o.o.o.N.#X}.+.o.|.#X|.|.|.$.o.o.o.o.o.}.2XB.2 2 2 2 2 4 2 2 2 2 2 2 2 2 2 2 2 2 2 2 2 2 2 2 2 2 2 2 2 2 2 2 2 2 2 9 2 2 2 2 2 2 9 2 2 2 2 2 2 2 2 2 2 2 2 2 2 2 2 2 2 2 2 2 2 2 2 2 2 2 2 2 2 2 2 2 2 3 2 2 2 2 2 2 2 2 2 2 2 2 3 2 2 2 2 2 2 # # # # # # # * # # $ * # $ # # # * # # # $ # $ # # & $ # 7 0 9 * 2 1 * $ 2 * 7 0 7 $ * # * # # 7 7.t.K.^ # $ # = D R K H H I.0.^ D * J = 0 D 7 * # 9 D 9 $ 7 S K H 9 $ # & & # $ # * $ # # $ # * * # # $ * # $ # $ & # # #   # # 2 2 2 2 2 2 2 2 2 2 2 2 2 2 2 2 2 2 2 2 2 2 2 2 2 2 2 2 2 2 2 2 2 2 2 2 2 2 2 2 2 2 2 2 2 2 2 2 2 2 2 2 2 2 2 2 2 2 2 2 2 2 2 2 2 2 2 2 2 2 2 2 2 2 2 2 2 2 2 2 2 2 2 2 2 2 2 2 7 2 2 2 2 2 2 2 3 2 2 2 2 2 2 2 2 9 2 2 2 2 2 2 3 2 2 2 2 7 |.2X$X X X X}. X X#X4X1XI 2 2 3 2 2 2 ,.Q.(.eXJ 1 2 3 t 2.0.8.2.q.sXi.8.D F 2.0 ,.J 7 2 8 G 3.e 3 F 8.9.,.t 2 2 2 2 2 2 2 2 2 2 2 2 2 2 2 2 2 2 2 2 7 2 2 2 2 2 2 2 2 2 2 2 2 2 2 2 2 2 2 2 2 2 2 2 2 2 2 2 2 2 2 2 9 2 2 2 2 2 2 2 2 2 2 3 2 2 3 2 2 2 2 2 2 2 2 2 2 2 2 2 2 2 2 2 2 2 2 2 2 2 3 2 2 2 2 2 2 2 2 2 2 2 2 2 2 3 2 2 2 2 2 2 2 2 2 2 2 2 2 2 # # # X # % # * # $ $ $ # $ 7 0 9 $ * * $ 2 2 $ 9 9 8 $ & $ * # # 2 5.w.K.<.# $ # * C K K H F R.r.K D = H 7 0 D = $ # q D q $ 7 H K H 0 # $ # $ # * # $ # $ # # # # # . & 2 2 2 2 2 2 2 2 2 2 2 2 2 2 7 2 2 2 2 7 2 2 2 2 2 2 2 2 2 2 2 2 2 2 2 2 2 2 2 2 2 2 2 2 2 2 2 2 2 2 2 2 2 2 2 2 2 2 2 2 2 2 2 2 2 2 2 2 3 2 2 3 3 2 2 3 2 2 2 3 2 2 2 2 2 2 7 2 2 2 2 7 2 2 2 2 2 2 2 2 2 2 2 2 2 2 2 2 2 2 2 2 2 2 2 2 7 2 2 2 2 2 2 2 2 2 2 2 2 2 2 2 2 2 2 2 2 2 2 2 2 2 2 2 2 2 2 2 2 2 2 2 2 2 2 2 2 2 2 2 2 9 2 2 2 2 2 2 3 2 2 2 3 2 2 2 2 9 2 2 2 2 7 2 2 2 2 2 2 2 2 2 2 2 2 2 2 2 2 2 2 2 2 2 2 2 2 2 2 2 2 2 2 2 2 2 2 2 2 2 2 2 2 2 2 2 2 2 2 2 2 2 3 2 2 2 2 2 2 2 2 2 2 2 2 2 2 & # # X # 1 2 2 2 2 2 2 t F e 4 2 2 2 2 2 2 3 2 2 2 2 3 2 2 2 2 2 2 3 2 2 2 2 2 2 2 2 2 2 2 2 2 2 2 2 2 2 2 2 2 2 2 t F t 2 2 2 2 e F F 2 2 2 2 2 2 2 2 2 2 2 2 2 2 2 2 2 2 2 2 2 2 2 2 2 2 2 2 2 2 2 2 3 3 2 2 2 2 2 2 2 2 2 t G t 2 2 2 4 2 2 2 ",
"2 2 2 2 2 2 2 2 2 2 2 7 2 2 2 2 2 2 2 t F t 3 3 2 2 7 >.~.R.F 2 9 <.'.R.D $ 5.Y.G 7 2 5.K.J D Y.^ * e 7.Y.F 3 7.r.2 2 2 2 2 2 2 2 t G e 2 2 2 2 2 2 2 2 2 2 2 2 2 2 2 2 2 2 2 2 2 2 2 2 2 2 2 4 [ 2X$X+.o.o.o.o.+.}.$.o.N. X+.o.o.{.$X}.+.o.o.{.#X}.+.o.+.{.#X|.o.o.|.{.o.+. XB.o.o.o.o.o.}.3XZ.2 2 2 2 2 2 2 2 2 2 2 2 2 2 2 2 2 2 2 2 2 2 2 2 2 2 2 2 2 7 2 2 2 2 2 2 2 2 2 2 2 2 2 2 2 2 2 2 2 2 2 2 3 2 3 2 2 2 2 2 2 2 2 2 2 9 2 2 2 2 2 2 2 2 2 9 2 2 2 2 2 2 2 2 2 2 2 2 2 2 2 2 2 2 2 2 7 *   # # # # * # * # # $ # # * $ * # * * # * * # * # $ # $ * 9 7 * * 2 * 2 2 * 9 0 7 $ * # * # # w u.J u.5.$ $ * H w.R.R.e.7.`.'.K.<.D ~.t 5.t.D $ $ <.9.K 2 ^ K.I.K.5.7 # # & * # # $ * * # # # $ # $ * # # $ # * $ # # # # # X & 2 2 2 2 2 2 7 2 2 2 9 2 2 2 2 2 2 2 2 2 2 2 2 2 2 2 2 2 2 2 2 2 2 2 2 2 2 2 2 2 2 2 2 2 2 2 2 9 2 2 2 2 2 2 2 2 2 2 3 2 2 2 2 2 2 2 2 2 2 2 2 2 2 2 2 7 2 2 9 2 2 2 2 2 2 2 2 2 2 2 7 2 2 2 2 2 2 2 2 2 3 2 2 2 2 2 2 2 2 2 2 2 2 2 2 2 3 7 |.3X$X X X X}.}. X#X4X2XI 2 2 2 2 2 2 q.(.6.uX,.9 2 t q.wXtXeXQ.(.lXuXwX2.e.pXt wXp.D 2 t U.Q.J F p.eXuXwX2.8 2 2 2 2 7 2 2 2 2 2 2 2 2 2 2 2 2 2 2 2 2 2 2 2 2 2 2 2 2 2 2 2 2 2 2 2 2 2 2 2 2 2 2 2 2 2 2 2 2 2 2 2 2 2 2 2 2 2 2 2 2 2 2 2 2 2 2 3 2 2 2 2 2 2 2 2 2 2 2 2 2 2 2 2 2 2 2 2 2 2 2 3 2 2 2 2 2 2 2 2 2 2 2 2 2 2 2 2 3 2 2 2 7 2 2 2 2 2 2 # X # X # # & # # # # * $ # $ 9 9 7 2 2 $ * $ 7 7 0 7 # # $ # * # 9 u.^ r.7.* * $ H 9.R.P.r.6.!.!.K.5.9 ~.H <.r.D $ $ / 9./ 2 K r.Y.K.4.8 $ * # # # $ # * # * # . # # # $ 2 2 2 2 2 2 2 2 2 2 2 9 2 2 2 2 2 2 2 2 2 2 2 7 2 2 2 2 2 9 2 2 2 9 2 2 2 2 2 2 2 2 2 2 2 3 2 2 2 2 2 2 3 2 2 2 2 2 2 2 2 2 2 2 2 2 2 2 2 2 2 3 2 2 2 3 2 2 2 2 2 2 2 7 2 2 2 2 2 2 2 2 2 2 2 2 2 2 2 4 3 2 2 2 2 2 2 2 2 2 2 2 2 2 2 2 2 2 2 2 2 2 2 2 2 2 2 2 2 2 2 2 2 2 2 2 2 2 2 2 2 2 2 2 2 2 2 2 2 2 2 2 2 2 2 2 2 2 2 2 2 2 2 2 2 2 2 2 2 2 2 2 2 2 2 2 2 2 2 2 2 2 2 2 2 2 2 2 2 2 2 2 2 2 2 2 2 2 2 2 2 2 2 2 2 2 2 2 2 2 2 2 7 2 2 2 2 2 2 2 2 2 2 2 2 2 2 2 2 2 2 2 2 2 2 2 2 3 2 2 2 2 2 2 3 2 2 & # # # # 2 2 2 2 2 2 2 t F t 2 2 2 3 2 2 3 2 2 2 2 3 3 2 2 2 2 3 2 2 2 7 3 2 2 2 2 2 2 2 2 2 2 2 7 2 2 2 2 2 2 2 2 t F t 2 2 2 2 e G t 2 2 2 2 2 2 2 2 2 2 2 2 2 2 2 2 2 2 2 2 4 2 2 2 2 2 3 3 3 3 2 3 3 3 2 2 2 2 2 2 2 2 2 t F t 2 2 2 2 2 7 2 ",
"2 2 2 2 2 2 2 2 2 2 2 2 2 7 2 2 2 2 2 t F t 2 2 2 2 7 ^ '.'.J % G 9.r.P.H 0 7.K.9 2 7 G 9.w.D R.^ 2 2 D '.^ 0 7.P.9 7 9 7 2 2 2 2 t G t 2 2 2 2 2 2 2 2 2 2 2 2 2 2 2 2 2 2 2 2 2 2 2 2 2 2 2 % [ 2X$X+.o.o.o.o.+.}.$.o.$.}.+.o.+.{.}.|.$.o.+.B. X}.o.o.$.{.|.}.+.o.{.|.o.o.}.B.o.o.o.o.o.}.3X{.2 2 2 2 2 2 2 2 2 2 2 2 2 2 2 2 9 2 2 2 2 2 2 2 2 2 2 3 2 2 2 2 2 2 2 2 2 2 2 2 2 2 7 2 2 2 2 2 2 2 2 2 2 2 2 2 2 2 2 2 3 2 2 2 2 2 2 3 2 2 2 2 2 2 2 2 2 2 2 2 2 2 2 3 2 2 2 2 2 2 2 2 9 2 2 2 2 * # # # # # # $ # # * # * # # # * # # # $ # # # # * # $ # 7 0 9 2 * $ $ 7 $ * 7 9 7 # # $ # $ 1 H K.0 5.6.D $ 7 R.6.0 2 7 2 R.5.2 * 0 ~.t F 9.<.$ $ t.7.q F I.K 7 >.t.^ * & # # # * # # # # * * # * # # # * # # * # * # # # # # % 2 2 3 2 2 2 2 2 2 2 2 2 2 2 2 2 3 2 3 2 2 2 2 2 2 2 2 2 2 2 2 2 2 2 2 2 2 2 2 2 2 2 2 2 2 2 2 2 2 2 2 2 2 2 2 2 2 2 2 2 3 2 3 2 2 2 2 2 2 2 2 2 2 2 2 2 2 2 2 2 2 2 2 2 2 2 2 2 2 2 2 2 2 2 2 2 3 2 2 2 2 2 2 2 2 2 2 2 2 2 2 3 2 2 3 2 2 2 .X2X$X X X X X#X}.#X4X1XI 2 2 2 3 2 9 p./.t Q.a.t 4 2.sX8.t 0 0 2.fX,.9 3 a.pXe e.Q.2.% G eX0.t a.eX,.t W.Q.,.2 2 2 2 2 2 2 7 2 2 2 2 3 7 2 2 2 3 2 2 2 2 2 2 2 3 4 2 2 2 2 2 2 2 2 2 2 2 2 2 3 2 2 2 2 2 7 2 2 2 2 2 2 2 2 2 2 2 2 2 2 2 2 2 2 2 2 3 3 4 2 2 2 2 2 2 2 2 2 2 2 2 7 2 2 7 2 2 2 2 2 3 3 4 2 2 2 2 2 2 2 2 2 3 2 2 2 2 2 2 2 2 2 3 2 2 2 3 3 # # # # # & $ # * * # # $ # 7 0 9 $ * * 2 $ 2 * 9 9 8 # * # $ # * S I.e / 7.D # 7 u.9.0 2 7 2 K.7.2 1 9 !.H F 7.5.* $ 7.9.0 t Y.>.7 J r./ * # # * * # * # # * # # # # X # 3 2 2 2 3 2 2 2 2 2 2 2 2 2 2 2 2 2 2 2 2 2 2 2 2 2 2 2 2 2 2 2 2 2 2 2 2 9 2 2 2 2 2 2 2 2 2 2 2 2 2 2 2 7 2 2 2 2 7 2 2 2 2 2 2 3 2 2 2 2 2 2 2 2 2 2 2 7 2 2 2 2 2 2 2 2 2 2 2 2 2 2 3 2 2 2 2 2 2 3 3 2 2 2 2 2 2 2 2 2 2 2 2 2 2 2 2 2 2 2 2 2 2 2 2 2 2 2 2 2 2 2 2 2 2 2 2 2 2 2 9 2 2 2 2 2 2 2 2 2 2 2 2 2 2 2 2 2 2 2 2 2 2 2 2 2 2 2 2 2 2 2 2 2 2 2 2 2 2 2 2 2 2 2 2 2 2 2 2 2 2 2 2 2 2 2 2 2 2 2 2 2 2 2 2 3 7 2 2 2 2 2 2 2 2 2 2 2 2 2 2 2 2 2 2 2 2 2 2 3 2 7 2 2 2 2 2 2 2 2 2 2 2 2 2 3 3 # X X # # 2 2 2 2 2 2 2 t G t 2 2 2 2 2 2 2 2 2 2 2 7 2 2 2 3 8 9 9 9 8 7 7 0 9 9 9 9 9 9 9 9 9 7 2 2 2 2 2 2 2 2 4 t J t 2 2 4 1 e G F 3 2 2 2 4 9 9 9 9 9 7 2 9 9 9 7 2 7 9 9 9 9 9 2 2 9 3 2 3 3 8 8 3 9 9 9 0 9 7 2 2 2 2 e F t 2 2 2 2 2 2 2 ",
"2 2 2 2 2 2 2 2 2 2 2 2 2 2 2 2 2 2 2 t G t 2 7 2 2 7 3.Y.r.<.0 ^ K.2.K.D H 7.9.7 7 2 t 4.K.D R.^ * 2 e P.<.e w.].R.R.4.D 1 7 2 2 D G e 2 2 2 2 9 2 2 2 2 2 2 2 2 2 2 2 2 2 2 2 2 2 2 2 2 2 2 2 [ 3X$X@.o.o.o.o.+. X$.o.N.}.+.o.$.{.{.{.{.+.o.B. X|.$.+.N.{.N.|.o.+.{.|.o.+. XB.o.o.o.o.O.}.3XB.2 2 2 2 2 2 2 2 2 2 2 2 2 2 2 2 2 2 2 2 2 2 2 2 2 2 2 2 2 2 2 2 2 2 3 3 2 2 2 2 2 2 2 2 2 2 2 2 2 2 2 2 2 2 2 2 2 2 2 2 2 2 2 2 2 2 2 2 3 2 2 2 2 2 2 2 2 2 2 2 2 2 2 9 2 2 2 2 2 9 2 2 2 2 2 2 2 1 # # # # # # # $ # $ * * # $ # $ # $ # $ # # * # * # $ # = 9 9 7 $ * 7 $ $ 2 9 9 7 # $ $ $ # 0 1.7.7 D 7.<.$ H K.H # $ # * Y.<.* # e ~.D 8 4.r.* 9 K.5.7 ^ P.9 # D 6.7.* # * # * # * # # $ # # * * # $ # * # # * # # # . # . # # 2 2 2 2 2 3 2 2 2 2 2 2 2 2 2 2 2 2 2 2 2 2 2 2 2 2 2 9 2 2 2 9 2 2 2 2 9 2 2 2 2 2 2 2 2 2 2 2 2 2 2 2 2 2 2 2 2 2 2 2 2 2 2 2 2 2 2 2 2 3 2 2 2 2 2 2 2 2 2 2 2 2 2 2 2 2 2 2 2 2 2 2 2 2 2 2 2 2 2 2 2 2 2 2 2 2 2 2 2 2 2 2 2 2 2 2 3 3 {.2X$X}. X X X X X#X1X1XI 1 3 2 2 4 2.W.y.9 8.Q.,.e y.eXt 2 2 2 3.fX3.2 2 y.sX0 3.wXa.2 3.sX>.F Q.Q.8 3 6./.q.2 2 2 7 2 2 2 2 2 2 2 2 3 3 2 2 2 3 2 2 2 2 2 2 3 3 2 2 2 2 2 2 2 2 2 2 2 2 2 2 2 2 2 2 2 2 2 2 2 2 2 2 2 2 2 2 9 2 2 2 2 2 2 2 2 2 2 2 2 2 2 2 2 2 2 2 2 2 2 2 2 2 2 2 2 2 2 2 2 2 2 2 2 2 2 2 2 2 2 2 2 2 2 2 2 2 2 3 2 2 2 2 2 2 2 2 2 2 2 # # X # # # & $ $ # * # * # $ 9 9 = * $ 2 * $ $ 7 0 7 # $ * # # 7 1.7.9 C 4.2.$ D K.>.# $ * # K.4.$ $ 0 !.H 7 5.u.2 7 u.5.7 K R.0 # 0 4.w.2 # # $ # # $ # * & # # # # # & 2 2 2 2 3 2 2 2 2 2 2 2 2 2 2 2 2 2 2 2 2 2 2 2 2 2 2 2 2 2 2 2 2 2 2 2 2 2 2 2 2 2 2 2 2 2 2 2 2 2 2 3 2 2 2 2 2 2 2 2 2 2 2 3 2 2 2 2 2 2 2 2 2 2 2 2 2 2 2 2 2 2 7 2 2 2 2 2 2 2 2 2 2 3 2 2 2 2 2 2 3 2 2 2 9 2 2 2 2 2 2 2 2 3 2 2 2 2 2 2 2 2 2 2 2 2 2 2 2 2 2 2 2 2 2 2 2 2 2 2 2 2 2 2 2 2 2 2 2 2 2 2 2 2 2 2 2 2 2 2 2 7 2 2 2 2 7 2 2 2 2 2 2 2 2 2 2 2 2 2 2 2 2 2 2 2 2 9 2 2 2 2 2 2 2 2 2 2 2 2 2 2 2 2 2 3 2 2 2 2 2 2 3 3 2 2 2 2 4 3 3 2 2 2 2 2 2 2 2 2 2 2 2 2 2 2 3 7 2 2 2 2 2 3 2 2 2 & # X # % 1 2 2 2 2 2 2 e G t 2 2 2 2 2 2 2 2 2 9 5.t.2 2 2 8 5.`.I.R.t.J <.`.R.R.t.0.P.R.`.Y.Y.4.1 2 2 2 2 2 2 2 9 t J e 2 2 2 2 e F t 2 2 2 2 7 G !.Y.R.r.J 9 1.!.R.3.2 e w.R.T.R.7.9 9 e./ 2 2 8 u.R <.K.Y.~.Y.Y.1.2 2 2 2 t J t 2 2 2 2 2 2 2 ",
"2 2 2 2 2 2 2 2 2 2 2 2 2 2 2 2 2 2 2 t G t 2 2 2 2 7 ^ R.5.7.J / K./ u.D H 9.7.7 2 2 0 4.K.F Y.^ 2 2 e K.1.e 7.Y.^ ^ D 9 2 7 2 2 t G t 2 2 2 2 2 2 2 2 2 2 2 2 2 2 2 2 2 2 2 2 2 2 2 2 2 2 2 2 [ 3X4X@.o.o.o.o.+. X}.}.|.N.o.o.|.|.+.$. X+.o.B.}.$.{.+.{.{.$.|.+.o.|.#X|.|.{.+.o.o.o.o.o.}.3X{.2 2 2 2 2 2 2 2 9 2 2 2 2 2 2 2 2 2 2 2 2 2 2 2 2 2 2 2 3 2 2 2 2 2 3 4 2 2 2 2 2 2 2 2 2 2 2 2 2 2 2 2 2 2 2 2 2 2 2 2 2 2 9 2 2 2 2 2 2 2 2 2 2 2 2 2 2 2 3 2 2 2 2 2 2 2 2 2 2 4 2 2 7 2 2 2 2 1 # # # # # # * # * # # # # * * # * # * # * * # $ * # # $ 7 9 7 2 2 * $ 2 2 $ 9 9 7 # $ # # # H P.'.r.P.!.9.7 ^ r.H # $ # 2 I.<.* # e !.D # 2.u.q J e.J 7 5.~.u.t.K.Y.r.* # $ # * $ # * # * * $ # # $ * # * # $ # $ & # # # # X # 2 2 2 2 2 2 2 2 2 2 2 2 2 7 2 2 2 2 2 2 2 2 2 2 2 2 2 2 2 2 2 2 2 2 2 2 2 2 2 2 2 2 2 7 2 2 7 2 2 2 2 2 7 2 2 2 2 7 2 2 2 2 2 2 2 2 2 2 7 2 2 2 2 2 2 2 2 2 2 2 2 2 2 2 2 2 2 2 2 2 2 2 2 2 2 3 2 2 2 2 2 2 2 2 2 2 2 2 2 2 2 3 3 2 2 3 3 8 |.2X4X}. X X X X}.#X1X4XI 2 2 2 2 2 a.uXuXwXtXfX8.F i.(.e 2 2 1 ,.sX3.2 1 y.sX9 9 (.p.J q.wXD 3.6XfX6X6XeXsXy.1 2 2 2 2 2 2 2 2 2 2 2 2 2 2 2 2 2 2 2 2 2 2 2 2 3 2 2 2 2 2 2 2 2 2 2 3 2 2 2 2 2 7 2 2 7 2 2 2 2 2 2 2 2 2 2 2 2 2 2 2 3 2 3 2 2 2 2 3 2 2 2 2 2 2 9 2 2 2 2 2 2 2 2 2 3 2 2 2 2 2 2 3 2 2 2 2 2 2 2 2 2 2 2 2 3 2 2 2 2 2 2 2 2 2 2 2 2 2 # X X # # $ & # # * # $ $ # 7 9 9 7 7 2 $ * * 7 7 0 8 $ & # # # D K.!.u.K.!.r.7 K r.H # $ # * K.4.* $ 9 !.K # K K.0 H t.^ 2 2.^.P.t.P.Y.r.2 # $ # * * # $ # & # # # # # & 7 2 2 2 2 2 2 2 2 7 2 2 2 2 2 2 2 2 2 2 2 2 2 2 2 2 2 2 2 2 2 2 2 2 2 2 2 2 2 2 2 2 2 2 2 2 2 2 2 2 2 2 2 2 2 2 2 2 2 2 2 2 2 2 2 3 2 2 2 2 3 2 3 2 2 2 2 2 2 2 2 2 2 2 2 2 2 2 2 2 2 2 2 2 2 2 2 2 2 2 2 2 2 2 7 2 2 2 2 2 2 2 2 2 2 2 2 2 2 2 2 2 2 2 2 2 9 2 2 2 2 2 2 2 2 9 2 2 2 2 2 2 2 2 2 2 2 2 2 2 2 2 2 2 2 2 2 2 2 2 2 2 2 2 2 2 2 2 2 3 2 7 2 2 2 2 2 9 2 2 2 2 2 2 2 2 2 2 2 2 2 2 2 2 9 2 2 2 2 2 2 2 2 9 2 2 2 2 2 2 2 2 2 2 2 2 2 2 2 2 3 2 2 9 2 2 2 2 2 2 2 2 2 2 2 2 2 3 2 2 2 2 2 2 2 2 2 & X # X # 2 2 2 2 2 3 2 t G t 2 2 2 2 2 2 3 2 2 7 8.P.7 2 2 8 4.'.>.^ H t 2.!.>.K G G R 5.`.7.3.D 2 2 2 2 2 2 2 2 2 t G e 4 2 2 2 0 G t 2 2 2 2 9 J !.5.>.t.t.0 F '.t.e D t.0./ >.>.R 7 e P.2.2 2 8 Y./ D J 5.`.5.^ t 2 2 2 2 t F t 2 2 2 2 2 2 2 ",
"2 2 2 2 2 2 2 2 2 2 2 2 2 7 2 2 2 2 2 t G t 2 2 2 7 7 >.R.F r.7.<.9.^ r.D D 9.t.7 2 2 D 6.r.F R.^ 2 2 e Y./ 0 5.K.2 2 2 2 2 2 2 2 t G t 2 2 2 2 2 2 2 2 2 2 2 2 2 2 7 2 2 2 2 2 2 2 2 2 2 2 2 4 [ 1X$X+.o.o.o.o.+. X|.}.}.$.o.o.}. X|.|.4X$.o.{.|.+.}.$.N.N.B.|.+.o.|. XN.B.+.o.o.o.o.o.o.}.3XB.2 2 2 2 2 2 2 2 2 2 2 2 2 2 2 2 2 2 2 2 2 2 2 2 2 2 2 2 2 2 2 2 2 2 2 2 2 2 2 2 2 2 7 2 2 2 2 2 2 2 2 2 2 2 2 2 2 2 2 2 2 2 2 2 2 2 2 2 2 2 2 2 2 2 2 2 2 2 2 2 3 2 2 2 2 2 2 2 2 2 2 2 2 2 2 2 2 1 # # # # # # # # # * # * # * * # * # # $ # # * # # $ $ # 7 9 9 $ 2 $ * * 2 $ 9 9 8 $ # * # # >.Y.8.7.7.P.w.S ^ u.D # # # * R./ * $ 0 !.D . H t.^ 7.4.0 7 5.T.7.5.5.2.H * # * $ # # * # $ $ # # * * # # $ # $ # * $ & # # # # # # 2 2 2 2 2 2 2 2 2 2 2 2 2 2 2 2 2 7 2 2 2 3 2 2 2 2 2 2 2 2 2 2 2 2 2 2 2 2 2 2 2 7 2 2 2 2 2 2 2 2 2 2 2 2 2 2 2 2 3 2 2 2 2 2 2 2 3 2 2 2 2 2 2 2 2 2 2 2 2 2 2 2 2 2 2 2 2 2 2 2 2 2 2 2 2 2 2 2 4 3 2 2 2 2 2 2 2 2 2 2 2 3 2 2 2 2 2 3 |.2X$X}. X X X X}.#X4X1XI 2 3 3 2 7 Q.eXW.W.W.sXa.3.i.6Xe 1 2 % ,.dX3.2 2 a.pX0 2 p.U.q.E.a.e 3.(.uXp.p.p.y.3.2 2 2 2 2 2 2 2 2 2 2 2 2 2 2 2 2 2 2 2 2 2 2 2 2 2 2 2 2 9 2 2 2 2 2 2 3 2 2 2 2 2 2 2 2 2 2 2 2 2 2 2 2 2 2 2 2 2 3 3 2 2 2 2 2 2 2 2 2 2 2 2 2 2 2 2 2 2 2 2 2 3 2 2 2 2 2 2 2 2 2 2 2 2 2 2 2 2 2 2 2 2 4 3 2 2 2 2 2 2 2 2 2 2 2 2 2 2 2 # # # # # # & & # # # # * # 2 9 7 2 $ * $ 2 * $ 9 9 7 # # $ $ $ J Y.9.7.4.u.r.D ^ r.J # # $ & K.7.* # 9 !.J   D t.^ 7.7.e 2 <.T.7.1.4.1.J * # # * # $ # # * $ # X # X # & 2 2 2 2 2 2 2 2 9 2 2 2 2 2 2 2 2 3 2 2 2 2 2 2 2 2 9 2 2 2 2 2 2 2 2 2 2 2 2 2 2 2 2 2 2 2 2 2 7 2 2 2 2 2 2 2 2 2 2 7 2 2 2 2 2 2 2 2 2 2 2 2 2 2 3 2 2 2 2 2 2 2 2 2 2 2 2 2 7 2 2 2 2 2 2 2 2 2 2 2 2 2 2 2 2 2 7 2 2 2 2 2 2 2 2 2 2 2 2 2 2 2 7 2 9 2 2 2 2 2 2 2 2 2 2 2 2 2 2 2 2 2 2 2 2 2 2 9 2 2 2 2 2 2 2 2 9 2 2 2 2 2 2 2 2 2 2 2 2 2 2 2 2 2 2 2 2 2 2 2 2 2 2 2 2 2 2 2 2 2 2 2 2 2 2 2 2 2 2 2 2 2 2 2 2 2 2 2 2 2 2 2 2 2 2 2 2 2 2 2 2 2 2 2 2 2 2 2 2 2 2 2 2 2 2 2 2 2 2 2 2 2 2 2 2 2 2 % # # X % 2 2 2 2 2 3 3 t G t 2 2 2 2 2 2 2 2 2 9 6.P.7 2 2 8 5.K.2 * 1 7 2.K.7 % 2 7 1 t Y.G 2 2 2 2 2 2 2 2 2 2 2 t G e 2 2 2 2 t G t 2 2 2 2 9 J '.D % 5.P.t 7 Y.<.7 / '.K 7 % 7 7 7 e P.<.* 1 q L./ 2 & D Y.F 2 2 2 2 2 2 e G t 2 2 2 2 2 2 2 ",
"2 2 2 2 2 2 2 2 2 2 9 2 2 2 2 2 2 2 2 t G t 2 2 2 7 7 ^ K.0 r.R.7.K ^ K.H 7 7.R.e 2 % >.t.5.D R.^ & 3 ^ '.J 7 7.u.2 1 2 2 2 2 2 4 t G t 2 2 2 2 2 2 2 2 2 2 2 2 2 2 2 2 2 2 9 2 2 2 2 9 2 2 2 % [ 1X4X+.o.o.o.+.+. X$.+.{.{.o.$.}. X}.}. X{.+.{.|.+.}.}.B.$.B.|.+.o.{.{.o.o.o.o.o.o.o.o.o.}.3XZ.2 2 2 2 2 2 2 7 2 2 2 2 2 2 2 2 2 2 2 2 2 9 2 2 3 2 2 2 2 2 2 3 2 2 2 2 2 2 2 2 2 2 2 2 2 2 7 2 2 2 2 2 2 2 2 2 2 2 2 2 2 2 2 2 3 2 2 2 2 2 2 2 2 2 2 2 2 2 2 2 2 2 2 2 2 2 2 2 2 2 2 2 2 2 2 2 2 $ #   # # # $ # * # * # $ # # # $ # # * # * $ # # * # # $ 7 9 9 7 7 7 7 7 7 7 9 9 7 $ $ # # q 4.t.7 1 1 J 9.<.F L.^ $ # $ 2 I.5.$ $ 0 ~.D # 0 2.t.I./ 2 2 ^ K.9 # # # $ * # # # * # # # * # * # # # # * # * # # * # $ # #   # # # 2 2 2 2 2 3 7 2 2 2 2 2 2 2 2 2 2 2 2 2 2 2 2 2 2 2 2 2 2 2 2 2 2 2 2 7 2 2 2 2 2 2 2 2 2 2 2 2 2 2 2 2 2 2 2 2 2 2 2 2 2 2 2 2 3 2 2 2 2 2 7 2 2 2 2 7 2 2 2 2 2 2 9 2 2 7 2 2 2 2 7 2 2 2 2 2 2 2 3 3 2 2 2 2 2 2 2 2 2 2 2 2 2 2 2 2 2 3 .X2X4X#X#X#X#X#X#X#X4X1X! % 2 3 3 R (.a.9 4 0 a.E.8.q.tXJ 2 2 2 3.dX,.2 1 y.sX9 2 2.U.wXwX3.4 D W./.4 * 1 2 3 2 2 2 2 2 2 2 2 7 2 2 2 2 2 2 2 3 2 2 2 2 3 2 2 2 2 2 2 3 2 2 2 2 2 2 4 3 3 2 2 2 2 2 2 2 2 2 2 2 2 2 2 2 2 2 2 2 2 4 3 2 2 2 2 2 2 2 2 2 2 2 2 2 2 2 2 2 2 2 2 2 2 2 2 2 2 2 2 3 2 2 2 2 2 2 2 2 2 2 2 2 2 2 3 3 2 2 2 2 2 2 3 2 2 2 2 3 2 2 # # # X # # # & * # * * # # 7 9 9 7 7 7 7 7 7 7 9 0 8 # * $ # 7 5.r.7 $ % G 9.5.F P.1.$ # $ * u.6.* # 9 !.H # 9 5.w.I./ 7 = J R.D # # # $ $ $ $ # $ & * # # # # # # X # & 3 2 2 2 2 2 2 2 2 2 2 2 2 2 2 2 7 2 2 2 2 2 2 7 2 2 2 2 2 2 2 2 2 2 2 2 2 2 2 2 2 2 7 2 2 2 2 2 2 2 2 2 2 2 2 7 2 2 2 2 2 2 2 2 2 2 2 2 3 2 2 2 2 2 2 2 2 2 2 2 2 2 2 2 2 2 2 2 2 3 2 2 2 2 2 2 2 3 2 2 2 2 2 2 2 2 2 2 2 2 2 7 2 2 2 2 2 2 7 2 2 2 2 2 2 2 2 2 2 2 2 2 2 2 2 2 2 2 2 2 2 2 2 2 2 2 2 2 2 2 2 2 2 2 2 2 2 2 2 2 2 2 2 2 2 2 2 2 2 2 2 2 2 2 2 2 2 2 2 2 2 2 2 2 2 2 2 2 2 2 2 2 2 2 2 2 2 2 2 2 2 2 2 2 2 2 2 2 3 2 2 2 2 2 2 2 2 3 2 2 2 2 2 2 7 2 2 2 2 2 2 2 3 2 3 2 2 2 2 2 2 3 2 2 2 2 2 % X # # % 2 2 2 2 2 3 4 t G t 2 2 2 2 2 2 2 2 2 7 6.K.2 2 2 7 4.'.>.^ F 0 1.R.8 2 2 2 $ D T.G 2 2 2 2 2 2 2 2 2 2 2 t F e 2 2 2 2 t G F 2 2 2 2 2 G Y.D % 5.K.D 9 R.1.t 4.r.9 2 2 2 2 7 0 R.r.^ ^ / !.,.2 2 D '.F 2 2 2 2 2 2 e J t 2 2 2 2 2 2 2 ",
"2 9 2 2 2 2 2 2 2 2 2 9 2 2 2 2 2 2 2 t F t 2 2 2 2 9 3.P.0 6.!.t.0 K K.F % >.R.<.D D 0.r.D D T.2.e ^ r.w.e 7 9.R.D D 0 9 2 2 2 2 t G e 2 2 2 2 2 2 2 2 2 2 2 2 2 2 2 2 2 2 2 2 2 2 2 2 2 2 2 2 [ 3X$X+.o.o.o.o.+. X$.o.$. X+.{.{.$.o.o.{.{.$.{.|.+.{.#XN.+.B.|.+.o.|.|.o.o.o.o.o.o.o.o.o.}.3XB.2 2 2 2 2 2 2 2 2 2 2 2 2 2 2 2 2 2 2 2 2 2 4 3 2 2 2 2 2 3 2 2 2 2 7 2 2 2 2 2 2 2 2 2 2 2 2 2 2 2 2 3 2 2 2 2 2 2 2 2 2 2 2 2 2 2 3 2 2 2 2 2 2 2 2 2 2 2 2 2 2 2 2 2 2 2 2 2 2 2 3 2 2 2 2 2 7 1 # # # # # # & $ # * # # * # * # # $ # * $ # * * # # # # > 9 9 9 9 9 9 9 q 9 9 9 7 # $ # # H 9.<.* # # 0 5.r.9 K.7.D e D * r.7.H 9 0 `.D # * J Y.!.D # # D K.1.D 0 0 9 $ # * # $ * # # $ # * * # $ # # * * # # $ # * # # # # X 1 2 2 2 2 3 2 2 2 2 2 2 2 2 2 2 2 2 2 2 2 2 2 2 2 2 2 2 2 2 2 2 2 2 2 2 2 2 2 2 2 2 7 2 2 2 2 7 2 2 2 2 2 2 2 2 2 2 2 2 3 2 2 2 2 2 2 2 2 2 2 2 2 2 2 2 2 2 2 2 2 2 2 2 9 2 2 2 2 2 2 2 2 2 2 2 2 7 2 2 2 2 2 2 2 2 2 2 2 9 2 2 2 3 2 2 2 2 3 |.2X1X1X1X1X1X1X1X1X1X1XI 2 2 2 8 a.Q.2.2 2 3 >.(.a.2.tXy.3.3.t R tXy.3.9 y.sX9 2 t p.dXeXe 2 2 q.wX8.3.R 3.t 2 9 2 2 2 2 2 2 2 2 2 2 9 2 2 2 2 2 2 2 2 2 2 2 2 2 2 2 2 2 2 2 2 2 2 2 2 2 2 2 2 2 2 3 2 2 2 2 3 2 2 2 2 2 2 2 2 3 7 2 2 2 2 2 2 3 2 2 2 2 2 2 2 2 2 2 2 2 2 2 7 2 2 2 2 2 2 2 2 2 2 2 2 2 2 2 2 2 2 2 2 2 2 2 2 2 2 2 3 2 2 2 3 2 2 2 2 2 2 # # # # # # # * # * # * # # = 9 9 9 9 9 9 9 9 9 9 0 7 # $ $ # H 9.1.1 $ $ 9 2.r.0 t.w.H 0 D * w.w.H 7 9 !.J # * H I.!.H # # 0 K.5.D 9 D q $ # * # * # $ # * # # # # # # * 2 2 2 2 2 2 2 2 2 2 2 2 2 2 2 2 2 2 3 2 2 2 2 2 3 3 2 2 2 2 2 2 3 2 2 3 2 2 2 2 2 2 2 2 2 2 2 3 2 2 2 2 2 2 2 2 2 2 2 2 2 2 2 2 2 2 2 3 3 2 2 2 2 2 2 2 9 2 7 2 2 2 2 2 2 2 2 2 2 2 2 2 2 2 2 2 2 2 2 2 2 2 9 2 2 2 2 2 2 2 2 2 2 2 2 2 3 7 2 2 2 2 2 2 2 2 2 2 2 2 2 3 2 2 2 2 2 2 2 2 2 2 2 2 2 2 2 2 2 2 2 2 2 2 2 2 2 2 2 2 2 2 2 2 2 2 2 2 2 2 2 2 2 2 2 2 2 2 9 2 2 2 2 2 2 2 2 2 2 2 2 2 2 2 2 2 2 2 2 2 2 2 2 2 2 2 2 2 2 2 2 2 7 2 2 2 2 2 2 2 2 2 2 2 2 2 2 2 7 2 2 2 3 2 2 2 2 2 2 2 2 2 2 2 2 2 2 # X X # # 2 2 2 2 2 3 2 t F t 2 2 2 2 2 2 2 2 2 9 4.K.7 2 2 8 8.].R.R.7.F 5.Y.F D 0 7 * D Y.J 3 2 2 2 2 3 2 2 2 3 3 t G t 2 2 2 2 0 G t 3 2 2 3 7 J '.^ F w.t.7 7 T.5.H 7.9.9 7 t D e 8 0 '.`.R.R.Y.].<.3 2 D '.F 7 2 2 2 2 2 e G t 2 2 2 2 2 2 2 ",
"2 2 2 2 2 2 2 2 2 2 2 2 2 2 2 2 2 2 2 t G t 2 2 2 2 9 R K.0 G r.8.8 K r.F 2 9 >.Y.'.'.t.J 7 D !.~.Y.'.9.t 3 7 9.].R.R.t.F 2 2 2 4 t G t 2 2 2 2 2 2 2 2 2 2 9 2 2 2 2 2 2 2 2 2 2 2 2 2 2 2 2 4 U 3X$X+.o.o.o.o.+.}.$.o.+.|.{. XN.o.o.o.+.}.$.$.{.o.$.}.$.o.B.|.o.o.{.{.o.o.o.o.o.o.o.o.o.}.3XB.2 2 2 2 2 2 2 2 2 2 2 7 2 2 2 2 2 2 2 2 2 2 3 3 2 2 2 2 2 2 2 2 2 2 3 2 2 2 2 2 2 3 2 2 2 2 2 2 2 2 2 2 2 2 2 2 2 2 2 2 2 2 2 2 2 2 2 2 2 2 2 2 2 2 2 2 2 2 2 2 3 7 2 2 2 2 3 2 3 2 2 2 3 2 2 3 2 1 # # . # # # # & $ # $ & * # # # * # $ # # * # $ * # * # 2 9 9 9 9 9 9 9 9 9 9 q 7 $ $ * # 5.w.D * $ # * ^ P.9 H t.Y.Y.w.7 K u.Y.5.0 Y.D # # D R.t.0 # # = H r.Y.T.t.H * $ # * # # $ * # $ # # $ # * $ # # # * # $ # # # # # # # 2 2 2 2 2 2 2 2 2 2 2 3 2 2 2 2 2 2 2 2 2 2 2 2 2 2 2 2 2 2 2 2 2 2 2 2 2 2 2 2 2 2 2 2 2 2 2 2 2 2 7 2 2 2 2 3 2 2 2 2 2 3 2 2 2 3 2 2 2 2 2 2 2 2 2 2 2 2 2 2 2 2 2 2 2 2 2 2 2 2 2 2 2 2 2 2 9 2 2 2 2 2 2 2 2 2 2 2 2 2 3 2 2 2 2 2 2 2 B.4X$X$X$X$X$X$X$X$X$X$XI 2 2 2 9 (.a.D 2 2 2 9 (.W.t 8.eXsXuXa.e a.tXtX6.0.tX9 2 2 a.sXU.7 2 2 t q.tXsXpXp.J 2 2 2 2 2 2 2 2 2 2 2 2 2 2 2 2 2 2 2 2 2 2 2 2 2 2 2 2 2 2 2 2 2 2 2 3 2 2 2 2 2 3 2 2 2 3 2 2 2 2 2 2 2 2 2 2 2 2 2 2 2 2 2 2 2 2 2 2 2 2 2 2 2 2 2 2 2 2 2 2 2 2 9 2 2 2 2 2 2 2 2 2 2 2 2 2 2 2 2 2 2 2 3 2 2 3 2 2 2 3 2 2 2 2 2 2 2 2 2 # # # # # # # $ # # $ # * # * 9 9 9 9 9 9 9 9 9 9 9 > * # $ # / t.S % $ $ # J R.q D 9.Y.Y.r.7 H r.Y.7.0 Y.H # # 0 R.r.D # # * F t.Y.'.r.H * # # $ # * # $ # $ # # # #   & 2 2 2 2 2 2 2 2 2 2 2 9 2 2 2 2 2 2 2 2 2 2 2 2 2 2 2 2 2 2 2 2 2 3 2 2 2 2 2 2 2 2 2 2 9 2 2 2 2 2 2 2 2 2 2 2 7 2 2 2 2 2 2 2 2 2 2 4 2 2 2 2 2 2 2 2 2 2 2 2 2 2 7 2 2 2 2 2 2 2 2 2 2 2 9 2 2 2 2 2 2 2 2 2 2 2 2 2 2 2 2 2 2 2 2 2 2 2 2 2 2 2 2 3 2 2 2 2 2 2 2 2 2 2 2 2 2 2 2 2 2 2 2 2 2 2 2 2 2 2 2 2 2 2 2 2 2 2 7 2 2 2 2 2 2 2 2 2 2 2 2 2 2 2 2 2 2 2 2 2 2 2 2 2 2 2 2 2 2 2 2 2 2 2 2 2 2 2 2 2 2 2 2 2 2 2 2 2 2 2 2 2 2 2 2 2 2 2 3 3 2 2 2 3 2 2 2 2 2 7 2 2 2 2 2 2 2 2 2 2 2 2 2 2 2 2 2 1 % 1 X X 2 3 2 2 2 2 2 t F t 3 2 2 2 2 3 2 2 2 8 7.u.7 2 2 8 4.R.0 9 7 8 5.8XY.'.7.D 2 D '.G 2 2 2 3 2 2 2 2 2 2 3 t G t 4 2 2 2 t G D 3 2 2 7 7 K ].'.[.K.F 2 7 Y.<.D 7.t.9 e 9.~.R.D 0 K.4.8 7 e Y.<.2 2 D '.H 2 2 2 2 2 2 t G t 2 2 2 3 2 2 2 ",
"2 2 2 2 2 2 2 2 2 2 2 2 2 2 2 2 2 2 2 t G t 2 2 2 2 2 9 e 7 7 e 0 7 9 0 7 7 2 9 D D D t 7 7 9 t D t S 0 7 3 7 0 F D D D 9 2 2 2 2 D G e 2 2 2 2 2 2 2 2 2 2 2 2 2 2 2 2 2 2 2 2 2 2 2 2 2 2 2 % [ 2X4X+.o.o.o.o.o.+.o.o.o.+.+.+.o.o.o.o.o.+.+.+.+.o.o.+.+.o.o.+.o.o.+.+.o.o.o.o.o.o.o.o.O.#X3XB.2 2 2 2 2 2 2 2 2 2 2 2 2 2 9 2 2 2 2 2 2 2 2 2 2 2 3 2 3 2 2 2 2 2 3 2 2 2 3 2 2 3 2 2 2 2 2 2 2 2 2 2 2 2 2 3 2 2 2 2 2 2 2 2 2 2 2 2 2 2 2 3 2 2 2 2 2 2 2 2 2 2 2 2 2 2 3 2 2 2 2 2 2 2 2 2 2 & # # # # # & * # * * * # # # # * # # # # * # # * # $ # # * * * * * * * $ * * * * * # # * # = 7 $ $ # $ # 7 0 * * 9 q 0 9 * * 9 0 9 * 0 = $ # * 0 q * $ $ * * 9 0 0 0 = $ * # # * # # $ # # * * # # $ * # * * $ # # * # # # # # # 2 2 3 2 2 3 2 3 2 2 2 2 2 2 7 2 2 2 2 7 2 2 2 2 7 2 2 2 2 2 2 2 2 2 2 2 2 2 2 2 2 2 2 2 2 2 2 2 2 2 9 2 2 2 3 3 2 2 2 2 2 2 2 3 3 3 2 2 2 2 2 2 2 2 2 2 2 2 2 2 2 2 2 2 2 2 2 2 2 2 2 2 2 2 2 2 2 2 2 2 2 2 2 2 2 2 2 2 2 2 2 2 2 2 2 2 2 3 C T B Z S N Z A A B B S 8 2 2 2 2 D t 7 2 2 2 2 t t 3 0 G J J t 2 e G G 0 e F 2 2 2 e G t 3 2 2 9 0 J J J t 9 2 2 2 2 2 2 2 2 2 2 2 2 2 2 2 2 2 2 2 2 2 2 9 2 2 2 2 2 2 2 2 2 2 2 2 2 2 3 2 2 2 2 2 2 2 2 2 2 2 2 2 7 2 2 2 2 2 2 2 2 2 2 2 2 3 2 2 2 2 2 2 2 2 7 2 2 2 2 2 2 2 2 2 2 2 2 2 2 2 2 2 2 2 2 9 2 2 2 3 3 2 2 2 2 2 2 2 2 2 2 2 2 2 2 2 2 2 2 2 # . # # # # * # * # # * # $ $ * * * * * $ * * * * $ * # * # # 2 9 * # * # * = 0 * * 9 0 0 9 * 2 q 0 9 * 0 = # # * q 9 * * # $ 1 q 0 0 9 = $ * # * # $ # # * # # # # # # # 2 2 2 2 2 2 2 2 2 2 2 2 2 2 2 2 2 2 2 2 2 2 2 2 2 2 2 2 2 2 2 2 2 2 2 2 2 2 2 2 2 2 2 2 2 2 2 2 3 2 2 2 7 2 2 2 2 2 7 2 2 2 2 2 2 2 2 2 2 2 2 2 2 2 2 2 2 2 9 2 2 2 2 2 2 2 2 2 2 2 2 2 2 2 2 2 2 2 2 2 2 2 2 2 2 2 2 2 2 2 2 2 2 2 2 2 2 3 2 3 2 2 2 2 2 3 2 2 2 2 2 2 2 2 2 2 2 2 2 2 2 2 2 2 2 2 2 2 9 2 2 2 2 2 2 2 2 2 2 2 2 2 2 2 2 2 2 2 2 2 2 2 2 2 2 2 2 2 2 2 2 2 2 2 2 2 2 9 2 2 2 2 2 2 2 2 2 4 2 2 2 2 2 2 2 7 2 2 2 2 2 2 2 2 3 2 2 2 2 2 7 2 2 2 2 2 2 2 2 2 2 2 2 2 2 2 2 2 2 2 2 2 2 2 2 2 2 % X # X # 2 2 2 3 2 2 2 t F t 3 3 2 2 3 3 2 2 2 9 5.K.7 7 2 8 5.R.3 2 2 7 2.Y.D D 0 3 2 D Y.G 9 2 2 2 2 2 2 2 2 2 3 t G e 2 2 2 2 0 G t 3 2 2 2 7 J !.^ 9.t.J 2 7 Y.1.t 5.K.0 7 0 7.K.D 0 K.2.1 2 0 Y.^ 3 2 D Y.H 2 2 2 2 2 4 t G t 2 2 2 2 2 2 2 ",
"2 2 2 2 2 2 2 2 2 2 2 2 2 2 2 2 2 2 2 t G t 2 2 2 2 2 2 2 2 2 2 2 2 2 2 2 7 2 2 2 $ 2 2 7 7 2 2 1 2 2 2 2 2 2 2 2 2 2 % 2 2 2 2 2 t G t 2 2 2 2 2 2 2 2 2 2 2 2 2 2 2 2 2 2 2 2 2 2 2 2 2 2 2 % [ 2X4X+.o.o.o.o.o.o.o.o.o.o.o.o.o.o.o.o.o.o.o.o.o.o.o.o.o.o.o.o.o.o.o.o.o.o.o.o.o.o.o.o.o.#X3XB.2 2 2 2 2 2 2 2 2 2 2 2 2 2 2 2 2 2 2 2 2 2 2 2 2 2 2 2 2 2 2 2 2 2 2 2 2 2 2 2 2 2 2 2 2 2 2 2 2 2 2 2 2 2 2 2 9 2 2 2 2 2 2 2 2 2 2 2 2 2 2 2 9 2 2 2 2 2 2 2 2 2 2 3 2 2 2 2 2 2 2 3 2 2 2 2 2 $ X # # # # # # $ # # # $ # * # * $ * * # # $ # # # * * $ # # $ $ # $ $ $ # # $ $ # * # # * # # # $ $ $ # # # # $ $ # # # # $ # # # $ # # $ $ # # # # $ # # # $ # # $ # $ # # $ # # * * * # # # # * # # # # $ # * # # # #   # X # 2 2 2 2 2 2 2 2 2 2 2 3 2 2 2 2 2 2 2 2 2 2 2 2 2 2 2 2 2 2 2 2 2 2 2 2 9 2 2 2 2 2 2 2 2 2 2 2 2 2 2 2 2 2 4 2 2 2 2 2 2 2 2 2 4 2 2 2 2 2 2 2 2 2 2 2 9 2 2 2 2 2 2 2 2 2 2 2 2 2 2 2 2 2 2 2 2 2 2 2 2 2 2 2 2 2 2 2 2 2 2 2 2 3 2 2 2 2 2 2 2 4 2 2 % 2 2 2 2 1 2 2 2 2 2 2 2 2 2 2 2 2 2 2 3 2 2 1 2 2 2 2 2 2 2 1 2 2 2 2 2 1 2 2 2 2 2 4 1 2 1 2 2 2 2 2 2 2 2 2 2 2 2 2 2 2 2 2 2 2 2 2 2 2 2 2 2 2 2 2 2 2 2 2 2 2 2 2 2 2 2 2 3 2 2 2 2 3 2 2 2 3 2 2 2 2 2 2 7 2 2 2 2 2 2 3 2 2 2 2 3 2 2 2 7 2 2 2 2 2 2 2 2 2 2 2 2 2 2 2 2 2 9 2 2 2 2 2 2 2 2 2 2 2 2 2 2 2 2 2 2 3 2 2 2 3 2 2 2 2 2 2 # #   # # * # $ # # $ # # * * # $ # $ $ $ $ # $ $ $ # $ # $ & # # # $ # $ # # # $ # # # # # # # # # $ $ # # # $ * # # # # $ # $ # # # $ # * # $ # $ & * # # # # #   #   & 2 2 2 2 2 2 2 2 2 2 2 2 2 2 2 2 2 2 2 2 3 7 2 2 2 2 2 2 3 3 2 2 2 2 2 2 3 2 2 2 2 2 2 2 2 2 2 2 2 2 2 2 2 2 2 2 2 2 2 2 2 2 2 2 2 2 2 2 2 2 2 2 2 2 2 2 2 2 2 2 2 2 2 2 2 2 2 7 2 2 2 2 2 2 2 2 2 2 2 2 2 2 2 2 2 2 2 2 2 2 2 2 2 3 2 2 2 2 2 2 2 2 2 2 2 2 2 3 2 2 2 2 2 2 2 2 2 9 2 2 2 2 2 2 2 2 2 2 2 2 2 2 2 2 2 2 2 2 2 2 2 2 2 7 2 2 2 2 7 2 2 2 2 2 2 2 2 2 2 2 2 2 2 2 2 2 2 2 2 2 2 2 2 2 2 2 2 3 2 2 2 2 2 2 3 2 2 2 2 2 2 2 2 2 2 2 2 2 2 2 2 2 2 2 2 2 2 2 2 3 2 2 2 7 2 2 2 2 2 2 2 2 2 9 2 2 2 % X # # X 2 2 2 2 2 2 2 t F t 2 2 2 2 2 7 2 2 2 9 4.u.2 2 $ 8 5.P.2 1 2 7 5.K.9 2 2 2 2 S Y.J 2 2 2 2 2 3 2 2 2 2 3 t F t 2 2 2 2 t G D 3 2 2 2 7 H Y.D D t.w.2 7 Y.<.2 <.'.J 2 $ 1.u.F D K.5.1 2 0 Y.^ 2 2 D '.F 2 2 2 2 2 2 t G t 3 2 2 2 2 2 3 ",
"2 2 2 2 2 2 2 2 2 2 2 2 2 2 2 2 2 2 2 e G t 2 2 2 2 2 2 2 2 2 2 2 2 2 2 2 2 3 2 2 2 2 2 2 2 2 2 7 2 2 3 2 2 2 2 2 2 2 2 2 2 2 2 2 D G e 4 2 2 2 2 2 2 2 2 2 2 2 2 2 2 2 2 2 2 2 2 2 2 2 2 2 2 2 [ 2X$X+.o.o.o.o.o.o.o.o.o.o.o.o.o.o.o.o.o.o.o.o.o.o.o.o.o.o.o.o.o.o.o.o.o.o.o.o.o.o.o.o.o.}.3XB.2 2 2 2 2 2 2 2 2 2 2 2 2 2 2 2 2 2 2 2 2 2 2 2 2 2 2 2 2 2 2 2 2 2 2 2 2 2 2 2 2 2 2 2 2 2 2 7 2 2 2 2 2 2 9 2 2 2 3 2 2 2 2 2 2 2 2 2 2 3 2 2 2 3 2 2 2 2 2 2 2 2 2 3 2 2 3 2 2 2 2 2 3 2 2 2 2 1 # # X # # & # * # * # $ # * * # # $ # # $ # * # # * # # # $ $ $ # * # * # * $ # $ # # $ # $ $ # # * # $ # * $ * # # * # # $ # $ # $ # $ # * * # # $ # * * # $ # * # # * # * # $ # $ # # # $ $ # * * $ # $ # * # # # # # #   # # 2 2 2 2 2 2 2 2 2 2 2 2 2 2 2 2 2 2 7 2 2 2 2 2 2 2 2 9 2 2 2 2 2 2 2 2 2 2 2 2 2 2 2 3 2 2 2 2 2 2 2 2 2 2 2 2 2 2 2 2 2 2 2 2 2 2 2 2 2 2 2 2 2 2 2 2 2 2 2 2 2 2 2 2 2 2 3 2 2 2 2 4 3 3 2 7 2 2 2 7 2 2 2 2 2 2 2 2 2 2 2 2 2 2 2 2 2 3 2 2 2 2 2 2 2 2 3 2 2 2 2 2 2 2 2 3 2 2 2 2 3 2 2 2 2 2 2 2 2 2 2 2 2 2 3 2 2 3 2 2 2 2 2 2 2 2 2 2 2 2 2 2 2 2 2 2 2 2 2 2 2 2 2 2 9 2 2 2 2 2 2 2 2 2 2 2 2 2 2 2 9 2 2 2 2 2 2 2 2 2 2 2 2 2 2 2 2 2 3 2 2 2 2 7 9 2 2 2 2 2 2 2 2 2 2 2 2 2 2 2 2 2 2 7 2 2 2 2 2 2 2 2 2 2 2 2 2 2 2 2 2 2 2 2 2 2 2 2 2 2 2 2 2 2 2 2 2 2 3 2 2 2 3 2 2 2 2 2 2 2 2 2 # # #   # # $ # * * # * # * # # # $ # * # * $ $ # * # * # # # * * $ & # # $ & # # $ $ $ # * # * # # $ $ # * # # * # $ * # # # * # # $ $ # $ * # $ # # * $ & # # # # . # $ 2 2 2 2 2 2 2 2 2 2 2 2 2 2 2 2 2 2 2 2 2 3 2 2 2 2 2 2 2 2 2 2 2 2 3 2 2 2 2 2 2 2 2 2 2 2 2 2 2 2 2 2 2 2 2 2 2 2 2 2 2 2 2 2 2 2 2 2 2 2 2 2 2 2 2 2 2 2 2 2 2 2 2 2 2 2 2 2 2 2 2 2 2 2 2 2 2 2 2 2 2 2 2 2 2 2 2 2 2 2 2 2 3 2 2 2 2 2 2 2 2 2 2 3 2 2 2 2 2 2 2 3 2 2 2 2 2 2 2 2 2 2 2 2 2 2 2 2 2 2 2 2 2 2 9 2 2 2 2 2 2 2 2 3 2 2 2 2 2 2 2 2 2 2 2 2 2 2 2 2 2 2 2 2 2 2 2 7 2 2 2 2 2 9 2 2 2 3 3 2 2 2 2 2 2 2 2 2 2 2 2 2 2 2 2 2 2 2 2 2 2 2 2 2 2 2 2 7 2 2 2 2 2 2 2 2 2 2 2 2 2 2 2 2 2 2 2 # # X X # 2 2 2 2 2 2 3 t G t 3 2 2 2 2 2 2 2 2 9 7.).8.7.1.D 4.`.4.5.1.D 2.Y.9 2 2 2 2 t T.J 2 2 2 2 2 2 2 2 2 2 3 t G e 2 2 2 2 e G D 3 2 2 2 7 J E.D 2 5.K.K K '.r.D D 9.t.7.5.r.P.t t P.2.2 3 9 Y./ 3 2 D !.G 7 2 2 2 2 2 e G t 4 2 2 2 2 9 2 ",
"2 2 2 2 2 2 2 2 2 2 2 2 2 2 9 2 2 2 2 t G t 2 2 2 2 2 2 2 2 2 2 2 2 2 2 2 2 2 2 7 2 2 2 2 2 2 2 2 2 2 2 2 2 2 2 2 2 2 2 2 2 2 2 2 t G t 2 9 2 2 2 2 2 2 2 2 2 2 2 2 2 9 2 2 2 2 2 2 2 2 2 2 2 2 [ 2X$X+.o.o.o.o.o.o.o.o.o.o.o.o.o.o.o.o.o.o.o.o.o.o.o.o.o.o.o.o.o.o.o.o.o.o.o.o.o.o.o.o.o.|.3XB.2 2 2 3 2 2 2 2 2 2 2 2 2 2 2 2 2 2 2 2 2 2 2 2 2 2 2 2 2 2 2 2 2 3 2 2 2 2 2 2 7 2 2 2 3 2 2 2 2 2 2 2 2 2 2 2 2 2 2 2 2 2 2 2 2 2 2 2 2 2 2 2 2 2 2 2 2 2 2 2 2 2 2 2 2 2 2 2 3 2 2 3 2 2 2 2 7 1 X # X # # $ # # $ # * # $ # # $ * # * * # * # $ $ # # * * # $ # $ # # * $ # # $ & & * # * # # * # # * # # # # # # * # # * # * # * # # $ # # # # * # $ # # $ # $ # & # # $ # * # * # # * # * # * # # * * # * * # * $ # # # # # # 2 2 2 2 2 2 2 2 2 2 2 2 3 2 2 2 2 2 2 2 2 2 2 2 2 2 2 2 2 2 2 2 2 2 2 2 2 2 2 2 7 2 2 2 2 2 2 2 2 2 2 2 2 2 2 2 2 2 2 2 2 2 2 2 2 2 2 2 2 2 2 2 2 2 2 2 2 2 2 2 2 2 2 2 2 2 2 2 2 2 2 2 2 3 2 2 2 2 2 2 2 2 2 2 2 2 2 2 2 2 3 2 2 3 3 2 2 2 2 2 2 2 2 2 3 2 2 2 2 2 2 2 2 2 2 2 2 2 3 2 2 2 2 2 3 2 2 2 2 2 3 2 2 2 2 2 2 2 2 2 2 2 2 3 2 2 2 2 2 2 2 9 2 2 2 2 2 2 2 2 2 2 2 2 2 2 2 2 2 2 2 2 2 2 2 2 2 2 2 2 2 2 2 2 2 2 3 2 2 2 2 2 2 2 3 2 2 3 2 2 2 2 2 2 2 2 2 2 2 2 2 2 2 2 3 2 2 2 2 2 2 2 2 2 2 2 2 2 2 2 9 2 2 2 2 2 2 2 2 2 2 2 2 2 2 2 2 2 2 2 2 2 7 2 2 2 3 2 2 2 3 2 2 2 2 2 2 2 2 2 2 2 # # # # # # # * # $ # # $ # # * * # $ # $ # $ # $ # $ # # * # # # # # * * # # * * # $ # # # # * $ & $ # $ # * # # $ $ # # * $ # # * # $ * # # # # * $ # # * # * # # # # & 8 2 2 2 8 2 2 2 2 2 2 2 2 2 2 2 2 2 2 2 2 2 2 2 2 2 2 2 2 2 2 2 2 2 2 2 2 2 2 2 2 2 2 2 2 2 2 2 2 2 2 2 2 2 2 9 2 2 2 2 2 2 2 2 2 2 2 2 2 2 2 2 2 2 2 2 2 2 2 2 2 2 2 2 2 2 2 2 2 2 2 2 2 2 2 2 2 2 2 2 2 2 2 2 2 2 2 2 2 4 2 2 2 2 2 2 2 2 2 3 2 2 2 2 2 2 2 3 2 2 2 2 2 2 2 2 2 2 2 2 2 2 2 2 2 2 2 2 2 2 2 2 2 2 2 2 2 2 2 2 2 2 2 2 2 2 2 2 2 2 2 2 9 9 2 2 2 2 2 2 2 2 2 2 2 2 2 2 2 2 2 2 2 2 2 2 2 2 2 2 2 2 2 2 2 9 7 2 2 2 2 2 7 2 2 3 2 2 2 3 2 2 3 7 2 2 2 2 2 2 2 2 2 2 2 2 2 2 2 2 2 2 2 2 2 2 2 1 # # # # 2 3 2 2 2 2 3 t F t 2 2 2 2 2 2 2 2 2 7 1.Y.P.P.t.J >.Y.r.r.7.H K 8.7 2 2 2 2 0 t.t 9 2 2 2 2 2 2 2 2 2 2 t G e 2 2 2 2 e G t 3 3 2 2 7 D 9.e 1 H 5.1.<.K.t.K 7 D w.r.r.r.8.e 9 8.J 2 2 8 w.J 3 1 e q.D 2 2 2 2 2 2 t G t 2 2 2 2 2 2 2 ",
"2 2 2 2 2 2 9 2 2 2 2 2 2 2 2 2 2 2 2 t J t 2 2 2 2 2 2 2 2 4 2 2 3 2 2 2 2 2 2 2 2 2 2 2 2 2 4 2 3 2 3 2 2 2 2 2 2 2 2 2 2 2 2 2 t G e 2 2 2 2 2 2 2 2 2 2 2 7 2 2 2 2 2 2 9 2 2 2 2 2 2 2 2 4 [ 3X4X+.o.o.o.o.o.o.o.o.o.o.o.o.o.o.o.o.o.o.o.o.o.o.o.o.o.o.o.o.o.o.o.o.o.o.o.o.o.o.o.o.o. X3XB.3 2 2 2 2 2 2 2 2 7 2 2 2 2 2 2 9 2 2 2 2 2 2 2 2 2 2 3 2 2 3 2 2 2 2 2 2 3 3 2 2 2 3 2 2 2 2 2 2 2 2 2 2 2 2 2 2 2 2 3 2 2 2 2 2 2 2 2 2 2 2 9 2 2 2 2 2 2 2 2 2 2 2 2 2 3 2 3 2 2 2 2 7 2 2 2 7 1 $ # # # # # * # * # $ # * # * # * # # $ # # * * # * $ # $ # # * # * # # $ # # * # & * # * # * # # $ # * * # # * # * $ # # * # # # * $ # * # $ * # * # * * # $ $ # $ * * # * # # # * $ # # * # # # * # # # # # * # # * # # # X & 2 2 2 2 2 2 2 3 3 2 2 2 2 2 3 2 2 2 3 2 2 2 2 2 2 2 2 2 2 2 2 2 2 2 2 2 2 2 2 2 2 2 2 2 2 2 2 2 2 2 2 2 2 2 2 2 2 2 2 2 2 2 2 2 3 2 2 2 2 2 2 2 2 9 2 2 2 2 9 2 2 2 2 2 2 2 2 2 2 2 2 2 2 2 2 2 2 2 2 2 2 2 2 2 2 2 2 2 2 2 2 2 2 2 2 2 2 2 2 2 2 2 2 2 3 2 2 2 2 2 2 2 2 2 3 2 2 3 2 2 2 2 2 2 2 2 2 2 2 2 2 2 2 2 2 2 2 2 2 2 2 2 2 2 2 2 2 2 2 2 2 2 2 2 2 2 2 2 2 9 2 2 2 2 2 2 2 2 2 2 2 2 2 2 2 2 2 2 2 2 2 2 2 2 2 2 2 2 2 2 3 2 2 3 2 2 2 2 2 2 2 2 2 2 2 2 2 2 2 2 2 2 2 2 2 2 2 2 2 2 2 2 2 2 2 2 2 2 2 2 2 2 2 2 2 2 2 2 2 2 2 2 2 2 2 2 2 2 2 2 2 2 3 2 2 2 3 2 2 2 2 2 2 2 2 2 2 2 2 2 2 2 #   # # # # # # # * * # * * $ # $ # & # * # * # # * # * # # $ * # * $ # # $ $ # # $ * # * # $ # $ # $ # # * # $ # * * # $ # # * * # * # # $ # * # # # $ # # # # # # # X & 2 2 2 2 2 2 2 2 2 2 2 2 2 2 2 2 2 4 3 2 2 2 2 2 2 2 2 2 2 2 2 2 2 2 2 2 2 2 2 2 2 2 2 2 2 2 3 2 2 3 2 2 2 2 2 2 2 7 2 2 2 2 2 2 2 2 2 2 2 2 2 2 2 2 2 2 2 2 2 2 2 2 7 2 2 2 2 2 2 2 2 2 2 2 2 2 2 2 2 2 2 2 2 2 2 2 2 2 9 3 2 2 2 2 2 2 2 2 2 2 2 2 2 2 3 2 2 2 2 2 2 2 3 2 2 2 2 2 2 2 2 2 2 2 2 2 2 2 7 2 2 2 2 2 2 2 2 2 2 3 7 2 2 2 2 2 2 2 7 2 2 2 2 2 2 2 2 2 2 2 2 2 2 2 9 2 2 2 2 2 2 2 2 2 2 2 2 2 2 2 3 2 2 2 2 2 2 2 2 2 2 2 2 2 2 3 2 2 2 2 2 2 2 2 2 2 2 2 2 2 2 2 2 2 2 2 2 2 2 2 9 2 2 2 2 2 2 # X X # X 2 2 2 2 2 2 2 t G t 2 2 2 2 2 2 2 2 2 2 2 2 2 2 2 7 7 3 3 7 7 2 2 7 2 2 3 2 2 2 2 2 2 2 2 2 2 2 2 2 3 2 3 t F e 2 2 2 2 e G t 3 2 2 3 7 3 2 2 2 2 2 2 2 2 7 2 7 2 7 2 2 2 7 7 2 2 2 2 2 2 3 2 3 3 2 3 2 2 2 2 2 2 2 t F t 2 2 2 2 2 2 2 ",
"2 2 2 2 2 2 2 2 2 2 2 2 2 2 2 2 2 2 2 t F t 2 4 2 2 2 2 2 9 3 3 3 3 3 7 3 7 2 3 3 3 3 7 7 2 2 3 7 3 3 3 3 3 3 3 7 3 7 2 7 2 7 2 2 t G t 2 2 2 2 2 2 2 7 2 2 2 2 2 2 2 2 2 2 2 2 2 2 2 2 2 2 2 % [ 3X4X+.o.o.o.o.o.+.o.o.o.o.+.o.o.o.o.+.o.o.o.o.o.+.o.o.o.o.+.o.o.o.o.o.o.+.o.o.o.o.+.o.o. X3XS.3 4 2 2 2 2 2 2 2 2 2 2 2 2 7 2 2 2 2 2 2 2 2 2 2 3 2 2 2 2 2 2 2 2 2 2 2 2 2 2 2 2 2 2 2 2 2 2 2 2 2 2 2 2 2 2 2 2 2 2 2 2 2 2 2 2 2 2 2 2 2 2 2 2 2 3 2 2 2 2 2 2 2 2 2 2 2 2 2 3 2 2 2 2 2 2 7 1 # # # X # $ # $ # # * # * # # $ # # * # * $ # # $ # # * # * # # $ # * # & * # # $ & # $ # # & $ * # $ # & $ # * $ # # * $ # # * # * # * # $ # * # # $ # # # $ # * # # # $ # # * # * # * # # * $ # # # * * # $ # # * # # # # # % 2 2 2 2 2 2 2 2 2 2 2 2 2 2 2 2 2 2 2 2 3 2 2 2 7 2 2 2 2 2 2 2 2 2 2 2 2 2 2 3 2 2 2 2 2 2 2 2 2 2 2 2 2 2 2 2 2 2 2 2 2 2 2 2 2 2 2 2 2 2 2 2 2 2 2 2 2 2 2 2 2 2 2 2 2 2 2 2 2 2 3 2 2 2 2 2 2 2 2 2 2 2 9 2 2 2 2 2 2 2 2 3 2 2 2 3 2 2 2 2 2 2 2 2 2 2 3 2 2 2 2 2 2 2 2 2 2 2 2 2 2 3 2 2 2 2 2 3 2 2 2 2 2 3 2 2 2 2 2 2 2 2 2 2 2 2 3 2 2 2 2 2 2 2 2 2 2 2 2 2 2 2 2 2 2 2 2 2 2 2 2 2 2 2 9 2 2 2 2 2 2 2 2 2 2 2 2 3 7 2 2 2 2 2 2 3 2 2 3 2 2 2 2 2 2 2 2 2 2 7 2 2 2 2 2 2 2 2 2 3 2 2 2 2 2 2 2 2 2 2 2 2 2 2 2 2 2 2 2 2 2 9 2 2 2 2 2 2 2 2 2 2 2 2 2 2 2 2 2 2 2 2 3 2 2 2 2 2 2 2 2 2 # # # # # # * # $ # # $ # # # * * # # * # $ # & $ # $ # * * # # # * # * * # # * * # # # * $ # * # * # * # # * # $ # # $ # * & $ # $ # # * # # * $ * * # * # * # # # # # & 2 2 2 2 2 9 2 2 2 2 2 2 2 2 2 2 2 3 3 2 2 2 2 3 2 3 2 2 2 2 2 2 3 3 2 2 3 2 9 2 2 2 2 2 2 2 2 2 2 2 2 3 2 2 2 2 2 2 2 2 2 9 2 2 2 2 2 2 2 2 9 2 2 2 2 2 2 2 2 2 2 2 2 2 2 2 2 2 9 2 2 2 2 2 2 2 2 2 2 2 9 2 2 2 2 2 2 2 2 3 3 2 2 2 2 2 3 2 2 2 2 2 2 2 2 2 2 2 2 2 2 2 2 2 2 2 2 2 2 2 2 2 2 9 2 2 2 2 2 2 2 2 2 2 2 2 2 2 2 2 2 2 2 2 2 2 2 2 2 2 2 2 2 2 2 2 2 2 2 2 2 2 2 2 2 2 2 2 2 2 2 2 2 2 2 2 2 2 2 2 2 3 2 2 2 2 2 2 2 2 2 2 2 2 2 2 2 2 2 2 2 2 2 2 2 2 2 2 2 2 2 2 7 2 2 2 2 2 2 2 2 2 2 2 2 2 2 1 # # X # 2 2 3 2 2 2 2 t F t 2 2 3 2 2 2 7 2 2 2 2 2 2 2 2 2 2 2 3 2 2 2 2 2 7 2 2 2 2 2 2 2 2 2 2 2 2 2 2 2 2 2 2 t J t 2 2 2 4 e G D 7 2 2 2 2 3 2 2 2 2 2 2 2 2 2 2 2 2 2 2 2 2 2 7 2 2 2 2 2 2 2 2 2 3 3 2 2 2 2 2 2 2 2 e F t 2 2 2 2 2 2 2 ",
"2 2 2 2 2 2 3 2 2 2 2 2 2 2 7 2 2 2 2 t F F t t t t t G t t G t D t t t D t t D t t t t t F t t t t t t t t t t t D t t t t t t t F G t % 2 2 2 2 2 2 2 2 2 2 2 2 2 2 2 2 2 2 2 2 2 3 2 2 2 2 2 [ 3X4X#X#X#X#X#X#X#X#X#X#X#X#X#X#X#X#X#X#X#X#X#X#X#X#X#X#X#X#X#X#X#X#X#X#X#X#X#X#X#X X#X#X4X3X{.2 2 2 2 2 2 2 2 2 2 2 2 2 2 2 2 2 2 2 2 2 2 2 2 2 2 2 2 2 2 2 7 2 2 2 2 2 2 2 2 2 2 2 2 2 2 2 2 2 2 2 2 2 2 2 2 2 2 2 2 2 2 2 2 2 2 2 2 2 2 2 2 2 2 2 2 2 2 2 2 3 2 2 2 2 2 2 2 3 2 2 2 2 2 2 3 2 * # # # # # # * # * # $ # # * # $ # # * # # # # # # * * # # $ * # & # * # * # * # # # * # # * # # * # # * # * # # $ * $ # * * $ # $ & # * # # $ # # * # * # * # # # * # # $ # $ # # * # # # * # * # * # # # $ * # # & $ X X # # # 2 2 2 2 2 2 2 2 3 2 2 2 3 2 2 3 2 2 2 2 2 2 2 2 2 2 2 2 2 3 2 2 2 2 2 2 2 2 2 2 2 2 2 2 2 2 2 2 2 2 2 2 2 2 2 2 2 2 2 2 2 2 2 2 2 2 2 2 2 2 9 2 2 2 2 2 2 2 2 2 2 2 9 2 2 2 2 2 2 2 3 2 2 2 2 2 2 2 2 2 2 2 2 2 2 2 2 2 2 2 2 3 2 2 2 2 2 2 2 2 3 2 2 2 2 2 2 2 2 3 2 2 2 2 2 2 2 2 2 3 2 2 2 2 2 2 2 2 2 2 2 2 2 2 3 2 2 3 2 2 2 2 2 2 2 2 7 2 2 2 2 2 2 2 2 2 2 2 2 2 2 2 2 2 2 2 2 2 2 2 2 2 2 2 2 2 2 2 2 2 2 7 2 2 2 2 2 2 2 2 2 2 2 2 2 2 2 2 3 2 2 2 2 2 2 2 2 2 2 2 3 2 2 2 2 2 3 2 2 2 2 2 2 2 2 2 2 2 2 2 2 2 2 2 2 2 2 2 2 2 2 2 2 2 2 2 2 2 2 2 2 2 2 2 2 2 2 2 2 2 3 2 2 2 2 3 2 2 2 2 2 2 # # # # # # # # * # # # $ # # * * # # * * # $ # # * * # # $ # * $ # # * * # # $ # # # * $ # * * # $ * # $ # * # * # # * * # # # * # $ # * # * # # # * # * # & # . # X # & 2 2 2 2 2 2 2 2 2 2 2 2 2 2 2 2 2 2 2 2 2 2 2 2 2 3 2 2 2 3 2 2 3 2 2 2 2 2 2 2 2 2 2 2 2 2 2 2 2 2 2 2 2 2 2 2 2 2 2 2 2 2 2 2 2 2 2 2 2 2 2 2 2 2 2 2 2 2 2 2 2 2 2 2 2 2 2 2 2 2 2 2 2 2 2 2 2 2 2 2 2 2 2 2 2 2 2 2 2 2 2 2 2 2 2 2 2 2 2 2 2 2 2 2 2 2 3 2 2 3 2 2 2 2 2 2 2 2 2 2 2 2 2 2 2 2 2 2 2 2 2 2 2 2 2 2 2 2 2 2 2 2 3 2 2 2 2 2 2 2 2 2 2 2 2 2 2 2 2 2 2 2 2 2 2 2 2 2 2 2 2 3 2 3 4 2 2 2 2 2 2 2 2 2 2 2 2 2 2 2 2 2 2 2 2 2 2 2 2 2 2 2 2 2 3 2 2 2 3 2 2 2 2 2 2 2 2 2 2 2 2 2 2 2 2 2 2 # # X # # 2 2 2 2 2 2 2 t F t 2 2 2 2 2 2 2 2 2 2 2 2 2 2 2 2 2 2 2 2 2 2 2 2 2 2 3 2 2 3 2 2 2 2 2 2 2 2 2 2 2 2 7 t G e 2 2 2 2 0 F t 9 2 2 2 2 2 2 2 2 2 2 2 2 2 2 2 2 2 2 2 2 2 2 2 2 2 7 2 2 3 2 2 2 2 2 2 2 2 2 2 2 2 4 t G t 2 2 2 2 2 2 2 ",
"2 2 2 2 2 2 2 2 2 2 2 2 2 2 2 2 2 2 2 t G F J F G G G G F F F F G G F F G G F J G G G G G G F G J G G F J G G D G G G G J G G J G F G t 2 2 2 2 2 2 2 2 2 2 2 2 2 2 2 2 2 2 2 2 2 2 2 2 2 2 2 % [ 3X3X3X3X2X3X3X3X3X3X3X3X3X3X3X3X3X3X3X2X2X3X3X3X3X3X3X3X2X3X3X3X3X3X3X3X3X3X3X3X3X3X3X3X3X3X{.2 9 2 2 2 2 2 2 2 2 2 2 2 9 2 2 2 2 2 2 2 2 2 2 2 2 2 2 2 2 2 2 2 2 3 2 2 2 2 2 2 3 2 2 2 3 2 2 2 2 2 2 2 2 2 2 2 2 2 2 2 2 2 2 2 2 2 2 2 2 2 2 2 2 2 2 2 2 2 2 2 2 2 2 2 2 2 3 2 2 2 2 2 2 2 2 2 # #   # # # # * # # # # * $ # * # * # # $ * # * * $ # # # * # # $ $ # # $ # $ $ # * # # $ $ # * # * # # * $ # # * # # # * # # # * * # $ # # * * # $ # # * $ # * * # $ * * # * # * # * # * $ # # * $ # # * * # # & & & # # # # # % 2 2 2 2 2 2 2 2 2 2 2 2 2 2 2 2 2 2 2 2 2 2 3 2 2 2 2 2 2 2 2 9 2 2 2 2 2 2 2 2 2 2 2 2 2 3 2 2 2 9 2 2 2 2 2 2 2 2 2 2 9 2 2 3 3 2 2 2 2 2 2 2 2 2 2 2 2 2 2 2 2 2 2 2 2 2 2 2 2 2 2 2 2 2 2 2 2 2 2 2 2 2 2 2 2 2 2 2 3 2 2 2 2 3 2 2 3 2 2 2 2 2 2 2 2 2 2 2 2 2 2 2 2 3 2 2 2 2 2 2 2 2 2 3 2 2 2 3 2 2 2 3 2 2 2 2 2 2 2 2 2 3 2 3 3 2 2 2 2 2 2 2 2 2 2 3 2 2 2 2 2 2 2 2 2 2 2 2 2 2 2 9 2 2 2 2 2 2 2 2 2 2 2 2 2 2 2 2 2 2 2 3 2 2 2 2 2 2 2 2 2 2 2 2 2 2 2 2 2 2 3 3 2 2 3 2 2 2 2 2 2 2 2 2 9 2 2 2 2 2 2 2 2 2 2 2 2 2 2 2 2 2 2 2 2 2 2 2 2 2 3 2 3 2 2 2 2 2 2 2 2 2 2 2 2 2 2 2 2 2 2 2 # #   # # # $ # # $ * * # * $ # # $ # # # # # * $ # # $ * # $ # # * $ # # $ * # * * $ # # * # # * # # # * # * # # $ $ # # & * # # $ # * # $ * # * $ # $ # & # # # # X # & 2 2 2 2 2 2 2 9 2 2 2 2 2 2 2 2 2 2 2 2 2 2 2 2 2 2 2 2 7 2 2 2 2 2 2 2 2 2 2 2 2 2 2 2 2 2 2 2 2 2 3 2 2 2 2 2 2 2 2 2 2 2 2 2 9 2 2 2 2 2 2 2 2 2 2 2 2 2 2 2 2 2 2 2 2 2 2 2 2 2 2 2 2 2 2 2 2 9 2 2 2 2 2 2 2 2 2 2 2 2 2 2 2 2 2 2 2 2 3 2 7 2 2 2 2 2 2 2 2 2 2 2 2 2 2 3 4 2 2 2 3 2 2 2 2 2 2 2 2 2 2 2 2 2 2 2 2 2 2 2 2 2 2 2 2 2 2 2 2 2 2 2 2 2 2 2 2 2 2 2 2 2 2 2 2 2 2 2 2 2 2 2 2 3 2 2 2 2 2 2 2 2 2 2 2 2 2 2 2 2 2 2 2 2 2 2 2 2 3 2 3 3 2 2 2 3 2 2 2 7 2 2 2 2 2 2 2 2 9 2 2 2 2 2 2 2 2 1 X # # # 2 2 2 2 2 2 2 t F t 2 2 2 2 2 2 2 2 2 2 2 2 2 2 2 2 2 2 2 2 2 2 2 2 2 2 2 2 2 2 2 2 2 2 2 2 2 2 2 2 2 2 2 t G e 2 2 2 2 e F t 3 2 2 2 2 2 2 2 2 2 2 2 2 2 2 2 2 2 2 2 2 2 2 2 2 2 2 2 2 2 2 2 2 2 2 2 2 2 2 2 2 2 2 t G t 9 2 2 2 2 2 2 ",
"2 2 2 2 2 2 3 2 2 2 7 2 2 2 2 2 2 2 2 9 e e e t e e e e e e e t e e e e e e t e e e e e t e e e t t e e t e 0 t t 0 e 0 e e e e e e t 0 2 2 2 2 2 2 2 2 2 9 2 2 2 2 2 2 2 2 2 2 2 2 2 3 2 3 2 2 P #.#.#.#.#.#.#.#.#.#.#.#.#.#.#.#.#.#.#.#.#.#.#.#.#.#.#.#.#.#.#.#.#.#.#.#.#.#.#.#.#.#.#.#.#.#.U 2 2 2 2 2 2 2 2 2 2 2 2 2 2 2 2 2 2 2 2 2 2 2 2 7 2 2 2 2 2 2 2 2 2 3 2 2 3 2 2 2 2 2 3 2 3 2 3 2 2 2 2 2 2 2 2 2 2 2 2 2 2 2 2 2 2 2 2 2 2 2 2 2 2 2 2 2 2 2 2 2 2 2 3 2 2 2 2 2 2 2 2 3 2 2 2 2 * # # # # # * # * # * * # * # # $ * # * * # # # # # $ $ # # * * # * * & $ * # * # $ # * * # * * # # $ $ # # * # $ * # # # # * * # # # # * # # * # * # $ # # * # $ # # # $ # # # $ # $ # * # * # # * # $ # $ # # * $ # $ # X # # # 2 2 2 2 2 3 2 3 2 2 2 2 2 3 2 2 2 3 2 2 2 2 2 2 2 2 2 2 2 2 2 2 2 2 2 2 2 2 2 2 2 2 2 2 2 2 2 2 2 2 2 2 2 2 2 2 2 2 2 2 2 2 2 2 2 2 2 2 3 2 2 2 2 2 2 2 2 2 2 2 2 2 2 2 2 2 2 2 2 2 2 2 2 2 2 2 7 2 2 2 7 2 2 3 3 2 2 2 2 2 2 3 2 2 2 2 2 2 2 2 2 2 2 3 2 2 2 2 2 2 2 2 2 2 2 2 2 3 2 2 2 2 2 3 2 2 2 2 2 2 2 3 2 2 2 2 2 2 2 3 2 2 2 3 2 2 2 2 2 2 2 2 2 7 2 2 2 2 2 3 3 2 2 2 2 2 9 2 2 2 2 2 2 2 2 2 2 2 2 2 2 2 2 3 3 2 2 3 2 2 2 2 2 2 2 2 2 2 2 2 2 3 2 2 2 2 2 2 2 2 2 4 2 2 2 2 2 2 2 2 2 2 2 2 2 2 2 2 9 2 2 2 2 2 2 2 2 2 2 2 2 2 2 7 2 2 7 2 2 2 2 2 2 2 7 2 3 2 2 2 2 3 3 2 2 2 2 2 2 2 2 2 # # # # # # # # $ # # $ # # # * * # * * # * # # # * * # # # # # * # # * * # # $ # # # $ # # * # # $ # * # $ # * # # # $ # $ # $ * # # # # * # * # # $ # # $ & # . # # # & 2 2 2 2 2 2 2 2 2 2 2 2 2 2 2 2 2 2 2 2 2 2 2 2 2 2 2 2 2 2 2 2 2 2 2 2 2 2 2 2 2 2 2 2 2 2 9 2 2 3 3 2 2 2 2 2 2 2 2 2 2 2 2 2 2 2 2 2 2 2 2 2 2 2 2 2 2 2 2 3 2 2 2 2 2 2 3 3 3 2 2 2 2 2 2 2 2 2 2 2 2 2 2 2 2 2 2 2 2 2 2 2 2 2 2 2 2 2 2 2 2 2 7 2 2 2 2 2 2 2 2 2 2 2 2 3 3 2 2 2 2 2 2 2 3 2 2 2 7 2 2 2 2 2 2 9 2 2 2 2 2 2 2 2 2 2 2 2 2 2 2 2 2 2 2 2 2 2 2 2 2 2 2 2 2 2 2 2 2 2 2 2 2 3 2 2 2 2 2 2 2 2 2 2 2 2 2 2 2 2 2 2 2 2 3 2 2 2 2 2 2 2 2 2 2 2 2 2 2 2 2 2 2 2 2 2 2 2 2 2 2 2 2 2 2 2 2 $ X # X # 1 2 2 2 2 2 2 t F t 2 2 2 2 1 2 2 4 2 2 2 2 2 2 2 2 2 4 2 2 2 2 2 2 2 2 2 2 2 2 2 2 2 4 2 2 1 2 2 2 2 2 2 t G t 2 2 2 2 e F t 3 2 4 2 3 3 2 2 2 2 2 2 2 2 4 2 2 2 2 2 2 2 2 2 2 2 2 2 2 2 2 2 2 3 2 4 2 2 2 2 2 3 2 t G t 2 2 2 3 2 2 2 ",
"2 2 2 2 2 2 2 2 2 2 2 2 2 2 2 2 2 2 2 2 2 2 2 2 4 2 2 2 2 2 2 2 3 2 2 2 4 2 2 2 2 2 2 2 4 2 2 2 2 4 2 2 2 2 2 2 2 2 2 2 4 3 3 3 4 9 % 2 2 2 2 2 2 2 2 2 2 2 2 2 2 2 2 2 2 2 2 2 2 2 2 2 2 2 2 2 4 2 4 4 2 2 1 2 2 2 1 2 2 2 1 2 - 2 2 4 2 2 2 2 1 2 2 2 2 1 2 2 2 2 1 2 2 2 1 2 y @ 2 2 2 2 2 4 2 2 2 2 2 2 2 2 2 2 2 2 2 2 2 2 2 2 2 2 2 2 2 2 2 2 2 2 2 2 2 2 2 2 2 2 2 2 2 2 2 3 2 2 2 2 2 2 2 3 2 2 2 2 2 2 2 2 2 2 2 2 2 2 2 2 2 2 2 2 2 2 2 2 2 2 2 2 2 2 2 2 2 7 2 2 2 2 2 2 2 3 2 2 2 2 2 *   # # # # $ $ # $ # # # * # * # # $ # # $ * # * * # # * $ # # $ # # # # * # # # * * # # $ # # # * # # * # # * # * # * # $ # # $ # * $ # * * # # * # # * # # * # * # # * * # * # * # # # $ # * $ # # # * # * $ # # $ # # # X o # 2 2 2 3 2 2 2 2 2 2 3 2 2 2 2 2 2 2 2 3 2 2 2 2 2 3 2 2 2 2 2 2 2 2 2 2 2 2 2 2 2 2 2 2 3 2 2 2 2 2 2 2 2 2 2 2 2 2 2 2 2 2 2 2 2 2 2 2 2 2 2 2 2 2 2 2 2 2 2 2 2 2 2 2 2 2 3 2 2 2 2 2 7 2 2 2 3 2 2 2 2 2 2 2 2 2 7 2 2 2 2 2 2 2 2 2 2 2 3 2 2 3 2 2 2 2 2 2 2 3 2 3 2 2 2 2 2 2 2 3 2 2 2 2 2 2 2 2 2 2 2 2 2 2 2 3 2 2 2 2 2 2 2 2 2 2 2 2 2 2 2 2 2 2 2 2 2 2 2 2 2 2 2 2 2 2 2 2 2 2 2 2 2 2 2 2 2 2 2 2 2 2 2 2 2 2 2 2 2 2 2 3 2 2 3 2 2 2 2 2 2 2 2 2 2 2 2 2 9 2 2 2 2 2 2 2 2 2 2 2 2 2 2 2 2 2 2 2 2 2 2 2 2 2 2 2 2 2 2 2 2 2 2 2 2 2 2 2 2 2 2 2 2 2 2 2 2 2 2 2 2 2 2 2 2 3 2 2 3 2 2 2 # # # # # # # * # * * # * # $ # # # # # $ # # * $ # # # * * * # # $ $ # # # * # * # * # * # # # * # $ # * # $ # # * * # * # * # * # * # $ # $ # # * # * * # & $ # # # . & 2 2 3 2 2 2 2 2 2 2 2 2 2 2 2 2 2 7 2 2 2 3 2 2 2 2 2 3 2 3 2 2 2 3 2 2 3 2 2 2 2 2 2 2 2 2 2 2 2 4 2 2 2 2 2 2 2 2 2 2 2 2 2 2 2 2 2 2 2 2 2 2 2 2 2 2 2 2 2 2 2 7 2 2 2 2 2 3 4 2 2 2 2 2 2 2 2 2 2 2 2 2 2 2 2 2 2 2 2 2 2 2 2 2 2 2 2 2 2 2 2 2 2 2 2 3 2 2 3 2 3 2 2 2 2 2 2 2 2 3 2 7 2 2 2 2 2 2 2 2 2 2 9 2 2 2 2 2 2 2 2 2 2 2 3 2 2 2 2 2 2 2 2 2 2 2 2 2 2 2 2 2 7 2 2 7 2 2 2 2 2 2 2 2 2 2 2 2 2 2 2 2 2 2 2 2 2 2 2 2 2 2 2 2 2 2 2 2 2 2 2 2 2 2 3 2 2 2 3 2 2 2 2 2 2 2 2 2 2 2 2 2 2 2 2 2 2 & # # X # 2 2 2 2 2 2 2 t F t 9 9 9 9 9 9 9 9 9 9 9 7 9 9 9 9 7 9 9 9 9 9 9 9 9 8 9 7 9 9 9 9 9 9 9 9 9 9 9 7 9 6 0 t G e 2 2 2 2 0 G t 0 9 9 9 9 9 9 9 9 9 9 8 9 9 9 9 9 9 2 9 9 9 9 9 9 9 8 0 8 9 9 9 9 9 7 9 9 9 9 9 9 9 9 t G t 2 2 2 2 2 2 2 ",
"4 3 2 2 2 2 2 2 2 2 2 2 2 2 2 2 2 2 2 2 2 2 2 2 2 2 2 2 2 2 2 2 2 2 2 2 2 2 2 2 2 2 2 2 2 2 2 2 2 2 2 2 2 2 3 2 2 2 3 2 2 2 2 2 2 2 2 2 2 2 2 2 2 2 2 2 2 2 2 2 2 2 2 2 2 2 2 2 2 2 2 2 2 3 2 2 2 2 2 2 2 2 2 2 2 2 2 3 2 2 2 2 3 2 2 2 2 2 2 2 3 3 2 2 2 2 3 2 2 2 2 2 2 3 2 2 3 2 2 2 2 2 2 2 2 2 2 2 2 2 2 2 2 2 2 2 2 2 2 2 9 2 2 2 2 2 2 2 2 2 2 2 2 2 2 2 2 2 2 2 2 2 2 2 2 3 2 2 2 2 2 2 2 2 2 2 2 3 2 2 2 2 3 2 2 2 2 2 2 2 2 2 2 3 2 2 2 2 3 2 2 2 2 2 2 2 3 2 3 2 2 2 2 2 2 7 2 2 2 2 2 1 # # #   # # # $ # # $ # $ # # * # # # $ # $ $ # # * $ # * * $ # # * * * # # # $ # # * # * # $ # # * # # # $ # $ # $ # * * # # * * # $ # $ # $ # # # * # * # # * # # # $ # $ # # # * * # * # # * # * $ # # * # # * # $ # # # # # 2 2 3 2 2 2 3 2 2 3 2 2 3 2 2 2 2 2 2 2 2 2 2 2 2 2 3 2 2 3 2 2 2 2 2 2 2 2 2 2 3 2 2 2 2 2 2 2 2 2 2 2 9 2 2 2 2 2 2 2 2 2 2 2 2 2 2 7 2 2 2 2 2 2 2 2 2 2 2 2 2 2 2 2 2 7 2 2 2 2 2 2 2 2 2 2 2 2 2 2 2 2 2 2 2 2 2 2 2 2 2 2 2 2 2 2 2 2 2 3 2 2 3 2 2 3 3 2 2 2 3 2 2 2 2 2 2 3 2 2 2 2 2 2 2 2 2 2 2 2 2 2 2 3 2 2 2 3 2 3 2 2 2 3 2 2 2 2 2 2 2 2 2 2 2 2 2 2 2 2 2 2 2 2 2 2 2 2 2 2 2 2 2 2 2 2 2 2 2 2 2 2 2 2 2 2 2 2 2 2 2 2 2 2 2 3 2 2 2 2 2 3 2 2 2 2 2 2 2 2 2 2 2 2 2 2 2 2 2 2 2 2 2 2 2 2 2 2 2 2 2 2 2 2 2 2 2 2 2 2 2 2 2 2 2 2 2 2 2 2 2 2 2 2 2 3 2 2 2 2 2 2 2 2 2 2 2 2 2 2 2 2 # X #   # # * # * # # # # * # $ * * # $ # # * * # # * # # $ # # $ # # # * # * # # # # * # * $ # * # $ # * * # * * # * # * # # # $ # * # $ # * # * # # $ & # # # # # # # & 2 2 2 2 2 2 2 2 2 2 2 9 2 7 2 2 2 2 2 2 2 2 2 2 2 2 2 2 3 2 2 2 3 2 2 2 2 2 2 2 2 2 2 2 2 2 2 2 2 2 2 2 2 2 2 2 9 2 2 2 2 2 2 2 2 2 2 9 2 2 2 2 2 2 2 9 2 2 2 2 7 2 2 2 2 2 2 2 2 2 2 2 2 2 9 2 2 2 2 2 2 2 2 9 2 2 2 2 2 2 2 9 2 2 2 2 2 2 2 2 2 2 2 2 2 3 2 2 2 3 2 2 2 2 2 3 2 2 2 2 2 2 2 2 2 7 2 2 2 2 2 2 2 2 2 2 2 2 2 2 2 2 2 2 2 2 3 3 3 9 2 2 2 2 2 2 2 2 9 2 2 2 2 2 2 2 2 3 2 3 2 2 2 2 2 2 2 2 2 2 2 9 2 2 2 2 2 2 2 2 9 2 2 2 2 3 2 2 2 2 2 3 2 2 2 3 2 2 2 2 2 2 2 2 2 2 2 2 2 2 2 2 2 2 2 3 2 & # # X # 2 2 2 2 2 2 2 t F F F F F F F F F F F F F G G F F F F F F F F F F D G F F D F F F t G G F F F F F G F F F F G t 2 2 2 2 t F F F F F F F G F F F F D F F F F F F F F F F F F F F F F F F F F F F F D F F F F F G F F F F t 2 2 2 2 2 2 2 ",
"3 3 2 3 2 2 2 2 2 2 2 2 2 2 2 2 2 2 2 2 2 2 2 2 2 2 2 2 2 2 2 2 2 2 2 2 2 2 2 2 2 2 2 2 2 2 2 2 2 2 2 2 2 2 2 2 3 2 2 2 2 2 2 2 2 2 2 2 2 2 2 2 2 2 2 2 2 2 2 2 2 2 2 2 2 2 2 2 2 2 2 2 2 2 2 2 2 2 2 2 2 2 2 2 2 2 2 2 2 2 2 2 2 2 2 2 2 2 2 2 2 2 2 2 2 2 2 2 2 2 2 2 2 2 2 2 2 2 2 2 2 2 2 2 2 2 2 2 2 2 2 2 2 2 2 2 2 2 2 2 2 2 2 2 9 2 2 2 2 7 2 2 2 2 2 7 2 2 2 2 2 2 2 3 2 2 2 2 2 3 3 2 2 2 2 2 2 2 2 2 2 2 2 2 2 2 2 2 2 2 2 2 2 2 2 2 3 2 2 2 2 2 2 2 2 2 2 2 2 2 2 2 2 2 2 2 2 2 2 2 2 1 # # # # # # * # * * # * # * $ # # * * # * # # * $ # # * # # * * # # # # # * * # * # # $ # # # * # * # * * # * # * # $ # # # $ # # # # * # * # * * # # $ $ # $ # # * * # * # * * # $ # $ * # # * $ # & * # # * # # $ # # X # # # 2 2 2 2 2 2 2 2 2 2 2 2 2 2 2 2 2 2 3 2 2 2 2 2 2 3 2 2 2 2 2 2 2 2 2 2 2 2 3 4 2 2 2 2 2 2 2 2 2 2 2 2 2 2 2 2 2 2 2 2 2 2 2 2 2 7 2 2 2 2 2 2 2 2 2 2 2 2 2 2 2 2 2 2 2 2 2 2 2 2 2 2 2 2 2 3 2 2 2 2 2 2 2 2 2 2 2 2 3 2 2 2 3 2 2 3 2 2 2 2 2 2 2 2 2 2 2 2 2 2 2 2 2 2 2 2 2 2 2 2 2 2 2 2 2 2 2 3 3 2 2 2 2 2 2 2 2 2 2 2 2 2 2 2 2 2 7 2 2 2 2 7 2 2 2 3 2 2 3 3 2 2 2 2 2 2 2 2 2 2 7 2 2 2 2 7 2 2 2 2 2 7 2 2 2 2 2 2 2 2 2 7 3 2 2 2 2 2 2 2 2 2 2 2 2 2 2 2 2 2 2 2 2 2 2 2 2 2 2 2 2 2 2 2 2 2 2 2 2 2 2 2 2 2 2 9 2 2 2 2 2 2 2 2 2 2 2 2 2 3 2 3 2 2 2 2 2 2 2 2 2 2 2 2 2 2 2 3 2 2 2 2 # # # # # # # $ # # $ * # # * # # # * # * * # $ # * # $ * # * * # * * # * $ $ # $ * $ # $ # * # * # # * # # $ # # $ # $ # # # * # * # # # * # $ # # * # # * & # # # X # & 2 2 3 2 2 2 2 2 2 2 2 2 2 2 2 2 2 2 2 2 7 3 2 7 2 2 2 2 2 3 2 2 2 2 2 2 3 2 2 2 2 2 2 2 2 2 2 2 2 2 2 2 2 2 2 2 2 2 2 2 2 2 2 2 2 2 2 2 2 2 2 2 2 2 2 2 2 2 3 2 2 2 2 2 2 2 2 3 2 2 2 2 2 2 2 2 2 2 2 2 2 2 2 2 2 2 2 2 2 2 2 2 2 2 2 9 2 2 2 2 2 2 2 2 2 2 2 2 2 2 2 2 3 3 2 2 2 2 2 2 2 2 2 2 2 2 2 2 2 2 2 2 2 2 2 2 2 2 2 2 3 2 2 2 2 2 4 2 2 2 2 2 2 2 2 2 2 2 2 2 2 2 2 2 2 2 2 2 2 2 2 2 2 2 2 2 2 2 9 2 2 2 2 2 2 2 2 2 2 2 2 2 2 2 2 2 2 2 2 3 2 2 2 2 3 2 2 2 2 2 7 2 2 2 2 2 2 2 2 2 2 2 2 2 2 2 2 # # X # X 2 2 2 2 2 2 2 t F F F F F F t F F F t F F F t F t F F F F F t F F G G D F F F F F G t G F F F F F G F F F t F e 2 2 2 2 e F F F F F t t G F F F F F F D D F F F t D F F t t F F t F D F F F D F D G D F t F F D D F F F t 3 2 2 2 2 2 2 ",
"2 2 2 2 2 3 2 2 2 2 2 2 2 2 2 2 2 2 2 2 4 2 2 2 2 2 2 2 2 2 2 2 3 2 2 2 2 2 2 2 2 2 2 2 2 2 2 2 2 2 2 2 3 2 2 3 2 2 2 2 2 2 2 2 2 2 2 2 2 2 2 2 2 2 2 2 2 2 2 2 2 2 2 2 2 2 2 9 2 3 2 2 2 2 2 3 2 2 2 2 2 2 2 2 2 2 2 2 2 2 2 2 2 2 2 3 2 2 2 2 2 2 2 2 3 2 2 2 2 2 2 2 2 2 2 2 2 2 2 2 2 2 2 2 2 2 2 2 2 2 2 2 2 2 2 2 2 2 2 2 2 2 2 2 2 2 2 2 2 2 2 2 2 2 2 2 2 3 2 2 3 2 2 2 3 2 2 3 2 2 2 3 2 3 2 2 2 2 9 2 3 2 2 2 2 9 2 2 2 2 2 2 2 2 9 2 2 2 2 2 2 2 2 2 2 2 2 2 2 2 2 2 2 2 2 2 2 2 2 2 2 & # # # # # * # $ $ # # * # * # * # * # # # * $ # # * # # * $ # # # $ # * $ # # $ * # $ & # * $ # * $ $ # # $ # # $ # # # * * # $ * * # $ # # $ # # $ * * # * # * $ # * # * # # $ * # # $ # $ $ # $ # # * # $ # * * # # # # o # # 2 2 2 2 2 2 2 2 2 2 2 2 2 2 3 2 2 2 2 2 2 2 2 2 2 2 2 2 2 2 2 2 2 2 2 2 2 2 3 2 2 2 2 2 2 2 2 2 2 2 2 2 2 2 2 2 2 2 2 2 2 2 2 2 2 2 2 2 2 2 2 2 2 2 2 2 9 2 2 2 2 2 2 2 2 2 2 2 2 2 2 2 2 2 2 2 2 2 2 3 3 2 2 2 3 2 2 2 3 2 2 7 2 2 2 2 2 2 2 2 2 2 2 2 2 2 2 2 2 3 2 2 2 2 3 2 2 2 2 2 2 2 2 3 2 2 2 2 2 2 3 2 2 2 3 2 2 2 2 2 2 2 3 2 2 2 2 2 2 2 2 2 2 2 2 3 2 2 4 3 2 2 2 2 2 2 2 2 2 2 2 2 2 2 2 2 2 2 2 2 2 2 2 3 2 2 2 3 3 2 2 2 2 2 2 2 2 2 2 2 2 2 2 2 2 2 2 2 2 2 2 2 2 2 2 2 2 2 2 2 2 2 2 2 2 2 2 2 2 2 2 2 2 2 2 2 2 2 2 2 2 2 7 2 2 2 2 2 2 2 2 2 2 2 3 2 2 2 3 2 2 2 3 2 2 2 2 2 2 2 2 2 # # # # # * # * # * # # * # * # * # # $ $ # # * # * * # # $ # $ # # # * # # # * $ # # * * # * # # $ # # * # # * * # # * # * # # $ * # * # * $ # # * # # # * $ # # X # # $ 2 2 2 2 2 2 2 2 2 2 2 7 2 2 2 2 2 2 2 2 2 2 2 2 2 2 2 2 2 2 2 2 2 2 2 2 2 2 2 2 2 2 2 2 2 2 2 2 2 2 2 2 2 2 2 2 2 2 2 2 2 2 2 2 2 2 2 2 2 2 2 2 2 2 2 2 2 2 2 2 2 2 3 3 2 2 2 2 2 2 2 2 2 2 2 2 2 2 2 2 2 2 2 2 2 2 2 2 2 2 2 2 2 2 2 2 2 2 2 2 2 7 2 2 2 2 2 2 2 2 2 2 2 2 2 2 2 2 2 3 2 2 2 2 2 2 2 2 2 2 2 2 2 2 2 2 2 2 2 2 3 2 2 2 2 3 2 2 2 2 2 2 2 2 2 2 2 2 2 2 2 2 2 2 2 2 2 2 2 2 2 2 2 2 2 2 2 2 2 2 2 2 2 2 2 2 2 2 2 2 2 2 2 2 2 2 3 2 2 2 2 2 2 2 2 2 2 2 2 2 2 2 2 2 2 2 2 2 2 2 2 2 2 2 2 2 2 # X # # # 2 2 2 2 2 2 3 8 9 9 9 9 2 9 2 0 9 9 9 9 2 0 9 9 9 9 9 9 9 9 9 2 9 9 9 3 7 9 9 9 9 9 9 9 9 9 9 2 9 9 9 7 9 9 9 2 2 2 2 2 2 9 2 0 9 9 9 9 3 9 9 8 8 9 8 9 9 9 9 9 9 9 9 9 9 0 9 9 9 8 9 9 8 9 9 9 7 9 9 9 9 9 9 9 3 2 9 2 9 2 2 2 2 2 2 2 ",
"2 2 2 2 2 2 2 2 2 2 7 2 2 2 2 7 2 2 2 2 2 2 2 2 2 2 2 2 2 2 2 2 2 2 3 2 2 2 3 2 2 2 2 2 2 2 2 2 2 2 2 2 2 2 2 2 2 2 2 3 2 2 2 2 2 2 2 9 2 2 2 2 2 2 2 2 2 2 2 2 2 2 2 2 2 2 2 2 2 2 2 2 2 3 2 2 2 2 2 2 2 2 2 2 2 2 2 2 3 2 2 3 2 2 2 2 2 3 2 2 2 2 3 2 2 2 2 2 2 2 2 2 3 2 2 2 2 2 3 2 2 3 2 2 2 2 2 2 2 2 2 2 9 2 2 2 2 2 2 2 2 2 2 2 2 2 2 2 2 2 2 2 2 2 2 2 2 2 2 2 2 2 2 2 2 2 2 2 2 2 2 2 2 2 2 2 2 2 2 2 2 2 2 2 2 2 2 2 2 3 2 2 2 2 2 2 2 2 2 2 2 9 2 2 2 2 2 2 2 3 7 2 2 3 2 2 2 2 2 2 2 $ # X # # # # # * # * # # $ # # * # $ # * # * # * # # * # # # # * * # $ # # * * # # # * # $ # * # # # # * * # # * # * * # # $ * # # # * # * # # * * # # # $ # $ # # * # $ # # * # # # * # * # # * # * # # * # $ # & $ # # # # # # 2 2 3 2 2 2 3 2 2 2 3 2 2 3 2 2 2 2 2 2 2 3 2 2 2 2 2 3 2 2 2 2 2 2 2 2 2 9 3 2 2 2 2 2 3 2 2 2 2 2 2 2 2 2 9 2 2 2 2 2 2 2 2 2 2 2 2 2 2 2 2 2 2 2 2 2 2 2 2 2 2 2 2 2 2 2 2 7 2 2 2 7 2 2 2 2 2 2 2 2 2 7 2 2 2 2 2 2 2 2 2 2 2 2 2 3 2 2 3 2 2 3 2 2 2 2 3 2 2 2 2 2 3 2 2 2 2 2 2 2 3 2 2 2 2 2 2 2 2 2 2 2 3 2 2 2 3 2 2 2 2 2 2 2 2 2 2 2 2 2 2 2 2 2 2 2 2 2 2 2 2 2 2 2 2 2 2 2 2 2 2 2 2 2 2 2 2 2 2 2 2 2 2 7 2 2 2 2 2 2 2 2 2 2 2 2 2 3 2 2 2 2 2 2 2 2 2 2 2 2 2 2 2 2 2 2 2 2 9 2 2 2 2 2 2 2 2 2 2 9 2 2 2 2 2 2 2 2 7 2 2 2 2 2 2 2 2 2 3 7 2 2 2 2 2 2 2 2 2 2 2 2 2 2 3 2 2 2 2 2 2 2 # X # # # # $ # $ # * * $ # # $ # # * # # * # # $ # # # * # * # * # $ # # * # * # * # # # $ # # * # * # # & $ # # & $ # $ # * * # # # * $ # # * $ # * * # # # # # # # X * 2 2 2 2 3 2 2 2 2 2 2 2 2 2 2 2 2 2 2 2 2 2 2 2 3 2 2 2 2 2 2 2 2 2 3 2 2 2 2 2 2 2 9 2 2 2 2 2 2 2 2 2 2 2 2 2 2 2 2 2 2 2 2 2 2 2 2 2 2 2 2 2 2 2 2 2 2 2 2 2 2 2 2 2 2 2 2 2 2 2 2 2 2 2 2 2 2 2 2 2 2 2 2 2 2 2 2 2 2 2 2 2 2 2 2 2 2 7 2 2 2 2 2 2 2 3 2 2 2 3 2 2 2 2 2 2 2 2 2 2 2 2 2 2 2 2 2 2 2 2 2 2 2 2 2 2 2 2 2 4 3 2 3 2 2 2 2 2 2 2 2 2 2 2 2 2 2 2 2 2 2 2 2 7 2 2 2 2 2 2 2 3 2 2 2 2 2 2 2 2 2 2 2 2 2 2 2 2 2 2 2 2 2 2 2 2 2 2 2 3 2 2 2 3 2 2 2 2 2 2 2 2 9 2 2 2 2 2 2 2 2 2 2 9 2 2 2 & # # X # 2 2 2 2 3 2 2 2 2 2 2 2 2 3 2 2 4 2 2 2 2 2 4 2 2 2 2 2 1 2 2 3 2 2 2 2 2 4 2 2 2 2 2 2 2 1 2 2 2 2 2 2 2 2 2 2 2 2 2 2 2 2 2 2 4 2 2 2 2 2 2 2 2 2 2 3 2 2 2 2 2 2 2 2 2 2 2 4 2 3 3 2 2 2 2 4 2 3 2 2 2 2 2 4 2 2 2 2 2 2 2 2 2 2 2 2 ",
"2 2 2 2 2 2 2 2 2 2 2 2 2 2 2 2 2 2 2 2 2 2 2 2 2 2 2 2 2 2 2 2 2 2 2 2 2 2 2 3 2 2 2 2 2 2 2 2 2 2 2 3 2 2 2 2 2 2 2 2 2 2 2 2 2 2 2 2 2 2 2 2 2 2 2 2 2 2 2 2 2 2 2 2 2 2 2 2 2 2 2 2 2 2 2 2 3 2 2 2 2 2 2 2 2 2 2 2 2 2 2 2 2 2 2 2 2 2 2 2 2 2 2 2 2 2 2 2 2 2 2 2 2 2 2 2 2 2 2 2 2 2 2 2 2 2 2 2 2 2 2 2 2 2 2 2 2 2 2 2 2 2 2 2 2 2 2 2 2 2 2 2 2 2 2 2 2 2 2 2 2 2 2 2 2 2 2 2 2 2 2 2 2 2 2 2 2 2 2 2 2 2 2 2 2 2 2 2 2 2 2 2 2 2 2 2 2 2 2 2 2 2 2 2 2 3 2 2 2 2 2 2 2 2 2 2 3 2 2 2 3 1 # # X # # & & $ * # $ # $ & # * # # $ # * # $ # $ # # & & # # * * # # $ & # & # & * # # # * # * & $ # * & # $ # # * * & & # # * $ # * # # & # $ # # # & $ & # * * # # $ # * $ & # # & $ & # * * # # # * # * # $ & # * # # # # % 2 2 2 2 2 2 2 2 2 2 2 2 2 2 2 2 2 2 2 2 2 2 2 2 2 2 3 2 2 3 2 2 2 2 2 2 2 2 2 2 2 2 2 2 2 2 2 2 2 2 2 2 2 2 2 2 2 2 2 2 2 2 2 2 2 2 2 2 2 2 2 2 2 2 2 2 2 2 2 2 2 2 2 2 2 2 2 2 2 3 2 2 2 2 2 2 2 2 2 2 2 2 2 2 2 2 2 2 2 2 2 2 2 2 2 2 2 2 2 2 2 2 2 3 2 3 3 2 2 2 2 2 2 2 2 2 2 2 2 2 2 2 2 2 2 2 2 2 2 2 2 2 2 2 2 2 2 2 2 2 2 2 2 2 2 2 2 2 2 2 2 2 2 2 2 2 2 2 2 2 2 2 2 2 2 3 2 2 2 2 2 2 2 2 2 2 2 2 2 2 2 3 2 2 2 2 2 2 2 2 2 2 2 2 2 2 2 2 2 2 2 2 2 2 2 2 2 2 2 2 2 2 2 2 2 2 2 2 2 2 2 2 2 2 2 2 2 2 3 2 2 2 2 2 2 2 2 2 2 2 2 2 2 2 2 2 2 2 2 2 2 2 2 2 2 2 2 2 2 2 2 2 2 2 2 2 2 2 2 2 2 2 # # X # # # $ & & # $ # & & & # * # $ # $ # # & & # $ # $ # # & # $ & # # # * # $ # & # & & # * * # $ # # * # & # $ # $ # * & # * * # $ # * # * # $ & $ # # & # # X # # $ 2 2 2 2 2 2 2 2 2 2 2 2 2 2 2 2 2 2 2 2 2 2 2 2 2 2 2 2 2 3 2 2 2 2 2 2 2 2 2 2 2 2 2 2 2 2 2 2 2 2 2 2 2 3 2 3 2 3 2 2 2 2 2 2 2 2 2 2 2 2 2 2 2 2 2 3 2 2 2 2 2 2 2 2 2 2 2 2 2 2 2 2 2 2 2 2 2 2 2 2 2 2 2 2 2 2 2 2 2 2 2 2 2 2 2 2 2 2 2 2 2 2 2 2 3 2 2 2 2 2 2 2 2 2 2 2 2 2 2 2 2 2 2 2 2 2 2 2 2 2 2 2 2 2 2 2 2 2 2 2 2 2 2 2 2 2 2 2 2 2 2 2 2 2 2 2 2 2 2 2 3 2 2 2 2 2 2 2 2 2 2 2 2 2 2 3 2 2 2 2 2 3 2 2 2 2 2 2 2 2 2 2 2 2 2 2 2 3 2 2 2 2 2 2 2 2 2 2 2 2 2 2 2 2 2 2 2 2 2 2 2 2 2 2 2 2 3 & # # # X 2 3 2 2 2 2 2 2 2 2 2 2 2 2 2 2 2 2 2 2 2 2 2 2 2 2 2 2 2 2 2 2 2 2 2 2 2 2 2 3 2 2 2 2 2 2 2 2 2 2 2 2 2 2 2 2 2 2 2 2 2 2 2 2 2 2 2 2 2 2 3 2 2 2 2 2 2 2 2 2 2 2 2 2 2 2 2 2 2 2 2 2 2 2 2 2 2 2 2 2 2 2 2 2 2 2 2 2 2 2 2 2 2 2 2 2 ",
"3 2 3 2 2 2 2 2 3 2 3 2 3 2 2 2 3 2 2 2 2 2 2 2 3 2 2 2 2 2 2 2 3 2 3 3 2 2 2 2 2 2 2 2 3 2 3 2 2 2 2 2 2 2 2 2 2 2 3 2 3 2 3 2 2 2 2 2 2 2 2 3 3 2 2 3 2 2 2 2 2 2 2 2 2 2 2 2 2 2 2 2 2 2 2 2 2 2 3 2 3 2 3 2 2 2 2 2 2 2 3 2 2 2 2 2 2 2 2 2 2 2 2 2 3 2 2 3 2 3 2 2 2 2 2 2 2 2 2 2 2 2 2 3 3 2 2 3 2 2 2 2 2 2 2 3 3 2 3 2 2 2 2 2 2 2 2 2 2 2 3 2 2 2 2 2 2 2 2 3 3 2 2 3 3 2 3 2 3 2 2 2 3 2 3 2 3 3 2 2 2 2 2 2 2 2 2 2 2 3 2 3 2 3 2 2 2 2 2 2 2 2 2 2 2 2 2 2 2 2 2 2 2 2 2 2 3 2 3 3 3 % X # # # # & # & # & # * * # & & # * # * # # # * # * & & # * $ # # $ * # # * & # & # # * & $ # # $ # # # & & # * # # # # & & $ # & # # & & & * # * * & # & & $ # # # * # # # & & & & # & $ # # # # * & & $ # # & $ # # # # # X # 2 2 2 2 2 2 2 2 2 2 2 2 2 2 2 3 3 2 2 3 2 3 2 3 3 2 3 2 2 2 3 2 3 2 2 2 2 2 2 2 2 2 2 2 2 2 2 2 2 2 2 2 2 2 2 2 2 2 2 2 2 2 7 2 2 2 2 2 2 2 2 2 2 2 2 2 2 3 3 2 2 3 2 2 2 2 2 2 3 3 2 2 2 3 2 2 2 2 3 2 3 2 2 3 2 3 2 2 2 2 2 2 3 3 2 2 2 3 3 2 3 2 3 2 2 2 2 2 3 2 2 2 2 2 2 2 3 2 3 2 2 2 2 2 2 2 2 2 2 2 2 2 2 2 2 2 2 2 3 2 2 2 2 2 2 2 2 3 3 2 2 2 3 3 2 2 2 2 3 2 3 2 3 2 3 2 2 2 2 2 2 3 2 2 2 2 2 2 2 2 2 2 2 3 2 3 2 2 2 2 2 2 2 3 2 3 2 2 2 2 2 2 9 2 2 2 2 2 2 2 2 2 3 3 2 3 3 2 2 2 2 2 2 2 2 3 3 2 2 2 2 2 2 2 2 2 3 2 2 2 3 2 2 3 3 2 2 2 2 3 2 2 2 2 2 2 2 2 2 3 2 3 2 2 3 2 3 2 3 2 2 2 # X X # # & & # & & $ & & # # * # & # * # * & & # * # * # * & & * # # * * # # * # * $ & & # $ # # # # * $ # & & * # * # # # & # # # * # # * $ # * # $ # & & * # # . # X & 2 2 2 2 2 2 2 2 2 2 2 2 2 2 2 2 2 2 2 2 3 2 2 2 2 2 2 2 3 2 3 2 3 2 2 2 2 2 2 2 2 2 2 2 2 2 2 2 2 2 2 2 2 2 2 2 2 2 2 2 2 2 2 2 2 2 2 2 2 2 2 2 2 2 2 3 2 2 2 2 2 2 2 2 2 2 3 2 3 2 2 2 2 2 2 3 3 2 3 2 2 2 2 2 2 2 2 2 2 2 3 2 3 2 2 2 2 2 3 3 2 2 2 3 2 2 2 2 2 2 2 2 2 2 2 2 2 3 2 2 2 2 2 2 2 3 2 3 2 2 2 2 2 2 2 2 2 2 2 2 2 2 2 2 2 2 2 2 2 2 2 2 2 2 2 2 2 3 2 2 2 2 3 2 3 2 2 2 2 2 2 3 3 2 2 2 2 2 2 3 2 2 2 2 2 2 2 2 2 2 2 2 2 2 2 2 2 2 3 2 3 2 2 2 2 2 2 2 2 2 3 3 2 3 2 2 2 3 2 3 3 3 2 2 2 2 3 # X X X # 2 3 2 2 2 2 2 2 2 2 2 2 2 2 2 2 2 2 2 2 2 2 2 2 2 2 2 3 3 2 2 2 2 2 2 2 2 3 2 3 2 2 2 3 2 3 2 2 2 3 2 3 2 2 2 2 2 2 2 2 2 3 3 2 2 2 2 3 2 2 2 2 3 2 2 2 2 2 2 2 2 2 2 2 2 2 2 2 2 2 2 2 2 2 2 2 2 2 2 2 2 2 2 3 2 2 2 2 2 2 2 3 2 2 2 2 ",
"2 2 2 2 2 2 2 2 2 2 2 2 2 2 2 2 2 2 2 2 2 2 2 2 2 2 2 2 2 2 2 2 2 2 2 2 2 2 2 2 2 2 2 2 2 2 2 2 2 2 2 2 2 2 2 3 2 2 2 2 2 2 2 2 2 2 2 2 2 2 2 2 2 2 2 2 2 2 2 2 2 2 2 2 2 2 2 2 2 2 2 2 2 2 2 2 2 2 2 2 2 2 2 2 2 2 2 2 2 2 3 2 2 2 2 2 2 2 2 2 2 2 2 2 2 2 3 2 2 2 2 2 2 2 2 2 2 2 2 3 2 2 2 2 2 2 2 2 2 2 2 2 2 2 2 2 2 2 2 2 2 2 2 2 2 2 2 2 2 2 2 2 2 2 2 2 2 2 2 2 2 2 2 2 2 2 2 2 2 2 2 2 2 2 2 2 2 2 2 2 2 2 2 2 2 2 2 2 2 2 2 2 2 2 2 2 2 2 2 2 2 2 2 2 2 2 2 2 2 2 2 2 2 2 2 2 2 2 2 2 2 % # # # X # # & # # # # # # # & # & & # # * # # # # * $ # $ # # # & # # # # * & $ & # $ # # # * # # # * # # # * # # # # $ $ # # * # # # * $ # # # # # & # 1 # # # * # # # * # # # # # * # # # # # # * # # # # * # # # # #   # # # 2 2 2 2 2 2 2 2 2 2 2 2 2 2 2 2 2 2 2 2 2 2 2 2 2 2 2 2 2 2 2 2 2 2 2 2 2 2 2 2 2 2 2 2 2 2 2 2 2 2 2 2 2 2 2 2 2 2 2 2 2 2 2 2 2 2 2 2 2 2 2 2 2 3 2 2 2 2 2 2 2 2 2 2 2 2 2 2 2 2 2 2 2 2 2 2 2 2 2 2 2 2 2 2 2 2 2 2 2 2 2 2 2 2 2 2 2 2 2 2 2 2 2 2 2 2 2 2 2 2 2 2 2 2 2 2 2 2 2 2 2 2 2 2 2 2 2 2 2 2 2 2 2 2 2 2 2 2 2 2 2 2 2 2 2 2 2 2 2 2 2 2 2 2 2 2 2 2 2 2 2 2 2 2 2 2 2 2 2 3 2 2 2 2 2 2 2 3 2 2 2 2 2 2 2 2 2 2 2 3 2 2 2 2 2 2 2 2 2 2 2 3 2 2 2 2 2 2 2 2 2 2 2 2 2 2 2 2 2 2 2 2 2 2 2 2 2 2 2 2 2 2 2 3 2 2 2 2 2 2 2 2 2 2 2 2 2 2 2 2 2 2 2 2 2 2 2 2 2 2 2 2 2 2 2 2 2 2 2 2 2 2 & X # # # & # # # $ # # # $ # # $ # # # # * # # # & # # # * # # # & $ # # # # # # $ $ # $ 1 # # * # # # # * # # # & # # * # # # $ # # # # # # # # # # $ # # # # # # # # & 2 2 2 2 2 2 2 2 2 2 2 2 2 2 2 2 2 2 2 2 2 2 2 2 2 2 2 2 2 2 2 2 2 2 2 2 2 2 2 2 2 2 2 2 2 2 2 2 2 2 2 2 2 2 2 2 2 2 2 2 2 2 2 2 2 2 2 2 2 2 4 2 2 2 2 2 2 2 2 2 2 2 2 2 2 2 2 2 2 2 2 2 2 2 2 2 2 2 2 2 2 2 2 2 2 2 2 2 2 2 2 2 2 2 2 2 2 2 2 2 2 2 2 2 2 2 2 2 2 2 2 2 2 2 2 2 2 2 2 2 2 2 2 2 2 2 2 2 2 2 2 2 2 2 2 2 2 2 2 2 2 2 2 2 2 2 2 2 2 2 2 2 2 2 2 2 2 2 2 2 2 2 2 2 2 2 2 2 2 2 2 2 2 2 2 2 2 2 2 2 2 2 2 2 2 2 2 2 2 2 2 2 2 2 2 2 2 2 2 2 2 2 2 2 2 2 2 2 2 2 2 2 2 2 2 2 2 2 2 2 2 2 2 2 2 2 2 1 # # # # 2 2 2 2 2 2 2 2 2 2 2 2 2 2 2 2 2 2 2 2 2 2 2 2 2 2 2 2 2 2 2 2 2 2 2 2 2 2 2 2 2 2 2 2 2 2 2 2 2 2 2 2 2 2 2 2 2 2 2 2 2 2 2 2 2 2 2 2 2 2 2 2 2 2 2 2 2 2 2 2 2 2 2 2 2 2 2 2 2 2 2 2 2 2 2 2 2 2 2 2 2 2 2 2 2 2 2 % 2 2 2 2 2 2 2 2 ",
"X # # # X # # # X # # # X # # & # X # # # X # # # # # # # X % # % # o # X # # # # # # # # # X # X # # # # # # # # # X # X # # # # # # # # # X # X # # # # # X # # # # # # # # X # # # # # # # X # # # # X # # # # X # # # # # # X # # # # X # # # X # # # # # # # # X & X # # # # # # # # # X # X # # # # # # # # # X # # # % X # # # # # # X # # # # # # # # # # # # X X # # # # X # # # # X # X # # # X # # # # X # # # # # # # # X # # # # & & X # # & X # # % # # # # # # # X # # # # # # X # # # X # X # # # # # # # # # # X # # # # # # # # # # # # X # # # # # # # # # # X # # # # # # # # # # # # # # # # # # # # # # X # # # # # # # X # # # # # # # # # # # # # # # # # # # # # # # # # # # # # # # # # # # # # . # # # X # # # # # # # # # X # # # # # # X # X # # # X # # # # # X # # # # # X # # # # X # # # # # # X # # # # X # # # X # # # # # # % % # # X # % X # # # # # # X # # X # # # # # # # # X # X # % X # # # # # # X # # X # # # # # # # # X # # X # # # X # # # # X # # # # X # # # & # # # X # # # & # # # # # X # # # X # # # # # # # X % % # # # # # # X # X # # # # # # # # # X # # # % X # # # # X # # # # # # # # # X # # X # # # # # # # # X # X # # # # # # # X % % o # # # # # # X # # % X # # # # # # # X # X # # # # # # # # # X # # # X # # # X # X # # # # # # # # # X # # X # # # # X # # # # # # # # # # X X # # # # # # # # # # # # # # # # # # # # # # # # # # # # # # # # # # # # # X # # X # # # # # # # # # # # # # # # # # # # X # # # # # # # # # # # # # # # # X X # # # # # # X # # # # # # # X # # # # X # # # # # # # # X # # % X # # # X # X # % X # # # # # X # # # # # # # # # X # # # & # X # # # # # # % % X # X # # # # # # # # # X # # X # # # # # # # # X # # % X # # # # % # # X # X # # # # # X # # # X # X # # # # # # # # # X # # X # # & X # # # X # # # # # # # # # # # X # # # X # # # # # # % # # # o # # # # # # # # # X # # X # # # # # # # # X # # X # # # # X # # # X % X # # # # # # # # # X # # % X # # # # # X # # # # # # X # # # # X # X # # # # # # # X # # X X # % X # # # X # # o % # # % X # # # # # & X # # # # # # X # # # # # # X # # # X # # # X # # # X # X # # # # # # # # # X # X # # # # # X # # # X # # # # # # X # # # X # # # # # % # # # # # X # # # X # # # # # # % % % % X % X % # # # ",
"# # X # # X # # # # X # X # X X # # X # X # # # X # # X # # X X # X X # # # o # X # X X # X X # # X X # # X # X # X X # X X # # # # X X # X X # X # # X # X # # # # # X X X # X # o # X # X # # X # X # # # X X X X # # X # X X # # X # X # # # X X # X X # X X # # # X X X # # X # X X # X X # X # # X # # X # # # # X X # X # X # X X # X # # X X X # # X # X # X # # # # X # # X # # # # # X # # X # # # X X # # X # X # X X X # # X X # # X X X # X # X & # # X X # o o # # # X # # # # # # # X # # X # # # # X # . # # #   # # X X X % # X # # # # . # X # X # # # # #   # X # # # X # # # # # . # # X # # # . # # X # # # # # # # X # # # # # # . # # X X #   #   # # # # X # # # X # # # # # # . # # # X X # # # # # # # # # X X # # # # X # X # # X # X # X X # X X # # # X # # # X X # X # X # # X # # X X # X # X # # # # X # X # # # # # X # # o # X X # # # # # X # X # X X # # # X X # X # # X # X # X X # # # X # X # X X X # # # X # # X # X # X # X X # X X # # # X # # # X X # X # X # # # X X X # # X X # X X X # X # X # # # # # X # # o # X X # X # # X # X # X X # X X # # X # X X X # # # X X X # # X # X X # X # # X # X # X X # X X # # X # # X # # # X # X X # # X # X % X # X # # # X # X X # X # X # # # X X X # X # X # X # X # # X X # X # # X # # # X X # # # X # # X # # X & X X X # # X # X # # X # # # X # # X X # # # # # . # X # # X # # # # # # # # . # # X # # # # . # # X # . # . # # #   X # # # X # # # # # # . # # # X # # # # . # # # # # # X # # # # # X # # X # # # # # # X # # # X # X # X # # X # # X X # X X # # X # X X # # # # X # X # # X # # # # X # # X # # X X # # # X # # X # X # X # X X # # X # X # X X # X X # # # X # # X # # X # # X X # X # # X # X # X X # X # X # X # # X # # # # X # # X # X # # # # # X # # X # # X # # # X X # # # X # # X # # X X # # X # X X X # X # X # # # # # X # # o # X X # # X # # # # X # X X # X X # X # # X # X # X # X X # X X # # X # # # # X # # # X # X # # # X X # # X X # X # # X # # # X X # X # X # # X # # # # X # # # X X X X # X # X # # X X # # X # # # X # # X X # # X X # X X # X # # X # # # X # X # # X # # X X # X X # # # X # # X # X X # # X # X X # # X X X # # X # # # # X X # X # X # X # # # X X # # X # # X X # X # X # # # X X # # # # X X # X X # X # # X X # # ",
"# X X # # X # X # X X # # # # # X # X # # # X # # X X # X % # # # # # X X # # # # # # # X # # # # # # # # # X # # # # # # # # X X # # # # # # # X # # X # # X # X X # # # # # # # # # # # # X X # X X # X # # # # # # X # # # # # X X # # # X # # # # # # # # # X X # # # # # X # # # # # # # # X # # X # X # # X X # # # X X # # # # # X # # o # # # # # # X # # # X X X # X # # X X # X X # # # X X # X # # # X # X # # # # # # X X # # # X # # # # # X & X # # # # # # # o # # X # X X X # o # # X # X # X # X # # # # # # # X # # # & X # X . # # . X # # # # # X . # # # # # # X # # # X X # # . # # X # X # # . # # # X # #   # . # # X # # # # # X 1 # # # # # # # # # # # # X # # # X X # # # # # . # X # # X X # . # . X # # # o X # o # X # # # # X # # # # # # # # X # X # X X # # # # X X # # X # X # # # # X # # X X # X # # # X # X # X # # # # # # # X X # X X # # # # # X X # # X # # X # # # X # # # # X # X # # # # # # # X X X # # X # # # X X # # # # # # X # X # X X # # # # X X # X # # # # X # # # # # # # X X # # # X # X # # X # # # # X # # # # # X # # # # # # # # X # # # # # # X X # # # # # # X # X # # # # # # X X # # # # # # X # # X # X X # # # # # # # # X # & X X # # X # X X # # # # X X # X # # # # X % X X # # # X # # X X # # X # # X # # # # # X # # X X # # X # X % % X # # X # # X # # X X # X # # X # # X # # # # # # # X # X X # o . # # . X # # X # # . # # # # X # # # # # # # # # # X # # # X # . # # . X # # # # # #   . # # . X X # # # # # . # # X # # X # # # X # X # X # X # # X # # X # # # # # # # # # X # # # # X # o X # X # # # # X # X # X # # X # X # # # X X # # X # X X # # # # # X # X # # # # # X # # # X # X # X # # X # X # # X # # X # # # X X # # # # X X # # # X # # o # o X # # X # # X # X X # # X # X # X # # X # # # X X # X # X # # X # # # X # # # # # X X # # # X # X # X # # # # # # X # # # o # X # # # # X # # # X # # X # # # X X # # # # # # X # # X # o # # o # # # X # X # X # # X # # X X # # X # X # # # # # X X # X # # X # X X # X # # # # # # # # # X # # # # X # # X # # X # # # X # # # # # # # # X X X # X # X # # X # # X X # # # # # # X # # X # # # # # # # # # X # X # # # # # X # # X # # # # # # X X # # # X # # # # X # # X # # X X # # # X # # # # X X # # # # # # # % X # # # # X ",
"# X # # # # X # X # # # # X X # # X # X # X # X # X # # X X % % X # # # X # X # # X X # # # # X X X # X X # X # X # # X # X # X X # # X X # # X # X # # X # X # # X # X # X X # # o # # X # # # # X # # X # X # X # X # # X X # # X # # # X X # X # X # # X X # # X X # # X # X # X # # X # # X # # X # X # # X # # # X # X # # # X o # # # # # X # # X X # X # X # # # X # # X # # X # # # # X # X # # X # X # X # # X # X # X # X # # # X # X # X X # X X X % X # # X # # # # # # X # # X # # X # X # # # X # # # # # # # # . X # X X X # X % # # # # # # # X # . # # # #   # # X # # X # # # . # # # # # X # . # # # # X # # # # # . # X X # # # . # X X % o . # # # # #   # # X # X # X # # # #   # # # . # # X # # X # # . X # # # # # # # # X # X X # X # X # # X # X # X # # X # # # # X # X # # # # X # # X X # X # # # # X # # # X # X X # # X # o # # # X X # # X # # # X # X # # # X # X # # X # X # X # # X X # # X # X # X X # # # # X # # X # X # # # # X # X X % # # X # # # # X # X # # X # # X # X X # # X X # X X # # # X # X # # # X # o # # # X # X X # X # X # # X # X # X # X # X X % % X X # # X X # X # # X # X X # X # # # # X X # X # # X X # # X % X X X # X X # X # X # X # # # X # # # # X # X # # X # X # # X X % # X # X # # X # # X # # X # X # X # # X X # # X X # # X X # X X # X # # X # X # # # X # # X # # X # # . # # . # # X # X # # # # # # # # # # X #   # # # . # X # X # # # # # #   # X X # # X # o # # # # # # X X # # # # # # # # # X X # # # # . # X X # # X # o X # X # X # X # X # X # # # X X X # # X # X X # # X # X # # # # X # # X X # X # X # # X # # X # # X X # X # # # # X # # # X # X X # # X o # # # # # # X X # # X X # # # # X X # # X # # X # X # # # # X # X # # # X # # X # # # # X # # X # X # # X # X X # # X X # # # X # # # X # # X X # # # # X X # # X # # X X # # # X # X # X # X # o # # # X X # # # # o # X # X # # # X # X # # X # X # # # # X # X X # # X # # # # # # X # X # X # # # # X X # # X # # # # X # X # # X # X # # X # # X # X # # X # o # X # X # # X X # # X X # X X # X # X X # # X X # # X # X X # X # # X # X # X # # X # # # X # X # # X X # # X # # X X # X X X # # # X X # X # # X # X X # X # # X # X # # # X X # # X X # # X # # # X # # # X # X # X X # X # X # X # # X # X X # # X # ",
"% # # % # # 1 # 1 # # # # $ # $ # & % 1 # # & # 1 # % # # # % % % # # # % # # % & # & # # # # $ % & # & & # & # & # # # & # & % % # # % # % % % % # 1 # 1 # 1 # # 1 # & # & # % # # # # # # # # & # % # $ # & # 1 # # & # $ # $ # & # # & # & # & # & # # $ # $ & & & # & # & & # # # # # # $ # # & # & & # # # # # # 1 # # 1 # $ % # # # # % % % # # # % # 1 # 1 # # # & # & % # # & # # # # $ & # % # & # $ & # % # 1 % # # $ # & # # # # & # & # & & # % % % # % # # # # # # # % # # # $ # % # % & # # # & # # # # # # # # # & & & # & & % % # # # # # # # # # $ # # # # # # # # # # # # # $ # # # # # & # $ # # # # # # # $ # # # # # $ # # # # # # # # % % # # # # # # # # # & # $ # # # $ # # # # # # # $ & # # & # $ # # % # # # # # % % % # & # 1 # & # # # 1 # # 1 # % # # % # # # % # 1 # # % # # 1 # # 1 # % % # # # & # % # 1 # # $ # % # % # # % % # 1 & # % # # % % # # % # # # $ % # 1 # 1 # $ # # # & # & # & 1 % # # % # % % % % # 1 # 1 # $ # % # # # 1 # # & # # 1 # # # % # # 1 # # # & # & # & # % # $ # $ 1 % # % # # % # # # # % # # % % % # % # % # & # # # 1 # # 1 # % # 1 # # 1 # % % 1 # # # % # & # % & # & & # & # # # # & % # # 1 & # % # 1 % % % % & # & & # & # 1 # 1 # # # & # 1 # # # & # & # & # & # & 1 % % % & # & & # & # # & # & & # & # # # # & # % # 1 & # & # & & % % & # & # 1 # & # # # # # # % & # # # # # # # # # # % # % # # % % # # # # # # $ # # # # # $ # # & # # # # # # # # # # $ % # # % % # # # # # # $ # # # # # # # # # # $ $ # # # # # # # % # $ # % % $ # & # & & & # & # & # # # & & & # # # & # & & % # # % # # % % % # # # 1 # & # & & # 1 # # 1 # # % # % % # # # # 1 # # # # & $ # % # % % # % % # # # $ # % # % % # # # # % % # % # 1 # 1 # $ # 1 # # # 1 # # & # # # # # # % % % # % # 1 # & # # 1 # $ # 1 # % % # # # # # % # & # & 1 % # # # # 1 # % # # # $ 1 & # % # & # % # $ # % # # % % # % % # # # # $ % # # % # # # $ % # 1 # 1 # $ # # # # 1 # # % 1 # # # # # # % % % # % # 1 # # # & & & # & % # # # # 1 # # # # $ # & % # & # % # % # # % $ # $ % # 1 # # # # & # & # & % % # % % # 1 # & # & # % # & # % # % # % % & # & & # & # % # # # 1 # # 1 & # # # $ # # $ # $ & # & & # & # & $ # 1 # # 1 # & # & # # # # 1 # # 1 # # & # & # & % # # # # 1 # # & # # & & # % # 1 $ # # # # # # 1 # # % # # # $ ",
"2 2 2 2 2 2 2 2 2 2 2 2 2 2 2 2 3 2 2 2 2 2 2 2 2 2 2 2 2 2 2 2 2 2 2 2 2 2 2 2 2 2 2 2 2 2 2 2 2 2 2 2 2 2 2 2 2 2 2 2 2 2 2 2 2 2 2 2 2 2 2 2 2 2 2 2 2 2 2 2 3 2 2 2 2 2 2 2 2 2 2 2 2 2 2 2 2 2 2 2 2 2 2 2 2 2 2 2 2 2 2 2 3 2 2 2 2 2 2 2 2 2 2 2 2 2 2 2 2 2 2 2 2 2 2 2 2 2 2 2 2 2 2 2 2 2 2 2 2 2 2 2 2 2 2 2 2 2 2 2 2 2 2 2 2 2 2 2 2 2 2 2 2 2 2 2 2 2 2 2 2 2 2 2 2 2 2 2 2 2 2 2 2 2 2 2 2 2 2 2 2 2 2 2 2 2 2 2 3 2 2 2 2 2 2 2 2 2 2 2 2 2 2 2 2 2 2 2 2 2 2 2 2 2 2 2 2 2 2 2 2 2 2 2 2 2 2 2 2 2 2 2 2 2 2 2 2 2 2 2 2 2 2 2 2 2 2 2 2 2 2 2 2 2 2 2 2 2 2 2 2 2 2 2 2 2 2 2 2 2 2 2 2 2 2 2 2 2 2 2 2 2 2 2 2 2 2 2 2 2 2 2 2 2 2 2 2 2 2 2 2 2 2 2 2 2 2 2 2 2 2 2 2 2 2 2 2 2 2 2 2 2 2 2 2 2 2 2 2 2 2 2 2 2 2 2 2 2 2 2 2 2 2 2 2 2 2 2 2 2 2 2 2 2 2 2 2 2 2 2 2 2 2 2 2 2 2 2 2 2 2 2 2 2 2 2 2 2 2 2 2 2 2 2 2 2 2 2 2 2 2 2 2 2 2 2 2 2 2 2 2 2 2 2 2 2 2 2 2 2 2 2 2 2 2 2 2 2 2 2 3 2 2 2 2 2 2 2 2 2 2 2 2 2 2 2 2 2 2 2 2 2 2 2 2 2 2 2 2 2 2 2 2 2 2 2 2 2 2 2 3 2 2 2 2 2 2 2 2 2 2 2 2 2 2 2 3 3 2 2 2 2 2 2 2 2 2 2 2 2 2 2 2 2 2 2 2 2 2 2 2 2 2 2 2 2 2 2 2 2 2 2 2 2 2 2 2 2 2 2 2 2 2 2 2 2 2 2 2 2 2 2 3 2 2 2 2 2 2 2 2 2 2 2 2 2 2 2 2 2 2 2 2 2 2 2 2 2 2 2 2 2 2 2 2 2 2 2 2 2 2 2 2 2 2 2 2 2 2 2 2 2 2 2 2 2 2 2 2 2 2 2 2 2 2 2 3 2 2 2 2 2 2 2 2 2 2 2 2 2 2 2 2 2 2 2 2 2 2 2 2 2 2 2 2 2 2 2 3 2 2 2 2 2 2 2 2 2 2 2 2 2 2 2 2 2 2 2 2 2 2 3 2 2 2 2 2 2 2 2 2 2 2 2 2 2 2 2 2 2 2 2 2 2 2 2 2 2 2 2 2 2 2 2 2 2 2 2 2 2 2 2 3 2 2 2 2 2 2 2 2 2 2 2 2 2 2 2 2 2 2 2 2 2 2 2 2 2 2 2 2 2 2 2 2 2 2 2 2 2 2 2 2 2 2 2 2 2 2 2 2 2 2 2 2 2 2 2 2 2 2 2 2 2 2 2 2 2 2 2 2 2 2 2 2 2 2 2 2 2 2 2 2 2 2 2 2 2 2 2 3 2 2 2 2 2 2 2 2 2 2 2 2 2 2 2 2 2 2 2 2 2 2 2 2 2 2 2 2 2 2 2 2 2 2 2 2 2 2 2 2 2 2 2 2 2 2 2 3 2 2 2 2 2 2 2 2 2 2 2 2 2 2 2 2 2 2 2 2 2 2 2 2 2 2 2 2 2 2 2 3 2 2 2 2 2 2 2 2 2 2 2 2 2 2 2 3 2 2 2 2 2 2 2 2 2 2 2 2 2 2 2 2 2 2 2 2 2 2 2 2 2 2 2 2 2 2 2 2 2 2 2 2 2 2 2 2 2 2 2 2 2 2 2 2 2 2 2 2 2 2 2 2 2 2 2 2 2 2 2 2 2 2 2 2 2 2 2 2 2 2 2 2 2 2 2 2 2 2 2 2 2 2 2 2 2 2 2 2 2 2 2 3 2 2 2 2 2 2 2 2 2 2 2 2 2 2 2 2 2 2 2 2 2 2 2 2 2 2 2 2 2 2 2 2 2 2 2 2 2 2 2 2 2 2 2 2 2 2 2 3 2 2 2 2 2 2 2 2 2 2 2 2 2 2 2 2 2 2 2 2 2 2 2 2 2 2 2 2 2 2 2 2 2 2 2 2 2 2 2 2 2 2 2 2 2 2 2 3 2 2 2 2 2 2 2 2 2 2 ",
"2 2 3 2 2 2 2 2 2 2 2 2 2 2 2 2 2 3 2 3 2 2 2 2 2 3 2 2 2 2 2 2 2 2 2 2 2 3 2 2 2 2 2 2 2 2 2 2 2 2 2 2 2 2 2 3 2 2 2 3 2 2 2 2 2 2 2 2 2 2 7 2 2 2 2 2 2 2 2 2 3 2 2 2 2 7 2 2 2 2 2 2 2 2 2 2 2 2 2 2 2 2 2 2 2 2 2 2 2 2 3 2 2 2 2 2 2 2 2 2 3 2 2 2 2 2 2 2 2 2 2 2 2 3 2 2 2 2 2 2 3 2 2 2 2 2 2 2 2 2 2 3 2 2 3 3 2 2 2 2 2 2 2 2 2 2 2 2 2 2 2 2 2 2 2 2 2 2 2 2 2 2 2 2 2 2 2 2 3 2 2 2 2 2 2 3 2 2 2 2 3 2 2 2 2 2 2 2 3 2 2 3 2 2 2 2 2 2 2 2 2 2 2 2 2 2 2 2 2 2 2 2 2 2 2 2 2 2 2 2 2 2 2 2 2 2 2 2 2 2 2 2 2 2 2 2 2 2 2 2 2 2 2 2 2 2 2 2 2 2 2 2 3 2 2 2 2 2 2 2 2 2 2 2 2 2 2 2 2 2 2 2 2 2 2 2 2 2 2 2 2 2 2 2 2 2 2 2 2 2 2 2 2 2 2 2 2 2 2 2 2 2 2 2 2 2 2 2 2 2 2 2 2 3 2 2 2 2 2 3 2 2 2 2 2 2 3 2 2 2 2 2 2 2 2 2 2 2 2 2 2 2 2 2 2 2 2 2 2 2 2 2 3 2 2 2 2 2 2 2 2 2 2 2 2 2 2 2 2 2 2 2 3 2 2 2 2 2 2 2 2 2 3 2 2 2 2 2 2 3 2 2 2 2 2 2 3 2 2 2 3 2 2 2 2 2 2 2 2 2 2 2 2 2 2 2 2 2 2 2 2 2 2 2 2 2 2 2 2 7 2 2 2 2 2 2 2 2 2 2 2 2 2 2 2 2 2 2 2 2 2 2 2 2 2 2 2 3 2 2 2 2 2 2 2 2 2 2 2 2 2 2 2 2 2 2 2 3 2 2 2 2 2 2 2 2 2 2 2 2 2 3 2 2 2 3 2 2 2 2 2 2 2 2 2 2 2 2 2 2 2 2 2 2 2 2 2 2 2 2 2 2 2 2 2 2 2 2 2 2 2 2 2 2 2 2 2 2 2 2 2 2 2 2 2 2 2 7 2 2 2 2 2 2 2 2 2 2 2 3 2 2 2 2 2 2 2 2 2 2 2 2 2 2 2 2 2 2 2 2 2 2 2 2 2 2 2 2 2 2 2 2 2 2 2 3 2 3 2 2 2 2 2 2 2 2 2 2 2 2 2 2 2 2 2 2 2 2 2 2 2 2 2 2 2 2 2 2 2 3 2 2 2 2 2 2 2 2 2 2 3 2 2 2 2 2 2 2 2 2 2 3 2 2 2 2 2 2 2 2 2 3 2 2 2 2 2 2 3 2 2 2 2 2 2 2 2 2 2 2 2 2 2 2 2 2 2 2 2 2 2 2 3 2 2 2 2 2 2 2 2 2 2 2 2 2 3 2 2 2 2 2 2 2 2 2 2 2 2 2 2 2 2 3 2 2 2 3 2 2 2 2 2 2 2 2 2 2 2 2 2 2 2 3 2 2 2 2 2 2 2 2 2 2 2 2 2 2 2 2 2 2 2 2 2 2 3 2 2 2 2 2 2 2 2 2 2 2 2 2 3 2 2 2 2 3 2 2 2 2 2 2 2 3 2 2 2 2 2 2 2 2 2 2 2 2 2 2 2 2 2 2 2 2 2 2 2 2 2 2 2 2 2 2 2 2 2 2 3 2 2 2 2 2 2 2 2 2 2 2 2 3 2 2 2 2 2 2 2 2 2 2 2 2 2 2 2 2 2 2 2 3 2 2 2 2 2 2 2 2 2 2 2 2 2 2 2 2 2 2 2 3 2 2 2 2 2 2 2 3 2 2 2 2 2 2 2 2 2 2 2 3 2 2 2 2 2 2 2 2 2 2 2 2 2 3 2 2 2 2 2 2 2 2 2 2 2 2 2 3 2 2 2 2 2 2 3 2 2 2 2 2 2 2 2 2 2 2 2 2 2 2 2 2 2 2 2 3 2 2 2 2 2 2 3 2 2 2 2 2 2 2 3 2 2 2 2 2 2 2 2 2 2 2 2 2 2 2 2 2 2 2 2 2 2 2 3 2 3 2 2 2 2 2 2 2 2 2 2 2 2 2 2 2 2 2 2 2 2 2 3 2 2 2 2 3 2 2 2 2 2 2 2 2 2 2 2 2 2 2 2 2 2 2 2 2 2 2 2 2 2 2 2 2 2 3 2 2 2 2 2 2 2 2 2 2 2 2 3 2 2 2 2 2 2 2 2 2 2 ",
"2 2 2 2 2 2 2 2 3 2 2 3 2 2 2 2 2 2 2 2 2 2 2 2 2 2 2 2 2 2 2 2 2 2 2 2 2 2 2 3 2 2 2 2 2 2 2 2 2 2 2 2 2 2 2 2 2 2 2 2 2 2 2 2 2 2 2 2 2 2 2 2 2 2 2 2 2 2 2 2 2 2 2 2 2 1 2 2 2 2 2 2 2 2 2 2 2 3 2 2 2 2 2 2 2 2 3 2 2 2 2 2 3 2 2 2 2 2 2 2 2 2 2 2 2 2 2 2 2 2 2 2 2 2 2 2 2 2 2 2 2 2 2 2 2 2 2 2 2 2 2 2 3 3 2 2 2 2 2 2 2 2 2 2 % 2 2 2 2 2 2 2 2 2 2 3 2 2 2 2 2 2 2 2 2 2 2 2 2 2 2 2 2 2 2 2 2 2 2 2 2 2 2 2 2 2 2 2 2 2 2 2 2 2 2 2 2 2 2 2 2 2 2 2 2 2 2 2 2 3 2 3 2 2 2 2 2 2 2 2 2 2 2 3 2 2 2 2 2 2 2 2 2 2 2 2 2 2 2 2 2 2 2 2 2 2 2 2 2 2 9 2 2 2 2 2 2 2 3 2 2 2 2 2 2 2 2 2 2 2 2 2 2 2 2 2 2 3 2 2 2 2 2 2 2 2 2 2 2 2 2 2 2 2 2 2 2 2 2 2 2 2 2 2 3 2 2 2 2 2 2 2 2 2 2 2 2 2 2 2 2 2 2 2 2 2 2 2 2 2 2 2 2 2 2 7 2 2 2 2 2 2 3 2 2 2 2 2 2 2 2 2 2 2 2 2 2 2 2 2 3 2 2 2 2 2 2 2 2 2 2 2 2 2 2 2 2 2 2 2 2 2 2 2 2 2 2 2 2 2 2 2 2 2 2 2 2 2 2 2 2 2 3 2 2 2 2 2 3 2 2 2 2 2 2 3 2 2 2 2 2 2 2 2 2 2 2 2 2 2 2 2 2 2 2 2 2 2 2 2 2 2 2 2 2 2 2 2 2 2 3 2 2 2 2 2 2 2 3 2 2 2 2 2 2 2 2 2 2 2 2 2 2 2 2 2 2 2 3 2 2 2 2 2 2 2 2 3 2 2 2 2 2 2 2 2 2 2 2 2 2 2 2 3 2 2 2 2 2 2 2 2 2 2 2 2 2 2 2 2 2 2 2 2 2 2 2 3 2 2 2 2 2 2 2 2 2 2 2 2 2 2 2 2 2 2 2 2 2 2 2 2 2 2 2 3 2 2 2 2 2 2 3 2 2 2 2 2 2 2 2 2 2 2 2 2 2 2 2 2 2 2 2 2 2 2 2 9 2 2 2 2 2 2 2 2 2 2 2 2 2 2 2 2 9 2 2 2 2 2 2 2 2 2 2 2 2 2 2 2 2 2 2 2 2 2 2 2 2 2 3 2 2 2 2 2 2 2 7 2 2 2 2 2 2 2 2 2 2 2 2 4 2 2 2 2 2 2 2 2 2 2 2 2 2 2 2 2 2 2 2 2 2 2 2 2 2 2 2 2 2 2 2 2 2 2 2 2 2 2 2 3 2 2 2 3 2 2 2 2 2 2 2 3 2 2 2 2 2 2 2 2 2 2 2 2 2 2 2 2 2 2 2 2 2 2 2 2 2 2 2 2 7 2 2 2 2 2 2 2 2 2 2 2 2 2 2 2 2 2 3 2 2 2 2 2 2 2 2 2 2 2 2 2 2 2 2 2 2 2 2 2 2 2 2 2 2 2 3 2 2 2 2 2 2 2 2 2 2 2 2 2 2 2 2 2 2 2 2 3 2 2 2 2 2 2 2 2 2 2 2 2 2 2 2 2 2 2 2 2 2 2 2 2 2 2 2 2 2 2 2 2 2 3 3 2 2 2 2 2 2 2 2 2 2 2 2 2 2 2 2 2 2 2 2 2 2 2 2 2 2 2 2 2 2 2 2 2 2 2 2 2 2 2 2 2 2 2 2 2 2 2 2 2 2 2 2 2 2 2 2 2 2 2 2 3 2 2 2 2 2 2 2 2 2 2 2 2 2 2 2 3 2 2 2 2 2 2 2 2 2 2 2 2 2 3 2 2 2 2 2 2 2 2 2 2 2 2 2 2 2 2 2 2 2 2 2 2 2 3 2 2 2 2 2 2 2 2 2 3 2 2 2 2 2 2 2 2 2 2 2 2 2 2 2 2 2 3 2 3 2 2 2 2 2 2 2 2 2 2 3 2 2 2 2 2 2 2 3 2 2 2 2 2 2 2 2 2 2 2 2 2 2 2 2 2 2 2 2 2 2 2 2 2 2 2 2 2 2 2 2 2 2 2 2 2 2 2 2 2 2 2 2 2 2 2 3 3 2 2 2 2 2 2 2 2 2 2 2 2 2 2 3 3 2 2 2 2 2 2 2 2 3 2 2 2 2 2 2 ",
"2 2 2 2 2 2 2 0 t t t t t t t t t t t t t 0 2 2 2 2 3 2 2 2 2 2 2 2 2 2 2 2 2 3 2 2 2 2 2 3 2 2 2 2 2 2 2 2 2 2 2 2 2 2 2 2 2 2 2 2 2 2 2 2 2 2 2 2 2 2 2 2 3 2 2 2 e t t t t t t 0 t t t t t D 9 3 2 3 2 2 2 2 2 2 2 2 2 2 2 2 2 2 2 3 2 2 2 2 2 2 2 2 2 2 2 2 2 2 2 2 2 3 2 2 2 2 2 2 2 3 2 2 2 2 2 2 2 2 2 2 2 9 t t t t t t D t t D D D t 0 9 2 2 2 2 2 2 2 2 2 2 2 2 2 2 2 2 2 2 2 2 2 2 2 2 2 2 2 2 2 2 2 3 2 2 2 2 2 2 2 2 2 2 2 2 2 2 2 2 2 2 2 2 2 2 2 2 2 2 2 2 2 2 2 2 2 2 2 2 3 2 2 2 2 2 2 2 2 2 2 2 2 2 2 2 2 2 2 2 2 2 2 2 2 2 2 2 2 2 2 2 2 2 2 2 2 2 2 2 2 2 2 2 2 2 2 3 2 2 2 2 2 2 3 2 2 2 2 2 2 2 2 2 2 2 2 2 2 2 2 2 2 2 2 2 2 2 2 2 2 2 2 2 2 2 2 2 2 2 2 2 2 2 2 2 2 2 2 2 2 2 2 2 2 2 2 2 2 2 2 2 2 2 2 2 2 3 2 2 2 2 2 2 2 2 2 2 2 2 2 2 2 2 2 3 2 2 2 2 2 2 2 2 2 2 3 2 2 2 2 2 2 2 2 3 2 2 3 2 2 2 2 2 2 2 2 2 2 2 2 2 2 2 2 2 2 2 2 2 2 2 2 2 2 2 2 2 2 2 2 2 2 2 3 2 2 2 2 2 2 2 3 2 2 2 3 2 2 2 2 2 2 2 2 2 2 2 2 2 2 2 2 2 2 3 2 2 2 2 2 2 2 2 2 2 2 2 2 2 2 2 2 2 2 2 3 2 2 2 2 2 3 2 2 2 2 2 2 2 2 2 2 2 2 2 2 2 2 2 2 2 2 2 2 2 2 2 2 2 2 3 2 2 2 2 2 2 2 2 2 2 2 2 2 2 2 2 2 2 2 2 2 2 2 2 2 2 2 2 2 2 2 2 3 3 2 2 3 2 2 2 2 2 2 2 2 2 2 2 2 2 2 2 2 2 2 2 2 2 2 2 2 2 2 2 2 2 2 2 2 2 2 2 2 2 2 2 2 2 2 2 2 2 2 2 2 2 2 2 2 2 2 2 2 2 2 2 2 2 2 3 2 2 2 2 2 2 2 2 2 2 2 2 2 2 2 2 2 2 2 2 2 2 2 2 2 2 2 2 3 2 2 2 2 2 2 2 2 2 2 2 2 2 2 2 2 2 2 2 3 2 2 2 2 2 2 2 2 2 2 2 3 2 2 3 2 2 2 2 2 2 2 2 3 2 2 2 2 2 2 2 2 2 2 2 2 2 2 2 2 2 2 2 2 2 2 2 2 2 2 2 2 2 2 2 2 2 2 2 2 2 2 2 2 2 2 2 2 2 2 2 2 2 2 2 2 2 2 2 2 2 2 2 2 2 2 2 2 2 2 2 2 2 2 2 2 2 2 2 3 2 2 2 2 2 2 2 2 2 3 2 2 2 2 2 2 2 3 2 2 2 2 2 2 7 2 2 2 2 2 2 2 2 2 2 2 2 2 3 2 2 2 2 2 2 2 2 2 2 2 2 2 2 2 2 3 2 2 2 2 2 2 2 2 2 3 2 2 2 2 2 2 2 2 2 2 2 2 2 2 3 2 2 2 2 2 2 2 2 2 2 2 2 2 3 2 2 3 2 2 2 2 2 2 3 2 2 2 2 2 2 2 2 2 3 2 2 2 2 2 2 3 2 2 2 2 2 2 3 2 2 2 2 2 2 3 2 2 2 2 2 3 2 2 2 2 2 2 2 2 3 2 2 2 3 2 2 2 2 2 2 2 2 2 2 2 2 2 2 2 2 2 2 2 2 2 2 2 2 2 2 2 2 2 2 2 2 2 2 2 2 3 2 2 2 3 2 2 2 2 2 2 2 2 2 2 2 2 2 2 2 2 2 2 2 2 2 2 2 2 2 2 2 2 2 2 2 2 2 2 2 2 2 2 2 2 2 2 2 2 2 2 2 2 2 2 2 2 2 2 2 2 2 2 2 2 2 2 2 2 2 2 2 2 2 2 2 2 2 2 2 2 2 2 2 2 2 2 2 2 2 2 2 2 2 2 2 8 w w r q w w w q w w w w w q 2 2 2 2 2 2 2 q w r w e w w w w q w q w r q 7 2 2 2 2 2 2 ",
"2 2 2 2 2 2 3 G J F F F F G F G F G F F J G 3 2 2 2 2 2 2 2 2 2 2 2 2 2 3 2 3 3 2 2 2 3 2 2 2 2 2 2 2 2 2 2 2 2 2 2 2 2 2 3 2 2 2 7 2 2 2 2 2 2 2 3 2 2 2 2 2 2 2 3 J 1.,.>.>.<.>.>.>.<.>.<.<.>.F 2 2 2 2 2 2 2 2 2 2 2 2 2 2 2 2 2 2 2 2 2 2 2 2 2 2 3 2 2 2 2 2 2 2 2 2 2 2 2 2 2 3 2 2 2 2 3 2 2 2 2 2 2 2 2 2 D J G D G F D F F F F F F G G 2 2 2 2 2 2 2 2 2 2 2 3 2 2 2 2 2 2 2 2 2 2 2 3 2 2 2 2 2 3 2 2 3 2 2 3 3 2 2 2 2 2 2 2 2 2 2 2 2 2 2 2 2 2 2 2 2 2 2 2 2 3 2 2 2 2 2 3 2 2 2 2 2 2 2 2 2 2 2 2 2 2 2 2 2 2 2 2 2 2 2 2 2 2 2 2 2 2 2 2 2 2 2 2 2 2 2 2 2 2 2 2 2 2 2 3 2 2 2 2 2 2 2 3 2 3 2 2 2 2 3 2 2 2 2 2 2 2 2 2 2 2 2 2 2 2 2 9 2 2 2 2 2 2 2 2 2 2 2 2 2 2 2 2 2 7 2 2 2 2 2 2 2 2 2 2 2 2 2 2 2 2 2 2 2 2 2 2 2 2 2 2 2 2 2 2 3 3 3 2 3 2 2 3 2 2 2 3 2 2 2 2 3 2 2 2 2 2 3 2 2 2 2 2 3 2 2 2 3 2 2 2 2 2 2 2 2 2 2 3 2 2 2 2 2 2 2 2 2 2 2 2 2 2 2 2 2 2 2 2 3 2 2 2 2 2 2 2 2 2 2 2 2 2 2 2 2 2 2 2 2 2 2 2 2 2 2 2 2 3 2 2 2 2 2 2 2 2 2 2 3 2 2 2 2 2 2 3 2 2 2 2 2 2 2 2 2 2 2 2 3 2 2 2 2 2 2 2 2 3 2 2 2 2 3 2 2 2 2 2 2 2 2 2 2 2 2 2 2 2 3 2 2 2 3 2 2 2 2 2 2 2 2 2 2 7 2 2 2 2 2 2 2 2 2 7 2 2 2 2 2 2 2 2 2 2 2 2 2 2 2 2 7 2 2 2 2 7 2 2 2 7 2 3 2 2 2 2 2 2 2 2 2 2 3 2 2 3 2 2 2 2 3 2 2 2 2 2 2 2 2 2 2 2 2 2 2 7 2 2 2 2 3 2 2 2 2 2 2 3 2 2 2 2 2 3 2 2 2 2 2 2 2 2 2 2 2 2 2 2 2 2 2 2 2 2 2 2 2 2 3 2 2 2 2 2 2 3 2 2 2 2 2 2 2 2 2 2 2 2 2 2 2 2 2 2 2 2 2 2 2 2 2 2 2 2 2 2 2 3 2 2 2 3 2 2 2 2 2 2 2 2 2 2 2 2 2 2 2 3 2 2 2 2 2 2 2 2 2 2 2 2 2 2 2 2 4 2 2 2 2 2 2 2 2 9 2 2 2 2 2 2 3 2 2 2 2 2 2 3 2 3 2 2 2 2 3 2 2 2 3 2 2 2 2 2 2 2 2 3 3 2 2 2 2 2 2 3 2 2 2 3 2 3 2 2 2 2 2 2 2 2 2 2 2 2 3 2 2 2 3 2 2 2 2 2 2 2 2 2 2 2 2 2 3 2 2 2 2 2 2 2 2 3 2 2 3 2 2 2 2 2 3 2 3 2 2 2 2 2 2 2 2 2 2 2 2 2 2 2 2 2 2 2 2 2 2 2 2 2 2 2 2 2 2 2 2 2 2 2 2 2 2 2 2 3 2 2 2 2 2 3 3 2 2 2 2 2 2 3 3 2 2 2 2 2 2 2 2 2 2 2 2 2 2 2 2 2 3 2 2 2 3 2 2 2 2 2 2 3 2 2 2 2 2 3 2 2 2 3 2 2 2 2 2 2 2 2 2 2 4 3 2 2 2 2 2 2 2 2 2 2 2 2 2 2 2 2 2 2 2 2 2 2 2 2 2 2 2 2 2 2 3 2 2 2 2 2 2 2 2 2 2 2 3 2 2 2 2 2 2 2 2 2 2 2 3 2 2 2 2 2 2 2 3 3 2 2 2 2 2 2 2 2 2 3 2 2 2 2 3 2 2 2 2 2 7 7 7 7 2 7 2 2 2 2 2 2 2 2 2 2 2 2 2 2 3 2 3 2 2 2 2 2 2 2 2 e Y w w w w w Z C w w Z w Z S 2 2 3 2 2 2 2 C Z Z Z Z C w Z w C Z C C Z w 3 2 2 2 2 2 2 ",
"3 2 2 2 2 2 3 G D 8 9 9 9 9 9 9 9 9 9 9 D J 2 3 2 2 2 3 2 2 2 7 2 2 2 2 2 2 3 3 2 2 2 2 2 2 2 2 2 2 2 3 3 2 2 2 2 2 2 3 2 2 2 2 2 2 2 2 2 3 2 2 2 2 2 2 2 2 2 2 2 3 ,.6.2.2.2.2.2.2.2.2.1.2.1.4.J 2 2 2 3 2 2 2 2 3 2 2 2 2 2 2 2 2 2 3 2 2 3 2 2 2 2 2 2 2 2 2 2 2 2 2 2 2 2 2 2 2 2 2 2 2 2 2 2 2 2 3 3 2 2 2 2 F G 3 9 9 0 9 9 0 9 9 9 9 D R 2 2 2 2 2 3 2 3 2 2 2 2 2 2 2 2 2 2 2 2 2 2 2 2 2 2 2 2 2 2 2 2 2 2 2 2 2 2 2 2 2 2 2 3 2 2 2 2 2 2 2 2 2 2 2 2 2 2 2 3 2 2 2 3 2 2 2 2 2 2 2 2 2 2 2 2 2 2 3 2 2 2 3 2 2 3 2 2 2 2 2 2 2 2 2 2 2 2 2 2 2 2 2 2 2 3 3 2 2 2 2 2 2 2 2 2 2 2 2 2 2 2 2 2 2 2 2 2 2 2 2 2 2 3 2 2 2 3 2 2 2 2 2 2 2 2 2 2 2 2 2 2 2 2 2 2 2 2 2 2 2 2 2 2 3 2 3 2 2 2 2 2 2 2 3 2 2 3 2 2 2 2 3 2 2 3 2 2 2 2 2 2 2 2 2 2 4 2 2 2 2 2 2 2 2 2 2 2 2 2 2 2 2 2 2 2 2 2 2 2 3 2 2 2 2 2 2 2 2 2 2 2 2 2 2 3 2 2 2 2 2 2 2 3 2 3 2 2 2 3 2 3 2 2 2 2 2 2 2 2 2 2 2 2 2 2 2 3 2 2 2 2 2 2 2 2 2 2 2 3 2 2 2 2 2 3 2 2 2 2 2 2 2 2 2 2 2 2 2 2 2 2 2 2 2 2 2 2 2 2 2 2 2 3 2 2 2 2 2 3 2 2 2 2 2 2 2 3 2 2 2 2 2 2 2 2 2 2 2 2 3 2 2 2 2 2 3 2 2 2 2 2 3 2 2 2 2 2 3 2 2 2 2 2 2 2 2 2 2 2 2 2 2 2 2 2 2 2 2 3 2 2 2 2 2 2 2 2 2 2 2 3 2 2 2 2 2 2 2 2 2 2 2 2 2 3 2 2 2 2 3 2 2 2 2 2 2 2 2 2 2 2 2 2 2 2 2 2 2 2 2 2 2 2 2 2 2 2 2 2 2 2 2 2 3 2 2 3 2 2 2 2 2 2 2 2 2 2 2 2 2 2 2 2 2 2 2 2 2 2 2 2 2 3 2 2 2 2 2 2 2 2 2 2 2 2 2 2 2 2 2 2 2 2 2 2 2 2 3 2 2 2 2 2 2 3 2 2 2 2 2 2 3 2 2 2 2 2 2 2 2 2 4 3 2 2 2 2 2 2 2 9 2 2 2 2 2 2 2 2 2 3 2 2 2 2 2 2 2 2 2 2 2 2 2 2 3 2 2 2 2 2 2 2 2 2 2 2 2 2 3 2 2 2 2 2 2 2 2 2 2 2 2 2 2 2 2 2 2 2 2 2 2 2 2 2 2 2 4 3 2 2 2 2 2 2 2 2 3 2 2 2 2 2 2 2 2 3 2 2 2 2 2 2 2 2 2 2 2 2 2 2 2 3 3 2 2 3 3 2 2 2 2 2 2 2 3 2 2 2 2 3 2 2 2 2 2 2 2 2 2 2 2 2 2 2 2 2 2 2 2 2 2 2 2 2 2 2 2 9 2 2 2 2 2 2 3 2 2 2 3 2 2 3 3 2 2 3 2 2 2 3 2 2 2 2 2 2 2 2 2 2 2 2 2 2 2 2 2 2 2 2 2 2 2 2 2 3 2 2 2 2 2 2 2 2 2 2 2 2 3 2 2 2 2 2 2 3 2 2 2 2 3 2 2 2 2 2 2 2 2 2 2 2 3 2 2 2 2 2 3 3 2 2 2 2 2 2 2 2 3 2 3 2 2 2 2 2 2 2 2 2 2 2 2 3 3 2 3 2 2 2 2 2 2 2 3 2 2 2 2 2 8 9 3 3 2 2 2 0 7 2 2 2 2 3 8 9 9 9 9 9 2 9 9 3 2 3 9 9 8 2 2 2 2 7 2 2 2 2 2 2 2 2 5 5 ; ; 5 2 2 2 2 5 ; 3 2 2 2 5 5 3 3 2 2 2 2 2 2 2 2 2 2 2 2 2 2 w Z 8 8 2 q w C w w 8 7 3 8 S 7 3 2 2 2 2 2 w C w C w q 7 3 3 q w w w Z C 3 2 2 2 2 2 2 ",
"2 2 2 2 2 3 3 G t 9 J J J 3.J J J R J J >.J 2 2 2 2 2 2 2 2 2 2 2 2 2 2 2 2 3 7 2 2 2 2 2 2 2 2 2 2 2 2 2 2 2 2 2 2 2 2 2 2 2 3 2 2 2 2 2 2 2 2 3 2 2 2 3 2 2 2 2 3 ,.4.>.F F F F H F F F F F 3.G 2 2 3 2 2 3 2 2 2 2 2 2 3 3 3 3 3 3 3 2 2 2 2 2 2 2 2 2 2 2 2 2 2 2 2 2 2 2 2 2 2 2 2 3 2 2 2 2 2 2 2 2 2 2 2 2 D D 9 J J R J J J J R R G 3.3.9 2 2 2 2 2 2 2 3 2 2 2 2 2 2 2 7 3 2 3 3 2 2 2 3 2 2 2 2 2 2 3 2 2 2 2 2 2 2 2 2 2 2 2 2 2 2 2 2 2 2 2 2 9 2 2 2 2 2 2 2 2 2 2 2 3 2 2 2 2 2 2 2 2 2 2 2 2 3 2 2 2 2 2 2 3 2 2 2 2 2 9 2 2 2 2 2 2 2 2 2 2 2 2 2 2 2 2 2 2 3 2 2 2 2 2 2 2 2 2 2 2 2 2 2 2 2 2 2 2 3 7 2 2 2 3 2 3 3 2 2 2 2 2 2 2 2 2 2 2 2 2 2 2 2 2 2 2 7 3 2 2 3 2 2 2 2 2 2 2 2 2 2 2 2 2 2 2 2 2 2 3 2 2 2 2 2 2 2 2 2 3 2 2 3 2 2 2 2 2 2 2 2 2 3 2 2 2 2 2 2 2 2 2 2 3 2 2 2 2 2 2 2 2 2 2 2 2 2 2 2 2 2 2 2 2 2 2 2 2 2 2 2 2 2 2 2 2 2 2 2 2 2 3 2 2 2 2 2 2 2 2 2 3 2 2 2 2 3 2 2 2 3 2 2 2 2 2 2 2 2 2 2 7 2 2 2 2 3 2 2 2 3 2 2 2 2 2 2 3 2 2 2 3 2 2 2 2 2 2 2 2 2 3 2 2 2 2 2 2 2 2 2 2 2 2 2 2 2 2 2 2 2 2 2 2 3 2 2 2 2 2 3 2 2 2 2 2 3 2 2 3 2 2 2 2 2 2 2 2 9 2 2 2 2 2 2 2 2 2 7 2 2 2 2 2 2 2 2 2 3 2 2 2 3 2 2 2 2 2 2 2 2 2 2 2 2 2 2 2 2 2 2 2 2 2 2 2 2 3 2 2 2 3 3 2 2 2 2 2 2 2 2 2 2 2 9 2 2 2 2 2 2 2 2 2 2 2 2 2 2 2 2 3 2 2 2 2 2 2 2 3 3 2 2 2 2 2 2 2 2 2 2 2 9 2 2 2 2 2 2 2 2 3 2 2 2 2 2 2 2 2 2 2 2 2 2 2 2 3 2 2 3 2 2 2 2 2 2 2 2 2 2 2 2 3 2 2 2 2 2 2 2 2 2 2 2 2 2 2 2 2 2 2 2 2 2 2 2 2 2 2 2 2 2 2 2 2 2 2 2 2 2 2 2 3 2 3 2 2 3 2 2 3 2 2 3 3 2 2 2 2 2 2 2 2 2 2 2 2 2 2 2 2 2 2 2 2 2 2 2 2 2 2 2 2 2 3 2 2 2 2 2 2 2 2 2 2 2 2 2 2 2 2 2 2 2 2 2 2 2 2 2 2 2 3 2 2 2 3 2 3 3 2 2 2 2 3 2 2 2 2 2 3 2 2 2 2 3 2 2 2 2 2 2 2 2 2 2 2 2 2 2 2 2 2 2 2 2 2 2 2 2 2 2 2 2 2 2 4 2 2 2 2 2 2 2 2 2 2 2 2 2 2 3 2 2 2 2 3 2 2 2 2 3 2 2 2 2 2 2 3 2 2 2 2 2 2 2 2 2 2 2 2 2 2 2 2 2 2 2 2 2 2 2 2 2 2 2 2 2 2 2 2 2 2 2 2 2 2 2 2 2 2 2 2 2 2 3 2 2 2 2 2 2 2 2 2 2 2 3 2 2 2 2 2 2 2 2 2 2 2 2 2 2 2 2 2 3 2 2 2 2 2 2 2 2 3 2 2 2 2 2 2 2 2 2 2 2 2 2 2 3 2 2 2 2 2 2 2 3 2 t >.9 3 2 2 D ,.t 7 2 2 2 8 F >.,.,.>.t 3 3.F 8 2 9 R J 9 2 2 2 2 2 2 2 2 2 2 2 7 ; f s f.s d h 2 2 7 f f.i 2 2 7 5 f p 2 2 2 2 2 2 2 2 2 2 2 3 2 2 2 w w 3 3 q S W ~ T T w 2 2 r Z 7 3 2 2 3 2 3 Z A T W T q 2 3 3 q Y ~ T A Z 2 2 2 2 2 3 2 ",
"2 2 2 3 2 3 3 G t t 2.2.2.2.2.2.2.2.2.2.4.>.2 2 7 2 2 2 2 2 2 2 2 3 2 2 2 w S w 3 2 2 2 2 2 2 3 2 2 2 2 2 2 2 2 2 3 2 2 2 2 2 2 2 2 3 2 2 2 2 2 2 2 2 7 2 2 2 2 2 8 ,.8.J 7 7 7 7 7 7 7 7 7 7 G G 2 2 2 2 2 2 2 2 2 2 2 2 2 3 3 w S w 2 2 2 2 2 2 2 2 2 2 2 2 2 2 2 2 2 2 2 2 2 2 2 3 2 2 2 3 2 2 2 2 2 2 2 2 2 2 G t t 2.2.2.2.2.2.2.2.2.2.6.,.2 2 2 2 2 2 3 2 2 2 2 2 2 2 2 r S Z 7 3 2 2 2 2 2 2 3 2 2 2 2 2 2 3 2 2 3 2 2 2 3 2 2 2 2 2 2 3 2 2 2 2 2 2 2 2 2 2 2 2 2 3 2 2 2 2 2 2 2 2 2 3 2 2 2 3 2 2 2 2 2 2 2 2 2 2 2 2 2 2 2 2 2 2 2 2 2 2 2 2 2 2 2 2 2 2 2 2 2 2 2 2 3 2 2 2 2 2 2 3 7 2 2 2 2 2 3 2 2 2 2 2 2 2 2 2 2 2 2 2 2 2 2 2 2 2 2 2 2 2 2 2 2 2 2 2 2 2 2 2 2 2 2 2 2 2 2 2 2 2 2 3 2 2 3 2 2 2 2 2 2 2 2 2 2 2 2 2 2 3 2 2 2 2 2 2 2 2 2 2 2 2 2 3 2 2 2 3 2 2 2 3 3 2 2 2 2 2 2 2 2 2 3 2 3 2 2 2 2 2 2 2 3 2 2 2 2 2 2 3 2 2 3 2 2 2 2 2 2 2 2 2 2 2 2 2 2 2 2 3 3 2 2 2 2 2 3 2 2 2 2 2 2 2 3 2 2 2 2 2 2 2 3 2 2 2 2 2 2 2 2 2 2 2 2 2 3 2 2 2 3 2 2 2 3 2 2 2 2 2 2 3 2 2 3 2 2 2 2 2 2 2 2 2 3 2 2 2 2 2 2 2 3 2 2 2 2 2 2 2 2 2 3 3 2 3 2 2 2 2 2 2 2 2 3 2 2 2 2 2 2 2 2 2 2 2 2 2 2 2 2 2 2 2 2 2 2 2 3 2 2 2 2 2 2 2 3 2 2 2 2 2 2 2 2 2 2 2 2 2 2 2 2 2 2 2 2 2 2 2 2 2 2 2 2 2 2 2 2 2 3 2 2 2 2 2 2 2 2 2 2 2 2 2 2 2 2 2 2 2 3 2 2 2 2 2 3 2 2 3 2 2 2 2 2 2 2 2 2 2 2 2 2 2 2 2 2 2 2 2 2 2 2 2 2 2 3 2 2 2 2 2 2 2 3 2 2 2 2 2 2 2 2 2 3 2 2 2 2 2 2 2 2 2 2 2 2 2 3 2 2 2 2 2 2 3 2 2 2 2 2 2 2 2 2 2 2 2 2 2 2 2 2 2 2 2 2 2 2 2 2 2 2 2 2 2 2 2 2 2 2 2 2 2 2 2 2 2 2 2 2 2 2 2 2 2 2 2 2 2 2 2 2 2 2 2 3 2 2 2 2 2 2 3 2 2 2 2 2 2 2 2 2 3 2 2 2 2 2 2 2 2 2 3 2 2 2 2 2 3 2 2 2 3 2 2 2 3 2 2 2 2 2 2 2 2 2 2 2 2 2 2 2 2 2 2 2 2 2 2 3 2 2 3 3 2 2 2 2 2 3 2 3 2 2 2 2 2 2 2 3 2 2 2 2 2 2 3 3 3 2 2 2 2 2 2 2 2 2 2 2 2 3 2 2 2 2 2 2 2 2 2 2 2 2 2 2 2 2 2 2 2 2 2 2 2 2 3 2 2 2 2 2 2 2 3 2 2 2 2 2 2 2 2 3 2 2 2 2 2 2 3 3 2 2 2 2 2 3 2 2 2 3 2 2 3 2 2 2 2 2 3 2 2 2 3 2 2 3 2 2 2 2 2 2 2 2 3 2 2 2 2 2 2 2 2 2 2 2 2 2 2 2 2 2 2 2 2 3 2 2 2 3 2 2 2 2 3 2 2 2 2 2 2 2 2 2 2 2 2 3 3 D ,.9 3 2 0 J ,.R 9 2 2 8 F >.D 0 0 t 0 9 3.G 3 9 D R e 8 2 2 2 2 2 2 3 2 2 2 7 ; d g p ; h f g h 2 7 f g.s ; 3 7 h f i 2 3 2 3 3 2 2 2 2 2 2 2 2 3 2 w Z 3 3 A T Z w w Y Y q 2 q Z 7 2 2 2 3 3 3 C A A W Y 8 2 2 2 8 T W T A C 2 2 2 3 2 2 2 ",
"2 2 2 2 2 2 3 G t t 4.2.R J G R R G G G 3.R 7 2 2 2 2 2 2 2 2 2 2 2 2 2 2 w T A 2 2 3 3 2 2 7 2 2 2 2 2 2 2 2 2 2 2 2 2 2 3 2 2 2 2 2 2 2 2 2 2 2 2 2 2 2 3 2 2 7 7 1.6.J 2 9 F G G F G G F F 3.G 2 2 2 2 3 2 2 2 2 2 2 2 2 2 2 C Y Z 2 2 2 2 2 2 2 2 2 2 2 2 2 2 2 2 2 2 2 2 2 2 2 2 2 2 2 9 2 2 2 2 2 2 2 2 2 2 F D e 4.2.R H 3.6.6.2.R G ,.,.7 2 2 2 2 2 2 2 2 2 2 2 2 2 2 w Y A 3 2 2 2 2 2 2 2 2 2 2 2 2 2 2 2 3 2 3 2 2 2 2 2 2 2 2 2 9 2 2 2 2 2 2 2 2 2 2 2 2 2 2 2 2 2 2 2 2 2 2 2 2 2 2 2 2 3 3 2 2 2 2 2 2 2 8 2 2 2 2 2 2 2 2 2 2 2 2 9 2 2 2 2 2 2 2 2 7 2 2 2 2 7 2 2 2 2 2 2 2 2 3 2 2 2 2 2 2 2 3 2 2 2 2 2 2 2 2 2 2 2 2 2 2 2 2 2 2 2 2 2 2 2 2 2 2 2 2 2 2 2 2 2 2 2 2 2 2 2 2 2 2 3 2 3 2 2 2 2 2 2 3 2 2 2 2 2 2 2 2 2 2 2 2 2 2 2 2 2 2 2 2 2 2 2 2 2 2 2 2 2 2 2 2 2 2 9 2 2 2 2 2 2 2 3 2 2 2 2 2 2 2 2 2 2 2 2 2 2 2 2 2 2 2 2 2 2 2 2 2 2 2 2 2 2 2 2 2 2 2 2 2 2 2 2 3 2 2 2 2 2 2 3 2 2 2 2 2 2 3 2 9 2 2 2 2 2 2 2 2 2 2 2 4 3 3 2 2 2 2 2 2 2 2 9 2 2 2 2 2 2 2 2 2 3 2 2 2 2 2 2 2 2 2 2 2 2 2 2 2 2 2 2 9 2 2 2 2 2 2 2 2 2 2 4 2 2 2 2 2 2 2 3 7 2 2 2 2 2 2 2 2 2 2 2 2 2 2 2 2 2 2 2 2 2 7 2 3 2 2 2 2 2 2 2 2 2 2 2 2 2 2 2 2 2 2 2 2 2 2 9 2 2 2 2 2 2 2 2 2 2 2 2 2 3 2 2 2 2 2 2 2 7 2 2 2 2 2 2 2 2 2 2 2 2 2 2 2 2 2 2 2 2 2 2 2 3 2 2 2 2 2 7 2 2 2 2 2 2 2 2 2 2 2 2 2 2 2 2 2 2 2 9 2 2 2 2 7 2 2 2 2 2 2 2 2 2 7 3 2 2 2 2 2 2 3 2 2 9 2 2 2 2 2 2 2 2 2 2 7 3 2 2 3 2 2 2 2 2 7 3 2 2 2 2 2 2 2 3 2 2 2 2 2 2 2 2 3 2 2 2 2 2 2 3 2 2 3 2 2 2 2 2 2 2 2 2 2 2 7 2 2 2 2 2 2 2 2 2 2 2 2 2 2 2 2 2 2 2 2 2 2 2 2 2 2 2 3 2 2 2 2 2 2 2 2 2 2 2 2 2 2 2 2 3 3 2 2 2 3 2 2 2 3 2 2 2 2 2 2 2 2 2 2 2 2 2 2 2 2 2 3 2 3 3 2 2 2 2 2 2 2 2 2 2 2 2 2 2 2 2 2 2 2 2 2 2 2 2 2 2 2 3 2 2 2 2 2 2 2 2 2 9 2 2 2 2 2 2 2 2 2 2 2 2 2 2 2 2 2 2 2 2 2 2 2 2 2 3 2 2 2 2 3 2 2 2 2 2 2 2 2 2 2 2 2 2 2 2 2 2 2 2 2 2 3 3 2 2 2 2 2 2 2 2 2 2 2 2 2 2 2 2 2 2 2 2 2 2 2 2 2 2 2 2 2 2 2 2 3 2 2 2 2 2 2 2 2 2 2 2 2 2 2 2 2 2 2 2 2 2 2 2 2 2 2 2 2 2 2 2 2 2 2 2 2 2 3 2 2 2 3 2 2 2 3 2 2 2 2 2 2 2 t ,.9 2 2 t R G >.0 2 2 e >.F 0 2 2 7 7 3 >.G 9 D >.t 7 3 t J 9 3 2 2 3 2 2 2 2 i s p 3 2 2 h d f 3 7 f f.d f 3 7 h f i 3 2 2 2 2 2 2 3 2 2 2 2 2 2 2 w w 3 3 Z Z q 2 3 Z T C 2 9 Z 2 2 2 3 2 2 2 Z S w Z S Z 8 3 8 Z Z w Z S Z 2 3 2 2 2 2 2 ",
"2 2 2 3 2 3 2 G t t 4.1.e 7 9 7 7 9 9 9 F G 2 2 2 2 2 2 2 2 2 2 2 2 2 2 2 C W Z 2 2 2 3 2 3 2 2 3 2 2 2 2 2 2 2 2 2 2 2 2 2 2 2 2 2 2 2 2 2 9 2 2 2 2 2 2 2 2 2 2 7 >.6.G 2 0 >.1.1.2.1.2.2.1.4.J 2 2 2 2 2 2 2 2 2 2 2 2 2 2 2 Z T Z 2 2 2 2 2 2 2 2 2 2 2 2 2 2 2 2 2 2 2 2 2 2 2 2 2 2 2 2 2 3 2 2 2 2 2 3 2 2 F D 0 >.>.t 8 G 2.2.>.e 9 G >.7 7 2 2 2 3 3 2 2 2 2 2 2 2 2 w T A 3 2 2 2 2 2 2 2 2 3 2 2 2 2 2 2 2 3 2 2 2 2 2 2 2 2 2 2 2 2 2 2 2 2 2 2 2 2 2 2 2 2 2 2 2 2 2 2 2 2 2 2 2 2 2 2 2 2 2 2 2 2 2 2 2 2 2 2 2 2 2 2 2 2 2 2 2 2 2 2 2 2 2 2 2 2 2 2 2 2 2 2 2 2 2 2 2 2 2 3 7 2 2 2 2 2 2 2 2 2 2 2 2 2 2 2 2 3 2 9 2 2 2 2 2 2 2 2 2 2 2 2 2 2 2 2 2 2 2 2 2 2 2 2 2 2 7 2 2 2 2 2 2 2 2 2 2 2 2 2 2 2 2 2 7 2 2 2 2 2 2 2 2 2 2 2 2 2 2 2 2 2 2 2 2 9 2 2 2 2 2 2 2 2 2 2 2 2 3 2 2 2 3 2 2 2 2 2 2 3 2 2 3 2 2 2 2 2 2 2 2 2 2 2 2 2 2 2 3 2 2 2 2 2 2 2 2 2 2 2 2 9 2 2 2 2 2 2 2 3 2 2 2 2 2 2 2 2 2 2 2 2 2 2 2 2 2 2 2 2 2 2 2 2 2 2 3 2 2 2 2 2 2 2 2 2 2 2 2 2 2 2 2 2 2 2 2 2 2 2 3 2 2 2 2 2 2 3 2 2 2 2 2 2 2 2 2 2 2 2 2 2 2 2 2 2 2 3 3 2 2 2 2 2 2 2 2 2 2 2 2 2 2 2 2 2 2 2 2 2 3 2 2 2 3 2 2 2 2 2 2 2 3 2 2 3 2 2 2 2 2 2 2 2 2 2 2 2 2 2 2 2 2 3 2 2 2 3 3 2 2 3 3 2 2 2 2 2 2 2 2 2 2 2 2 2 2 7 2 2 2 2 2 2 7 2 2 2 2 2 2 2 2 2 2 2 2 2 2 2 2 2 2 2 2 2 2 2 2 2 2 2 2 2 2 2 2 2 2 2 2 2 2 2 2 2 2 2 2 3 2 2 3 2 2 2 2 2 2 2 2 2 2 2 2 2 2 2 2 2 2 2 2 2 2 2 2 2 2 2 2 2 2 2 2 2 2 2 2 2 2 2 2 2 2 2 2 2 2 2 2 2 2 2 2 2 2 2 2 2 2 2 2 2 2 2 2 2 2 2 7 2 2 2 2 3 3 2 2 2 3 2 2 2 2 2 2 2 2 2 2 3 3 2 2 2 3 2 2 2 2 3 2 2 2 2 2 7 2 2 2 2 2 2 2 2 2 2 2 2 2 2 2 2 2 2 2 2 2 2 2 2 2 2 2 2 2 3 2 2 2 2 2 2 9 2 2 2 2 2 2 2 2 2 2 3 4 2 2 2 2 2 2 2 2 2 2 9 2 2 3 2 2 3 2 2 3 2 2 2 2 2 2 2 2 2 2 2 2 2 2 2 2 2 2 2 2 2 2 2 2 2 2 2 2 2 2 2 2 9 2 2 2 2 2 2 2 2 2 2 2 2 2 2 2 2 2 3 3 2 2 3 2 2 9 2 2 2 2 2 2 2 2 2 2 2 3 4 2 2 2 2 2 2 2 2 2 2 2 2 2 2 2 2 2 2 3 2 2 2 2 2 2 3 2 2 2 2 2 2 2 2 2 2 2 2 2 2 2 2 2 2 2 2 2 2 2 2 2 2 2 2 2 2 2 2 2 9 2 2 2 2 2 2 2 2 2 2 2 2 2 2 2 2 2 2 2 2 2 3 2 2 2 2 D ,.9 2 2 G R e >.t 2 2 D ,.0 2 2 3 3 2 3 >.G t R G 7 2 8 D >.9 3 2 2 2 2 2 2 5 d s 4 2 2 7 4 i s ; 7 f d i f.h 3 h f i 3 2 2 2 2 2 2 2 2 2 2 2 2 2 2 w Z 3 3 q q 3 2 2 Z W w 2 q Z 8 2 2 2 2 2 3 w Z 7 3 w Y w w w A w 7 8 Z w 2 2 2 3 2 2 2 ",
"2 2 2 2 3 3 3 H t t 4.,.9 2 9 0 9 0 0 0 F G 7 2 2 2 2 2 2 2 2 2 2 2 q q 9 Z T A r q 0 7 2 2 2 2 2 2 7 q q q q q 8 q q 8 2 2 3 2 2 2 2 2 2 2 2 2 2 2 2 2 2 2 2 3 2 9 <.6.J 2 e 2.6.2.<.,.1.1.1.2.J 2 2 3 2 7 2 3 2 2 2 2 3 q q q S W S q q q 3 2 2 2 2 2 2 8 8 q 8 q q q r q 8 2 2 2 2 2 2 2 2 2 2 2 2 2 2 3 3 2 2 F D 7 t e 8 2 D 6.2.3.0 2 t R 7 2 2 2 2 2 2 2 2 2 2 2 7 q q C W A w q q 3 2 2 2 2 2 2 3 q q q 8 q q 8 8 q 3 2 2 2 2 2 2 2 2 2 2 2 2 2 2 2 2 2 2 2 2 2 2 9 2 2 2 7 2 2 7 2 2 2 2 7 2 2 2 2 2 2 2 2 2 2 2 2 2 2 2 2 2 2 2 2 2 2 2 2 2 2 2 2 2 2 2 9 2 2 2 2 2 2 2 2 3 2 2 2 2 2 2 2 2 2 3 2 2 2 2 7 2 3 2 2 2 2 2 2 2 2 2 2 2 2 2 2 2 2 2 9 2 2 2 2 2 2 2 2 9 2 2 7 2 2 2 2 2 2 7 2 2 2 2 2 2 3 2 2 2 2 2 2 2 2 2 2 2 2 2 2 2 2 2 2 2 2 2 2 2 2 2 2 2 2 2 2 2 2 2 2 2 2 2 2 2 2 3 2 3 2 2 2 2 2 3 2 2 2 2 2 2 2 2 2 9 2 2 2 2 2 2 2 2 2 2 2 3 4 2 2 2 2 2 2 2 2 2 2 2 2 2 2 2 2 2 2 2 2 2 2 2 2 2 2 2 2 7 2 2 2 2 2 2 2 2 2 2 2 2 2 2 2 2 2 2 2 2 2 2 2 2 2 2 2 2 9 2 2 2 2 2 2 3 2 3 2 2 2 2 2 2 3 2 2 2 3 2 2 2 2 2 2 2 2 2 2 2 2 2 2 2 2 2 2 2 3 2 2 2 2 2 2 2 2 2 2 2 2 2 2 2 2 2 2 9 2 2 2 2 2 2 2 2 2 2 2 2 2 2 3 2 2 2 2 2 2 2 2 2 2 2 2 2 7 2 2 2 2 2 2 2 2 2 2 2 2 2 2 2 2 3 2 3 2 3 2 2 2 2 2 2 2 2 2 2 2 9 2 2 2 2 2 2 2 2 2 2 2 2 2 3 2 2 2 3 2 2 2 2 2 2 2 9 2 2 2 2 2 2 2 2 2 2 2 2 7 2 2 2 2 7 2 2 3 2 2 2 3 2 2 2 2 2 2 3 2 2 2 2 2 2 2 2 2 2 2 2 2 2 2 2 2 2 2 2 2 3 2 2 3 2 2 2 2 2 2 3 2 2 2 2 2 2 2 2 2 2 2 2 2 2 2 2 2 2 2 2 2 2 3 2 2 2 2 2 2 3 2 2 3 2 2 2 2 2 2 2 2 2 2 2 2 2 2 2 2 2 2 2 2 2 2 2 2 2 2 2 2 2 7 2 2 2 2 3 2 2 2 2 2 2 3 9 2 2 2 2 2 2 2 2 2 2 2 2 2 2 2 2 2 2 3 2 2 2 2 2 2 2 2 2 2 2 2 2 2 2 2 2 2 2 3 2 2 2 2 2 2 2 2 2 2 2 2 2 2 2 2 2 2 2 2 2 2 3 2 2 2 3 2 2 3 2 2 2 2 2 2 2 2 2 2 2 2 2 2 2 2 2 2 2 2 2 2 2 2 2 2 9 2 2 2 2 2 2 2 2 3 2 2 2 3 3 2 2 3 2 2 2 3 3 2 2 2 2 2 2 2 2 2 2 2 2 2 2 2 2 2 2 2 2 2 2 2 2 2 2 2 2 2 2 2 2 2 2 2 3 2 2 2 2 2 2 2 2 2 3 2 2 2 9 2 2 2 2 2 2 2 2 9 2 2 2 2 2 2 2 2 2 2 2 2 2 2 2 2 2 2 2 2 2 2 2 2 2 3 2 2 2 2 2 2 2 3 2 2 2 2 2 2 2 2 D ,.0 2 7 G G 7 G G 0 7 G >.7 2 2 2 2 2 3 >.R >.>.9 3 2 3 0 D 9 3 2 2 2 3 2 2 5 d g 2 2 2 2 7 i f.; 7 d f ; d d r h i i 2 3 2 2 2 2 2 2 2 3 2 2 2 2 2 q w 2 3 2 2 2 0 w Y T w 2 8 A 8 2 2 2 2 2 3 C w 2 2 3 w S Y T w 2 3 2 e Z 2 2 2 2 2 2 2 ",
"2 2 2 2 3 3 3 G t t 4.1.9 2 t 3.K 3.K 3.,.3.7 2 2 2 2 2 2 2 7 2 2 9 A T A W ~ W Y A A w 2 2 2 2 2 2 r S A T Y Y Y T Y A q 2 2 2 2 2 2 2 2 2 2 2 2 2 2 2 2 2 2 2 2 2 1.6.G 2 e 4.6.K t D t D t R G 2 2 2 2 2 2 2 2 3 2 2 q A A T W W W T T A q 2 2 2 2 2 2 r Y Y T Y A T Y Y Y q 2 2 2 2 2 2 2 2 2 3 2 2 2 2 2 2 2 F D 2 2 2 2 2 t 6.6.3.0 2 e G 7 2 2 2 2 2 2 2 2 2 2 8 Z T T W W Q Y T T w 2 2 2 2 2 2 3 A Y T Y T Y Y Y T w 2 2 7 2 2 7 2 2 2 2 2 2 2 2 2 2 2 2 2 2 2 2 2 2 2 2 2 2 2 2 2 2 2 3 2 2 2 2 2 2 3 3 2 2 2 3 2 2 3 2 7 2 2 7 2 2 2 2 2 2 2 2 2 2 2 2 2 2 2 2 2 2 2 2 2 2 2 2 2 2 2 2 2 3 2 2 2 2 2 2 2 2 2 2 2 2 2 2 2 2 2 2 2 2 2 9 2 2 2 2 2 2 2 2 2 2 2 2 2 2 2 2 2 2 2 2 2 2 2 2 2 2 2 2 2 2 7 3 2 2 2 2 2 3 2 2 2 2 2 2 2 2 9 2 2 2 2 2 2 2 2 2 2 2 2 2 2 2 2 2 2 2 2 2 2 2 2 2 2 2 2 2 3 2 2 2 2 2 2 2 2 2 2 2 2 2 2 2 2 2 2 2 2 2 9 2 3 3 2 2 2 2 2 2 2 2 2 2 2 2 2 2 2 2 2 2 2 3 2 2 3 2 2 2 2 2 3 3 2 2 2 2 2 2 2 2 2 2 2 2 2 2 2 2 2 2 2 2 2 2 2 2 2 2 2 2 2 2 2 2 2 2 2 2 2 2 2 2 3 2 2 2 2 2 2 2 2 2 2 2 2 2 2 2 2 2 2 2 2 2 2 2 2 2 2 2 2 2 2 2 2 2 2 2 2 2 2 2 9 2 2 2 2 2 2 2 2 2 2 2 2 2 2 2 2 2 2 2 3 2 2 2 3 2 2 7 2 2 2 2 7 2 2 2 2 2 2 2 2 2 2 2 2 2 2 2 2 2 2 2 2 2 2 2 2 2 2 2 2 2 7 2 2 2 2 2 2 2 2 2 2 2 2 2 2 2 2 2 2 2 7 2 2 2 3 2 2 2 2 2 2 2 2 2 2 2 2 2 2 2 2 2 9 2 2 2 2 2 2 2 2 2 2 2 2 2 2 2 2 2 2 2 2 2 2 2 2 2 2 2 2 3 2 3 2 2 2 2 2 2 2 2 2 2 2 2 2 2 2 2 2 2 2 2 2 2 2 2 2 2 2 2 2 2 3 7 2 2 2 2 2 2 2 2 9 2 2 2 2 2 2 2 2 2 2 2 2 2 2 2 2 2 2 2 2 2 2 2 2 2 2 2 9 2 2 2 2 2 2 2 2 2 2 2 2 2 2 2 3 2 2 2 2 3 2 2 2 2 2 2 2 2 2 2 2 2 2 2 2 2 2 2 2 2 2 3 2 2 3 3 2 2 2 2 2 3 2 2 2 2 2 2 2 2 2 2 2 2 2 2 2 2 2 2 2 2 2 2 2 2 2 2 2 2 2 2 2 2 2 2 2 3 2 2 2 2 2 2 2 2 2 2 2 2 2 2 2 2 2 2 2 2 2 2 2 2 2 2 2 2 2 2 2 2 2 2 2 2 2 2 2 2 2 2 2 2 2 2 2 2 2 2 2 2 2 2 2 2 2 2 2 2 2 2 2 2 2 2 2 2 2 2 2 2 2 2 2 2 2 2 2 2 2 2 2 2 2 2 2 2 9 2 2 2 2 2 2 2 2 2 2 3 2 2 2 3 2 2 2 2 2 2 2 2 2 2 2 2 2 2 2 2 2 9 2 2 2 2 2 2 2 2 2 2 9 2 2 2 2 2 2 2 2 2 2 2 2 3 2 2 3 3 2 2 2 2 2 3 2 2 2 2 2 D >.9 2 D R G e D 3.e 9 G ,.7 2 3 2 2 2 3 >.1.1.>.e 7 2 3 2 2 2 2 2 2 2 2 2 3 5 d d 2 2 2 2 2 h f.h 7 f d 5 h f.p h f i 2 2 2 3 2 2 2 2 2 2 2 2 2 2 2 w Z 2 2 2 2 9 Z W Y w 8 2 8 Z 8 2 2 2 2 3 2 Z w 2 3 3 8 Z Y S 7 3 2 2 w C 3 2 2 2 2 3 2 ",
"2 3 2 2 2 2 3 G t t 2.1.9 2 G 6.2.6.2.2.6.>.3 2 2 7 2 2 2 2 2 2 2 8 A A A W W W Y T A w 2 2 2 2 2 2 r A A A A T T Y Y Y q 2 2 2 2 2 2 2 2 2 2 2 2 2 2 2 2 2 2 2 2 2 ,.8.J 2 t 1.6.D 2 7 3 3 2 F F 2 2 2 2 2 2 2 2 2 2 2 8 T Y Y W W W A Y Y q 2 2 2 3 2 2 w S T Y Y Y Y S T S q 2 2 2 2 2 2 2 2 2 2 2 2 2 3 2 2 2 D D 2 2 2 2 2 t 6.2.,.9 2 e J 7 2 2 2 2 2 2 2 2 2 2 8 S Y A T W W T A S w 3 3 2 2 3 2 7 S Y Y Y T A Y Y Y w 2 2 2 2 2 2 2 2 2 2 2 2 2 2 2 2 2 2 2 2 2 2 2 2 2 2 2 2 2 2 7 2 2 2 2 2 2 2 2 2 7 2 2 2 3 2 2 2 3 2 2 2 2 2 2 2 2 2 2 2 2 2 2 2 2 2 2 2 2 2 2 2 2 2 7 2 2 2 2 2 2 2 2 2 2 7 3 2 2 2 2 3 2 2 2 2 2 2 2 2 2 2 2 2 2 2 2 2 2 2 2 2 2 2 2 2 2 2 2 2 7 2 2 2 2 2 2 2 2 3 2 2 2 2 2 2 2 2 2 2 2 2 2 2 2 2 2 2 2 2 2 2 2 2 2 2 2 2 2 2 2 2 2 2 2 2 2 2 2 2 2 2 2 2 2 2 2 2 2 3 2 2 2 3 2 2 2 2 2 2 2 2 2 2 2 2 2 2 2 2 2 2 2 2 2 2 2 2 2 2 2 4 3 2 2 9 2 2 2 2 2 2 2 2 2 2 3 2 2 2 3 2 2 2 2 2 3 2 2 2 2 2 2 2 2 2 2 2 2 2 2 2 2 2 2 2 2 2 2 2 2 2 2 2 2 2 2 2 2 2 2 2 2 2 2 3 2 2 2 2 3 2 2 2 2 2 2 2 2 2 2 2 2 2 2 2 2 2 2 2 2 2 2 2 2 2 2 2 3 3 2 2 2 2 2 2 2 2 2 2 2 2 2 2 2 2 2 2 2 2 2 2 2 2 2 2 2 2 2 2 2 2 2 2 2 2 2 2 2 2 2 2 2 2 2 2 2 2 2 2 2 2 4 3 2 2 2 2 2 2 2 2 2 2 2 2 2 2 2 2 2 2 2 2 2 2 2 2 2 2 2 2 2 2 2 2 2 2 3 2 2 2 2 2 2 2 2 2 2 2 2 2 2 2 2 2 2 2 2 2 2 2 2 2 2 2 2 2 2 2 2 2 2 2 2 2 2 2 2 2 2 2 2 2 2 2 3 2 2 2 2 2 2 2 2 2 7 2 2 2 2 2 2 2 2 2 2 2 2 2 2 2 2 2 2 7 3 2 3 2 2 2 2 2 3 3 2 2 2 2 2 2 2 2 2 2 2 2 2 3 2 3 2 2 2 2 2 2 2 2 2 2 2 2 2 2 2 2 2 2 2 2 2 2 2 2 2 2 2 2 2 2 7 2 2 2 2 2 2 2 2 2 2 2 2 7 2 2 2 2 2 7 3 2 2 2 2 2 2 2 2 3 2 2 2 2 2 2 2 2 2 2 2 2 2 2 2 2 2 2 2 2 2 2 2 2 2 2 2 2 2 2 2 2 3 2 2 2 2 2 2 2 2 2 2 2 2 2 2 2 3 2 2 2 3 2 2 2 2 2 2 2 2 2 2 2 2 2 2 2 2 2 2 2 2 2 2 2 2 2 2 2 2 2 2 2 2 2 2 2 2 2 2 2 2 2 2 2 2 2 2 2 3 2 2 2 3 7 2 2 2 3 2 2 2 2 2 2 2 2 2 9 2 2 2 2 2 2 2 4 3 2 2 2 2 2 2 2 2 2 2 2 2 2 2 2 2 3 2 2 2 2 2 2 2 2 2 2 2 2 2 2 2 2 2 2 2 2 2 2 2 2 2 2 2 2 2 2 2 2 2 2 2 2 2 2 2 2 2 2 2 2 2 2 2 2 3 2 2 2 2 2 2 2 3 2 2 2 2 2 2 2 2 F ,.9 2 R ,.2.>.2.2.D 7 F >.7 3 2 2 2 2 3 >.J D R R 9 3 3 3 2 2 2 2 2 2 3 3 7 - d g 7 7 2 2 3 i f.; 2 d f 3 - d s f f i 2 2 2 2 3 2 2 2 2 3 2 2 2 2 2 e Z 3 2 2 2 e W W q 2 2 2 q Z 2 2 2 2 2 2 3 Z w 2 3 7 Z Z Z S Z 3 2 2 w C 2 2 2 2 2 2 3 ",
"2 2 2 2 3 2 3 G t t 6.1.9 1 G 6.2.6.6.4.6.3.2 2 2 2 2 2 2 7 2 2 2 2 8 q 9 Z W A q 7 9 2 2 2 2 2 2 2 3 7 7 q q 8 8 8 3 8 3 2 2 2 2 2 2 2 2 2 2 2 2 2 2 2 2 2 2 2 2 9 ,.6.G 2 0 2.6.D 2 2 2 2 2 D D 2 2 2 2 2 2 2 2 2 2 2 3 8 8 8 Z W S q 7 8 2 2 3 2 2 2 2 2 q 7 8 8 8 8 9 9 8 8 2 2 2 2 2 7 2 2 2 2 2 2 2 2 2 3 2 F D 2 2 2 2 2 t 6.6.>.0 2 e J 9 2 2 2 2 2 2 2 8 2 2 2 7 7 q w W A q 9 q 7 3 2 2 2 2 2 3 8 8 8 8 7 q 8 8 8 3 2 2 2 2 2 2 2 2 2 2 2 2 2 2 2 2 2 2 2 2 2 2 2 2 2 2 2 2 9 2 2 2 2 2 2 2 2 2 2 2 2 3 2 2 2 2 2 2 2 2 2 2 2 2 2 2 2 2 2 2 2 2 2 2 2 2 2 2 2 2 2 2 2 2 2 2 2 2 2 3 2 2 2 2 2 2 2 2 2 2 2 2 2 3 2 2 2 2 2 2 7 2 2 2 2 2 2 2 2 2 2 2 2 2 2 2 2 2 2 2 2 2 2 2 2 2 2 2 2 2 2 2 2 2 2 2 2 2 3 2 2 2 2 2 3 2 2 2 2 2 2 2 2 2 2 2 2 2 9 2 2 2 2 2 2 2 2 2 2 2 2 2 2 2 2 2 2 3 2 2 2 2 2 2 2 2 2 3 2 2 3 2 2 2 2 2 2 2 2 2 2 2 2 2 2 2 2 2 2 2 2 3 3 2 2 2 2 2 2 2 2 2 2 2 2 2 2 2 3 2 2 2 3 2 2 2 2 2 2 2 2 2 2 2 2 2 2 2 2 2 9 2 2 2 2 2 2 2 2 2 2 2 2 2 2 2 2 2 2 2 2 2 2 3 2 2 2 2 2 2 2 2 2 2 2 2 2 2 2 2 2 2 2 2 9 2 2 2 2 2 2 2 2 2 2 2 2 2 2 2 2 2 2 7 2 2 2 2 2 7 2 2 2 2 2 2 2 2 2 2 2 2 3 2 3 2 2 2 2 2 3 3 2 3 2 2 2 2 2 3 2 2 2 2 2 2 2 2 2 2 2 2 2 3 3 2 2 2 2 2 2 2 2 2 2 3 2 2 2 2 2 2 2 2 2 2 2 2 2 2 2 2 2 2 7 2 2 2 2 2 2 2 2 2 2 2 2 2 2 2 2 7 2 2 2 2 2 2 2 2 2 2 2 2 2 2 2 2 2 2 2 2 7 2 2 2 2 2 2 2 2 2 2 7 3 2 2 2 2 2 2 2 2 2 2 2 2 2 2 2 2 2 2 2 9 2 2 2 2 2 2 2 2 2 2 2 2 2 2 2 2 2 2 2 2 2 2 2 2 2 2 2 2 2 2 2 2 2 2 2 2 2 2 2 7 2 2 2 2 2 2 2 2 2 2 2 2 2 3 2 2 2 2 2 2 2 2 2 2 2 2 3 2 2 3 2 2 3 2 2 2 2 2 2 2 2 2 2 2 2 2 2 2 2 2 2 2 2 2 2 2 2 2 2 2 2 2 2 2 2 2 2 2 3 2 2 3 2 2 2 2 2 2 2 2 2 2 2 2 2 2 2 2 2 2 2 2 2 2 2 2 2 2 2 2 2 2 2 2 2 2 2 3 2 2 2 2 2 2 2 2 2 2 2 2 2 2 2 2 2 2 2 2 2 2 2 2 2 2 2 2 2 2 2 2 2 2 2 2 2 2 2 2 2 2 2 2 2 2 2 2 2 2 2 3 2 2 2 2 2 2 2 2 2 2 2 2 2 2 2 2 2 2 2 2 2 2 2 2 3 3 2 2 2 9 2 2 2 2 2 2 2 2 2 2 3 2 2 2 2 2 2 2 2 2 2 3 2 2 2 7 2 2 2 2 2 2 2 2 2 2 2 2 2 2 2 2 2 2 2 2 2 2 2 2 2 2 2 2 2 2 2 2 2 2 2 2 2 2 2 2 2 2 2 2 3 2 2 2 2 2 2 2 t ,.9 7 R R e 0 t K F 9 D 1.e 3 2 2 2 2 3 >.J 7 t >.D 7 2 2 2 2 2 2 2 2 3 3 3 2 f s 5 3 3 7 5 i s 4 7 d d 3 2 h s s f i 4 2 2 2 2 2 2 2 2 2 2 2 2 2 2 w w 3 2 2 2 q Z C 4 2 2 2 8 A 8 2 2 2 2 2 3 w S w r Z Z w 3 q A Z r w S C 3 2 2 3 2 2 2 ",
"2 2 2 3 2 2 7 J t t 2.1.9 2 G 6.6.2.6.4.6.3.2 2 2 2 2 2 2 2 2 2 2 2 2 2 2 w Y A 2 2 2 2 3 2 2 2 2 2 2 2 3 2 2 2 2 2 2 2 2 2 2 2 2 2 2 2 2 2 2 2 2 2 2 2 4 3 2 2 2 7 ,.6.J 2 0 2.6.D 1 7 3 2 3 D F 2 2 2 2 2 2 2 2 2 2 2 2 2 2 2 Z Y Z 2 3 2 3 2 2 2 2 2 2 2 2 2 2 2 2 2 2 2 2 2 2 2 2 2 2 2 2 2 2 2 2 2 2 2 2 2 2 G D 2 2 2 2 2 D 6.2.3.0 2 e J 2 2 2 2 2 2 2 2 2 2 2 2 2 2 2 w W A 7 7 2 2 2 2 2 2 3 2 3 3 2 2 2 2 2 2 2 2 2 2 2 2 2 2 2 2 2 2 2 2 2 2 2 2 2 2 2 2 2 2 2 2 2 2 2 2 2 2 2 2 2 2 2 2 2 2 2 2 2 2 2 2 2 2 2 2 2 2 2 2 2 2 2 2 7 2 2 2 2 2 2 2 2 9 2 2 2 2 2 2 2 2 2 2 2 2 2 2 3 2 2 2 2 2 2 2 2 3 2 2 2 2 2 2 2 7 2 2 2 2 7 2 2 2 2 2 2 2 2 2 2 2 2 2 2 2 2 2 2 2 7 2 2 2 2 3 2 2 2 2 2 2 2 2 2 2 2 3 3 2 2 3 2 2 2 2 2 2 2 2 2 2 2 2 2 2 2 2 2 2 2 2 2 2 2 2 2 2 2 9 2 2 2 2 2 2 2 2 2 2 3 2 2 2 2 2 2 2 2 3 2 2 2 2 2 2 2 2 2 2 2 2 2 2 2 2 2 2 2 2 2 2 2 2 2 2 2 2 2 2 2 2 2 2 2 2 2 2 2 3 2 2 2 2 2 2 2 2 2 2 2 2 2 2 2 2 2 9 2 2 2 2 2 2 2 2 3 3 2 2 2 2 2 2 2 2 2 2 2 2 2 2 2 2 2 2 3 2 2 2 2 3 3 2 2 2 3 2 2 2 2 2 2 2 2 2 2 9 2 2 2 2 2 2 2 2 2 2 2 2 2 2 2 2 2 2 2 2 2 2 2 2 2 2 2 2 2 2 2 2 2 2 2 2 2 2 2 2 2 2 2 2 2 2 2 2 2 2 2 2 2 2 2 9 2 2 2 2 2 2 2 2 2 2 2 2 2 2 2 3 3 2 2 2 2 2 2 2 2 2 2 2 2 2 2 2 2 2 2 2 2 2 2 2 2 2 2 2 2 2 2 2 2 3 2 2 2 3 2 2 2 2 7 2 2 2 2 2 2 2 2 2 2 2 2 2 2 2 2 2 2 2 2 3 3 2 2 2 3 2 2 2 2 2 2 2 2 2 7 2 2 2 2 2 2 2 2 2 2 2 2 2 2 2 2 2 2 3 2 2 3 2 2 2 2 2 2 2 2 2 2 2 2 2 2 2 2 2 2 2 2 2 2 2 2 2 2 2 2 2 2 2 2 2 2 3 2 2 7 3 2 2 2 2 2 2 2 2 2 2 2 2 2 2 2 2 2 2 2 2 2 2 2 3 2 2 2 2 2 2 2 2 2 3 2 2 2 2 2 2 2 2 2 2 2 2 2 2 2 2 2 2 2 3 2 2 2 2 3 2 2 2 2 2 2 2 2 2 2 2 2 2 2 2 2 2 2 2 2 3 3 2 3 2 2 2 2 2 2 2 2 2 2 2 2 2 2 2 2 2 2 2 2 2 3 2 2 2 2 3 2 2 3 2 2 9 2 2 2 2 2 7 2 2 2 2 2 9 2 2 2 2 2 2 2 2 2 2 2 2 2 2 2 2 2 2 2 2 3 2 2 3 2 2 2 2 2 2 3 2 2 2 2 2 2 2 2 2 2 2 2 2 2 2 2 2 2 2 2 2 2 2 2 2 2 2 2 2 2 2 2 2 2 2 2 2 2 2 2 2 2 2 2 2 2 2 2 2 2 3 2 2 2 2 2 2 2 2 2 2 2 2 2 2 2 2 2 2 9 2 2 2 2 2 2 2 2 2 2 2 2 9 3 2 2 2 2 2 2 2 2 2 2 2 2 2 2 2 2 2 2 % F ,.9 t R D 2 2 2 D R t 0 >.R 0 2 2 2 3 3 >.G 7 7 G >.e 2 0 D 9 2 2 2 2 2 2 7 7 h s f 5 7 7 i g i 8 2 f d = 3 5 d f.s i 2 3 2 2 2 2 2 2 2 2 3 2 2 2 2 w Z 3 3 3 2 r Z Z = 2 2 2 8 Z 3 2 2 2 2 3 2 w Y A T A q 2 2 3 q A Y A A Z 2 2 2 2 3 2 2 ",
"2 2 2 2 2 2 3 H t t 4.,.9 2 G 6.2.6.4.6.6.3.2 2 2 2 2 2 2 2 2 2 2 2 2 2 2 C Y Z 2 2 2 2 2 2 2 2 2 2 2 2 3 2 2 2 2 2 2 2 3 2 2 3 9 2 2 2 2 2 2 2 2 2 2 2 3 3 2 2 2 2 1.6.G 2 0 2.6.D 2 2 2 3 3 D F 2 2 2 2 2 2 2 2 2 2 2 2 2 2 2 C T Z 2 2 2 2 2 2 2 2 2 2 2 2 2 2 2 2 2 2 2 2 2 2 2 2 2 2 2 2 2 7 3 2 2 2 2 2 2 2 D D 2 2 2 2 1 D 2.6.,.0 1 e J 2 2 2 2 2 2 2 2 2 2 2 2 2 2 2 w T A 7 2 2 3 2 2 2 2 2 2 3 3 3 2 2 2 2 2 2 2 2 2 2 2 7 2 2 2 7 2 2 2 2 2 9 2 2 2 2 2 2 2 2 2 2 2 2 2 2 2 2 2 2 2 2 2 2 3 3 2 2 2 2 2 2 3 2 2 2 3 2 2 7 2 2 2 2 2 2 2 2 2 2 2 2 2 2 2 2 2 2 7 2 2 2 2 2 2 2 2 2 2 3 2 2 2 2 2 2 2 2 2 2 2 2 2 3 2 2 2 2 2 2 2 2 2 2 2 2 2 2 2 2 2 2 2 2 9 2 2 2 2 2 2 2 2 7 2 2 2 2 2 2 3 3 2 2 2 2 2 2 2 2 2 2 2 2 2 9 2 2 2 2 2 2 2 2 2 2 2 2 2 2 2 2 2 2 2 2 2 2 2 2 2 2 2 2 2 2 2 3 2 2 2 3 2 2 2 2 2 2 2 2 2 2 2 2 2 2 2 2 2 2 2 2 2 2 2 2 2 2 2 2 2 2 2 2 2 2 2 2 2 2 2 2 2 2 3 2 2 2 2 2 2 7 2 2 2 2 2 2 3 2 2 2 2 2 2 2 2 2 2 2 2 2 2 2 2 3 4 2 2 2 2 2 2 2 2 2 2 9 2 2 2 2 2 3 2 2 2 3 2 2 2 2 2 2 2 2 2 2 2 2 2 2 2 2 2 2 2 2 2 2 2 2 2 2 2 2 2 2 2 2 3 2 2 2 2 2 2 2 2 2 2 2 2 2 2 2 2 2 2 3 2 2 2 2 2 3 2 2 2 2 3 2 2 2 7 2 2 2 2 2 3 2 2 2 2 2 2 2 2 2 2 2 2 2 2 2 2 2 2 2 2 2 2 2 2 2 2 2 2 7 2 2 2 2 2 2 9 2 2 2 2 2 2 2 2 2 2 2 2 2 3 2 2 2 2 2 2 2 2 2 2 2 2 2 2 2 2 2 2 2 2 2 2 7 2 2 2 2 2 2 2 2 2 7 2 2 2 2 2 2 3 2 2 2 2 2 2 2 2 2 2 2 2 2 3 2 2 2 2 2 2 2 2 2 3 7 2 2 2 2 2 2 3 2 2 2 2 2 2 2 2 2 2 2 2 2 3 2 2 2 2 9 2 2 2 2 2 2 2 2 2 3 2 2 2 2 2 2 2 3 2 2 2 7 2 2 2 2 2 2 2 2 2 2 2 2 2 2 2 2 2 2 2 2 2 2 2 2 2 2 3 2 2 2 2 2 2 2 2 2 2 2 2 2 2 2 2 2 2 2 2 2 2 3 2 2 3 2 2 3 2 7 2 2 2 9 2 2 2 2 2 2 2 2 2 2 2 4 3 2 2 2 2 2 2 2 2 2 9 2 2 2 2 2 2 2 2 2 3 2 2 2 2 2 2 2 3 2 7 2 2 2 2 2 7 2 2 2 2 2 2 2 2 2 2 2 2 2 2 2 2 9 2 2 2 2 2 2 2 2 2 9 2 2 2 2 2 2 2 2 2 2 2 2 2 2 2 2 2 2 2 2 2 2 2 2 2 9 2 2 2 2 2 2 2 2 2 2 3 2 2 2 2 2 2 2 2 2 2 2 2 2 2 2 2 2 2 2 2 3 2 3 2 2 2 2 2 2 2 2 2 2 2 2 2 2 2 2 2 2 2 2 2 2 2 2 2 2 2 2 2 2 2 2 2 2 2 2 2 2 2 2 2 2 2 3 2 2 3 2 2 2 2 2 2 2 3 2 2 2 2 F >.0 R G 0 2 2 2 0 3.G 7 t 3.J G F D e 3 ,.G 8 3 9 >.J 0 D >.0 2 2 2 2 2 2 7 8 ; i g f f i d f ; 2 7 d d 4 2 2 h s f.i 2 2 2 2 2 2 2 3 2 2 2 2 2 2 2 w C 3 2 2 2 w W Y 8 2 2 2 q A 8 2 3 2 2 3 3 Z T Y Q Y 8 3 2 2 8 T Q T A C 2 2 3 2 2 2 2 ",
"2 2 2 2 2 2 7 G t D 6.1.0 2 J 6.4.6.6.6.6.3.3 2 2 2 2 2 2 2 3 2 2 2 2 2 2 w Z w 7 3 2 2 3 2 2 2 7 2 2 2 2 2 3 2 2 2 2 2 2 2 2 2 2 2 2 2 2 2 2 2 2 2 2 2 2 2 2 2 2 7 ,.6.R 2 e 2.4.F 7 8 8 8 3 F F 2 3 2 2 2 2 2 2 2 2 3 2 2 2 2 w Z e 2 2 2 2 2 2 2 2 3 2 2 2 2 2 2 3 2 2 3 2 2 2 2 2 2 2 2 2 2 2 2 2 2 2 2 3 2 2 G G 8 9 9 3 3 D 6.4.>.e 7 t R 7 2 2 2 2 2 2 2 2 2 2 2 2 2 2 q Z w 8 2 2 3 3 2 3 2 2 2 2 2 2 3 2 2 2 2 2 2 2 2 2 2 2 2 2 2 2 2 2 2 2 2 2 2 2 2 2 2 2 2 2 2 2 2 2 3 2 2 2 2 2 2 3 2 2 2 2 2 3 7 3 2 2 2 2 2 2 3 2 2 2 2 2 2 2 2 2 2 2 2 2 2 2 2 2 2 2 2 2 2 2 9 2 2 2 2 2 2 2 2 2 2 2 2 2 2 2 2 2 3 2 3 2 2 3 2 7 2 2 2 2 2 2 2 2 2 2 2 2 2 2 2 2 2 2 2 2 2 2 2 2 2 2 2 2 2 2 2 2 2 2 2 2 2 2 2 2 2 3 2 2 3 2 2 2 9 2 2 2 2 2 2 2 2 2 2 2 2 2 2 2 2 3 3 2 2 2 2 2 2 2 2 2 2 2 2 2 2 2 2 2 2 2 2 2 2 2 2 2 2 7 2 2 2 2 2 2 2 2 2 2 2 2 2 2 2 2 2 3 2 2 2 2 2 2 2 2 2 2 2 2 2 2 2 2 2 2 2 2 2 2 2 3 2 2 2 2 2 2 3 2 2 2 2 2 2 2 2 2 2 7 2 2 2 2 2 2 2 2 2 2 3 2 2 2 2 2 2 2 2 2 2 2 2 2 2 2 2 2 2 2 2 2 2 2 3 2 2 2 2 2 2 2 2 2 2 2 2 2 2 7 2 2 2 3 2 2 2 2 2 2 2 3 2 2 2 2 2 2 2 2 2 2 9 2 2 2 2 2 2 2 2 2 2 4 3 2 2 2 2 2 2 2 3 2 2 2 2 2 2 2 2 2 2 2 2 2 2 2 2 2 2 2 2 2 2 2 2 2 2 2 2 2 2 2 2 2 2 2 2 2 2 2 2 2 2 2 2 2 2 2 9 2 2 2 2 2 2 2 2 2 2 2 2 2 2 2 3 2 2 2 2 2 7 2 2 2 9 2 2 2 2 2 2 2 2 2 2 2 2 2 2 2 2 2 2 2 3 2 2 3 2 2 2 2 7 2 2 2 2 2 2 2 2 2 2 2 2 2 2 2 2 2 2 2 2 2 2 2 3 2 2 2 2 2 2 2 7 2 3 2 2 2 2 2 2 2 2 9 2 2 2 2 2 2 2 3 2 2 2 2 3 2 2 3 2 2 2 2 2 2 2 2 2 2 2 2 2 2 2 2 2 2 2 2 2 9 2 2 2 2 2 2 2 2 2 2 3 2 2 2 2 2 7 2 2 2 2 2 2 2 2 2 2 2 2 2 2 2 2 2 2 2 2 2 7 2 2 2 2 2 2 7 2 2 2 2 2 2 2 2 2 2 2 2 2 2 2 2 2 2 2 2 2 2 2 2 2 3 2 2 2 2 2 9 2 2 2 2 2 2 2 2 2 2 2 2 2 2 2 2 3 2 2 2 2 2 2 2 7 2 2 2 2 2 2 2 2 2 2 2 2 2 2 2 2 2 2 2 2 2 2 2 2 2 2 2 2 2 2 3 2 2 2 2 2 3 2 2 2 2 2 2 2 2 2 2 2 2 2 2 2 2 2 2 2 2 2 2 2 2 2 2 2 2 2 2 2 2 2 2 2 2 2 9 2 2 2 2 2 2 2 2 2 2 2 2 2 3 2 2 2 2 2 2 2 9 2 2 2 2 2 2 2 7 2 2 2 2 2 2 2 2 2 7 2 2 2 2 2 2 2 2 2 2 2 2 2 3 2 3 2 2 2 2 2 2 3 2 2 2 2 D ,.0 J t 7 2 2 3 7 G F 2 2 D 3.>.3.J e 8 G D 8 3 3 t G e t J 9 7 2 2 2 2 2 2 3 2 5 i d s g i ; 7 3 2 i i 3 2 2 2 i d h 2 2 2 2 2 2 2 2 2 2 2 2 2 2 2 w Z 8 8 8 8 w Y T 8 8 8 3 r S 8 3 3 2 2 2 3 Z S S T T w q 3 8 w Y T A S Z 2 2 3 2 2 2 2 ",
"2 2 2 2 2 2 3 J G G 1.1.D t R 2.2.2.2.1.4.3.7 2 2 2 3 2 2 2 2 2 2 2 2 2 2 2 2 2 2 2 2 2 2 2 2 2 3 2 2 2 2 2 2 2 2 2 2 2 2 2 2 2 2 2 9 2 2 2 2 2 2 2 2 2 2 2 2 2 2 7 ,.6.R 0 F 2.2.J t t t t t J F 2 2 2 3 2 2 2 2 2 2 2 2 2 2 2 7 2 2 2 2 2 2 3 2 2 2 2 3 2 2 2 2 2 2 2 2 2 2 2 2 2 2 2 2 2 2 2 3 2 2 2 2 2 2 2 2 F J t t e t t J 2.2.>.D t D R 7 2 3 2 2 2 2 2 2 2 2 2 8 2 2 2 2 3 2 2 2 2 2 2 2 2 2 2 2 2 2 2 2 2 2 2 2 2 3 2 2 3 2 2 3 2 2 2 2 2 2 2 2 2 2 9 2 2 2 2 2 2 2 2 2 2 2 2 2 2 2 2 2 2 2 2 2 2 2 2 2 2 2 2 2 2 2 2 2 2 2 3 2 2 2 2 2 2 2 9 2 2 2 2 2 2 2 2 2 2 2 2 2 2 3 2 2 2 2 2 2 2 2 2 2 2 3 2 2 2 2 2 2 2 2 2 2 2 2 2 2 2 2 2 2 2 2 2 2 2 2 2 2 2 2 2 2 2 2 2 2 2 2 2 2 3 3 2 2 2 3 2 7 2 2 2 3 2 2 2 2 2 2 2 2 2 2 2 2 2 2 2 2 2 2 7 2 2 2 2 2 2 3 4 2 2 2 2 2 2 2 9 2 2 2 2 2 2 2 2 2 3 7 2 2 3 3 2 2 2 2 2 2 2 2 2 2 2 2 2 9 2 2 2 2 2 2 2 2 2 2 2 2 2 2 3 2 2 2 2 2 2 9 2 2 2 2 2 2 2 2 2 2 2 2 2 2 2 2 2 2 2 2 2 2 2 2 2 2 2 2 2 2 2 2 7 2 2 2 2 2 2 2 2 2 2 2 2 2 2 2 2 2 2 2 2 2 2 2 2 2 2 2 2 2 2 2 2 2 2 2 2 2 2 2 2 7 2 2 2 2 2 2 2 2 2 2 2 2 2 2 2 2 2 2 2 2 2 2 2 2 2 2 2 2 2 2 2 2 2 2 2 2 2 3 3 2 2 2 2 2 2 2 2 2 2 2 2 2 2 2 2 2 2 2 2 2 2 2 2 2 2 2 2 2 2 2 2 2 2 3 2 2 2 3 2 2 2 2 2 2 2 3 2 2 2 2 2 2 2 2 2 2 2 2 2 2 2 2 3 2 2 2 2 2 2 2 7 2 2 2 2 2 2 2 2 2 2 2 2 2 2 2 2 2 2 2 2 2 2 2 2 2 2 2 2 2 2 2 2 2 2 2 3 2 2 2 3 2 2 2 2 2 2 2 2 2 2 2 2 2 2 2 2 2 2 2 2 2 2 2 2 3 2 2 3 2 2 2 2 7 2 2 2 2 2 2 2 2 2 2 2 2 2 2 2 2 2 2 2 2 2 2 2 2 2 2 3 2 2 2 2 2 7 2 2 2 2 2 2 2 2 2 2 2 2 2 2 2 3 2 2 2 3 3 2 2 2 2 2 3 2 2 2 2 2 2 2 2 2 2 2 2 2 2 2 2 2 2 9 2 2 3 2 2 2 2 2 2 2 2 2 3 2 2 2 2 2 2 9 2 2 2 2 2 2 2 2 2 2 2 2 2 2 2 2 2 2 2 2 2 2 2 2 2 2 2 2 2 2 2 2 2 2 2 2 2 2 2 2 2 7 2 2 2 2 2 2 2 2 2 2 2 2 2 2 2 2 3 2 2 2 2 2 2 2 2 2 2 2 2 2 2 2 2 2 2 2 2 3 2 2 2 2 2 2 2 2 2 2 2 2 2 2 2 2 2 2 2 2 2 2 2 7 2 2 2 2 2 2 2 2 2 3 2 2 2 2 2 2 2 2 2 2 2 2 2 2 2 2 2 2 2 2 2 2 2 2 2 2 2 2 2 2 2 2 2 2 2 2 7 2 2 2 2 2 2 2 2 2 2 2 2 2 2 2 2 2 2 2 2 2 7 2 2 2 2 2 2 2 2 2 2 2 2 2 2 2 2 2 2 2 D ,.9 2 7 2 2 2 2 2 2 3 2 2 2 2 2 3 2 2 2 3 2 2 3 3 2 3 2 2 2 3 3 2 2 2 2 2 2 2 2 2 2 7 2 2 8 3 2 3 2 3 2 2 2 3 2 2 2 2 2 2 2 2 2 3 3 2 2 2 2 3 2 2 2 w S w w w w w w w w w w w w A 8 3 2 2 2 2 2 Z S w w w w r w w w w w w S C 2 2 2 2 2 2 3 ",
"2 2 2 3 2 2 3 t F F F F D D D F F F F F F D 2 2 3 2 2 2 3 2 2 2 2 2 2 2 2 2 2 2 2 2 2 2 2 2 2 3 2 2 2 2 2 2 2 2 2 2 2 2 2 2 2 2 2 2 2 2 2 2 2 2 2 2 2 2 2 2 2 2 2 2 F G F F D G G F D D D D D D e 2 2 7 2 2 2 2 3 2 2 2 2 2 2 2 3 2 2 2 2 3 2 2 2 2 2 7 2 2 2 2 2 2 2 2 2 2 2 2 7 2 2 2 2 7 2 2 2 2 2 2 2 2 2 2 2 t D D D D t D D F F G D t D t 3 3 2 2 3 2 3 2 2 2 2 2 2 2 2 2 2 7 2 2 2 2 2 2 2 2 2 2 2 2 2 2 2 2 2 2 2 2 2 2 2 2 2 2 2 2 2 2 2 2 2 2 2 2 2 2 2 2 2 2 2 2 2 2 2 2 2 2 2 2 2 2 2 2 2 2 2 2 2 2 2 2 2 3 2 2 2 2 2 2 2 2 2 2 3 2 2 2 2 2 2 2 2 2 2 2 2 2 2 2 2 2 2 2 3 2 2 2 3 2 3 2 3 2 2 2 2 2 2 2 2 2 2 2 2 3 2 2 2 2 2 2 2 7 2 2 2 2 2 2 2 2 2 2 2 2 2 2 2 2 2 3 2 2 2 2 2 2 2 2 2 2 3 2 2 2 2 2 3 2 3 2 2 3 2 2 2 2 2 2 2 2 2 2 2 2 2 2 2 7 2 2 2 2 2 2 3 2 2 7 2 2 2 2 2 2 2 2 2 3 2 2 2 2 2 2 2 2 2 2 3 2 2 2 2 2 2 2 2 2 2 2 2 2 2 2 2 2 2 2 2 3 2 2 2 2 2 2 2 2 2 2 2 2 2 2 2 2 2 2 2 2 2 2 2 2 2 2 2 2 2 2 2 2 2 2 2 2 2 2 2 2 2 2 2 2 2 2 3 2 3 2 2 2 2 2 2 2 2 2 2 2 2 2 2 7 2 2 2 3 7 2 3 2 2 3 2 2 2 2 2 9 2 2 2 2 2 2 2 2 2 2 2 2 2 2 2 2 3 2 2 2 2 2 2 2 7 2 2 2 2 2 2 2 2 2 2 2 2 2 2 2 2 2 2 2 2 2 2 2 2 2 2 2 2 2 2 2 2 2 7 2 2 2 2 2 2 2 2 2 2 2 2 2 2 2 2 2 2 2 2 2 2 2 3 2 2 2 3 2 2 2 2 2 2 2 2 2 2 2 2 2 2 2 2 2 2 2 2 2 2 2 2 3 2 2 2 2 2 2 2 3 2 2 2 2 2 2 2 2 2 2 2 2 2 2 2 2 2 2 2 2 2 2 3 2 2 2 2 2 2 2 2 2 2 2 2 2 2 7 2 2 2 2 2 2 2 2 2 2 2 2 2 2 2 2 3 2 3 2 2 2 2 2 2 2 2 2 2 2 2 2 2 2 2 2 2 2 2 2 2 2 2 2 2 2 2 2 7 2 2 2 2 2 2 2 2 2 2 3 2 2 2 2 2 2 2 2 2 2 2 2 2 2 2 2 2 2 2 2 2 2 2 2 3 2 3 2 3 2 2 2 2 2 2 2 2 2 2 2 2 2 2 2 2 2 2 2 2 2 2 2 2 2 3 2 2 2 2 2 2 2 2 2 2 2 2 2 2 2 2 2 2 2 2 2 2 2 2 2 2 2 2 2 2 2 7 2 2 2 2 2 2 2 2 2 2 2 2 2 2 2 2 2 2 2 2 2 3 2 3 2 2 2 2 2 2 2 2 2 2 2 3 2 3 2 2 2 2 2 2 2 2 2 2 2 2 2 2 2 2 2 2 2 2 2 2 2 2 2 2 2 2 2 3 2 2 2 2 2 7 3 2 2 2 2 2 2 2 2 2 2 2 2 2 2 2 7 2 3 2 2 2 2 2 2 2 2 2 2 2 2 2 2 2 2 2 2 2 7 2 2 2 2 7 2 2 2 2 2 2 2 2 2 2 2 2 2 2 2 2 2 2 2 2 2 2 2 2 2 2 2 2 2 2 2 2 2 2 2 2 7 3 2 2 2 2 2 2 2 2 2 2 3 2 2 2 2 2 2 2 7 G 3.7 2 2 2 2 2 2 2 2 2 2 2 2 2 2 2 2 2 3 2 2 2 3 2 2 2 2 2 2 2 2 2 3 2 3 2 2 2 2 2 2 2 2 2 2 2 2 2 2 2 2 2 2 2 2 2 2 2 2 2 2 2 2 3 2 2 2 2 2 2 2 2 2 q w w w w w e w w w w w w w w 2 2 2 2 2 2 2 w w w w w w w w w w e w w Z w 3 2 2 2 2 2 3 ",
"2 3 2 2 2 2 3 7 7 9 7 9 9 9 7 9 9 9 7 7 7 7 2 2 2 2 3 2 2 2 3 2 2 2 2 2 2 2 2 2 2 2 2 3 2 2 2 2 2 2 2 2 3 2 2 3 2 2 2 2 2 8 2 2 2 2 2 2 2 2 2 2 2 2 2 2 2 9 2 2 2 2 9 7 7 7 9 7 8 8 9 8 7 9 9 9 7 2 2 2 2 2 2 3 2 2 2 3 2 2 3 2 2 2 2 2 2 2 2 2 2 2 2 2 2 2 2 3 2 2 2 2 2 2 2 3 2 2 2 2 2 2 2 2 2 2 2 3 2 2 2 2 2 7 8 8 9 7 9 9 9 8 8 8 9 9 9 9 3 2 2 2 2 2 2 2 2 2 2 2 2 2 2 2 2 2 2 3 2 2 3 2 2 2 2 3 2 7 2 2 2 2 2 2 2 3 2 2 2 2 2 2 2 2 2 2 2 2 2 2 2 2 2 2 9 2 2 2 2 2 2 2 2 2 2 3 2 2 2 7 2 2 2 3 2 2 2 2 2 3 2 2 3 2 2 2 2 2 3 2 2 2 2 2 2 2 2 2 2 2 2 2 2 2 2 2 2 2 2 2 2 2 2 2 7 2 2 2 2 2 2 2 2 2 2 2 2 2 3 2 3 2 2 2 2 2 2 2 2 2 2 2 2 2 2 2 2 2 2 2 2 2 2 2 2 2 2 2 2 2 7 2 2 2 2 2 2 2 2 2 2 2 3 2 2 2 2 2 2 2 2 2 2 2 2 2 2 2 2 2 2 2 2 2 2 2 2 2 2 2 2 2 2 2 2 2 2 2 2 2 2 2 2 2 2 2 2 2 2 2 2 2 2 2 2 2 2 2 2 2 2 2 2 2 2 2 2 9 2 2 2 7 2 2 2 2 2 2 2 2 2 2 2 2 2 2 2 2 2 2 2 2 2 2 2 2 2 7 2 2 2 2 2 3 2 2 2 2 2 2 2 2 2 2 2 2 2 2 2 2 2 2 2 2 2 2 2 2 2 2 2 2 2 2 2 2 2 2 2 2 2 2 2 2 2 2 2 2 2 2 2 2 2 2 2 2 2 2 2 2 2 2 2 2 2 2 2 2 2 2 2 2 2 2 3 2 2 2 7 2 2 2 3 2 2 2 2 2 2 2 2 2 2 2 2 2 2 2 2 2 2 2 2 2 2 2 2 3 3 2 2 2 2 2 2 3 3 2 2 2 2 2 2 2 2 2 2 2 2 9 2 2 2 9 2 2 2 2 2 2 2 2 2 7 2 2 2 2 2 3 7 2 2 2 2 2 2 2 2 2 2 2 2 2 2 2 3 2 2 2 2 2 2 3 2 2 2 2 2 2 2 2 2 2 2 2 2 2 2 2 2 2 2 2 2 2 3 2 2 2 3 2 2 2 3 2 2 3 2 2 3 2 2 3 2 2 2 2 2 2 2 9 2 2 2 2 2 2 2 2 2 2 2 2 2 2 2 2 2 3 2 2 3 2 2 3 2 2 2 2 2 2 2 7 2 2 2 2 2 2 2 2 2 2 3 2 2 3 3 2 2 3 2 3 2 2 2 2 2 2 2 2 2 2 2 2 2 2 2 2 2 2 2 2 2 2 2 3 2 2 2 2 2 2 2 2 2 2 2 2 2 2 2 2 7 2 2 2 2 2 2 2 2 2 2 2 2 2 2 2 2 2 2 2 3 2 2 3 2 2 2 3 2 2 2 2 2 2 2 2 2 2 2 2 2 2 2 9 7 2 2 2 3 2 2 2 2 2 2 2 2 2 2 2 2 2 2 2 2 7 2 2 2 2 2 2 2 2 2 2 2 2 2 2 2 7 2 2 2 2 2 2 2 2 2 2 2 2 2 2 2 2 2 2 2 2 2 7 2 2 7 2 2 2 3 2 2 7 2 2 2 2 2 2 2 2 2 2 2 2 2 2 2 2 2 2 2 2 2 2 2 2 2 2 2 2 2 2 2 2 2 3 2 2 2 2 2 2 2 2 9 2 2 2 2 2 2 2 2 2 2 2 3 2 3 2 2 2 2 2 2 2 2 2 2 2 2 2 2 2 2 2 2 2 2 2 2 2 4 2 2 2 2 2 2 2 2 2 2 2 2 2 2 3 2 2 2 2 2 2 2 2 2 2 2 2 2 2 F ,.3.t 7 2 2 2 2 2 2 3 2 2 2 2 2 2 2 2 2 2 2 2 2 2 2 2 2 2 2 2 2 2 2 2 2 2 2 2 2 2 2 2 2 2 2 3 2 2 2 2 2 2 2 2 2 2 2 2 2 2 2 2 2 2 2 2 2 2 2 2 3 2 2 2 2 3 8 r 8 8 8 8 7 7 7 8 8 8 8 8 2 2 2 2 2 2 2 2 7 8 8 9 8 8 8 8 8 3 7 7 7 7 2 2 2 3 2 2 2 ",
"2 2 2 2 2 2 2 2 2 2 2 2 2 2 2 2 2 2 2 2 2 2 2 2 2 2 2 2 2 3 2 2 3 2 2 2 2 2 2 3 2 2 2 2 3 2 2 2 2 2 2 3 2 3 2 2 3 2 2 3 2 2 2 2 2 2 2 2 2 2 9 2 2 2 2 2 2 2 2 2 2 2 2 2 2 2 2 2 2 2 2 2 2 2 2 2 2 2 2 2 2 2 2 2 2 2 2 2 2 2 2 2 2 3 2 2 2 2 3 7 3 2 2 2 2 2 2 2 3 2 2 2 2 2 2 3 2 2 2 2 2 2 2 2 2 2 2 2 2 3 2 2 2 2 2 2 3 2 2 2 2 2 2 2 2 2 2 2 2 2 2 2 2 2 2 2 2 2 2 2 2 2 2 3 2 2 2 2 2 2 2 2 2 2 2 3 3 2 2 2 2 2 2 3 2 2 2 2 2 2 2 2 2 2 2 2 2 2 2 2 2 2 2 2 2 2 2 2 2 2 2 2 2 2 2 2 2 2 2 2 2 2 2 3 3 2 2 2 2 2 2 3 2 2 2 2 2 2 2 2 2 2 2 2 2 2 2 2 2 2 2 2 2 2 2 2 2 2 2 2 2 2 2 2 2 2 2 2 2 2 2 2 2 7 3 2 3 2 2 3 2 2 3 2 2 2 2 2 2 2 2 2 2 3 3 2 2 2 2 2 2 2 2 2 2 2 2 2 2 2 3 2 2 2 2 2 2 2 2 2 2 2 2 2 2 7 2 2 2 2 3 2 2 2 2 2 2 2 2 2 2 2 2 7 2 2 2 2 2 3 2 2 2 3 2 2 2 2 2 2 2 2 2 2 2 7 2 2 2 2 2 2 2 2 7 2 2 2 2 2 2 2 2 2 2 2 2 2 2 2 2 2 2 2 2 7 2 2 2 2 3 2 2 2 2 2 2 2 2 2 2 2 7 2 2 2 3 2 2 2 2 2 2 3 3 2 2 2 2 9 2 2 2 2 2 2 2 9 2 2 2 2 2 2 2 2 2 2 2 2 2 2 2 2 2 2 2 2 7 2 2 2 2 7 2 2 2 2 2 2 2 2 2 2 2 2 2 2 2 2 2 2 2 2 2 2 2 2 2 2 2 2 2 2 2 2 3 2 2 2 2 2 2 2 3 2 2 2 2 2 2 2 2 2 2 2 2 2 2 2 2 2 2 2 2 2 2 3 2 2 2 2 2 7 2 2 3 2 2 2 2 2 2 2 2 2 2 2 2 2 2 2 2 2 2 2 2 2 2 2 2 2 2 2 2 7 2 2 2 2 2 2 2 2 2 2 2 2 2 2 2 2 2 2 2 2 2 2 2 2 3 2 2 2 2 2 2 2 2 7 3 2 2 2 2 2 2 2 2 2 2 2 2 2 2 3 2 2 2 2 2 2 2 2 3 2 2 2 2 2 3 2 2 2 2 2 2 2 7 2 2 2 2 7 2 2 2 2 2 2 2 2 2 2 2 2 3 2 2 2 2 3 2 3 2 2 2 2 2 2 2 2 2 2 2 2 2 2 2 2 2 2 2 2 2 2 2 3 2 2 2 2 2 2 2 2 2 3 2 2 2 2 2 2 2 2 2 2 2 2 2 2 2 2 2 2 2 2 2 2 2 2 2 2 2 2 2 2 2 2 3 2 2 2 2 2 2 2 7 9 2 2 2 2 2 2 2 2 2 2 2 2 2 2 2 2 2 2 2 2 2 2 2 2 2 2 2 2 2 2 9 2 2 2 2 2 2 2 2 2 2 2 2 2 2 2 2 2 2 2 2 2 2 9 2 2 2 2 2 2 2 2 2 7 2 2 2 2 2 2 2 2 2 2 2 2 7 2 2 2 2 2 2 2 2 4 3 2 2 2 2 2 2 9 2 2 2 2 2 2 2 2 2 2 2 2 2 2 2 2 2 3 3 7 2 2 2 2 3 2 2 2 2 2 2 2 2 2 2 2 2 2 2 2 2 2 2 2 2 2 2 2 2 2 2 2 2 2 2 2 2 2 2 2 2 2 2 7 2 2 7 2 2 2 2 2 2 2 2 2 2 2 2 7 2 2 2 2 2 2 2 2 3 2 2 2 3 2 3 2 2 2 2 2 2 2 2 2 2 2 2 2 2 2 7 3 2 2 2 2 3 2 3 2 2 2 2 3 e t t 9 2 2 2 2 2 2 2 3 2 2 2 2 2 3 3 2 2 2 2 2 2 3 2 3 2 2 2 3 2 2 2 2 2 2 2 2 2 2 2 7 2 2 3 2 2 3 2 3 2 2 2 2 2 2 2 2 2 2 2 2 2 2 2 2 2 2 2 2 2 2 2 2 2 2 2 2 2 2 2 2 2 2 2 2 2 2 3 2 2 3 2 2 2 2 2 2 2 2 2 2 2 2 2 2 2 2 2 2 2 2 2 2 3 2 2 2 2 ",
"2 2 2 2 2 2 2 2 2 2 2 2 2 2 2 2 2 2 2 2 2 2 3 2 3 2 3 2 2 2 2 2 2 2 2 2 2 2 2 2 2 2 2 2 2 2 2 2 2 2 2 2 2 2 2 2 2 2 2 2 2 2 2 2 2 2 2 2 2 2 2 2 2 2 2 2 2 2 2 7 2 2 2 2 2 2 2 2 2 2 2 2 2 2 2 2 2 3 2 2 2 2 2 2 3 2 2 2 2 2 2 3 2 2 2 2 2 2 2 2 2 2 2 2 2 2 2 2 2 2 2 2 2 2 2 2 2 2 2 2 3 2 2 2 2 2 2 3 2 2 2 2 2 2 2 2 3 2 2 2 2 2 2 2 2 2 2 3 2 2 2 2 2 2 2 2 2 2 2 2 2 2 2 2 2 2 2 2 3 2 2 2 2 2 2 2 2 2 2 2 2 2 2 2 2 3 2 2 2 2 3 2 2 3 2 2 2 2 2 2 2 2 2 2 2 2 2 2 2 2 2 2 2 2 2 7 3 2 2 2 2 2 2 2 2 2 2 2 2 2 2 7 2 2 2 2 2 3 2 2 2 2 2 2 2 2 2 2 2 2 2 2 2 2 2 2 2 2 2 2 2 2 2 2 2 2 2 2 2 7 3 2 2 2 2 2 2 2 2 2 2 2 2 2 2 2 3 2 2 3 2 2 4 3 2 2 9 2 2 2 2 2 2 2 9 2 2 2 2 2 2 2 2 2 3 2 3 2 2 2 2 2 2 2 2 2 2 2 2 2 2 2 2 2 2 2 2 2 2 2 2 2 2 2 2 2 2 2 2 2 2 2 2 2 2 2 2 2 2 2 2 2 2 7 2 2 2 2 2 2 3 2 2 3 2 2 2 3 2 2 2 2 2 2 2 2 2 2 2 2 2 2 2 2 2 2 2 2 2 2 2 2 2 2 2 2 2 2 2 2 2 2 2 2 2 2 2 7 2 2 2 2 2 2 2 2 2 7 2 2 2 2 2 2 2 2 2 2 2 2 2 2 2 2 2 2 2 2 2 2 2 2 2 2 2 9 2 2 2 2 2 2 2 2 2 3 2 2 2 2 2 2 2 2 2 7 2 2 2 2 2 2 2 2 2 2 2 2 7 2 2 2 2 7 2 2 2 2 2 2 2 2 2 2 2 2 2 2 2 2 2 2 2 2 9 2 2 2 2 2 2 2 2 2 2 2 2 2 2 2 2 2 2 2 2 2 2 2 2 2 2 2 2 2 2 2 2 2 2 2 2 2 2 2 2 2 2 3 3 2 2 2 2 2 3 2 3 2 2 2 2 2 2 2 2 2 2 2 2 2 2 2 2 2 2 2 2 2 2 2 2 7 2 2 2 2 2 2 2 2 2 2 2 2 2 2 2 2 2 2 2 2 4 2 2 2 2 2 2 2 2 2 2 2 2 2 2 2 3 2 2 2 2 2 2 2 2 2 2 2 2 2 2 2 2 2 2 9 2 2 2 2 7 2 2 2 2 2 2 2 2 2 2 2 2 2 2 2 2 7 2 2 7 2 2 2 2 2 2 2 2 2 2 2 2 2 2 2 2 2 2 2 2 2 2 2 2 2 2 3 7 2 2 2 2 2 9 2 2 2 2 2 2 2 2 2 2 3 2 3 2 3 3 2 2 2 2 2 3 2 2 2 2 2 7 2 2 2 2 2 2 2 2 2 2 2 2 2 2 3 2 2 2 2 2 2 2 2 7 2 2 2 2 3 2 2 2 2 2 2 2 2 2 2 2 2 2 2 2 2 2 2 2 2 2 2 2 2 2 2 2 2 2 2 2 2 2 7 2 2 2 2 2 2 2 2 2 3 2 2 2 2 2 2 2 2 2 2 2 2 2 2 3 2 2 2 3 3 2 2 2 2 2 2 2 2 2 2 2 2 2 2 2 2 2 2 2 2 2 2 2 2 2 2 2 2 2 2 2 2 9 2 2 2 2 2 2 2 2 9 2 2 2 2 2 2 2 2 2 2 2 2 3 2 2 2 2 2 2 2 2 2 2 2 2 2 2 2 2 2 2 2 2 2 2 2 2 2 2 2 2 2 2 2 2 2 2 2 2 2 2 2 2 2 2 2 2 2 3 3 2 2 2 7 2 2 2 2 7 2 2 2 2 3 2 2 2 2 2 2 2 2 2 2 2 2 2 2 2 2 2 2 2 2 2 2 2 2 2 2 2 2 2 2 2 2 2 2 2 2 2 2 2 7 2 2 2 2 2 2 2 2 2 2 2 2 2 2 2 2 2 2 3 2 2 2 2 2 2 2 2 3 3 2 2 2 3 2 2 3 2 3 2 2 2 3 2 2 3 2 2 2 2 2 2 2 2 2 2 2 2 3 2 2 2 2 3 2 3 2 2 2 2 2 2 2 2 2 2 2 2 2 2 2 2 2 2 2 2 2 2 3 2 2 2 2 2 2 2 ",
"2 2 7 2 2 2 2 2 2 2 2 2 2 2 2 2 2 3 2 2 2 2 3 2 2 2 2 2 2 2 2 2 2 2 2 2 2 2 2 2 2 2 2 2 2 2 2 2 2 2 2 2 2 2 2 2 2 2 2 2 2 2 2 2 2 2 2 2 2 2 2 2 2 2 2 2 2 2 2 2 2 2 2 2 2 2 2 2 2 3 2 2 2 2 2 2 2 3 2 2 3 2 2 7 2 2 2 2 2 2 2 2 2 2 2 2 2 2 2 2 2 2 2 2 2 2 2 2 2 2 2 2 2 2 2 2 2 2 2 2 2 2 2 2 2 2 2 2 2 2 2 3 2 2 2 2 2 2 2 2 2 2 2 2 2 2 2 2 2 2 2 3 2 3 2 2 3 2 2 2 2 2 2 2 2 2 2 2 2 2 2 2 2 2 2 2 2 2 2 2 7 2 2 2 2 2 2 2 2 2 2 2 2 2 2 2 3 3 2 2 2 2 2 2 2 2 2 2 2 2 2 2 2 2 2 2 2 2 2 2 2 2 2 2 2 2 2 2 2 2 2 2 2 2 2 2 2 2 2 2 4 3 2 2 2 2 2 2 2 2 2 2 9 2 2 2 2 2 2 2 2 3 2 2 2 3 3 2 2 2 2 2 2 2 2 2 2 2 2 2 2 2 2 2 2 2 3 2 2 2 2 2 2 3 2 2 2 2 2 2 2 2 2 2 2 2 2 2 2 2 3 2 2 2 2 2 2 3 2 2 2 3 2 2 3 2 2 2 2 2 2 3 2 2 2 2 2 2 2 9 2 2 2 2 2 2 7 2 2 2 2 2 3 2 2 2 7 2 2 2 2 2 2 2 2 2 2 2 2 2 2 2 2 2 2 2 2 3 2 2 2 2 2 2 2 2 2 2 2 2 2 2 2 2 2 2 2 2 2 2 2 7 2 2 2 2 7 2 2 2 2 2 2 2 2 2 2 2 2 2 2 2 2 2 2 2 2 2 2 2 2 2 2 2 2 2 2 2 2 2 2 2 2 2 2 2 7 2 2 2 2 3 2 7 2 2 2 2 2 2 2 2 2 2 2 7 2 2 2 3 2 3 2 2 3 2 2 2 2 2 2 2 2 2 2 2 2 9 2 2 2 2 2 2 2 2 2 2 2 3 2 2 2 2 2 2 2 3 2 2 2 2 2 2 2 2 9 2 2 2 2 2 2 2 3 2 2 2 2 2 2 3 2 2 2 2 2 2 2 2 2 2 2 2 2 2 2 2 2 2 2 2 2 2 2 2 2 2 2 2 2 2 3 2 2 2 2 2 2 2 3 2 2 9 2 2 2 2 2 2 2 2 2 2 2 4 3 2 3 2 2 2 2 2 2 2 3 2 2 2 2 2 2 2 2 2 2 2 2 2 2 9 3 2 2 2 2 2 2 2 2 2 2 2 2 2 2 3 2 2 2 2 2 2 2 2 2 2 2 2 2 2 2 2 2 2 2 2 2 2 2 2 3 2 2 2 2 2 2 3 2 2 2 2 2 2 2 2 2 2 2 2 2 2 2 2 2 2 2 2 2 9 2 2 2 2 2 2 2 2 2 2 2 2 2 2 2 2 2 7 2 2 2 2 7 2 2 2 9 2 2 2 2 2 2 2 2 3 2 2 2 3 2 2 2 2 7 2 2 2 2 2 2 2 2 2 2 2 2 2 2 2 2 2 2 2 2 2 2 2 2 2 2 3 2 2 3 2 2 2 2 2 2 2 2 2 2 2 2 2 2 2 2 2 2 2 2 2 2 2 2 2 2 2 2 2 2 2 2 2 2 2 2 2 2 7 2 2 2 2 2 2 2 2 2 2 2 7 2 2 3 2 2 2 2 2 2 3 3 2 2 2 2 2 2 2 2 2 2 2 2 2 2 2 2 2 2 2 2 2 2 2 7 2 2 2 2 2 2 2 2 2 2 2 2 2 2 2 2 2 2 2 2 2 2 2 2 2 2 2 2 2 2 2 7 2 2 2 2 2 2 2 2 2 2 2 2 9 2 2 2 2 2 2 2 2 2 2 2 2 2 2 2 2 2 2 2 7 9 2 2 2 2 2 2 2 2 2 7 2 2 2 2 3 2 2 2 2 2 2 2 2 2 2 2 2 2 2 2 2 2 2 2 2 2 2 2 2 2 2 2 2 2 2 7 2 2 3 2 3 2 2 2 2 2 7 2 2 2 2 2 2 2 2 2 2 2 2 2 2 2 2 2 2 2 2 2 2 3 2 2 2 2 3 2 2 3 2 2 2 2 2 2 2 2 2 2 2 2 2 2 2 2 2 2 2 2 2 2 2 2 2 2 3 2 3 3 2 2 2 2 2 2 2 2 3 3 2 2 2 2 2 2 2 2 2 2 2 2 2 2 2 2 8 2 2 2 2 2 2 2 2 2 2 2 2 2 2 2 2 2 2 3 2 2 3 2 2 2 ",
"2 2 2 2 2 2 2 2 2 2 2 2 2 2 2 2 2 2 2 2 2 2 2 2 2 3 2 2 3 2 2 2 2 2 2 2 3 2 2 2 3 2 2 7 2 2 2 2 3 2 2 2 3 2 2 3 2 2 2 3 2 2 2 2 2 2 2 2 2 2 2 2 2 2 2 2 2 2 2 2 2 2 2 2 2 2 2 2 2 2 2 2 2 2 2 2 2 2 2 2 2 2 2 2 2 2 2 3 2 2 2 2 2 2 2 3 2 2 2 2 2 2 3 2 3 2 2 2 2 2 2 3 2 2 2 2 2 2 2 2 2 2 3 2 2 2 2 2 2 2 2 2 2 2 2 3 2 2 2 2 2 2 2 2 2 2 2 2 2 2 2 2 2 2 2 2 2 2 3 2 2 2 2 3 3 2 2 2 2 2 2 3 7 2 2 2 2 2 2 2 3 2 2 2 2 2 2 3 2 2 3 2 2 2 2 2 3 4 2 2 2 2 2 2 2 2 2 2 2 9 2 2 3 2 2 2 2 2 2 3 2 7 2 2 2 2 2 2 3 2 2 2 2 2 2 3 2 2 2 2 3 3 2 2 2 2 2 2 2 2 2 2 2 2 2 2 2 2 2 2 2 7 2 2 2 2 2 2 2 2 2 2 3 2 2 3 2 2 2 2 3 2 2 3 2 2 2 2 2 2 2 2 2 2 2 2 2 2 2 2 2 2 2 2 2 2 2 2 2 2 2 2 2 2 2 2 2 7 2 2 2 2 2 2 2 2 3 2 2 2 2 2 2 2 2 2 2 2 2 2 2 2 2 2 2 2 2 2 2 2 2 2 2 2 2 2 2 2 2 2 2 2 2 2 2 2 2 2 2 2 3 2 2 2 2 2 2 2 2 2 2 2 9 2 2 2 2 2 2 2 2 2 2 2 2 2 2 7 2 2 2 2 2 2 9 2 2 2 2 2 7 2 2 2 2 2 2 2 2 3 2 2 2 2 2 2 2 3 2 2 2 2 2 2 2 2 2 2 2 2 2 2 7 2 2 2 2 2 2 2 2 2 2 2 2 2 2 2 2 2 2 2 2 2 2 2 2 2 2 2 2 2 2 2 2 2 2 2 2 2 2 2 2 2 2 2 2 2 2 2 2 2 3 2 2 2 2 2 2 2 7 3 2 2 2 2 2 2 2 2 2 2 2 2 2 2 2 2 2 2 2 2 2 2 2 2 2 2 2 2 2 7 3 2 2 2 2 2 2 3 2 2 2 2 9 2 2 2 2 2 2 2 2 2 2 2 2 2 2 2 2 2 2 2 2 2 2 2 2 2 2 2 2 2 2 2 2 2 2 2 2 2 2 2 2 2 3 3 2 2 2 2 2 2 3 2 2 2 2 2 2 2 3 2 2 2 2 2 2 2 2 2 3 3 2 2 2 2 2 3 3 2 2 3 3 2 2 2 2 2 2 7 2 2 3 2 2 2 2 2 2 2 2 2 2 2 2 2 2 2 2 2 2 2 2 3 3 2 2 2 2 3 2 2 2 2 3 2 2 2 2 2 2 2 2 2 2 2 2 2 2 2 2 2 3 2 2 3 3 2 2 3 2 3 2 2 2 2 2 2 2 2 2 2 2 2 2 2 2 2 2 2 2 2 2 2 2 2 2 2 2 2 2 2 2 2 3 2 2 2 2 2 2 2 2 2 2 2 2 2 2 9 2 2 2 2 2 2 2 3 2 7 2 2 2 2 2 2 3 2 2 2 2 2 2 2 2 2 2 2 2 2 2 2 2 2 2 2 2 7 2 2 2 2 7 2 2 2 2 2 2 2 2 2 2 2 2 2 2 2 2 2 2 2 2 3 2 2 2 2 2 2 2 2 2 2 2 2 2 2 2 2 2 2 2 2 2 2 2 2 2 2 2 2 2 2 2 2 7 2 2 2 2 2 2 2 2 3 2 3 2 2 2 2 2 2 3 2 2 2 2 2 2 2 2 2 2 2 2 2 2 2 2 2 2 2 2 2 7 2 2 2 2 2 2 2 2 2 2 2 2 2 2 2 2 2 2 2 2 2 2 2 2 2 2 2 2 2 2 2 2 2 2 2 2 2 2 2 2 2 2 2 2 2 2 2 2 2 2 2 3 2 2 2 2 2 2 2 2 2 2 2 2 2 2 2 2 3 2 2 2 2 2 2 3 2 2 2 2 2 2 2 2 2 2 2 2 2 2 2 2 3 2 2 2 2 2 2 2 3 2 2 3 2 2 2 2 2 2 2 2 2 2 7 2 2 2 2 3 2 2 2 2 2 2 3 2 2 3 2 2 2 2 3 2 2 2 2 3 2 2 3 2 2 2 2 2 2 2 2 2 2 2 3 2 2 2 2 2 2 2 2 2 2 2 2 2 3 2 2 3 2 2 2 2 2 2 2 2 2 2 2 2 2 2 3 2 2 2 2 2 2 2 2 2 2 2 2 2 "
};
